luts/Agfa_Optima_100.cube
# Generated for krafta web app
# https://www.facebook.com/krafta.visio
# Preset: AGF - Optima 100
# Color profile : sRGB Color Space Profile
LUT_3D_SIZE 6
DOMAIN_MIN 0.0 0.0 0.0
DOMAIN_MAX 1.0 1.0 1.0
0.000000 0.000000 0.000000
0.317906 0.003571 0.004242
0.512749 0.007538 0.006714
0.699580 0.028687 0.027832
0.864408 0.069184 0.067018
1.000000 0.103822 0.102968
0.000000 0.287877 0.000000
0.273198 0.273106 0.005768
0.487648 0.252720 0.025330
0.682246 0.241733 0.050752
0.847959 0.233799 0.079286
1.000000 0.235599 0.108461
0.069184 0.472694 0.069764
0.253056 0.472450 0.073182
0.463539 0.463813 0.080995
0.659449 0.447913 0.091676
0.834897 0.431098 0.111116
1.000000 0.420050 0.131044
0.112367 0.633448 0.113344
0.243229 0.631983 0.114382
0.431434 0.630243 0.119783
0.626154 0.626307 0.128634
0.809659 0.614435 0.140688
0.985046 0.603174 0.155978
0.143984 0.787320 0.145052
0.248051 0.788632 0.148013
0.417578 0.790646 0.155032
0.603113 0.791867 0.165438
0.792569 0.792691 0.179660
0.970550 0.783352 0.187411
0.192782 0.966888 0.193240
0.266758 0.963104 0.184634
0.421942 0.964202 0.192447
0.600458 0.966766 0.207553
0.787076 0.971008 0.233310
0.977630 0.977752 0.272465
0.000580 0.000122 0.332830
0.293767 0.000000 0.294469
0.494636 0.037415 0.258518
0.681758 0.072175 0.246403
0.849821 0.101381 0.241398
1.000000 0.123690 0.242130
0.035706 0.282170 0.282078
0.269566 0.269566 0.269566
0.480110 0.256474 0.256474
0.674434 0.246769 0.246708
0.842863 0.242161 0.241978
1.000000 0.240604 0.240146
0.086793 0.467506 0.253239
0.252445 0.465064 0.252323
0.455207 0.455085 0.248112
0.648585 0.441535 0.244144
0.824582 0.427680 0.243809
0.996582 0.418982 0.245701
0.122988 0.631617 0.246921
0.246738 0.630365 0.246952
0.430640 0.627436 0.247440
0.622248 0.622339 0.249241
0.805112 0.611444 0.251102
0.984100 0.603296 0.256107
0.149264 0.788724 0.249363
0.250431 0.789029 0.250553
0.418799 0.790768 0.254582
0.603357 0.791684 0.260929
0.792477 0.792630 0.269932
0.971038 0.783841 0.270726
0.187778 0.967834 0.270054
0.262882 0.964416 0.263096
0.420417 0.965454 0.268559
0.599939 0.967651 0.279423
0.786893 0.971374 0.297490
0.977935 0.978088 0.329686
0.000580 0.000000 0.523766
0.257847 0.007965 0.500572
0.470314 0.042390 0.470344
0.666346 0.071962 0.450477
0.838895 0.110842 0.432654
1.000000 0.140932 0.424353
0.064363 0.263371 0.495521
0.255283 0.255406 0.480385
0.464332 0.247929 0.464363
0.658106 0.242344 0.446296
0.831235 0.247288 0.431708
0.999176 0.247349 0.420294
0.085969 0.455146 0.455055
0.247013 0.453590 0.453590
0.445502 0.445502 0.445502
0.636469 0.436133 0.436164
0.814969 0.427802 0.427771
0.992401 0.420294 0.419959
0.137453 0.626062 0.431098
0.254154 0.625116 0.431525
0.430915 0.622492 0.430976
0.617823 0.617823 0.428687
0.800381 0.609308 0.424170
0.982544 0.602655 0.419959
0.152590 0.788235 0.415808
0.252506 0.788876 0.417121
0.420142 0.790433 0.420233
0.603693 0.791135 0.423316
0.792660 0.792721 0.429206
0.971618 0.783597 0.420600
0.157900 0.969543 0.413489
0.240635 0.966491 0.406989
0.409644 0.967163 0.409705
0.596002 0.969543 0.417700
0.786130 0.972930 0.429328
0.979461 0.979614 0.451179
0.024079 0.022217 0.679377
0.234318 0.034852 0.670985
0.442634 0.059571 0.656184
0.639155 0.080110 0.639246
0.824674 0.108339 0.623163
0.999603 0.132418 0.608789
0.085725 0.246830 0.672572
0.242679 0.242893 0.662684
0.441169 0.240116 0.650294
0.635157 0.238346 0.635248
0.818845 0.242069 0.619715
0.992187 0.240879 0.604028
0.112032 0.436713 0.639612
0.248020 0.436652 0.638025
0.433265 0.433265 0.630671
0.622004 0.428107 0.622065
0.804623 0.422400 0.610956
0.988128 0.416236 0.602838
0.139986 0.617090 0.617151
0.253056 0.616602 0.616663
0.428595 0.615259 0.615198
0.610346 0.610437 0.610407
0.795560 0.605005 0.605005
0.982605 0.598230 0.598138
0.148836 0.787869 0.598505
0.249271 0.788388 0.599145
0.416327 0.789578 0.600183
0.601373 0.790402 0.601312
0.790188 0.790249 0.602472
0.973877 0.782132 0.591638
0.034882 0.972137 0.584405
0.174136 0.969848 0.577966
0.382818 0.970672 0.579736
0.584283 0.972808 0.584405
0.782254 0.975463 0.590204
0.982238 0.982361 0.605127
0.047425 0.045991 0.830625
0.220157 0.053346 0.827604
0.416785 0.067353 0.820066
0.612482 0.085756 0.812345
0.803067 0.103029 0.803006
0.988861 0.119142 0.794064
0.088045 0.230869 0.828519
0.229648 0.229465 0.823880
0.419287 0.230198 0.818296
0.611841 0.231846 0.810178
0.800076 0.232609 0.800015
0.983886 0.231266 0.789853
0.120607 0.420203 0.810941
0.239811 0.419867 0.809720
0.417456 0.417487 0.805539
0.604578 0.413764 0.799222
0.793332 0.411170 0.793332
0.981750 0.406622 0.787961
0.129030 0.603449 0.796506
0.241398 0.603632 0.796445
0.413214 0.601923 0.794797
0.599298 0.599390 0.792416
0.789303 0.596857 0.789303
0.980255 0.590661 0.785153
0.134737 0.786374 0.786343
0.240574 0.786709 0.786770
0.411444 0.787778 0.787716
0.597528 0.788846 0.788846
0.785061 0.785153 0.785061
0.978454 0.778622 0.778531
0.011353 0.974212 0.779294
0.169955 0.972503 0.776059
0.371954 0.974182 0.775937
0.568444 0.976684 0.774350
0.774228 0.979644 0.774258
0.986664 0.986755 0.784604
0.037598 0.036408 0.993439
0.207523 0.039857 0.992554
0.400275 0.046418 0.990143
0.594995 0.058564 0.987488
0.789487 0.073915 0.985107
0.982910 0.090822 0.982879
0.046021 0.209049 0.992950
0.209171 0.208530 0.991730
0.399359 0.207523 0.988647
0.593011 0.207309 0.985382
0.785489 0.205356 0.981170
0.977417 0.201755 0.977386
0.007050 0.395850 0.988617
0.199985 0.396063 0.988495
0.394965 0.394781 0.987060
0.590112 0.392645 0.984680
0.784115 0.388098 0.981231
0.978820 0.385229 0.978790
0.000000 0.588647 0.985718
0.177584 0.587671 0.985748
0.379400 0.584375 0.985870
0.581811 0.581811 0.984222
0.781247 0.578454 0.981903
0.980438 0.576715 0.980407
0.000000 0.785336 0.983246
0.173678 0.784939 0.983368
0.376593 0.783993 0.983948
0.575036 0.781582 0.984833
0.777890 0.777951 0.985168
0.984955 0.777646 0.984955
0.000000 0.985351 0.985351
0.166567 0.984833 0.984833
0.370214 0.985382 0.985382
0.569055 0.986603 0.986603
0.774105 0.989410 0.989349
0.996490 0.996490 0.996490
