luts/Agfa_Ultra_100.cube
# Generated for krafta web app
# https://www.facebook.com/krafta.visio
# Preset: AGF - Ultra 100
# Color profile : sRGB Color Space Profile
LUT_3D_SIZE 16
DOMAIN_MIN 0.0 0.0 0.0
DOMAIN_MAX 1.0 1.0 1.0
0.000000 0.000000 0.000000
0.099275 0.000000 0.000244
0.200320 0.000000 0.000305
0.283726 0.000000 0.000366
0.353857 0.000275 0.000061
0.420905 0.000397 0.000031
0.484627 0.000000 0.000214
0.550591 0.000092 0.000061
0.614313 0.000122 0.000244
0.678126 0.000061 0.000122
0.739193 0.000061 0.000183
0.796933 0.002625 0.001984
0.853452 0.006226 0.005035
0.911315 0.009552 0.008453
0.969177 0.012604 0.010803
1.000000 0.012024 0.010285
0.000000 0.105165 0.000000
0.101778 0.101991 0.000000
0.191318 0.103090 0.000000
0.274174 0.099886 0.000000
0.346258 0.094636 0.000000
0.413916 0.088869 0.000000
0.481727 0.084443 0.000000
0.548150 0.082094 0.000000
0.611414 0.080232 0.000000
0.675746 0.078828 0.000000
0.736873 0.077943 0.000000
0.794553 0.077943 0.002533
0.850828 0.077882 0.005402
0.908873 0.078279 0.008270
0.967041 0.078798 0.010864
1.000000 0.077241 0.011200
0.000000 0.190738 0.000000
0.097597 0.186038 0.000000
0.181003 0.181003 0.000000
0.260990 0.177127 0.000000
0.335515 0.171633 0.000000
0.407416 0.167239 0.000000
0.476173 0.163027 0.000000
0.542473 0.159091 0.000000
0.606561 0.155581 0.000000
0.672114 0.153353 0.000000
0.733059 0.151064 0.000031
0.790829 0.148409 0.003449
0.846983 0.146304 0.006439
0.905821 0.144808 0.009308
0.964446 0.143740 0.010468
1.000000 0.141573 0.011505
0.000000 0.261448 0.000000
0.088838 0.258122 0.000000
0.171633 0.254612 0.000000
0.250523 0.250614 0.000000
0.324865 0.245457 0.000000
0.396490 0.240635 0.000000
0.465034 0.235569 0.000000
0.532280 0.231479 0.000000
0.598810 0.228092 0.000000
0.664424 0.225071 0.000000
0.725154 0.221286 0.002045
0.783047 0.217502 0.005097
0.840665 0.213993 0.007660
0.899016 0.211368 0.009247
0.956664 0.208499 0.009216
1.000000 0.205936 0.008484
0.000000 0.324315 0.000000
0.085023 0.323735 0.000000
0.164767 0.323430 0.000000
0.242679 0.321233 0.000000
0.317632 0.317784 0.000000
0.390082 0.313542 0.000000
0.459968 0.308843 0.000000
0.528649 0.304906 0.000000
0.595941 0.300908 0.000214
0.662318 0.297551 0.001526
0.723445 0.292790 0.004883
0.782864 0.288212 0.008087
0.842069 0.284367 0.011048
0.901579 0.281102 0.013092
0.959747 0.277592 0.013855
1.000000 0.273014 0.010101
0.000000 0.388312 0.000000
0.083436 0.389014 0.000000
0.160189 0.388952 0.000000
0.235508 0.387152 0.000397
0.308415 0.383856 0.000671
0.380133 0.380163 0.000824
0.450660 0.376654 0.002289
0.520348 0.373541 0.002472
0.588067 0.369757 0.003296
0.654200 0.365942 0.004089
0.715358 0.360418 0.007965
0.776028 0.355535 0.010590
0.835691 0.351110 0.012848
0.895476 0.347204 0.014588
0.954131 0.343267 0.013397
1.000000 0.338598 0.008728
0.004028 0.451789 0.004700
0.083040 0.452674 0.004791
0.156497 0.452491 0.004852
0.229557 0.451026 0.005066
0.301610 0.448951 0.005219
0.372930 0.446357 0.005493
0.443366 0.443458 0.005463
0.512505 0.440162 0.005310
0.579248 0.435798 0.005768
0.644434 0.431464 0.006622
0.706722 0.426032 0.010407
0.768307 0.421302 0.012665
0.828611 0.416541 0.013672
0.888792 0.412268 0.013794
0.948058 0.408057 0.012055
1.000000 0.403357 0.006012
0.006897 0.513390 0.007752
0.082185 0.515160 0.008484
0.153231 0.515892 0.008087
0.225071 0.515190 0.008515
0.296391 0.513237 0.008820
0.366003 0.510033 0.008026
0.434272 0.505913 0.006867
0.501854 0.501915 0.006714
0.568353 0.497993 0.006226
0.633509 0.493782 0.008423
0.696773 0.489082 0.011139
0.759213 0.484504 0.012543
0.820096 0.479805 0.012512
0.880400 0.475257 0.010712
0.939849 0.470710 0.006622
1.000000 0.467170 0.000336
0.007935 0.565728 0.008301
0.078096 0.565820 0.008362
0.146761 0.566522 0.009064
0.216098 0.566461 0.008820
0.285801 0.565942 0.009583
0.354742 0.564813 0.009705
0.423651 0.563348 0.009400
0.491585 0.561334 0.009491
0.559075 0.559197 0.009522
0.625788 0.556847 0.010132
0.690852 0.553491 0.012146
0.754391 0.549706 0.013642
0.816281 0.545251 0.013275
0.877104 0.540673 0.010407
0.937255 0.536034 0.004700
0.996033 0.530877 0.000000
0.010895 0.623682 0.013001
0.077974 0.622950 0.012573
0.143679 0.622736 0.011994
0.211124 0.622278 0.012421
0.278965 0.621698 0.012451
0.346838 0.620874 0.012146
0.414679 0.620142 0.011994
0.482033 0.618860 0.011566
0.549218 0.617487 0.011322
0.615534 0.615656 0.011017
0.681361 0.613458 0.010224
0.744564 0.609644 0.009613
0.806729 0.605463 0.006928
0.868803 0.601709 0.002472
0.930266 0.597864 0.000000
0.990600 0.593408 0.000000
0.011109 0.680446 0.012390
0.075502 0.680049 0.011414
0.140597 0.679591 0.012055
0.206607 0.679072 0.011566
0.273350 0.678553 0.011383
0.340124 0.677760 0.010681
0.407172 0.676936 0.009888
0.473579 0.675837 0.009339
0.539910 0.674586 0.008392
0.605676 0.672908 0.006989
0.670832 0.670985 0.005371
0.735256 0.668544 0.002472
0.798337 0.665370 0.000000
0.861112 0.662226 0.000000
0.923278 0.658808 0.000000
0.984344 0.654780 0.000000
0.003662 0.736995 0.005341
0.069368 0.736538 0.004639
0.134768 0.736202 0.003906
0.201297 0.735592 0.003418
0.267369 0.734859 0.002380
0.333623 0.733974 0.001068
0.399664 0.732998 0.000000
0.465492 0.731930 0.000000
0.531182 0.730861 0.000000
0.596429 0.729397 0.000000
0.661372 0.727840 0.000000
0.726009 0.726101 0.000000
0.790433 0.724483 0.000000
0.853910 0.722103 0.000000
0.916930 0.719448 0.000000
0.980011 0.716945 0.000000
0.000000 0.786923 0.000000
0.040681 0.787015 0.000000
0.119783 0.787625 0.000000
0.190066 0.788113 0.000000
0.258213 0.788846 0.000000
0.325383 0.789242 0.000000
0.392279 0.789822 0.000000
0.458900 0.790005 0.000000
0.525536 0.790463 0.000000
0.591760 0.790463 0.000000
0.658198 0.790677 0.000000
0.724147 0.790463 0.000000
0.790249 0.790402 0.000000
0.855100 0.789181 0.000000
0.917327 0.785519 0.000000
0.976776 0.779629 0.000000
0.000000 0.851072 0.000000
0.007782 0.848051 0.000000
0.100984 0.846738 0.000000
0.177493 0.846433 0.000000
0.248203 0.846891 0.000000
0.316777 0.847196 0.000000
0.384283 0.847623 0.000000
0.451331 0.847959 0.000000
0.518242 0.848539 0.000000
0.584314 0.848508 0.000000
0.650599 0.848631 0.000000
0.716304 0.848295 0.000000
0.782010 0.848020 0.000000
0.846738 0.846921 0.000000
0.910643 0.844968 0.000000
0.972595 0.841245 0.000000
0.000000 0.910430 0.000000
0.000000 0.907866 0.000000
0.061341 0.906432 0.000000
0.155550 0.905913 0.000000
0.232731 0.906035 0.000000
0.304509 0.906218 0.000000
0.374121 0.906706 0.000000
0.442176 0.906950 0.000000
0.509606 0.907347 0.000000
0.576318 0.907378 0.000000
0.642878 0.907469 0.000000
0.709102 0.907500 0.000000
0.775540 0.907866 0.000000
0.841489 0.907744 0.000000
0.907012 0.907164 0.000000
0.970886 0.905028 0.000000
0.000000 0.972442 0.000000
0.000000 0.970336 0.000000
0.000000 0.969207 0.000000
0.112520 0.968841 0.000000
0.207279 0.968963 0.000000
0.286351 0.969207 0.000000
0.360052 0.969726 0.000000
0.431098 0.970214 0.000000
0.500816 0.971008 0.000000
0.569604 0.971801 0.000000
0.638025 0.972778 0.000000
0.705989 0.973724 0.000000
0.774380 0.975189 0.000000
0.842527 0.976562 0.000000
0.911162 0.978332 0.000000
0.980285 0.980468 0.000000
0.000183 0.000183 0.101930
0.108614 0.000275 0.109041
0.201389 0.000183 0.107942
0.282872 0.000153 0.098116
0.351019 0.000061 0.091005
0.416846 0.000031 0.087648
0.482185 0.000305 0.085237
0.547478 0.000275 0.083467
0.610590 0.000366 0.081605
0.674800 0.000885 0.080385
0.736294 0.003510 0.079927
0.793606 0.008331 0.080201
0.849668 0.010956 0.079866
0.907408 0.013764 0.079866
0.965026 0.015412 0.079316
1.000000 0.014343 0.077089
0.000000 0.106752 0.106966
0.102235 0.102235 0.102235
0.193912 0.097414 0.097108
0.274205 0.093477 0.093263
0.345251 0.090211 0.089967
0.413001 0.087190 0.087160
0.480262 0.085359 0.085389
0.545861 0.083742 0.083558
0.609216 0.082216 0.081910
0.674586 0.080812 0.080751
0.735500 0.080995 0.080629
0.792599 0.081331 0.080476
0.848264 0.080385 0.079774
0.905913 0.080018 0.079561
0.963378 0.079591 0.079042
1.000000 0.077852 0.077028
0.000000 0.193027 0.096864
0.095003 0.188327 0.094575
0.183200 0.183169 0.091737
0.263554 0.178012 0.089967
0.337652 0.172641 0.088502
0.408484 0.168399 0.086976
0.476478 0.164187 0.085512
0.542351 0.160494 0.083680
0.607813 0.157473 0.082582
0.672786 0.155184 0.081361
0.732601 0.152316 0.080903
0.789334 0.149752 0.080507
0.845212 0.147280 0.080018
0.903288 0.145785 0.079500
0.961089 0.143862 0.078767
1.000000 0.141268 0.076417
0.000000 0.264286 0.091890
0.090761 0.260838 0.090455
0.173648 0.256779 0.089235
0.252323 0.252628 0.087465
0.327092 0.247440 0.086793
0.398596 0.242496 0.085451
0.467231 0.237736 0.084596
0.534997 0.233738 0.083497
0.601221 0.230106 0.082246
0.666163 0.226627 0.081147
0.726314 0.222477 0.080507
0.783780 0.218509 0.080323
0.841917 0.215488 0.080140
0.899870 0.212619 0.079622
0.956573 0.209140 0.077577
1.000000 0.205814 0.074617
0.000000 0.324315 0.087678
0.087404 0.323186 0.087648
0.165194 0.321080 0.086885
0.240787 0.317937 0.085634
0.313756 0.313878 0.084596
0.385382 0.309819 0.083680
0.454994 0.305852 0.082918
0.523674 0.302312 0.082002
0.590631 0.298528 0.080934
0.656733 0.295109 0.079957
0.718196 0.290806 0.080171
0.778225 0.286687 0.080446
0.838041 0.283299 0.080537
0.897734 0.280095 0.080385
0.956146 0.276707 0.078859
1.000000 0.272404 0.074922
0.004517 0.387579 0.086000
0.085847 0.387304 0.086152
0.159915 0.385840 0.085908
0.233494 0.383673 0.085145
0.306096 0.380591 0.083925
0.376989 0.377050 0.083162
0.446632 0.373327 0.082185
0.515465 0.370092 0.081239
0.582818 0.366552 0.080385
0.648707 0.362890 0.079469
0.710719 0.358129 0.080140
0.771908 0.353765 0.080507
0.831937 0.349584 0.080323
0.891569 0.345708 0.079255
0.950378 0.341741 0.077180
1.000000 0.337530 0.072786
0.008545 0.451698 0.085481
0.085420 0.451942 0.085786
0.156832 0.450874 0.085267
0.228733 0.449012 0.084474
0.300114 0.446387 0.083742
0.370611 0.443305 0.082795
0.439734 0.439796 0.081849
0.507927 0.436286 0.080781
0.574975 0.432654 0.079347
0.640406 0.428565 0.079133
0.702480 0.423407 0.079591
0.763912 0.418799 0.079866
0.824399 0.414191 0.078737
0.884550 0.410071 0.077363
0.943938 0.405890 0.074311
1.000000 0.401831 0.069642
0.009003 0.512139 0.082826
0.083436 0.512932 0.083436
0.152651 0.512413 0.083406
0.223575 0.511009 0.082551
0.293614 0.508904 0.081605
0.363104 0.506004 0.081178
0.431617 0.502586 0.080049
0.498970 0.498970 0.078798
0.565240 0.495247 0.077241
0.630243 0.491127 0.077729
0.693233 0.486519 0.077943
0.755550 0.482124 0.077913
0.816770 0.477699 0.076753
0.876921 0.473182 0.074037
0.936431 0.468666 0.069032
0.996918 0.464942 0.063020
0.008698 0.567437 0.079713
0.079164 0.567163 0.079591
0.146853 0.566766 0.079622
0.215946 0.565972 0.079225
0.285039 0.564843 0.079347
0.353857 0.563470 0.078889
0.422492 0.561944 0.078798
0.490364 0.559838 0.078157
0.557427 0.557458 0.077699
0.623713 0.554955 0.077241
0.688563 0.551598 0.077974
0.751980 0.547875 0.078035
0.813901 0.543511 0.076600
0.875120 0.539330 0.074037
0.936004 0.535210 0.069551
0.995850 0.530694 0.060639
0.012879 0.623743 0.079652
0.078462 0.623285 0.079316
0.144320 0.622736 0.079438
0.211124 0.622126 0.079072
0.278874 0.621424 0.079255
0.346441 0.620386 0.078798
0.413947 0.619135 0.078065
0.480964 0.617487 0.077424
0.547662 0.615778 0.076753
0.613642 0.613733 0.075837
0.678920 0.611322 0.074617
0.742245 0.607660 0.073793
0.804807 0.603937 0.071077
0.867338 0.600580 0.067048
0.929351 0.597162 0.060700
0.990448 0.593256 0.049928
0.012360 0.680476 0.077882
0.076051 0.680385 0.077729
0.141299 0.679866 0.077058
0.207126 0.679194 0.076692
0.273503 0.678340 0.076295
0.339879 0.677180 0.075257
0.406287 0.675837 0.074525
0.472480 0.674434 0.073579
0.538598 0.673060 0.072328
0.604089 0.671229 0.070771
0.669032 0.669123 0.069184
0.733333 0.666712 0.066499
0.796567 0.663783 0.062654
0.859556 0.660883 0.056397
0.922087 0.657801 0.046082
0.983703 0.654139 0.028168
0.002594 0.736538 0.070619
0.069306 0.736233 0.070466
0.134585 0.735683 0.069734
0.200870 0.735042 0.068910
0.266789 0.734310 0.067872
0.333257 0.733425 0.066560
0.399145 0.732509 0.065400
0.464912 0.731289 0.064088
0.530388 0.729915 0.062318
0.595392 0.728237 0.058930
0.660029 0.726375 0.056245
0.724361 0.724483 0.052583
0.788418 0.722621 0.047852
0.851682 0.720119 0.037140
0.914611 0.717433 0.020325
0.977996 0.715145 0.000000
0.000000 0.788022 0.043580
0.041474 0.788052 0.043488
0.119875 0.788449 0.044282
0.189975 0.788724 0.044739
0.257969 0.789151 0.045136
0.325322 0.789425 0.045716
0.392401 0.789944 0.046082
0.458900 0.790097 0.045716
0.525475 0.790372 0.045228
0.591516 0.790219 0.044434
0.657771 0.790311 0.043366
0.723751 0.790036 0.041474
0.789914 0.790005 0.039948
0.854795 0.788846 0.034272
0.917266 0.785428 0.014252
0.977142 0.779812 0.000000
0.000000 0.851743 0.018799
0.007568 0.848905 0.009400
0.100740 0.847623 0.005066
0.177401 0.847288 0.003479
0.248081 0.847593 0.003784
0.316686 0.847745 0.003540
0.384314 0.847959 0.002747
0.451209 0.848142 0.001099
0.517998 0.848539 0.000824
0.584039 0.848356 0.000000
0.650202 0.848356 0.000000
0.715938 0.848020 0.000000
0.781765 0.847868 0.000000
0.846708 0.846830 0.000000
0.910765 0.845060 0.000000
0.972992 0.841550 0.000000
0.000000 0.910887 0.000000
0.000000 0.908476 0.000000
0.058503 0.907195 0.000000
0.154604 0.906706 0.000000
0.232273 0.906767 0.000000
0.304173 0.906889 0.000000
0.373816 0.907256 0.000000
0.441901 0.907317 0.000000
0.509331 0.907469 0.000000
0.575982 0.907378 0.000000
0.642512 0.907439 0.000000
0.708888 0.907408 0.000000
0.775357 0.907744 0.000000
0.841398 0.907652 0.000000
0.907073 0.907225 0.000000
0.971191 0.905241 0.000000
0.000000 0.972808 0.000000
0.000000 0.970855 0.000000
0.000000 0.969757 0.000000
0.109407 0.969421 0.000000
0.205570 0.969543 0.000000
0.285405 0.969818 0.000000
0.359533 0.970275 0.000000
0.430701 0.970703 0.000000
0.500389 0.971344 0.000000
0.569238 0.972045 0.000000
0.637690 0.972900 0.000000
0.705684 0.973724 0.000000
0.773953 0.975036 0.000000
0.842161 0.976318 0.000000
0.910887 0.978119 0.000000
0.980133 0.980285 0.000000
0.000336 0.000061 0.214054
0.113405 0.000153 0.209079
0.197726 0.000122 0.198886
0.276371 0.000000 0.187808
0.345953 0.000183 0.177188
0.410773 0.000153 0.169741
0.475929 0.003601 0.165652
0.540703 0.008301 0.162142
0.604456 0.007782 0.158328
0.669764 0.008240 0.155886
0.731563 0.010742 0.153567
0.789456 0.016236 0.151858
0.846098 0.018463 0.149538
0.904936 0.020813 0.148013
0.963195 0.021698 0.146120
1.000000 0.018952 0.142916
0.000000 0.104402 0.204807
0.099336 0.098970 0.196994
0.189151 0.095064 0.189273
0.268315 0.092317 0.181460
0.338415 0.090944 0.174044
0.406622 0.091157 0.169650
0.473671 0.089754 0.165713
0.539330 0.088167 0.161929
0.604303 0.086061 0.158541
0.669917 0.084749 0.155917
0.731106 0.084779 0.153780
0.788663 0.085145 0.151736
0.845121 0.084199 0.149172
0.903593 0.084260 0.147677
0.961608 0.083314 0.145815
1.000000 0.080446 0.142550
0.000000 0.189120 0.189059
0.093721 0.184787 0.184909
0.180362 0.180362 0.180362
0.259037 0.176181 0.176181
0.332555 0.172457 0.172519
0.403174 0.169009 0.169009
0.471168 0.165225 0.165194
0.537163 0.161288 0.161349
0.603662 0.158724 0.158511
0.668696 0.155947 0.155795
0.728634 0.153689 0.153384
0.785641 0.151247 0.151034
0.842527 0.149050 0.148653
0.900969 0.147646 0.147097
0.959319 0.145418 0.144961
1.000000 0.142428 0.141970
0.000000 0.261112 0.177676
0.093507 0.257847 0.175875
0.173434 0.254185 0.173617
0.250309 0.250492 0.170901
0.323949 0.246067 0.168276
0.394995 0.241550 0.165469
0.463416 0.237186 0.162356
0.531762 0.233677 0.159640
0.597894 0.229892 0.156863
0.662745 0.226261 0.154269
0.722988 0.222690 0.151858
0.780636 0.218845 0.149966
0.839506 0.216037 0.148196
0.897612 0.212985 0.146242
0.954559 0.209628 0.143282
1.000000 0.205814 0.139498
0.010346 0.321721 0.167941
0.092134 0.320775 0.167178
0.165835 0.318883 0.166049
0.239872 0.315892 0.164401
0.312200 0.312108 0.162112
0.383062 0.308354 0.159976
0.452461 0.304570 0.157992
0.520806 0.301091 0.155795
0.587640 0.297520 0.153506
0.653559 0.294285 0.151644
0.715236 0.290166 0.150210
0.775814 0.286656 0.149081
0.836088 0.283330 0.147677
0.895995 0.280278 0.146456
0.954772 0.277012 0.144076
1.000000 0.272648 0.140108
0.012818 0.386053 0.162417
0.089876 0.385718 0.162081
0.161257 0.384344 0.161349
0.233829 0.382055 0.160403
0.305303 0.379126 0.158694
0.375769 0.375769 0.156832
0.444923 0.372137 0.154788
0.513573 0.368872 0.153262
0.580774 0.365515 0.151553
0.646418 0.361761 0.149783
0.708675 0.357305 0.148806
0.769955 0.353338 0.147799
0.830228 0.349248 0.146395
0.890074 0.345464 0.144625
0.949218 0.341588 0.141909
1.000000 0.337469 0.138094
0.014466 0.450141 0.158236
0.087861 0.450538 0.158206
0.157412 0.449561 0.157595
0.228763 0.447730 0.156832
0.299626 0.445228 0.155673
0.369757 0.442329 0.154330
0.438849 0.438880 0.152560
0.506676 0.435309 0.150820
0.573571 0.431617 0.149203
0.638697 0.427588 0.147860
0.700771 0.422614 0.146944
0.762356 0.418128 0.145968
0.822904 0.413733 0.143954
0.883207 0.409583 0.142031
0.942870 0.405554 0.139010
1.000000 0.401587 0.135073
0.011444 0.510979 0.152956
0.083864 0.511894 0.153231
0.152773 0.511376 0.152956
0.223148 0.510033 0.152560
0.293187 0.507897 0.151644
0.362341 0.505028 0.150332
0.430762 0.501610 0.148806
0.498085 0.498146 0.147402
0.564385 0.494453 0.145602
0.629206 0.490364 0.145083
0.692226 0.485786 0.144564
0.754452 0.481544 0.143191
0.815610 0.477119 0.141573
0.875853 0.472633 0.138643
0.935576 0.468177 0.134737
0.996216 0.464393 0.130129
0.009705 0.566766 0.147494
0.079622 0.566400 0.147494
0.147005 0.566003 0.147219
0.215732 0.565179 0.147005
0.284672 0.564111 0.146883
0.353491 0.562676 0.146212
0.421881 0.561151 0.145724
0.489601 0.559106 0.145174
0.556695 0.556786 0.144228
0.622980 0.554253 0.143648
0.687739 0.550927 0.143771
0.751095 0.547265 0.142977
0.812955 0.542962 0.141176
0.874449 0.538903 0.138582
0.935576 0.534966 0.135012
0.995666 0.530510 0.129091
0.014832 0.623224 0.145388
0.079164 0.622827 0.145144
0.144564 0.622339 0.144991
0.211398 0.621759 0.144778
0.279149 0.621118 0.144656
0.346471 0.620081 0.144106
0.413825 0.618738 0.143404
0.480629 0.617121 0.142916
0.547326 0.615412 0.142031
0.613184 0.613336 0.141207
0.678309 0.610834 0.139803
0.741604 0.607202 0.138460
0.804196 0.603510 0.136202
0.866850 0.600244 0.133577
0.929076 0.596887 0.129397
0.990387 0.593042 0.122286
0.014221 0.680079 0.142214
0.077760 0.680110 0.142184
0.141512 0.679713 0.141878
0.207187 0.679011 0.141543
0.273503 0.678126 0.140993
0.339940 0.676967 0.140230
0.406348 0.675654 0.139620
0.472480 0.674281 0.138705
0.538476 0.672816 0.137575
0.603815 0.670893 0.136629
0.668635 0.668727 0.134951
0.732906 0.666346 0.133181
0.796170 0.663416 0.130251
0.859312 0.660609 0.126192
0.921904 0.657588 0.120363
0.983734 0.653956 0.110719
0.003601 0.736263 0.135805
0.068696 0.735988 0.135683
0.134737 0.735470 0.135256
0.200687 0.734859 0.134798
0.266941 0.734157 0.134157
0.332952 0.733364 0.133425
0.399298 0.732418 0.132631
0.464881 0.731167 0.131472
0.530297 0.729793 0.129976
0.595209 0.728054 0.127901
0.659815 0.726192 0.125826
0.724117 0.724300 0.123629
0.788235 0.722377 0.120638
0.851499 0.719875 0.115023
0.914458 0.717159 0.106172
0.977935 0.714870 0.094148
0.000000 0.788327 0.119387
0.039521 0.788327 0.119387
0.118685 0.788632 0.119661
0.189029 0.788907 0.119692
0.257633 0.789303 0.120058
0.325017 0.789517 0.120394
0.392096 0.790036 0.120577
0.458717 0.790158 0.120455
0.525353 0.790433 0.120394
0.591455 0.790311 0.119631
0.657832 0.790433 0.119478
0.723842 0.790158 0.118257
0.790036 0.790158 0.117525
0.854887 0.788907 0.114778
0.917327 0.785397 0.103975
0.977356 0.779812 0.080354
0.000000 0.851896 0.106600
0.001129 0.849180 0.101686
0.098146 0.847990 0.099458
0.175875 0.847654 0.098421
0.247044 0.847898 0.098451
0.315953 0.848020 0.098177
0.383825 0.848203 0.097749
0.450813 0.848417 0.097353
0.517723 0.848783 0.096986
0.583978 0.848569 0.095369
0.650172 0.848569 0.093874
0.715999 0.848203 0.091310
0.781827 0.848020 0.088502
0.846799 0.846983 0.082765
0.910948 0.845151 0.073213
0.973297 0.841642 0.041962
0.000000 0.911101 0.066621
0.000000 0.908751 0.056641
0.049348 0.907500 0.051270
0.151095 0.907042 0.048402
0.230014 0.907073 0.047059
0.302708 0.907225 0.046113
0.372808 0.907591 0.045258
0.441169 0.907622 0.042542
0.508690 0.907744 0.038117
0.575586 0.907591 0.033082
0.642298 0.907652 0.027924
0.708766 0.907652 0.020294
0.775326 0.907958 0.014405
0.841489 0.907866 0.003815
0.907256 0.907439 0.000000
0.971527 0.905486 0.000000
0.000000 0.973114 0.000000
0.000000 0.971160 0.000000
0.000000 0.970092 0.000000
0.100710 0.969787 0.000000
0.201511 0.969940 0.000000
0.282689 0.970214 0.000000
0.357427 0.970642 0.000000
0.429145 0.971038 0.000000
0.499336 0.971649 0.000000
0.568444 0.972351 0.000000
0.637079 0.973205 0.000000
0.705318 0.973999 0.000000
0.773709 0.975250 0.000000
0.842039 0.976501 0.000000
0.910918 0.978302 0.000000
0.980285 0.980468 0.000000
0.000000 0.000153 0.295811
0.105501 0.000000 0.290501
0.189273 0.000000 0.280339
0.267735 0.000000 0.268833
0.338872 0.000244 0.256687
0.405982 0.000031 0.247288
0.471992 0.003571 0.240970
0.536522 0.009064 0.235782
0.600244 0.013031 0.231327
0.665217 0.013672 0.227939
0.727016 0.017823 0.224704
0.785275 0.024231 0.221775
0.842863 0.027344 0.218479
0.902373 0.030091 0.216281
0.961059 0.030060 0.213779
1.000000 0.024506 0.209751
0.000000 0.099001 0.284794
0.096162 0.096101 0.277531
0.182620 0.093172 0.269474
0.261143 0.090913 0.261265
0.333074 0.089845 0.252476
0.402564 0.090455 0.246036
0.469520 0.090394 0.240330
0.534447 0.089876 0.235386
0.600000 0.088808 0.231510
0.665400 0.087434 0.228275
0.726619 0.087190 0.224826
0.784543 0.088808 0.221530
0.842069 0.088960 0.218357
0.900999 0.088838 0.215885
0.959503 0.087312 0.212955
1.000000 0.083925 0.209384
0.000000 0.183627 0.270115
0.095155 0.180331 0.264805
0.177066 0.177279 0.259281
0.254917 0.174105 0.254734
0.327977 0.171237 0.249454
0.398291 0.168521 0.244480
0.466102 0.165377 0.239689
0.532677 0.162081 0.235233
0.599054 0.158999 0.231418
0.664118 0.156222 0.227726
0.724239 0.154482 0.224033
0.781643 0.152712 0.220615
0.839567 0.151064 0.217563
0.898558 0.149630 0.214817
0.957275 0.147433 0.212192
1.000000 0.143709 0.208530
0.000000 0.257267 0.257176
0.094270 0.254215 0.254307
0.172610 0.250980 0.251011
0.247715 0.247715 0.247715
0.320073 0.244114 0.243992
0.390692 0.240177 0.240177
0.459632 0.236240 0.236179
0.527794 0.232853 0.232700
0.593805 0.229160 0.228977
0.658778 0.225528 0.225406
0.719112 0.222446 0.222171
0.777340 0.219272 0.219059
0.836881 0.216892 0.216556
0.895354 0.214023 0.213748
0.952728 0.210361 0.210086
1.000000 0.206180 0.205753
0.012421 0.318822 0.242374
0.093568 0.317693 0.241825
0.165805 0.315801 0.240330
0.238437 0.313115 0.238376
0.309789 0.309911 0.235752
0.380285 0.306523 0.233158
0.449470 0.303014 0.230259
0.517845 0.299748 0.227512
0.584588 0.296208 0.224552
0.650385 0.292973 0.222049
0.711971 0.289372 0.219608
0.773312 0.286351 0.217807
0.833829 0.283421 0.215732
0.894041 0.280583 0.213626
0.953185 0.277256 0.210758
1.000000 0.272740 0.206394
0.016876 0.383856 0.235416
0.091279 0.383398 0.235233
0.161410 0.382116 0.234257
0.232761 0.379919 0.232761
0.303624 0.377111 0.230747
0.373907 0.373938 0.228519
0.442908 0.370489 0.226169
0.511376 0.367346 0.224033
0.578332 0.364019 0.221622
0.644038 0.360479 0.219394
0.706264 0.356451 0.217746
0.767758 0.352728 0.215854
0.828214 0.349004 0.213779
0.888365 0.345342 0.211398
0.947784 0.341497 0.208377
1.000000 0.337377 0.204257
0.014862 0.447822 0.229343
0.088136 0.448157 0.229526
0.156924 0.447272 0.229007
0.227817 0.445655 0.227970
0.298314 0.443305 0.226566
0.368292 0.440589 0.224918
0.437293 0.437324 0.222934
0.504936 0.433783 0.220676
0.571557 0.430091 0.218570
0.636652 0.426184 0.216739
0.698756 0.421546 0.215030
0.760433 0.417365 0.213230
0.821225 0.413123 0.210971
0.881712 0.409216 0.208438
0.941711 0.405249 0.205203
1.000000 0.401221 0.201205
0.011292 0.509148 0.222934
