luts/Agfa_Vista_Plus.cube
# Generated for krafta web app
# https://www.facebook.com/krafta.visio
# Preset: AGF - Vista Plus
# Color profile : sRGB Color Space Profile
LUT_3D_SIZE 16
DOMAIN_MIN 0.0 0.0 0.0
DOMAIN_MAX 1.0 1.0 1.0
0.000000 0.000000 0.000000
0.136324 0.001495 0.001526
0.271305 0.001770 0.002441
0.355871 0.002441 0.003052
0.416907 0.004089 0.004364
0.476326 0.005005 0.004486
0.528893 0.006775 0.006500
0.588891 0.010681 0.010468
0.644434 0.019196 0.018799
0.700771 0.028901 0.027832
0.754940 0.041779 0.039857
0.806699 0.054841 0.053193
0.856535 0.066499 0.064851
0.910124 0.077241 0.076936
0.964294 0.088960 0.088167
1.000000 0.096925 0.095308
0.001129 0.153231 0.000671
0.142763 0.143099 0.002014
0.247044 0.140017 0.000000
0.333379 0.129915 0.000000
0.400580 0.117800 0.000549
0.461372 0.108370 0.003021
0.523735 0.103212 0.006592
0.584680 0.101289 0.014313
0.639338 0.100282 0.021759
0.697078 0.101534 0.031891
0.751247 0.104860 0.043824
0.802670 0.109224 0.056275
0.851804 0.112795 0.066987
0.905669 0.118837 0.077638
0.960418 0.125582 0.088716
1.000000 0.130678 0.097200
0.000000 0.244053 0.000000
0.127626 0.232059 0.000000
0.220401 0.220462 0.000000
0.304753 0.210147 0.000000
0.378698 0.198825 0.000000
0.449775 0.191318 0.005585
0.514611 0.183932 0.013275
0.574945 0.178042 0.020935
0.631342 0.173068 0.028840
0.691585 0.171267 0.039307
0.745663 0.169711 0.051179
0.796811 0.168978 0.061006
0.845335 0.168399 0.069947
0.900542 0.170626 0.080842
0.955993 0.173953 0.091096
1.000000 0.176913 0.100404
0.000000 0.307469 0.000000
0.113771 0.299809 0.000000
0.201602 0.292515 0.000977
0.284672 0.284886 0.005097
0.359777 0.274784 0.011292
0.429633 0.265599 0.018494
0.493812 0.256382 0.025360
0.556359 0.249332 0.032654
0.618158 0.244266 0.040772
0.678431 0.240269 0.050019
0.732235 0.235569 0.058564
0.783230 0.231449 0.067018
0.834379 0.228428 0.074220
0.888182 0.227481 0.083101
0.940948 0.226810 0.090578
0.995514 0.227543 0.098054
0.023285 0.360113 0.023224
0.112245 0.359258 0.024323
0.192905 0.359594 0.026459
0.272831 0.355810 0.030823
0.349615 0.349676 0.034638
0.421820 0.341955 0.040833
0.488594 0.333043 0.046052
0.554131 0.325963 0.052277
0.617395 0.319493 0.058137
0.679042 0.314122 0.064576
0.733944 0.307500 0.072267
0.787594 0.301946 0.079622
0.841733 0.298283 0.087892
0.897398 0.296178 0.096407
0.950774 0.293950 0.103548
0.997803 0.289616 0.106600
0.050446 0.417670 0.050019
0.117159 0.419928 0.052857
0.188388 0.420752 0.053742
0.262272 0.417639 0.056825
0.334386 0.411566 0.058473
0.405066 0.404974 0.061372
0.474128 0.399145 0.064942
0.541894 0.393744 0.068482
0.606043 0.387366 0.072663
0.667231 0.380865 0.077546
0.722286 0.372869 0.083650
0.778012 0.366674 0.090150
0.832517 0.361578 0.095918
0.888121 0.357977 0.103212
0.942016 0.354528 0.109041
0.991882 0.349676 0.112215
0.070100 0.475929 0.069825
0.124208 0.478157 0.072206
0.186435 0.478401 0.073396
0.255192 0.476204 0.074311
0.325139 0.472572 0.075624
0.394873 0.468605 0.078309
0.464149 0.464302 0.081056
0.530999 0.458930 0.083558
0.593103 0.450752 0.085145
0.652888 0.443122 0.089540
0.710048 0.435523 0.094850
0.767239 0.429358 0.100191
0.822477 0.423438 0.104372
0.878294 0.418982 0.110018
0.932799 0.414679 0.114351
0.985168 0.409735 0.117800
0.084932 0.530785 0.084932
0.129793 0.535210 0.087465
0.187472 0.537499 0.088594
0.252445 0.536706 0.089998
0.319249 0.533532 0.091493
0.385504 0.527794 0.091279
0.449775 0.520195 0.091890
0.513420 0.513420 0.093141
0.575677 0.506706 0.095308
0.636469 0.500389 0.098360
0.695430 0.493996 0.102876
0.753567 0.488167 0.108003
0.809537 0.482124 0.111116
0.864897 0.476631 0.114473
0.919158 0.471321 0.117067
0.976745 0.468818 0.121798
0.091493 0.567041 0.092042
0.128542 0.567437 0.092226
0.178958 0.569451 0.094148
0.238499 0.570153 0.095644
0.302281 0.570214 0.098024
0.367071 0.569207 0.099641
0.432624 0.567742 0.101381
0.497993 0.565301 0.103731
0.563012 0.563073 0.106874
0.627222 0.560449 0.110658
0.689509 0.556664 0.115389
0.749752 0.552209 0.119844
0.807218 0.546563 0.123568
0.863005 0.540734 0.126314
0.917998 0.535180 0.128756
0.970214 0.528374 0.128817
0.105623 0.619806 0.105226
0.136172 0.618494 0.105013
0.180362 0.618463 0.105745
0.235477 0.618097 0.106538
0.295171 0.617670 0.108003
0.357275 0.617060 0.109926
0.421057 0.616938 0.112154
0.485176 0.615808 0.114199
0.549493 0.614832 0.117220
0.612848 0.613001 0.120363
0.675654 0.610651 0.122683
0.734615 0.605554 0.126314
0.792050 0.600092 0.128145
0.850004 0.595789 0.130678
0.907164 0.591547 0.132815
0.961334 0.585687 0.132021
0.116152 0.670558 0.115908
0.142763 0.669825 0.116091
0.184115 0.669123 0.115846
0.234806 0.668544 0.116213
0.291539 0.668177 0.117311
0.351141 0.667384 0.118563
0.412818 0.666804 0.120333
0.474647 0.665736 0.122469
0.537072 0.664668 0.124727
0.598962 0.662776 0.127199
0.660243 0.660517 0.129427
0.720577 0.657282 0.131014
0.779416 0.653437 0.133028
0.837980 0.649866 0.134615
0.895354 0.645808 0.134554
0.950195 0.640223 0.132052
0.123568 0.720882 0.123537
0.147951 0.720119 0.123476
0.185489 0.719539 0.122927
0.234012 0.718624 0.123537
0.287938 0.717464 0.123354
0.345403 0.716152 0.123873
0.404425 0.714992 0.124880
0.464637 0.713588 0.125826
0.525505 0.712581 0.127810
0.585992 0.710689 0.129122
0.646448 0.708797 0.130739
0.706508 0.706661 0.132815
0.766812 0.704860 0.135042
0.825925 0.702205 0.135836
0.884489 0.699336 0.135653
0.943328 0.696925 0.134920
0.108217 0.753597 0.108644
0.134737 0.753933 0.109560
0.174655 0.755703 0.111421
0.223453 0.757351 0.114199
0.278843 0.759731 0.117189
0.336706 0.761410 0.120333
0.397070 0.763699 0.124483
0.458198 0.765286 0.128603
0.520806 0.767575 0.133791
0.583307 0.768948 0.138216
0.646876 0.771054 0.143435
0.709865 0.772122 0.148928
0.773648 0.773770 0.155215
0.834501 0.772457 0.157687
0.889799 0.766232 0.154177
0.938415 0.754513 0.138003
0.122683 0.820432 0.122713
0.136690 0.812863 0.112459
0.170443 0.809751 0.107942
0.218570 0.809293 0.108370
0.273014 0.810880 0.111238
0.330571 0.812161 0.114015
0.389929 0.813870 0.118410
0.450599 0.815549 0.122530
0.512657 0.817960 0.127779
0.573968 0.818845 0.131930
0.636286 0.820279 0.137819
0.697749 0.820645 0.141176
0.759670 0.821256 0.146548
0.819516 0.819730 0.147982
0.877226 0.816129 0.146548
0.930205 0.808408 0.133242
0.111238 0.873228 0.111482
0.124819 0.866636 0.098360
0.158877 0.863035 0.091218
0.207858 0.861845 0.087922
0.263340 0.862425 0.090761
0.321324 0.863310 0.093751
0.381262 0.865019 0.098634
0.441566 0.866117 0.103273
0.502861 0.867643 0.108003
0.563867 0.868345 0.111574
0.625330 0.869291 0.117403
0.686915 0.870024 0.121401
0.749294 0.871641 0.128176
0.810666 0.871885 0.132326
0.870817 0.871000 0.134646
0.926543 0.865782 0.124849
0.076997 0.928008 0.078218
0.092897 0.922332 0.054871
0.134096 0.919280 0.041199
0.189242 0.918273 0.034577
0.248661 0.918639 0.038605
0.309392 0.919371 0.043427
0.371160 0.920775 0.050904
0.433021 0.922148 0.057618
0.495735 0.924254 0.067720
0.558587 0.926329 0.077546
0.621912 0.928832 0.089326
0.685298 0.931029 0.098207
0.749905 0.934600 0.112734
0.814176 0.937499 0.124147
0.879484 0.941283 0.137972
0.945220 0.945403 0.151583
0.000000 0.000275 0.136599
0.161227 0.000214 0.161898
0.274113 0.000244 0.152285
0.353765 0.000000 0.129946
0.411536 0.000061 0.117800
0.468330 0.006622 0.111482
0.525353 0.018250 0.108461
0.583551 0.027741 0.106569
0.637568 0.036500 0.106081
0.695094 0.046845 0.106783
0.749844 0.056947 0.109895
0.800534 0.066865 0.113497
0.849210 0.074556 0.116670
0.902251 0.083864 0.121736
0.955749 0.093202 0.126589
1.000000 0.098970 0.130068
0.000000 0.157626 0.158022
0.144808 0.144808 0.144808
0.250919 0.132387 0.131960
0.332555 0.123659 0.123232
0.398840 0.116854 0.116548
0.460334 0.112093 0.112184
0.522240 0.110170 0.109743
0.581109 0.109133 0.108614
0.636103 0.108370 0.108034
0.695796 0.110018 0.109285
0.749722 0.112551 0.112428
0.799649 0.115724 0.115450
0.847166 0.118227 0.117220
0.899840 0.122377 0.122103
0.952819 0.127718 0.126375
1.000000 0.131594 0.130678
0.000000 0.250401 0.135042
0.129122 0.238804 0.129397
0.226688 0.226932 0.122805
0.310765 0.214939 0.119203
0.384680 0.204562 0.116670
0.453681 0.196963 0.114870
0.516960 0.189425 0.113161
0.576196 0.183536 0.111879
0.635737 0.179324 0.111788
0.694423 0.177096 0.112856
0.745937 0.174563 0.114168
0.794553 0.172702 0.117067
0.842374 0.171298 0.119234
0.895811 0.172702 0.123354
0.949157 0.174472 0.128115
1.000000 0.175937 0.131960
0.017182 0.315465 0.127474
0.123934 0.307530 0.124117
0.208774 0.298894 0.121218
0.290196 0.290440 0.118349
0.365606 0.280735 0.116701
0.435492 0.271550 0.115846
0.500206 0.262638 0.114137
0.563836 0.255985 0.114046
0.624994 0.249973 0.114717
0.683436 0.244846 0.115236
0.735897 0.239567 0.116793
0.785702 0.234928 0.119142
0.838102 0.232242 0.122316
0.890745 0.230900 0.125551
0.941192 0.229068 0.128298
0.991943 0.227604 0.130434
0.044007 0.360906 0.120150
0.119631 0.358892 0.119448
0.193698 0.354681 0.119081
0.268589 0.348669 0.117494
0.340826 0.340948 0.115785
0.410956 0.333776 0.115297
0.477882 0.326543 0.115450
0.543420 0.320714 0.116030
0.605982 0.314580 0.116457
0.667292 0.309575 0.117494
0.723079 0.303838 0.120150
0.777981 0.299260 0.122866
0.833524 0.296239 0.126802
0.889403 0.294133 0.131136
0.943297 0.291844 0.135286
0.992859 0.288273 0.136263
0.063539 0.416846 0.121645
0.122347 0.416419 0.122103
0.187839 0.413886 0.122042
0.258610 0.409888 0.121736
0.329107 0.404425 0.120455
0.398138 0.398383 0.120180
0.465217 0.391821 0.119997
0.531151 0.386297 0.120699
0.594720 0.380346 0.121187
0.655756 0.374578 0.122499
0.712734 0.368231 0.124941
0.769406 0.363165 0.128450
0.824674 0.358404 0.131106
0.880034 0.354742 0.134463
0.934081 0.351263 0.137209
0.986450 0.347417 0.138949
0.077546 0.476326 0.127199
0.127260 0.477180 0.128237
0.187961 0.475288 0.127382
0.253910 0.471870 0.127687
0.321904 0.467262 0.126711
0.389563 0.462074 0.126894
0.456123 0.456031 0.126497
0.521019 0.450172 0.126711
0.583764 0.443824 0.126955
0.644251 0.437263 0.128511
0.701167 0.430091 0.130282
0.757931 0.424109 0.132631
0.813535 0.418555 0.134401
0.869169 0.414130 0.137423
0.923888 0.410010 0.139254
0.978576 0.406409 0.141512
0.087587 0.528466 0.130251
0.131441 0.530632 0.131441
0.185824 0.529808 0.131777
0.248081 0.527642 0.131502
0.313634 0.523888 0.131106
0.379187 0.518975 0.131136
0.443580 0.513146 0.131106
0.507012 0.507164 0.130800
0.568994 0.500877 0.131319
0.629480 0.494759 0.133028
0.687953 0.488441 0.134981
0.745846 0.482979 0.137148
0.802396 0.477516 0.138643
0.857481 0.472084 0.139803
0.911650 0.466865 0.139864
0.967834 0.463478 0.141665
0.094850 0.571099 0.131655
0.131655 0.570733 0.131838
0.180758 0.570336 0.132204
0.238651 0.569360 0.132998
0.301122 0.568017 0.133608
0.365270 0.566461 0.134218
0.430518 0.564843 0.136019
0.495277 0.562280 0.137301
0.559380 0.559472 0.138766
0.622950 0.556512 0.140719
0.684688 0.552819 0.143893
0.744686 0.548333 0.147158
0.801968 0.542840 0.148928
0.858885 0.537987 0.150515
0.915404 0.533562 0.152529
0.969848 0.528283 0.152102
0.107362 0.620356 0.138705
0.138277 0.619501 0.137972
0.182376 0.618677 0.138643
0.236210 0.617975 0.138735
0.295445 0.617456 0.139773
0.357031 0.616266 0.140597
0.419867 0.614893 0.141543
0.483009 0.612940 0.142794
0.546197 0.611231 0.144778
0.608820 0.608881 0.146395
0.670466 0.606012 0.147799
0.729641 0.601343 0.149599
0.787900 0.596826 0.151339
0.846799 0.593439 0.153017
0.905150 0.590021 0.155215
0.961059 0.585504 0.154574
0.117342 0.670924 0.145235
0.144625 0.670832 0.145449
0.185336 0.670069 0.144839
0.235599 0.669093 0.145480
0.291722 0.667903 0.145785
0.350866 0.666255 0.145602
0.411292 0.664454 0.146273
0.472419 0.662715 0.147219
0.534356 0.661372 0.148898
0.595727 0.659205 0.150332
0.656489 0.656489 0.151614
0.716274 0.653407 0.152621
0.775235 0.649897 0.153231
0.834257 0.646784 0.154421
0.892393 0.643488 0.154574
0.948608 0.638849 0.152071
0.123812 0.720027 0.148806
0.148440 0.719570 0.148318
0.185428 0.718532 0.148257
0.233188 0.717433 0.148043
0.287205 0.716304 0.148165
0.344640 0.715023 0.148379
0.403540 0.713924 0.148867
0.463661 0.712276 0.149447
0.523705 0.710475 0.150484
0.583581 0.708034 0.150301
0.643214 0.705440 0.151156
0.702663 0.702785 0.151675
0.762020 0.700282 0.152895
0.820584 0.697414 0.152255
0.878752 0.694392 0.150668
0.938201 0.692500 0.148409
0.110262 0.756466 0.136294
0.136843 0.756680 0.136660
0.175418 0.757870 0.138277
0.224216 0.758907 0.139986
0.278996 0.760555 0.142245
0.336889 0.761929 0.144533
0.397498 0.764187 0.147982
0.458412 0.765560 0.151797
0.520775 0.767514 0.155398
0.582940 0.768490 0.158999
0.646082 0.770230 0.163790
0.708980 0.771145 0.168032
0.772732 0.772854 0.173678
0.833738 0.771756 0.176486
0.889677 0.766049 0.172641
0.939269 0.755123 0.158145
0.123384 0.822080 0.146700
0.137758 0.815061 0.138003
0.171603 0.812039 0.134615
0.219089 0.811429 0.133761
0.273716 0.812650 0.136446
0.330968 0.813565 0.139010
0.390326 0.814786 0.141421
0.450690 0.816068 0.144900
0.512322 0.817960 0.149630
0.573510 0.818509 0.151980
0.635554 0.819669 0.156710
0.697169 0.820005 0.159792
0.759365 0.820890 0.164157
0.819425 0.819608 0.165835
0.877592 0.816403 0.164431
0.931121 0.809201 0.152987
0.110353 0.874388 0.135897
0.123995 0.868254 0.124514
0.159274 0.865019 0.119295
0.208042 0.863951 0.117372
0.263584 0.864378 0.118593
0.321386 0.865019 0.120882
0.381567 0.866361 0.124147
0.441749 0.867063 0.126864
0.502739 0.868009 0.130831
0.563409 0.868376 0.133059
0.624872 0.869169 0.136965
0.686488 0.869749 0.140505
0.748867 0.871366 0.146548
0.810452 0.871733 0.150637
0.871000 0.871122 0.152743
0.927245 0.866331 0.144625
0.073304 0.929015 0.106752
0.089448 0.923644 0.090059
0.131563 0.920714 0.079561
0.187625 0.919768 0.076967
0.247868 0.920195 0.078187
0.309026 0.920897 0.080995
0.370855 0.922210 0.086854
0.432898 0.923369 0.091341
0.495583 0.925078 0.097353
0.558312 0.926909 0.104097
0.621607 0.929076 0.112398
0.684749 0.930938 0.118868
0.749081 0.933989 0.129122
0.813260 0.936767 0.138888
0.878691 0.940551 0.151461
0.944671 0.944793 0.163943
0.000732 0.000000 0.297276
0.160555 0.000153 0.285985
0.258915 0.000122 0.260655
0.338384 0.000000 0.233371
0.400641 0.000183 0.211032
0.455177 0.020600 0.196841
0.512718 0.041749 0.189853
0.570459 0.052491 0.184848
0.626032 0.055848 0.179080
0.686152 0.062348 0.176761
0.741756 0.070436 0.175662
0.793332 0.079042 0.175296
0.842985 0.085237 0.173983
0.898161 0.093324 0.175814
0.952728 0.100801 0.177859
1.000000 0.104829 0.177829
0.000000 0.147555 0.276799
0.137148 0.136599 0.256992
0.238621 0.127108 0.238560
0.319158 0.121920 0.220798
0.384283 0.119448 0.205844
0.447944 0.120089 0.197482
0.509270 0.119051 0.190951
0.568658 0.117464 0.184878
0.627222 0.116640 0.180209
0.687648 0.117556 0.178256
0.742061 0.119936 0.177127
0.792782 0.122713 0.176089
0.841764 0.124422 0.174472
0.896025 0.128573 0.175814
0.949920 0.132815 0.177218
1.000000 0.135653 0.177798
0.000000 0.241123 0.241032
0.128603 0.230747 0.230655
0.220768 0.220768 0.220768
0.300969 0.212131 0.211917
0.374487 0.205142 0.205173
0.443305 0.198459 0.198978
0.506737 0.192172 0.191897
0.566491 0.185977 0.185977
0.628290 0.182834 0.182559
0.687068 0.180179 0.179934
0.738918 0.178012 0.177737
0.788113 0.175998 0.175998
0.837797 0.175113 0.174624
0.891844 0.176089 0.175906
0.946136 0.177432 0.177157
0.998840 0.178653 0.177920
0.037263 0.308995 0.218082
0.130770 0.301488 0.213901
0.208865 0.293675 0.209049
0.286229 0.286320 0.203647
0.359716 0.278172 0.199069
0.428748 0.270085 0.194217
0.493202 0.261845 0.188846
0.558099 0.256352 0.185641
0.619013 0.250553 0.182101
0.677455 0.245579 0.179202
0.730159 0.240543 0.177127
0.780179 0.236301 0.175662
0.833921 0.234226 0.175662
0.886809 0.232151 0.176120
0.937682 0.229984 0.175631
0.988922 0.227939 0.175082
0.064881 0.356023 0.198947
0.127321 0.354162 0.197726
0.195560 0.350500 0.195651
0.267308 0.344884 0.192782
0.337896 0.337804 0.188632
0.406683 0.331060 0.185611
0.473030 0.324407 0.182773
0.538170 0.318975 0.180819
0.600702 0.313176 0.178439
0.661769 0.308507 0.177157
0.717769 0.303166 0.176669
0.773953 0.299443 0.177066
0.830198 0.296635 0.178042
0.886534 0.294743 0.180026
0.941070 0.292699 0.181033
0.991638 0.289097 0.179873
0.074708 0.414282 0.191409
0.127871 0.413947 0.191806
0.190494 0.411414 0.190677
0.258732 0.407294 0.189151
0.327916 0.401740 0.186709
0.395880 0.396033 0.184482
0.462104 0.389685 0.181949
0.527703 0.384344 0.180545
0.590936 0.378759 0.179263
0.651698 0.372961 0.178470
0.709102 0.367254 0.178134
0.766201 0.362646 0.179049
0.821805 0.358129 0.179446
0.877531 0.354681 0.180270
0.932158 0.351293 0.180728
0.985504 0.347723 0.180697
0.084382 0.473701 0.189090
0.131533 0.474800 0.189578
0.189029 0.473091 0.188968
0.254276 0.469856 0.188022
0.321447 0.465370 0.186587
0.388739 0.460487 0.185000
0.454505 0.454627 0.183719
0.518914 0.448646 0.181949
0.581292 0.442115 0.180209
0.641444 0.435767 0.179751
0.698329 0.428809 0.179934
0.755276 0.423194 0.179965
0.810941 0.417914 0.179904
0.866850 0.413550 0.180850
0.922087 0.409583 0.181003
0.977630 0.406256 0.181399
0.092012 0.526574 0.185275
0.133669 0.529046 0.186709
0.186831 0.528313 0.186770
0.248905 0.526116 0.186374
0.313420 0.522271 0.185519
0.378210 0.517357 0.184085
0.442267 0.511559 0.182803
0.505669 0.505760 0.181521
0.567468 0.499611 0.180209
0.627802 0.493629 0.180636
0.686183 0.487526 0.181003
0.744076 0.482124 0.181369
0.800504 0.476692 0.181704
0.855619 0.471260 0.181094
0.909911 0.466041 0.179385
0.966430 0.462623 0.179355
0.098024 0.570214 0.181460
0.133730 0.569787 0.181369
0.181399 0.569329 0.181674
0.239139 0.568322 0.181521
0.301091 0.567041 0.181949
0.365026 0.565270 0.182406
0.429816 0.563714 0.183352
0.494423 0.561151 0.183566
0.558282 0.558312 0.184268
0.621729 0.555505 0.185458
0.683223 0.551781 0.187655
0.743069 0.547478 0.188724
0.800473 0.542016 0.189151
0.857755 0.537377 0.189517
0.914702 0.533227 0.190341
0.969665 0.528191 0.188754
0.109743 0.619684 0.183444
0.139773 0.619043 0.183413
0.183352 0.618402 0.183169
0.236973 0.617700 0.183841
0.296300 0.617212 0.184390
0.357397 0.616022 0.185122
0.420020 0.614405 0.185000
0.482673 0.612573 0.185916
0.545800 0.610803 0.187106
0.608240 0.608331 0.187839
0.669459 0.605188 0.188388
0.728573 0.600610 0.188907
0.786923 0.596216 0.189334
0.846098 0.592981 0.189975
0.904662 0.589837 0.190494
0.961028 0.585382 0.189273
0.119722 0.670497 0.186557
0.146670 0.670619 0.186465
0.186404 0.670008 0.186893
0.236576 0.669062 0.186374
0.292454 0.667750 0.186679
0.351171 0.666163 0.186526
0.411566 0.664485 0.186709
0.472633 0.662776 0.187076
0.534295 0.661128 0.187655
0.595361 0.658717 0.188205
0.655787 0.655909 0.188937
0.715694 0.652735 0.189090
0.774594 0.649287 0.188937
0.833799 0.646418 0.189120
0.892271 0.643275 0.188266
0.948791 0.638758 0.185397
0.123903 0.719692 0.186648
0.148684 0.719295 0.186587
0.185885 0.718318 0.186130
0.234012 0.717281 0.185672
0.287694 0.716335 0.185885
0.344884 0.715175 0.186007
0.403998 0.714015 0.186282
0.463691 0.712276 0.186191
0.523705 0.710384 0.186374
0.583520 0.707881 0.186282
0.643091 0.705165 0.186465
0.702449 0.702449 0.186160
0.761654 0.699977 0.186801
0.820218 0.697047 0.185458
0.878447 0.693904 0.182345
0.938048 0.692073 0.179934
0.109377 0.757473 0.173587
0.136202 0.757595 0.173770
0.174655 0.758602 0.175204
0.223880 0.759579 0.176333
0.278752 0.761166 0.178531
0.336736 0.762478 0.180728
0.397192 0.764614 0.183597
0.458442 0.765927 0.185977
0.520867 0.767849 0.189822
0.583124 0.768887 0.192630
0.646357 0.770626 0.196963
0.709377 0.771603 0.200626
0.773281 0.773342 0.205112
0.834012 0.772000 0.207187
0.889891 0.766171 0.202945
0.939727 0.755367 0.188388
0.120912 0.822629 0.181308
0.135409 0.815885 0.173556
0.170504 0.813046 0.170321
0.218235 0.812467 0.169894
0.273045 0.813565 0.171725
0.330419 0.814359 0.173831
0.390021 0.815549 0.175631
0.450660 0.816800 0.178561
0.512413 0.818662 0.182254
0.573785 0.819150 0.185122
0.635828 0.820249 0.188540
0.697444 0.820523 0.191135
0.759670 0.821317 0.195132
0.819821 0.819974 0.196017
0.877928 0.816678 0.193973
0.931792 0.809537 0.182742
0.104158 0.874907 0.169375
0.118715 0.868925 0.159945
0.154788 0.865843 0.155001
0.205203 0.864775 0.153811
0.261479 0.865202 0.154757
0.320073 0.865873 0.156649
0.380682 0.867247 0.159396
0.441077 0.867887 0.162051
0.502129 0.868650 0.164065
0.563134 0.868956 0.166262
0.624781 0.869749 0.169284
0.686580 0.870329 0.172213
0.749172 0.871855 0.177432
0.810819 0.872251 0.180179
0.871519 0.871672 0.181735
0.927947 0.866880 0.174594
0.057191 0.929717 0.143160
0.075227 0.924407 0.130129
0.122683 0.921508 0.122774
0.181521 0.920623 0.120760
0.243931 0.921141 0.122377
0.306004 0.921874 0.123842
0.368780 0.923064 0.127687
0.431189 0.924163 0.130587
0.494423 0.925780 0.135378
0.557519 0.927611 0.140444
0.621149 0.929747 0.146670
0.684504 0.931579 0.151583
0.749020 0.934508 0.160586
0.813352 0.937224 0.168124
0.878904 0.941009 0.178622
0.945098 0.945220 0.189792
0.000763 0.000000 0.383856
0.140017 0.000153 0.370886
0.237003 0.000214 0.346410
0.319188 0.000000 0.320012
0.386053 0.000122 0.294713
0.445777 0.022400 0.276249
0.505089 0.041077 0.264561
0.562493 0.054780 0.255863
0.618921 0.063905 0.248966
0.678645 0.071382 0.245029
0.734310 0.079774 0.241825
0.786618 0.088594 0.238560
0.838102 0.094423 0.235843
0.894408 0.101411 0.235599
0.949493 0.107759 0.235111
1.000000 0.110048 0.232822
0.000000 0.136507 0.359380
0.129244 0.129366 0.341314
0.223331 0.123171 0.322515
0.304326 0.118379 0.304417
0.373693 0.116396 0.286625
0.440223 0.118379 0.275120
0.501518 0.119265 0.264500
0.559716 0.119631 0.256138
0.619898 0.120851 0.250401
0.680079 0.122011 0.246708
0.734646 0.125093 0.242649
0.786007 0.128420 0.239200
0.837156 0.130617 0.235996
0.892149 0.134463 0.235233
0.946715 0.137545 0.234318
0.999512 0.139681 0.232883
0.016144 0.228855 0.326970
0.130739 0.221134 0.314397
0.213840 0.213718 0.302068
0.293187 0.207645 0.293156
0.366094 0.201968 0.282994
0.433936 0.197086 0.274022
0.497292 0.191836 0.264988
0.558587 0.187442 0.257572
0.620233 0.184176 0.252323
0.679377 0.181582 0.247074
0.731655 0.180117 0.242466
0.781552 0.178622 0.238132
0.833371 0.178561 0.235355
0.888182 0.179507 0.234134
0.943084 0.180362 0.233433
0.996429 0.180575 0.232334
0.046052 0.301061 0.300969
0.130220 0.294499 0.294560
0.206241 0.287297 0.287510
0.280980 0.280980 0.280980
0.352605 0.274266 0.274052
0.420844 0.267002 0.267094
0.486427 0.260380 0.260349
0.551080 0.255222 0.255131
0.611902 0.249516 0.249729
0.670527 0.245151 0.244846
0.723751 0.240879 0.240452
0.775051 0.237095 0.237186
0.829923 0.235843 0.235599
0.883330 0.233982 0.233677
0.934874 0.231235 0.230686
0.986725 0.228550 0.228275
0.066102 0.350347 0.271794
0.128115 0.348363 0.270634
0.194583 0.344610 0.268070
0.264317 0.339696 0.264530
0.333562 0.333654 0.259739
0.401770 0.327855 0.255375
0.467872 0.321752 0.250889
0.533135 0.316777 0.247135
0.595361 0.311376 0.243412
0.656367 0.306859 0.240543
0.712459 0.302373 0.237949
0.770138 0.299626 0.237339
0.826902 0.297429 0.236790
0.883574 0.295689 0.236515
0.938567 0.293645 0.235752
0.989960 0.289494 0.232609
0.079408 0.410498 0.261509
0.130495 0.409979 0.261601
0.190677 0.407477 0.259983
0.257420 0.403449 0.257603
0.325292 0.398322 0.254093
0.392950 0.392798 0.250919
0.458778 0.386999 0.247349
0.523888 0.381872 0.244877
0.586877 0.376593 0.241672
0.647700 0.371405 0.239292
0.705318 0.366247 0.237919
0.762753 0.362097 0.237095
0.818814 0.357946 0.235874
0.874907 0.354681 0.235416
0.929961 0.351354 0.234012
0.984222 0.347906 0.232364
0.087465 0.469520 0.254734
0.133181 0.470466 0.255375
0.189029 0.469154 0.254582
0.252995 0.466224 0.253117
0.319341 0.462104 0.251041
0.386328 0.457435 0.248905
0.451972 0.452064 0.246220
0.515831 0.446113 0.243442
0.577844 0.439765 0.240604
0.637964 0.433722 0.238834
0.695094 0.427497 0.237217
0.752255 0.422187 0.236118
0.808286 0.417212 0.234745
0.864591 0.413092 0.233677
0.920317 0.409155 0.232395
0.976501 0.405921 0.231357
0.092836 0.523552 0.247745
