luts/Agfa_Portrait_160.cube
# Generated for krafta web app
# https://www.facebook.com/krafta.visio
# Preset: AGF - Portrait 160
# Color profile : sRGB Color Space Profile
LUT_3D_SIZE 6
DOMAIN_MIN 0.0 0.0 0.0
DOMAIN_MAX 1.0 1.0 1.0
0.000000 0.000000 0.000000
0.283635 0.003967 0.003906
0.482612 0.008637 0.007660
0.674372 0.026490 0.026490
0.848692 0.063874 0.062562
1.000000 0.099947 0.098970
0.001068 0.264652 0.001556
0.254917 0.254826 0.007324
0.465431 0.240360 0.023285
0.662043 0.233433 0.046784
0.836393 0.229221 0.074769
1.000000 0.233921 0.106569
0.063569 0.455238 0.063691
0.242374 0.455085 0.066590
0.449042 0.449165 0.075135
0.645991 0.438117 0.086793
0.826658 0.426001 0.106447
1.000000 0.419257 0.130159
0.109468 0.626673 0.108949
0.239567 0.625727 0.110842
0.426825 0.624537 0.116335
0.621698 0.621820 0.125765
0.808133 0.613214 0.139193
0.987793 0.605249 0.158602
0.146578 0.788937 0.146670
0.249638 0.790433 0.149599
0.419226 0.792813 0.157595
0.605524 0.794675 0.168795
0.796231 0.796353 0.184298
0.975860 0.788235 0.195987
0.207523 0.972259 0.207797
0.277531 0.968719 0.199435
0.429694 0.969848 0.207645
0.607050 0.972381 0.224002
0.792905 0.976349 0.250462
0.982025 0.982147 0.290227
0.000336 0.000153 0.293339
0.268254 0.000214 0.268223
0.469856 0.030579 0.243687
0.660945 0.065949 0.237308
0.837461 0.093935 0.235355
1.000000 0.119417 0.239261
0.026368 0.260685 0.260838
0.252262 0.252262 0.252262
0.459724 0.243809 0.243809
0.656184 0.238163 0.237980
0.832242 0.237003 0.236454
1.000000 0.239078 0.238682
0.079927 0.451301 0.243046
0.242710 0.449775 0.242679
0.442908 0.443000 0.240452
0.637751 0.433570 0.238529
0.818753 0.423865 0.240604
0.996796 0.419104 0.245548
0.117678 0.625360 0.242893
0.242679 0.624475 0.243229
0.426612 0.622400 0.244236
0.618799 0.618891 0.246891
0.804623 0.611078 0.250858
0.986969 0.605585 0.258946
0.152071 0.790524 0.251225
0.252171 0.791012 0.252384
0.420630 0.793057 0.257084
0.606012 0.794614 0.263981
0.796323 0.796323 0.274205
0.976349 0.788815 0.278538
0.205692 0.973175 0.282444
0.275944 0.969940 0.276036
0.429267 0.971038 0.281926
0.607019 0.973205 0.293889
0.792996 0.976654 0.313298
0.982238 0.982391 0.345861
0.000549 0.000000 0.488899
0.241947 0.007599 0.473060
0.452064 0.036316 0.452186
0.649714 0.066163 0.438666
0.828946 0.103517 0.426459
1.000000 0.135805 0.421820
0.054688 0.247654 0.469764
0.242405 0.242344 0.459388
0.448157 0.238010 0.448249
0.644038 0.235416 0.435981
0.823331 0.241642 0.425940
0.998413 0.246220 0.419501
0.080812 0.442390 0.442298
0.239506 0.441321 0.441260
0.435889 0.435889 0.435889
0.628595 0.429664 0.429664
0.811307 0.424689 0.424475
0.993256 0.421057 0.420844
0.131594 0.621118 0.426947
0.249760 0.620447 0.427405
0.427405 0.618647 0.427649
0.615442 0.615503 0.426551
0.800870 0.609766 0.424537
0.985504 0.605737 0.423774
0.158267 0.790463 0.418341
0.256260 0.791257 0.419898
0.423407 0.793088 0.423255
0.607080 0.794430 0.427527
0.796384 0.796475 0.434333
0.976684 0.789029 0.429145
0.188388 0.974701 0.424903
0.261509 0.971832 0.419104
0.422034 0.972534 0.422034
0.604700 0.974884 0.430762
0.792721 0.977996 0.442939
0.983551 0.983703 0.464485
0.019257 0.017639 0.658747
0.226047 0.028107 0.652613
0.432105 0.051453 0.641749
0.629389 0.074189 0.629450
0.818173 0.102388 0.617975
0.998627 0.131014 0.608057
0.072694 0.236240 0.653925
0.233677 0.233616 0.646601
0.431464 0.232639 0.637568
0.626642 0.232761 0.626673
0.813870 0.238285 0.615595
0.992920 0.241764 0.604639
0.102541 0.428870 0.629999
0.240330 0.429084 0.628870
0.426947 0.426978 0.623560
0.617456 0.423835 0.617487
0.803403 0.421149 0.609827
0.989685 0.418769 0.604669
0.136355 0.614313 0.614374
0.249821 0.614069 0.614008
0.426398 0.613275 0.613153
0.609979 0.610101 0.610040
0.797238 0.606836 0.606775
0.985626 0.602564 0.602380
0.159121 0.790860 0.601831
0.256168 0.791470 0.602533
0.421393 0.792874 0.603967
0.605890 0.794186 0.605951
0.794705 0.794797 0.607996
0.978790 0.788174 0.599664
0.123751 0.977081 0.594232
0.213077 0.974914 0.588251
0.400641 0.975799 0.590265
0.595361 0.977844 0.595422
0.789609 0.980255 0.601801
0.985840 0.985931 0.615991
0.040223 0.039582 0.822049
0.216403 0.045869 0.819760
0.413062 0.060945 0.814176
0.609369 0.081056 0.808530
0.801938 0.101259 0.801877
0.990692 0.122683 0.795743
0.077516 0.225315 0.820462
0.224430 0.224399 0.817075
0.415381 0.226017 0.812985
0.609247 0.228977 0.807034
0.799741 0.232334 0.799710
0.986389 0.235203 0.792081
0.112428 0.416968 0.807614
0.235843 0.416785 0.806668
0.415625 0.415503 0.803677
0.604547 0.413672 0.799100
0.794949 0.413184 0.795041
0.984802 0.411566 0.791135
0.132692 0.604425 0.797421
0.243809 0.604608 0.797391
0.415351 0.603571 0.796201
0.601984 0.602075 0.794705
0.792599 0.600824 0.792599
0.984039 0.596979 0.789792
0.153384 0.790555 0.790585
0.252354 0.790982 0.790982
0.419165 0.792203 0.792233
0.603571 0.793423 0.793423
0.790738 0.790829 0.790738
0.983001 0.785702 0.785580
0.122805 0.979248 0.786496
0.214786 0.977630 0.783505
0.393866 0.979156 0.783658
0.582696 0.981353 0.782589
0.782834 0.983886 0.782895
0.989349 0.989471 0.791653
0.039673 0.038575 0.994232
0.208560 0.042359 0.993591
0.401587 0.051698 0.991882
0.597070 0.066926 0.989929
0.792447 0.087892 0.988220
0.986725 0.111879 0.986725
0.050294 0.210330 0.993927
0.210605 0.210513 0.993042
0.401434 0.210819 0.990784
0.595544 0.212100 0.988006
0.788815 0.212955 0.984527
0.981506 0.214572 0.981476
0.034668 0.399451 0.990845
0.207187 0.399786 0.990784
0.399329 0.399298 0.989624
0.594049 0.398413 0.987671
0.788174 0.395941 0.984802
0.982940 0.396124 0.982940
0.022034 0.593957 0.988769
0.198306 0.593194 0.988800
0.389654 0.590356 0.988830
0.588739 0.588769 0.987549
0.786648 0.586694 0.985687
0.984619 0.586603 0.984588
0.073152 0.791073 0.987121
0.211246 0.790768 0.987213
0.394568 0.790066 0.987732
0.586572 0.788235 0.988525
0.785367 0.785428 0.988800
0.988586 0.785550 0.988586
0.116762 0.988403 0.988342
0.218143 0.987884 0.987884
0.393561 0.988342 0.988342
0.582574 0.989258 0.989227
0.781247 0.991363 0.991333
0.996582 0.996582 0.996582
