luts/Agfa_Portrait_160.cube
# Generated for krafta web app
# https://www.facebook.com/krafta.visio
# Preset: AGF - Portrait 160
# Color profile : sRGB Color Space Profile
LUT_3D_SIZE 16
DOMAIN_MIN 0.0 0.0 0.0
DOMAIN_MAX 1.0 1.0 1.0
0.000000 0.000000 0.000000
0.099336 0.001770 0.001343
0.200504 0.002502 0.002655
0.283635 0.003967 0.003906
0.353002 0.006195 0.005707
0.419562 0.007477 0.006561
0.482612 0.008637 0.007660
0.548272 0.011475 0.011048
0.611322 0.017914 0.017914
0.674372 0.026490 0.026490
0.735042 0.038819 0.037140
0.792508 0.050996 0.050813
0.848692 0.063874 0.062562
0.906249 0.076417 0.075441
0.963928 0.089113 0.087739
1.000000 0.099947 0.098970
0.003571 0.107179 0.003510
0.104463 0.104402 0.004852
0.193118 0.106752 0.003632
0.274937 0.103883 0.004089
0.346197 0.098878 0.004852
0.413184 0.094942 0.005737
0.480140 0.092164 0.008423
0.546044 0.092470 0.013977
0.608606 0.093751 0.020691
0.672267 0.096284 0.030121
0.732876 0.100771 0.040375
0.790219 0.105562 0.054047
0.846067 0.111177 0.064698
0.903868 0.118044 0.076661
0.961852 0.126131 0.088930
1.000000 0.133608 0.101381
0.000000 0.193912 0.000275
0.102480 0.189364 0.000000
0.184695 0.184726 0.001007
0.263828 0.180575 0.001434
0.336736 0.175143 0.003601
0.407782 0.171420 0.007538
0.475532 0.168276 0.012879
0.540978 0.165957 0.018799
0.604242 0.163943 0.027161
0.669123 0.164462 0.035584
0.729519 0.164767 0.047425
0.786770 0.165621 0.058442
0.842435 0.167483 0.069001
0.900938 0.170809 0.080385
0.959258 0.175387 0.092256
1.000000 0.180148 0.104433
0.001068 0.264652 0.001556
0.097292 0.261448 0.002899
0.176761 0.258274 0.004211
0.254917 0.254826 0.007324
0.328130 0.249607 0.011872
0.398260 0.244877 0.017334
0.465431 0.240360 0.023285
0.531670 0.237186 0.029084
0.597314 0.234836 0.037964
0.662043 0.233433 0.046784
0.722103 0.231388 0.056489
0.779355 0.229862 0.065644
0.836393 0.229221 0.074769
0.894255 0.230014 0.085206
0.951537 0.231174 0.095338
1.000000 0.233921 0.106569
0.019287 0.327611 0.019287
0.099214 0.327001 0.020905
0.173281 0.327214 0.021851
0.248692 0.325383 0.024567
0.322606 0.322423 0.029114
0.393744 0.318639 0.033570
0.462135 0.314031 0.040192
0.529595 0.310430 0.046235
0.595819 0.307286 0.053254
0.661189 0.304814 0.060517
0.721431 0.301396 0.068360
0.780056 0.298528 0.076905
0.838621 0.296788 0.086824
0.897612 0.296147 0.096132
0.955200 0.295995 0.105745
1.000000 0.295293 0.114626
0.042603 0.391608 0.042451
0.106630 0.392493 0.043458
0.173617 0.392737 0.045319
0.244236 0.391211 0.048280
0.315038 0.388373 0.049775
0.385351 0.385199 0.053895
0.454627 0.382238 0.058320
0.523003 0.379400 0.062531
0.589349 0.376074 0.068238
0.654292 0.372747 0.073518
0.714290 0.368078 0.081331
0.774075 0.364508 0.088350
0.832914 0.361669 0.096468
0.891936 0.359960 0.104585
0.949981 0.358526 0.113649
1.000000 0.357000 0.121584
0.063569 0.455238 0.063691
0.115023 0.456214 0.064637
0.175235 0.456336 0.065980
0.242374 0.455085 0.066590
0.310765 0.453437 0.069215
0.380041 0.451362 0.072267
0.449042 0.449165 0.075135
0.517082 0.446509 0.078218
0.582269 0.442329 0.081666
0.645991 0.438117 0.086793
0.706874 0.433356 0.093172
0.767300 0.429480 0.099855
0.826658 0.426001 0.106447
0.885924 0.423468 0.114687
0.944427 0.421302 0.121828
1.000000 0.419257 0.130159
0.079683 0.516991 0.080232
0.123690 0.518975 0.081849
0.178988 0.519921 0.082734
0.242618 0.519493 0.083803
0.309117 0.517876 0.085512
0.375586 0.515007 0.087434
0.441993 0.511376 0.089204
0.507958 0.507988 0.091402
0.573327 0.504692 0.094545
0.636652 0.500420 0.098756
0.698299 0.496071 0.104707
0.759396 0.492134 0.110750
0.819059 0.488472 0.116579
0.878325 0.485298 0.122652
0.936767 0.482368 0.129519
0.996735 0.481300 0.138064
0.092683 0.568872 0.092561
0.129580 0.569055 0.092988
0.179385 0.569940 0.094362
0.238499 0.570153 0.095644
0.301823 0.570001 0.097810
0.366949 0.569268 0.098909
0.433265 0.568261 0.101961
0.499153 0.566827 0.104402
0.565270 0.565301 0.108034
0.630823 0.563622 0.112001
0.693965 0.560510 0.117891
0.756100 0.557153 0.123690
0.816556 0.553521 0.129763
0.876066 0.550011 0.135866
0.934997 0.546960 0.142580
0.992676 0.543755 0.149020
0.109468 0.626673 0.108949
0.140230 0.626001 0.108919
0.184726 0.625971 0.109987
0.239567 0.625727 0.110842
0.299657 0.625360 0.112551
0.362493 0.624872 0.114351
0.426825 0.624537 0.116335
0.491737 0.623743 0.118868
0.556939 0.622980 0.122103
0.621698 0.621820 0.125765
0.686183 0.620386 0.129244
0.747616 0.616754 0.134005
0.808133 0.613214 0.139193
0.868711 0.610346 0.145663
0.928771 0.607935 0.152071
0.987793 0.605249 0.158602
0.124514 0.683345 0.124453
0.151766 0.682948 0.124453
0.191684 0.682551 0.125216
0.242924 0.682185 0.126009
0.300175 0.681880 0.127443
0.360571 0.681392 0.128695
0.422858 0.680934 0.130465
0.486091 0.680201 0.132967
0.549920 0.679438 0.135317
0.613519 0.678309 0.138643
0.676967 0.676997 0.141939
0.739834 0.675257 0.145113
0.801083 0.672572 0.149874
0.862119 0.670222 0.156039
0.922606 0.668025 0.162417
0.982116 0.665583 0.168704
0.139223 0.739651 0.139925
0.163180 0.739254 0.139498
0.199985 0.738918 0.139712
0.247532 0.738491 0.140902
0.301823 0.737850 0.141604
0.359930 0.737209 0.142397
0.420203 0.736538 0.143740
0.481727 0.735744 0.145663
0.544030 0.735134 0.148562
0.606592 0.734127 0.150820
0.669276 0.733089 0.154025
0.731838 0.731991 0.157595
0.794522 0.731075 0.161501
0.856046 0.729335 0.166690
0.917205 0.727718 0.173281
0.978424 0.726741 0.181491
0.146578 0.788937 0.146670
0.168643 0.789059 0.147005
0.203677 0.789822 0.148043
0.249638 0.790433 0.149599
0.302647 0.791348 0.151705
0.359503 0.791958 0.154635
0.419226 0.792813 0.157595
0.480385 0.793362 0.160189
0.542809 0.794217 0.164279
0.605524 0.794675 0.168795
0.669062 0.795407 0.173739
0.732479 0.795743 0.178408
0.796231 0.796353 0.184298
0.858793 0.795773 0.188968
0.918730 0.792966 0.193698
0.975860 0.788235 0.195987
0.168917 0.852964 0.169009
0.183841 0.849821 0.164736
0.213535 0.848508 0.163516
0.256291 0.848295 0.164157
0.306798 0.848905 0.165927
0.361975 0.849393 0.168460
0.420081 0.850034 0.171084
0.480079 0.850645 0.174899
0.541314 0.851591 0.179294
0.602869 0.851926 0.183108
0.665400 0.852476 0.188144
0.727718 0.852598 0.192844
0.790341 0.852873 0.198062
0.852171 0.852323 0.202609
0.913176 0.850919 0.206119
0.972381 0.848142 0.209781
0.186160 0.911620 0.186313
0.198764 0.908965 0.181735
0.225101 0.907530 0.179019
0.264591 0.907073 0.179263
0.312718 0.907286 0.180728
0.366155 0.907622 0.183200
0.422766 0.908293 0.186435
0.481331 0.908751 0.189822
0.541283 0.909392 0.193912
0.602014 0.909697 0.198398
0.663447 0.910155 0.203128
0.725246 0.910552 0.208377
0.787625 0.911345 0.215335
0.849699 0.911620 0.221897
0.911376 0.911559 0.227970
0.971496 0.909911 0.230961
0.207523 0.972259 0.207797
0.217411 0.970153 0.202152
0.240970 0.969055 0.199527
0.277531 0.968719 0.199435
0.323430 0.968902 0.201358
0.374640 0.969238 0.203983
0.429694 0.969848 0.207645
0.487282 0.970489 0.212284
0.546593 0.971405 0.217868
0.607050 0.972381 0.224002
0.668360 0.973571 0.231785
0.730190 0.974701 0.239658
0.792905 0.976349 0.250462
0.855589 0.977905 0.261234
0.918761 0.979889 0.274693
0.982025 0.982147 0.290227
0.000122 0.000275 0.100587
0.109346 0.000092 0.109041
0.202731 0.000000 0.109163
0.284245 0.000000 0.100984
0.351019 0.000153 0.096742
0.415900 0.005463 0.095460
0.480537 0.014557 0.095338
0.544976 0.023102 0.096834
0.607202 0.031373 0.098787
0.670802 0.041382 0.100923
0.731899 0.051575 0.105409
0.788907 0.062806 0.110079
0.844572 0.073335 0.114961
0.902068 0.083650 0.121035
0.959472 0.094911 0.127962
1.000000 0.104799 0.135561
0.000000 0.108980 0.109071
0.105074 0.105074 0.105074
0.195743 0.101381 0.100832
0.275181 0.098787 0.098604
0.345373 0.097078 0.097200
0.412146 0.096590 0.096284
0.478737 0.096803 0.097078
0.543603 0.098573 0.098665
0.606256 0.100252 0.099947
0.670893 0.103548 0.103029
0.731472 0.107362 0.107149
0.788144 0.111910 0.111452
0.843320 0.116854 0.115999
0.900603 0.122988 0.122042
0.957824 0.129854 0.128817
1.000000 0.136843 0.136263
0.000000 0.196475 0.103395
0.101350 0.191867 0.101350
0.187076 0.187259 0.099245
0.266270 0.182254 0.098756
0.338781 0.177768 0.098695
0.408759 0.174594 0.098787
0.475868 0.171572 0.099825
0.540703 0.169772 0.101198
0.605463 0.168795 0.103090
0.669734 0.168795 0.106172
0.728908 0.168643 0.109957
0.785153 0.169253 0.113924
0.840482 0.170535 0.118410
0.898222 0.173709 0.124147
0.955657 0.177401 0.131197
1.000000 0.181521 0.137758
0.010773 0.267735 0.102815
0.101778 0.264378 0.102022
0.180179 0.260533 0.101320
0.256870 0.257084 0.100618
0.330114 0.252110 0.101595
0.400000 0.247807 0.102144
0.467720 0.243748 0.103243
0.534386 0.240696 0.104860
0.599756 0.238407 0.106630
0.663813 0.236454 0.109346
0.723232 0.234195 0.112886
0.779934 0.232578 0.116945
0.837613 0.232334 0.122011
0.895048 0.232853 0.127474
0.951293 0.233280 0.133639
1.000000 0.234897 0.139437
0.032166 0.327611 0.104280
0.104494 0.326543 0.104677
0.174807 0.324651 0.104799
0.247105 0.321935 0.104677
0.318364 0.318395 0.104921
0.388556 0.314916 0.106386
0.456703 0.311162 0.107759
0.524315 0.308293 0.109224
0.590112 0.305425 0.111299
0.655207 0.303166 0.113619
0.715877 0.300237 0.117800
0.775113 0.297704 0.122225
0.834318 0.296574 0.127443
0.893431 0.295964 0.133272
0.951385 0.295750 0.139376
1.000000 0.295323 0.145144
0.052247 0.390845 0.110567
0.110506 0.390631 0.110872
0.174563 0.389380 0.111391
0.243046 0.387610 0.111635
0.312871 0.384894 0.111757
0.382025 0.382055 0.112917
0.450294 0.378820 0.113619
0.517571 0.375982 0.116030
0.583795 0.372961 0.117433
0.648524 0.370031 0.119936
0.709438 0.366155 0.123964
0.769711 0.363256 0.128359
0.828855 0.360632 0.132784
0.887816 0.358892 0.138155
0.945983 0.357458 0.143771
1.000000 0.356390 0.149416
0.069062 0.455177 0.118318
0.118624 0.455543 0.118868
0.176974 0.454627 0.118624
0.242008 0.452918 0.119478
0.309728 0.450690 0.119905
0.377630 0.448219 0.120974
0.445289 0.445289 0.121920
0.512108 0.442359 0.123537
0.577844 0.439063 0.124392
0.641627 0.435401 0.127352
0.702419 0.430823 0.130800
0.762722 0.427070 0.135073
0.822141 0.423865 0.138857
0.881468 0.421363 0.143740
0.940063 0.419287 0.149386
0.998535 0.417975 0.154849
0.082673 0.515679 0.125093
0.125978 0.516564 0.125612
0.179263 0.516228 0.125887
0.241398 0.515099 0.126223
0.306706 0.513268 0.127077
0.372686 0.510857 0.127962
0.439124 0.507958 0.128389
0.504936 0.504936 0.129763
0.569970 0.501793 0.131350
0.633112 0.497780 0.134554
0.694575 0.493507 0.138064
0.755428 0.489876 0.141787
0.815549 0.486458 0.145480
0.874662 0.483192 0.149813
0.933135 0.480568 0.154421
0.992767 0.479194 0.160891
0.095491 0.570733 0.131197
0.131594 0.570581 0.131960
0.180270 0.570245 0.132631
0.238956 0.569604 0.132967
0.301732 0.568811 0.134035
0.366247 0.567803 0.135073
0.432227 0.566796 0.136904
0.497902 0.565270 0.138705
0.563561 0.563561 0.140841
0.628565 0.561761 0.143404
0.691585 0.558618 0.148013
0.753475 0.555352 0.151766
0.814023 0.551843 0.156283
0.873960 0.548760 0.160922
0.933684 0.546319 0.166415
0.992370 0.543816 0.171939
0.111025 0.626856 0.141817
0.142061 0.626459 0.141909
0.186221 0.625940 0.142611
0.240482 0.625513 0.142763
0.300206 0.625147 0.143618
0.362554 0.624323 0.145327
0.426429 0.623499 0.146670
0.490700 0.622339 0.148531
0.555322 0.621241 0.150851
0.619745 0.619776 0.153170
0.683619 0.618189 0.156008
0.745113 0.614801 0.159182
0.806058 0.611627 0.163882
0.867155 0.609247 0.168612
0.927794 0.607263 0.174350
0.987549 0.605249 0.180423
0.125948 0.683406 0.153414
0.153140 0.683375 0.153414
0.193027 0.682887 0.153811
0.244144 0.682338 0.153994
0.300572 0.681697 0.154696
0.360662 0.680751 0.155825
0.422278 0.679774 0.156985
0.485145 0.678767 0.158145
0.548638 0.677852 0.160281
0.611963 0.676631 0.162631
0.675074 0.675105 0.165194
0.737789 0.673396 0.168063
0.799191 0.670985 0.171847
0.860410 0.668940 0.176761
0.921324 0.667048 0.182254
0.981384 0.665064 0.187625
0.140902 0.739162 0.164126
0.164248 0.738918 0.164462
0.200320 0.738399 0.164523
0.247684 0.737881 0.164920
0.301732 0.737301 0.165469
0.359869 0.736629 0.166171
0.419989 0.736019 0.167391
0.481422 0.735134 0.168887
0.543450 0.734157 0.170871
0.605585 0.732937 0.172366
0.667872 0.731624 0.175051
0.730129 0.730312 0.177493
0.792447 0.729122 0.180545
0.853758 0.727291 0.184665
0.914733 0.725643 0.189944
0.976287 0.724941 0.196811
0.147890 0.790127 0.170199
0.170230 0.790158 0.170169
0.204868 0.790677 0.171267
0.250523 0.791012 0.172396
0.302983 0.791653 0.174380
0.360052 0.792142 0.176120
0.419593 0.792966 0.179110
0.480598 0.793454 0.181674
0.542809 0.794156 0.185306
0.605463 0.794430 0.188205
0.668788 0.795010 0.192386
0.732113 0.795315 0.196719
0.795834 0.795987 0.202213
0.858457 0.795468 0.206455
0.918608 0.792905 0.210666
0.976135 0.788510 0.213077
0.170565 0.853574 0.189303
0.185550 0.850706 0.185824
0.214633 0.849424 0.184207
0.257267 0.849149 0.184482
0.307683 0.849638 0.186648
0.362829 0.849943 0.188174
0.420630 0.850370 0.190585
0.480171 0.850858 0.193301
0.541375 0.851560 0.197116
0.602869 0.851743 0.200320
0.665095 0.852232 0.204868
0.727443 0.852323 0.209049
0.790158 0.852720 0.213993
0.852140 0.852232 0.218509
0.913268 0.851041 0.221988
0.972656 0.848508 0.225254
0.187106 0.912047 0.204013
0.199832 0.909575 0.200076
0.226291 0.908293 0.197726
0.265476 0.907866 0.197910
0.313573 0.908019 0.199283
0.366674 0.908263 0.201236
0.423163 0.908812 0.203830
0.481605 0.909117 0.206760
0.541405 0.909514 0.210452
0.601984 0.909697 0.213931
0.663325 0.910094 0.218479
0.725093 0.910430 0.223453
0.787503 0.911192 0.229831
0.849668 0.911559 0.235874
0.911498 0.911589 0.241703
0.971710 0.910124 0.244572
0.207736 0.972656 0.222995
0.218082 0.970642 0.218326
0.241215 0.969574 0.215885
0.278050 0.969268 0.215702
0.323766 0.969451 0.217533
0.375128 0.969787 0.219821
0.430213 0.970367 0.223209
0.487556 0.970916 0.226993
0.546746 0.971710 0.231907
0.607111 0.972595 0.237644
0.668360 0.973663 0.244724
0.730129 0.974640 0.252201
0.792630 0.976135 0.261601
0.855283 0.977661 0.271916
0.918517 0.979644 0.284459
0.981842 0.981964 0.299504
0.000031 0.000000 0.212497
0.114260 0.000092 0.208011
0.198886 0.000092 0.198734
0.277562 0.000000 0.188998
0.345983 0.000000 0.179507
0.409491 0.014679 0.173617
0.473854 0.030793 0.171756
0.537865 0.043946 0.170687
0.600793 0.049592 0.169497
0.665553 0.056855 0.169589
0.727016 0.065522 0.170321
0.784512 0.076020 0.171542
0.840818 0.084169 0.172885
0.899382 0.093629 0.175998
0.957458 0.103182 0.179751
1.000000 0.111757 0.183444
0.000000 0.106538 0.205417
0.102846 0.102083 0.197757
0.190982 0.099367 0.191073
0.269383 0.098390 0.183871
0.338323 0.099672 0.177981
0.405768 0.102815 0.174868
0.471962 0.104677 0.173159
0.536797 0.106569 0.171359
0.601038 0.108370 0.170291
0.666102 0.110506 0.170504
0.726772 0.114778 0.171023
0.783932 0.119234 0.172366
0.839933 0.123995 0.173709
0.898100 0.129397 0.176730
0.955871 0.135897 0.180209
1.000000 0.142123 0.183871
0.000183 0.192447 0.192172
0.101503 0.188327 0.188144
0.184360 0.184360 0.184360
0.261387 0.181216 0.180911
0.333623 0.178500 0.178958
0.403235 0.176608 0.176577
0.470192 0.174655 0.174228
0.535363 0.172610 0.172457
0.601068 0.172152 0.171908
0.665339 0.172122 0.171847
0.724697 0.172763 0.172274
0.781186 0.173373 0.173129
0.837613 0.174746 0.174716
0.895628 0.177981 0.177340
0.953674 0.181155 0.181003
1.000000 0.185183 0.184512
0.020691 0.264652 0.183749
0.106813 0.261326 0.182376
0.180575 0.258091 0.180667
0.254795 0.255009 0.178897
0.326848 0.251072 0.177218
0.396246 0.247623 0.175723
0.463661 0.244022 0.174136
0.530999 0.241825 0.173373
0.596185 0.239597 0.173037
0.660243 0.237705 0.173007
0.719692 0.235966 0.173220
0.776638 0.234623 0.174044
0.834928 0.234592 0.176516
0.892576 0.234989 0.178683
0.949065 0.235813 0.181186
1.000000 0.236942 0.184634
0.050050 0.325048 0.177768
0.110994 0.324132 0.177737
0.176669 0.322545 0.176974
0.246860 0.319951 0.175753
0.316869 0.316686 0.174685
0.386084 0.313512 0.173709
0.453864 0.310521 0.173312
0.521172 0.307805 0.173190
0.586938 0.305180 0.173159
0.651911 0.303136 0.173587
0.712642 0.300420 0.174777
0.772549 0.298680 0.176791
0.832151 0.297734 0.178958
0.891508 0.297398 0.182498
0.949828 0.297398 0.185916
1.000000 0.296818 0.188815
0.063844 0.389227 0.177279
0.116487 0.389075 0.176913
0.176822 0.387945 0.176852
0.243900 0.386023 0.176303
0.312200 0.383490 0.175845
0.380835 0.380682 0.175570
0.448432 0.377783 0.175051
0.515496 0.375067 0.175448
0.581659 0.372290 0.175143
0.646113 0.369451 0.175814
0.707210 0.366003 0.177554
0.767575 0.363287 0.179568
0.827085 0.361028 0.181827
0.886168 0.359442 0.184970
0.944671 0.358160 0.188113
1.000000 0.357305 0.191806
0.075959 0.453620 0.178775
0.122774 0.454139 0.178836
0.178531 0.453346 0.178622
0.242802 0.451820 0.178622
0.309636 0.449561 0.178561
0.377203 0.447120 0.178408
0.444312 0.444434 0.178347
0.510857 0.441444 0.178225
0.576165 0.438270 0.178164
0.639796 0.434577 0.179355
0.700557 0.430426 0.181003
0.761013 0.426795 0.183047
0.820584 0.423774 0.185031
0.879973 0.421485 0.188022
0.938842 0.419593 0.191135
0.997772 0.418433 0.194949
0.086976 0.514549 0.179843
0.127443 0.515679 0.180606
0.180453 0.515312 0.180423
0.241947 0.514183 0.180636
0.306676 0.512322 0.180392
0.372351 0.509850 0.180667
0.438392 0.507042 0.180179
0.504173 0.504112 0.180850
0.568933 0.501061 0.181216
0.632044 0.497108 0.182620
0.693416 0.492958 0.184451
0.754330 0.489479 0.186587
0.814298 0.486152 0.189303
0.873411 0.483131 0.191348
0.932128 0.480476 0.194125
0.991882 0.479194 0.198276
0.097932 0.570062 0.181552
0.133150 0.569879 0.181460
0.181888 0.569482 0.181582
0.239506 0.568933 0.181949
0.301671 0.568139 0.182467
0.366461 0.567102 0.183139
0.431800 0.566033 0.184665
0.497383 0.564538 0.185733
0.562860 0.562921 0.186679
0.627771 0.561059 0.188876
0.690669 0.558068 0.191562
0.752468 0.554955 0.194186
0.812955 0.551446 0.197208
0.873167 0.548608 0.200259
0.933074 0.546410 0.204196
0.992065 0.544091 0.207889
0.113527 0.626337 0.187533
0.143618 0.625971 0.187716
0.187320 0.625635 0.187533
0.241245 0.625269 0.188205
0.301091 0.624842 0.188876
0.363134 0.624048 0.189548
0.426612 0.623163 0.190249
0.490578 0.622004 0.191806
0.555108 0.620844 0.193057
0.619348 0.619440 0.194614
0.682918 0.617639 0.196201
0.744472 0.614343 0.199161
0.805386 0.611383 0.201724
0.866575 0.609125 0.205478
0.927398 0.607324 0.209720
0.987304 0.605432 0.214023
0.129183 0.683070 0.194766
0.155428 0.683070 0.194858
0.195163 0.682734 0.195193
0.245090 0.682216 0.195560
0.301640 0.681483 0.195529
0.361212 0.680598 0.196414
0.422858 0.679622 0.196963
0.485451 0.678645 0.198306
0.548608 0.677638 0.199496
0.611719 0.676295 0.200839
0.674647 0.674739 0.202518
0.737301 0.673060 0.204623
0.798703 0.670710 0.207675
0.860075 0.668788 0.211185
0.921080 0.667079 0.214969
0.981262 0.665156 0.219333
0.142550 0.738888 0.201907
0.165957 0.738705 0.201907
0.201968 0.738186 0.201846
0.248814 0.737697 0.202365
0.302739 0.737209 0.202640
0.360510 0.736568 0.203433
0.420630 0.735897 0.204227
0.481666 0.735042 0.205386
0.543542 0.734066 0.206638
0.605615 0.732784 0.207767
0.667781 0.731441 0.209415
0.730037 0.730068 0.211276
0.792264 0.728878 0.213321
0.853483 0.727169 0.216892
0.914519 0.725490 0.220218
0.976135 0.724788 0.225650
0.149935 0.790433 0.204990
0.171633 0.790463 0.205295
0.205966 0.790860 0.206394
0.251316 0.791196 0.207248
0.303746 0.791836 0.208194
0.360693 0.792264 0.209964
0.420081 0.793057 0.212497
0.480903 0.793515 0.214969
0.543236 0.794186 0.217655
0.605737 0.794553 0.220462
0.669001 0.795132 0.224186
0.732265 0.795468 0.227848
0.796048 0.796109 0.232547
0.858488 0.795529 0.236332
0.918578 0.792935 0.239200
0.976257 0.788663 0.240055
0.171756 0.853758 0.220645
0.186160 0.850950 0.217227
0.215885 0.849790 0.216007
0.258122 0.849516 0.216220
0.308385 0.849912 0.217807
0.363012 0.850217 0.218997
0.420905 0.850645 0.221073
0.480690 0.851102 0.223667
0.541772 0.851804 0.227024
0.603296 0.851957 0.229984
0.665461 0.852384 0.233829
0.727687 0.852476 0.237095
0.790341 0.852873 0.241764
0.852232 0.852384 0.245426
0.913359 0.851133 0.248356
0.972869 0.848631 0.250614
0.187289 0.912200 0.232364
0.199771 0.909819 0.228061
0.226017 0.908568 0.226047
0.265660 0.908141 0.226413
0.313725 0.908324 0.227604
0.366766 0.908568 0.229160
0.423377 0.909148 0.231968
0.481788 0.909422 0.234043
0.541588 0.909728 0.237064
0.602167 0.909911 0.240391
0.663478 0.910277 0.243992
0.725277 0.910674 0.248508
0.787686 0.911406 0.254185
0.849882 0.911742 0.259586
0.911711 0.911803 0.264805
0.971923 0.910338 0.267216
0.207248 0.972900 0.247440
0.217227 0.970916 0.243198
0.240665 0.969848 0.240848
0.277592 0.969543 0.240757
0.323369 0.969818 0.242435
0.374914 0.970123 0.244175
0.429969 0.970672 0.247593
0.487312 0.971191 0.250889
0.546685 0.971984 0.255375
0.607172 0.972839 0.260624
0.668482 0.973877 0.266850
0.730220 0.974884 0.273625
0.792782 0.976349 0.282567
0.855436 0.977813 0.291814
0.918639 0.979797 0.304021
0.982025 0.982116 0.317845
0.000336 0.000153 0.293339
0.106630 0.000000 0.288548
0.190097 0.000000 0.278782
0.268254 0.000214 0.268223
0.338689 0.001190 0.257176
0.404761 0.015534 0.248875
0.469856 0.030579 0.243687
0.533562 0.045655 0.240574
0.596612 0.056764 0.238102
0.660945 0.065949 0.237308
0.722316 0.074983 0.236423
0.780301 0.085695 0.235721
0.837461 0.093935 0.235355
0.896696 0.102937 0.236667
0.955108 0.111971 0.238163
1.000000 0.119417 0.239261
0.000000 0.102113 0.284123
0.099672 0.099641 0.276951
0.183841 0.098299 0.269383
0.261753 0.097536 0.261753
0.333135 0.098726 0.253788
0.401678 0.102327 0.248692
0.467628 0.105867 0.244327
0.531823 0.109407 0.241123
0.596674 0.112886 0.239200
0.661524 0.115877 0.238315
0.722225 0.120058 0.237034
0.779721 0.125643 0.236210
0.836790 0.130282 0.235874
0.895354 0.136507 0.236637
0.953582 0.142214 0.237980
1.000000 0.147921 0.239597
0.005859 0.186618 0.271214
0.103243 0.183871 0.266087
0.181277 0.181521 0.260777
0.257359 0.179232 0.257145
0.328923 0.177768 0.252781
0.398199 0.176761 0.248692
0.465217 0.175570 0.245426
0.530877 0.174777 0.242374
0.596429 0.174502 0.240665
0.660853 0.174258 0.238651
0.720302 0.175235 0.237278
0.777066 0.176883 0.236179
0.834501 0.179202 0.235721
0.893156 0.181827 0.236820
0.951507 0.185580 0.238102
1.000000 0.188907 0.239689
0.026368 0.260685 0.260838
0.107790 0.257939 0.257816
0.180301 0.254948 0.255009
0.252262 0.252262 0.252262
0.322820 0.249546 0.249516
0.391913 0.246555 0.246616
0.459724 0.243809 0.243809
0.526970 0.241947 0.241978
0.592096 0.239719 0.239872
0.656184 0.238163 0.237980
0.715755 0.237156 0.236759
0.773251 0.236332 0.236210
0.832242 0.237003 0.236454
0.890227 0.237522 0.237247
0.947112 0.238163 0.237613
1.000000 0.239078 0.238682
0.051667 0.322057 0.248386
0.112703 0.321111 0.248173
0.177279 0.319432 0.246952
0.245731 0.317205 0.245609
0.314397 0.314580 0.243717
0.383154 0.311955 0.242222
0.450935 0.309209 0.240391
0.518151 0.306981 0.238926
0.583856 0.304631 0.237522
0.648707 0.302708 0.236790
0.709346 0.300481 0.236759
0.769955 0.299657 0.237156
0.829862 0.299016 0.238254
0.889494 0.298833 0.239841
0.948058 0.299016 0.241032
1.000000 0.298619 0.242161
0.068421 0.387152 0.245151
0.118868 0.386938 0.245212
0.177676 0.385748 0.244541
0.243565 0.383886 0.243351
0.310979 0.381537 0.242191
0.378943 0.379065 0.240848
0.446265 0.376287 0.239719
0.513451 0.373693 0.238773
0.579187 0.371221 0.237888
0.643610 0.368750 0.237583
0.704738 0.365789 0.237797
0.765255 0.363531 0.238499
0.824887 0.361669 0.239170
0.884337 0.360235 0.240696
0.943084 0.359167 0.242252
1.000000 0.358465 0.243870
0.079927 0.451301 0.243046
0.124575 0.451820 0.243351
0.179355 0.451087 0.243473
0.242710 0.449775 0.242679
0.308843 0.447761 0.242039
0.375952 0.445502 0.241276
0.442908 0.443000 0.240452
0.508934 0.440040 0.239719
0.574151 0.436957 0.238926
0.637751 0.433570 0.238529
0.698482 0.429725 0.239109
0.759030 0.426642 0.239750
0.818753 0.423865 0.240604
0.878355 0.421820 0.241672
0.937530 0.420203 0.243229
0.996796 0.419104 0.245548
0.089479 0.512779 0.241642
