luts/Agfa_Chrome_RSX.cube
# Generated for krafta web app
# https://www.facebook.com/krafta.visio
# Preset: AGF - Chrome RSX
# Color profile : sRGB Color Space Profile
LUT_3D_SIZE 6
DOMAIN_MIN 0.0 0.0 0.0
DOMAIN_MAX 1.0 1.0 1.0
0.000000 0.000000 0.000000
0.252384 0.000000 0.000183
0.449256 0.000000 0.000031
0.641474 0.000000 0.000458
0.825467 0.002747 0.001862
1.000000 0.003998 0.002472
0.000000 0.237491 0.000000
0.229709 0.229892 0.000000
0.436103 0.219821 0.000000
0.632471 0.212680 0.000000
0.816434 0.205600 0.002380
1.000000 0.200473 0.000000
0.001129 0.427985 0.001740
0.215824 0.427619 0.002197
0.422461 0.422553 0.002411
0.620691 0.414588 0.002167
0.809812 0.405707 0.004242
0.995697 0.397894 0.000000
0.001923 0.606989 0.003754
0.203067 0.606104 0.003388
0.403571 0.605127 0.002716
0.602502 0.602655 0.001526
0.796048 0.596887 0.000000
0.983062 0.588128 0.000000
0.000000 0.772122 0.000000
0.179538 0.774868 0.000000
0.385016 0.779507 0.000000
0.585901 0.783413 0.000000
0.786801 0.786923 0.000000
0.968505 0.772427 0.000000
0.000000 0.961028 0.000000
0.066011 0.954650 0.000000
0.345556 0.956451 0.000000
0.558770 0.960357 0.000000
0.765377 0.965911 0.000000
0.972503 0.972656 0.000000
0.000183 0.000153 0.262272
0.242069 0.000305 0.242893
0.441077 0.001434 0.223301
0.633143 0.006744 0.214267
0.818265 0.010956 0.207645
1.000000 0.004181 0.201511
0.000000 0.235203 0.235080
0.228275 0.228275 0.228275
0.433051 0.220279 0.220249
0.629236 0.212741 0.212589
0.814481 0.206546 0.206271
0.997375 0.198825 0.198459
0.007538 0.425422 0.215763
0.214633 0.423987 0.214664
0.418097 0.418219 0.211154
0.615106 0.410803 0.206729
0.804501 0.402808 0.202396
0.992615 0.395697 0.194858
0.004089 0.606195 0.203464
0.202762 0.605463 0.203220
0.402655 0.603662 0.202152
0.600458 0.600488 0.200290
0.793820 0.594995 0.195712
0.983185 0.587427 0.183413
0.000000 0.775631 0.175570
0.175570 0.776608 0.176028
0.384131 0.780606 0.179202
0.585718 0.783871 0.181430
0.787076 0.787198 0.183352
0.970214 0.773068 0.149142
0.000000 0.962921 0.048005
0.000000 0.957092 0.002136
0.337591 0.958801 0.000000
0.555779 0.962005 0.000000
0.764218 0.966583 0.000000
0.972869 0.973053 0.000000
0.000458 0.000183 0.457984
0.225223 0.000000 0.445960
0.429633 0.002716 0.429511
0.625849 0.005097 0.418219
0.813016 0.012573 0.407904
0.999939 0.000397 0.399908
0.011292 0.225803 0.442542
0.221103 0.221103 0.434638
0.425483 0.215640 0.425513
0.621332 0.209567 0.415167
0.809079 0.205905 0.405982
0.994965 0.193790 0.395758
0.005890 0.419379 0.419318
0.211337 0.418280 0.418280
0.413336 0.413336 0.413336
0.609461 0.407111 0.407019
0.800534 0.400488 0.400366
0.991302 0.391852 0.391669
0.005371 0.603418 0.402747
0.201968 0.602930 0.402411
0.400916 0.601251 0.401068
0.598138 0.598199 0.398444
0.792264 0.593133 0.392981
0.983917 0.584649 0.381262
0.000000 0.777554 0.375128
0.156374 0.778958 0.376440
0.379583 0.782498 0.379828
0.584649 0.784970 0.381842
0.787289 0.787411 0.383764
0.972808 0.772274 0.356390
0.000000 0.966308 0.317540
0.000000 0.961120 0.305333
0.303410 0.962097 0.303868
0.543877 0.965484 0.304784
0.760678 0.969146 0.301549
0.974975 0.975128 0.294224
0.002594 0.001526 0.637476
0.213657 0.003906 0.632624
0.417182 0.007416 0.623896
0.613672 0.007599 0.613672
0.806058 0.007172 0.604791
0.995300 0.000183 0.596429
0.019654 0.216892 0.633295
0.214206 0.214176 0.627588
0.414984 0.210819 0.620233
0.611109 0.206424 0.611109
0.803037 0.202274 0.602411
0.990784 0.187259 0.592248
0.015961 0.410559 0.613611
0.209049 0.409979 0.612634
0.406928 0.406806 0.608209
0.602747 0.402380 0.602716
0.795773 0.396063 0.596094
0.989746 0.384497 0.588373
0.000000 0.599084 0.599054
0.198398 0.598718 0.598688
0.397314 0.597620 0.597650
0.594171 0.594232 0.594202
0.790768 0.589776 0.589715
0.985870 0.579492 0.579370
0.000000 0.780697 0.579126
0.141268 0.781796 0.579980
0.373846 0.784054 0.581476
0.583062 0.786160 0.583185
0.786038 0.786160 0.582757
0.976410 0.770840 0.559472
0.000000 0.970428 0.537530
0.000000 0.966400 0.526848
0.253513 0.967590 0.527031
0.528496 0.970306 0.528679
0.755856 0.972564 0.526116
0.978180 0.978302 0.524163
0.008392 0.006134 0.812650
0.205295 0.006500 0.810880
0.404089 0.006256 0.806485
0.601587 0.003052 0.801907
0.796323 0.000000 0.796384
0.989837 0.000000 0.791348
0.018433 0.207431 0.811398
0.206027 0.205936 0.808743
0.403876 0.204044 0.805447
0.600641 0.200626 0.800656
0.794705 0.194156 0.794614
0.985046 0.174990 0.786282
0.006195 0.401160 0.801236
0.200748 0.400488 0.800504
0.398199 0.398077 0.798062
0.594568 0.394018 0.794278
0.790463 0.388586 0.790433
0.985107 0.375341 0.784482
0.000000 0.592462 0.792508
0.181338 0.592157 0.792508
0.387274 0.590539 0.791562
0.588159 0.588159 0.789975
0.787045 0.584192 0.786984
0.984771 0.574121 0.781094
0.000000 0.782712 0.782712
0.133577 0.783444 0.783413
0.372839 0.785367 0.785367
0.581353 0.786160 0.786130
0.781582 0.781704 0.781613
0.981537 0.770077 0.769986
0.000000 0.974395 0.762173
0.000000 0.971344 0.756924
0.243565 0.973266 0.756527
0.515007 0.975586 0.753780
0.749630 0.977661 0.749722
0.982910 0.983032 0.749813
0.001862 0.000000 0.994873
0.194308 0.000000 0.994385
0.394079 0.000000 0.993072
0.591882 0.000000 0.991272
0.789090 0.000000 0.989532
0.986450 0.000000 0.987884
0.000000 0.192844 0.994690
0.192233 0.191623 0.994018
0.392706 0.187716 0.992218
0.589380 0.177188 0.988464
0.784085 0.156008 0.983642
0.979461 0.115511 0.979370
0.000000 0.387549 0.992523
0.173281 0.387243 0.992462
0.384100 0.384009 0.991028
0.584497 0.376959 0.988434
0.782040 0.363500 0.984375
0.981903 0.347906 0.981872
0.000000 0.582208 0.990204
0.114076 0.581476 0.990234
0.363165 0.578943 0.990112
0.573907 0.573907 0.988312
0.778439 0.565850 0.985565
0.983825 0.557977 0.983764
0.000000 0.780484 0.987304
0.000000 0.780179 0.987427
0.334081 0.779873 0.988098
0.561547 0.778805 0.989014
0.775509 0.775570 0.989044
0.987793 0.770626 0.987762
0.000000 0.984253 0.984192
0.000000 0.983307 0.983246
0.201358 0.983642 0.983612
0.503471 0.984436 0.984405
0.744961 0.986725 0.986664
0.992615 0.992615 0.992615
