luts/Agfa_Chrome_RSX.cube
# Generated for krafta web app
# https://www.facebook.com/krafta.visio
# Preset: AGF - Chrome RSX
# Color profile : sRGB Color Space Profile
LUT_3D_SIZE 16
DOMAIN_MIN 0.0 0.0 0.0
DOMAIN_MAX 1.0 1.0 1.0
0.000000 0.000000 0.000000
0.087800 0.000214 0.000183
0.175113 0.000244 0.000275
0.252384 0.000000 0.000183
0.320470 0.000000 0.000336
0.386084 0.000183 0.000366
0.449256 0.000000 0.000031
0.514366 0.000122 0.000092
0.577844 0.000183 0.000397
0.641474 0.000000 0.000458
0.704768 0.000305 0.000244
0.765530 0.000580 0.000671
0.825467 0.002747 0.001862
0.886656 0.003784 0.003235
0.948058 0.004791 0.003601
1.000000 0.003998 0.002472
0.000000 0.090944 0.000000
0.087953 0.088533 0.000000
0.169131 0.089357 0.000000
0.245670 0.087312 0.000000
0.315160 0.083558 0.000000
0.381079 0.080110 0.000000
0.447272 0.077272 0.000000
0.512749 0.075654 0.000000
0.575891 0.073976 0.000000
0.639948 0.073060 0.000000
0.703212 0.072389 0.000000
0.763882 0.072023 0.000549
0.823545 0.071778 0.001801
0.884886 0.071962 0.002838
0.946502 0.071870 0.003326
1.000000 0.070100 0.002716
0.000000 0.168765 0.000000
0.085695 0.165530 0.000000
0.162112 0.162081 0.000000
0.236759 0.159518 0.000000
0.307683 0.156069 0.000000
0.376837 0.153201 0.000000
0.443732 0.150484 0.000000
0.508965 0.147707 0.000000
0.572686 0.145205 0.000000
0.637720 0.143679 0.000000
0.700740 0.142397 0.000000
0.761379 0.140505 0.000855
0.820859 0.139101 0.002319
0.882780 0.138033 0.003174
0.944701 0.137179 0.002991
1.000000 0.135866 0.002411
0.000000 0.237491 0.000000
0.079835 0.235142 0.000000
0.156161 0.232700 0.000000
0.229709 0.229892 0.000000
0.300572 0.226413 0.000000
0.369329 0.223239 0.000000
0.436103 0.219821 0.000000
0.502037 0.216983 0.000000
0.567529 0.214603 0.000000
0.632471 0.212680 0.000000
0.695216 0.210361 0.000336
0.755856 0.207919 0.001740
0.816434 0.205600 0.002380
0.877836 0.203983 0.002838
0.938842 0.202213 0.001282
1.000000 0.200473 0.000000
0.000000 0.300450 0.000000
0.076875 0.300023 0.000000
0.151553 0.299992 0.000000
0.224826 0.298436 0.000000
0.295933 0.296117 0.000000
0.365454 0.293156 0.000000
0.433143 0.289982 0.000000
0.500206 0.287266 0.000000
0.566247 0.284581 0.000000
0.631891 0.282444 0.000336
0.694942 0.279606 0.001556
0.756649 0.276768 0.002960
0.818479 0.274418 0.003998
0.880705 0.272496 0.004517
0.942138 0.270268 0.003845
1.000000 0.267338 0.000458
0.000000 0.364294 0.000000
0.076417 0.364843 0.000000
0.148653 0.364935 0.000000
0.219852 0.363775 0.000000
0.289830 0.361517 0.000000
0.358892 0.358892 0.000214
0.427131 0.356451 0.000610
0.494881 0.354376 0.001282
0.561120 0.351873 0.001495
0.626856 0.349493 0.001343
0.689693 0.346136 0.003143
0.752285 0.343236 0.003754
0.814359 0.340459 0.004028
0.876677 0.338231 0.004547
0.938354 0.335790 0.002808
0.998596 0.332830 0.000000
0.001129 0.427985 0.001740
0.075166 0.428595 0.002502
0.145663 0.428565 0.001801
0.215824 0.427619 0.002197
0.285222 0.426184 0.002533
0.354070 0.424506 0.002350
0.422461 0.422553 0.002411
0.489815 0.420356 0.002258
0.555474 0.417243 0.002441
0.620691 0.414588 0.002167
0.684138 0.411383 0.003723
0.747341 0.408606 0.004425
0.809812 0.405707 0.004242
0.872343 0.403235 0.002930
0.934417 0.400732 0.000519
0.995697 0.397894 0.000000
0.003632 0.490211 0.003723
0.074372 0.491676 0.003479
0.143313 0.492348 0.003571
0.213077 0.491890 0.004028
0.281773 0.490608 0.003815
0.349584 0.488350 0.003845
0.416358 0.485359 0.003265
0.482582 0.482612 0.002716
0.548119 0.479866 0.002472
0.613458 0.477516 0.002258
0.677607 0.474861 0.003357
0.741360 0.472236 0.003235
0.804196 0.469490 0.002289
0.866697 0.466773 0.000000
0.928832 0.464118 0.000000
0.992126 0.462165 0.000000
0.002411 0.546044 0.003113
0.070649 0.546166 0.002319
0.138430 0.546807 0.002960
0.206455 0.546929 0.002716
0.274266 0.546715 0.003815
0.341833 0.546105 0.003082
0.409339 0.545220 0.002777
0.476081 0.544030 0.003418
0.542657 0.542718 0.003113
0.608759 0.541344 0.003082
0.674311 0.539757 0.003174
0.738918 0.537713 0.002960
0.802457 0.535180 0.001709
0.865293 0.532555 0.000000
0.927764 0.529778 0.000000
0.988769 0.526207 0.000000
0.001923 0.606989 0.003754
0.069551 0.606439 0.003449
0.135958 0.606348 0.002716
0.203067 0.606104 0.003388
0.269902 0.605798 0.003143
0.336767 0.605402 0.002869
0.403571 0.605127 0.002716
0.470192 0.604395 0.002533
0.536614 0.603693 0.001984
0.602502 0.602655 0.001526
0.668086 0.601343 0.001221
0.732387 0.599268 0.000000
0.796048 0.596887 0.000000
0.859709 0.594873 0.000000
0.923156 0.592767 0.000000
0.983062 0.588128 0.000000
0.000000 0.667231 0.000671
0.065675 0.666926 0.000000
0.133120 0.666621 0.000366
0.199496 0.666285 0.000061
0.265934 0.666041 0.000000
0.332464 0.665583 0.000000
0.398901 0.665187 0.000000
0.464942 0.664576 0.000000
0.530846 0.663935 0.000000
0.596368 0.662898 0.000000
0.661585 0.661707 0.000000
0.726223 0.660121 0.000000
0.790433 0.658503 0.000000
0.853696 0.656092 0.000000
0.915587 0.652796 0.000000
0.975708 0.648157 0.000000
0.000000 0.727413 0.000000
0.057801 0.727108 0.000000
0.127840 0.726833 0.000000
0.195224 0.726345 0.000000
0.261509 0.725521 0.000000
0.327428 0.724605 0.000000
0.393133 0.723781 0.000000
0.458656 0.722805 0.000000
0.524193 0.722042 0.000000
0.588922 0.720760 0.000000
0.653529 0.719417 0.000000
0.717708 0.717861 0.000000
0.782010 0.716579 0.000000
0.845365 0.714534 0.000000
0.908293 0.712184 0.000000
0.971435 0.709865 0.000000
0.000000 0.772122 0.000000
0.013794 0.772427 0.000000
0.105440 0.773709 0.000000
0.179538 0.774868 0.000000
0.249546 0.776577 0.000000
0.317510 0.777829 0.000000
0.385016 0.779507 0.000000
0.451911 0.780667 0.000000
0.519158 0.782376 0.000000
0.585901 0.783413 0.000000
0.653040 0.784939 0.000000
0.719692 0.785763 0.000000
0.786801 0.786923 0.000000
0.851713 0.786007 0.000000
0.912535 0.781216 0.000000
0.968505 0.772427 0.000000
0.000000 0.841001 0.000000
0.000000 0.835630 0.000000
0.079438 0.833463 0.000000
0.163577 0.833158 0.000000
0.237369 0.834318 0.000000
0.307286 0.835233 0.000000
0.375799 0.836484 0.000000
0.443366 0.837705 0.000000
0.510918 0.839475 0.000000
0.577325 0.840146 0.000000
0.644068 0.841245 0.000000
0.710048 0.841520 0.000000
0.776120 0.841947 0.000000
0.840665 0.840879 0.000000
0.903685 0.838346 0.000000
0.963256 0.832639 0.000000
0.000000 0.900053 0.000000
0.000000 0.895445 0.000000
0.011017 0.892943 0.000000
0.134310 0.892180 0.000000
0.217655 0.892638 0.000000
0.292210 0.893248 0.000000
0.363378 0.894469 0.000000
0.432258 0.895293 0.000000
0.500298 0.896422 0.000000
0.567346 0.896941 0.000000
0.634211 0.897642 0.000000
0.700679 0.898192 0.000000
0.767575 0.899321 0.000000
0.833555 0.899504 0.000000
0.898741 0.898863 0.000000
0.960876 0.895354 0.000000
0.000000 0.961028 0.000000
0.000000 0.957275 0.000000
0.000000 0.955261 0.000000
0.066011 0.954650 0.000000
0.183780 0.954925 0.000000
0.268803 0.955474 0.000000
0.345556 0.956451 0.000000
0.418219 0.957458 0.000000
0.489082 0.958923 0.000000
0.558770 0.960357 0.000000
0.627863 0.962097 0.000000
0.696376 0.963592 0.000000
0.765377 0.965911 0.000000
0.833951 0.967803 0.000000
0.903044 0.970153 0.000000
0.972503 0.972656 0.000000
0.000092 0.000092 0.089204
0.092836 0.000366 0.093385
0.175937 0.000275 0.092805
0.251835 0.000092 0.086244
0.318639 0.000122 0.081147
0.383398 0.000336 0.078492
0.447944 0.000000 0.077028
0.512444 0.000000 0.075776
0.575463 0.000000 0.074403
0.639368 0.000305 0.073854
0.702876 0.001160 0.073121
0.763210 0.003815 0.072755
0.822690 0.004120 0.072389
0.883757 0.004974 0.071931
0.944915 0.005737 0.071168
1.000000 0.003265 0.068818
0.000000 0.091859 0.091829
0.088746 0.088746 0.088746
0.170901 0.085328 0.085328
0.245945 0.082765 0.082612
0.314702 0.080568 0.080354
0.380835 0.078370 0.078218
0.446784 0.077180 0.077363
0.511498 0.076051 0.075959
0.574701 0.074861 0.074464
0.639399 0.074250 0.073884
0.702541 0.073884 0.073335
0.762692 0.073579 0.073030
0.821775 0.073091 0.072297
0.882719 0.072267 0.071504
0.943725 0.071473 0.070680
1.000000 0.069581 0.068788
0.000000 0.170657 0.085206
0.083589 0.167391 0.083467
0.163699 0.163699 0.081910
0.238712 0.160311 0.080323
0.309667 0.156924 0.079408
0.377966 0.154055 0.078157
0.444404 0.150912 0.077089
0.509270 0.148562 0.075898
0.573968 0.146487 0.074800
0.638575 0.144869 0.074281
0.700740 0.142855 0.073274
0.760464 0.141146 0.072938
0.819760 0.139223 0.071992
0.881010 0.138125 0.071321
0.942168 0.136660 0.070436
1.000000 0.134737 0.067994
0.000000 0.239719 0.081544
0.080751 0.237308 0.080781
0.157534 0.234379 0.079774
0.231266 0.231571 0.078553
0.302312 0.228031 0.077974
0.371221 0.224552 0.077180
0.438087 0.221378 0.076326
0.504356 0.218601 0.075563
0.569726 0.215976 0.074647
0.634058 0.213687 0.073884
0.696498 0.211032 0.073152
0.756619 0.208621 0.072663
0.817685 0.206516 0.072236
0.878721 0.204532 0.070954
0.938933 0.202335 0.069123
0.999268 0.200076 0.065888
0.000000 0.300633 0.078431
0.078370 0.299840 0.078309
0.151400 0.298314 0.077943
0.223239 0.296086 0.077302
0.293156 0.293217 0.076509
0.362097 0.290440 0.075715
0.429572 0.287724 0.075196
0.496590 0.285374 0.074647
0.562371 0.282750 0.073671
0.627680 0.280522 0.072847
0.690974 0.278019 0.072663
0.753109 0.275456 0.072206
0.815396 0.273381 0.072145
0.877775 0.271458 0.071321
0.939330 0.269352 0.069612
0.999298 0.266575 0.066224
0.002289 0.363806 0.077455
0.076448 0.363714 0.077058
0.148257 0.362676 0.076936
0.218387 0.361151 0.076570
0.288060 0.359045 0.075807
0.356512 0.356664 0.075013
0.424140 0.354101 0.074311
0.491188 0.351873 0.073884
0.557305 0.349401 0.073243
0.622736 0.347112 0.072328
0.686183 0.344213 0.072541
0.749142 0.341741 0.072053
0.811429 0.339239 0.071199
0.873655 0.336980 0.069856
0.935454 0.334478 0.067781
0.996612 0.331853 0.063630
0.003632 0.428016 0.076509
0.076295 0.428229 0.076692
0.145754 0.427497 0.076326
0.215274 0.426184 0.076051
0.284154 0.424384 0.075196
0.352392 0.422187 0.074708
0.419806 0.419776 0.074128
0.486366 0.417395 0.073487
0.552300 0.414862 0.072236
0.617548 0.412390 0.071992
0.680842 0.409308 0.071504
0.743954 0.406592 0.070832
0.806516 0.403784 0.069764
0.869017 0.401373 0.067994
0.931151 0.398901 0.064973
0.993317 0.396582 0.060334
0.003754 0.489387 0.074617
0.074769 0.490059 0.074952
0.142641 0.489754 0.074891
0.211734 0.488746 0.074342
0.279759 0.487282 0.073884
0.347356 0.485328 0.073640
0.414130 0.482918 0.072724
0.480354 0.480385 0.071870
0.545708 0.477790 0.070710
0.610834 0.475532 0.070283
0.674830 0.472847 0.069917
0.738521 0.470375 0.069154
0.801541 0.467781 0.067689
0.863981 0.465064 0.064515
0.925780 0.462226 0.059541
0.986572 0.458778 0.051118
0.002594 0.547478 0.071656
0.071168 0.547356 0.071748
0.138796 0.547082 0.072084
0.206088 0.546624 0.071443
0.273808 0.545892 0.071321
0.341100 0.545037 0.071138
0.408453 0.544152 0.070985
0.475166 0.542870 0.070619
0.541314 0.541375 0.070405
0.607172 0.539910 0.069703
0.672480 0.538262 0.069612
0.736995 0.536309 0.068818
0.800534 0.533776 0.067292
0.863798 0.531426 0.064271
0.926848 0.529137 0.059388
0.988617 0.525963 0.050477
0.003113 0.607141 0.070314
0.069459 0.606806 0.070100
0.136355 0.606439 0.070039
0.202884 0.606073 0.070039
0.269871 0.605707 0.069978
0.336431 0.605066 0.069795
0.403082 0.604303 0.069215
0.469306 0.603388 0.068788
0.535363 0.602350 0.068360
0.601068 0.601099 0.067384
0.666163 0.599695 0.066224
0.730556 0.597711 0.064729
0.794491 0.595666 0.061677
0.858610 0.593927 0.057527
0.922210 0.591913 0.050996
0.982971 0.587884 0.035248
0.000000 0.667323 0.067292
0.065736 0.667262 0.067079
0.133333 0.666926 0.067079
0.199741 0.666468 0.066682
0.265934 0.665949 0.066133
0.332219 0.665156 0.065461
0.398230 0.664332 0.064607
0.463966 0.663478 0.063783
0.529839 0.662684 0.063294
0.595178 0.661616 0.061555
0.660121 0.660243 0.060365
0.724666 0.658717 0.057801
0.787930 0.656336 0.052277
0.851072 0.653895 0.043549
0.913603 0.651087 0.029206
0.974640 0.647211 0.006592
0.000000 0.727077 0.059388
0.058747 0.726894 0.059052
0.127474 0.726314 0.058595
0.194675 0.725490 0.057313
0.260746 0.724727 0.055970
0.326787 0.723842 0.054658
0.392584 0.723018 0.053254
0.457862 0.721889 0.051057
0.522911 0.720638 0.049073
0.587243 0.718898 0.045045
0.651301 0.717006 0.040620
0.714961 0.715114 0.036225
0.778622 0.713344 0.029938
0.841611 0.711147 0.016114
0.904295 0.708705 0.000000
0.967834 0.706813 0.000000
0.000000 0.774258 0.015198
0.013642 0.774411 0.015259
0.105226 0.775296 0.017151
0.179721 0.776059 0.018158
0.249393 0.777218 0.019776
0.317418 0.778256 0.021210
0.384955 0.779904 0.023590
0.451911 0.780972 0.024414
0.519036 0.782345 0.026246
0.585565 0.783139 0.026429
0.652491 0.784390 0.027405
0.719020 0.785092 0.027192
0.786160 0.786343 0.028534
0.851255 0.785519 0.023285
0.912505 0.781094 0.000000
0.969146 0.772824 0.000000
0.000000 0.842222 0.000000
0.000000 0.837278 0.000000
0.078737 0.835111 0.000000
0.163607 0.834714 0.000000
0.237461 0.835630 0.000000
0.307500 0.836271 0.000000
0.375769 0.837186 0.000000
0.443183 0.838132 0.000000
0.510613 0.839506 0.000000
0.576959 0.839963 0.000000
0.643641 0.840818 0.000000
0.709590 0.841093 0.000000
0.775845 0.841703 0.000000
0.840665 0.840787 0.000000
0.903960 0.838560 0.000000
0.963897 0.833158 0.000000
0.000000 0.900877 0.000000
0.000000 0.896605 0.000000
0.006928 0.894377 0.000000
0.133272 0.893645 0.000000
0.217166 0.893980 0.000000
0.291875 0.894469 0.000000
0.363256 0.895445 0.000000
0.432105 0.895995 0.000000
0.500084 0.896696 0.000000
0.566979 0.897002 0.000000
0.633814 0.897581 0.000000
0.700343 0.898070 0.000000
0.767269 0.899138 0.000000
0.833371 0.899413 0.000000
0.898833 0.898985 0.000000
0.961364 0.895720 0.000000
0.000000 0.961730 0.000000
0.000000 0.958190 0.000000
0.000000 0.956237 0.000000
0.059510 0.955657 0.000000
0.181521 0.955962 0.000000
0.267613 0.956512 0.000000
0.344854 0.957427 0.000000
0.417731 0.958282 0.000000
0.488685 0.959503 0.000000
0.558404 0.960784 0.000000
0.627436 0.962280 0.000000
0.695918 0.963561 0.000000
0.764797 0.965576 0.000000
0.833310 0.967376 0.000000
0.902525 0.969757 0.000000
0.972168 0.972290 0.000000
0.000244 0.000183 0.185550
0.096803 0.000000 0.181888
0.173953 0.000000 0.174746
0.247410 0.000183 0.167147
0.315190 0.000275 0.159945
0.379309 0.000000 0.154726
0.443763 0.001587 0.151797
0.507958 0.004028 0.149294
0.571344 0.003662 0.146548
0.636042 0.004059 0.144961
0.699702 0.004181 0.143313
0.760403 0.006897 0.141817
0.820340 0.006836 0.140139
0.882139 0.008118 0.138949
0.943725 0.007111 0.137514
1.000000 0.003754 0.135164
0.000000 0.090425 0.178836
0.086854 0.086732 0.173342
0.167971 0.083894 0.168063
0.242039 0.081941 0.162783
0.310155 0.080446 0.157595
0.376715 0.080659 0.154391
0.442451 0.079164 0.151614
0.507103 0.078218 0.149111
0.571405 0.076905 0.146670
0.636378 0.076020 0.144961
0.699580 0.075196 0.143282
0.759945 0.075380 0.141787
0.819730 0.073732 0.139956
0.881193 0.073793 0.138705
0.942626 0.072175 0.137240
1.000000 0.069886 0.134798
0.000000 0.168063 0.168063
0.082979 0.165042 0.165072
0.161837 0.161837 0.161837
0.235935 0.159060 0.158938
0.306340 0.156405 0.156527
0.374456 0.154025 0.154055
0.440925 0.151461 0.151339
0.505852 0.148836 0.148623
0.571313 0.146792 0.146761
0.635828 0.145022 0.144961
0.697993 0.143313 0.143099
0.757961 0.141665 0.141299
0.817990 0.139834 0.139528
0.879454 0.138521 0.138338
0.941039 0.136934 0.136629
1.000000 0.134707 0.134279
0.000000 0.237705 0.160311
0.082002 0.235264 0.158877
0.157107 0.232792 0.157290
0.230014 0.230076 0.155337
0.300420 0.226993 0.153597
0.368841 0.223941 0.151766
0.435706 0.220798 0.149386
0.502342 0.218326 0.147646
0.567498 0.215824 0.145754
0.631952 0.213352 0.143801
0.694209 0.211002 0.142061
0.754513 0.208530 0.140505
0.816098 0.206394 0.139101
0.877256 0.204440 0.137514
0.937652 0.201999 0.135195
0.998199 0.199344 0.132326
0.005158 0.298863 0.153262
0.081025 0.298192 0.152712
0.151949 0.296849 0.152041
0.222629 0.294774 0.150912
0.292180 0.292058 0.149264
0.360479 0.289464 0.147890
0.427955 0.286809 0.146334
0.494728 0.284520 0.144961
0.560388 0.282017 0.143435
0.625605 0.279911 0.142031
0.688960 0.277379 0.140810
0.751553 0.275181 0.139925
0.814115 0.273228 0.138674
0.876646 0.271305 0.137697
0.938476 0.269200 0.135683
0.998871 0.266270 0.132631
0.005768 0.362951 0.149538
0.079561 0.362707 0.149233
0.148714 0.361730 0.148684
0.218448 0.360143 0.148196
0.287449 0.358038 0.147036
0.355688 0.355749 0.145632
0.422919 0.353216 0.144289
0.489967 0.351049 0.143252
0.555993 0.348699 0.141909
0.621180 0.346319 0.140658
0.684810 0.343633 0.139712
0.747890 0.341222 0.138918
0.810300 0.338811 0.137545
0.872709 0.336522 0.136110
0.934722 0.334173 0.133730
0.996246 0.331518 0.130922
0.007080 0.427008 0.146670
0.078096 0.427344 0.146731
0.146212 0.426581 0.146365
0.215152 0.425391 0.145876
0.283726 0.423621 0.144930
0.351904 0.421607 0.143954
0.419226 0.419196 0.142794
0.485542 0.416785 0.141665
0.551293 0.414130 0.140414
0.616449 0.411688 0.139132
0.679744 0.408728 0.138491
0.742916 0.406012 0.137423
0.805539 0.403418 0.135714
0.868132 0.400977 0.133944
0.930480 0.398505 0.131411
0.993011 0.396216 0.128298
0.005493 0.488624 0.143191
0.075563 0.489418 0.143465
0.142794 0.489052 0.143313
0.211490 0.488197 0.142763
0.279576 0.486641 0.142397
0.346990 0.484657 0.141482
0.413611 0.482338 0.140108
0.479805 0.479866 0.139101
0.545129 0.477272 0.137972
0.610163 0.475013 0.137240
0.674189 0.472358 0.136507
0.737789 0.469917 0.135256
0.800839 0.467292 0.133639
0.863340 0.464637 0.131380
0.924773 0.461494 0.127382
0.985687 0.458015 0.121614
0.002564 0.547082 0.138918
0.070863 0.546929 0.138827
0.138491 0.546593 0.138857
0.205936 0.546105 0.138705
0.273625 0.545464 0.138430
0.341070 0.544549 0.138033
0.407996 0.543664 0.137758
0.474647 0.542351 0.137270
0.540795 0.540948 0.136782
0.606714 0.539483 0.136202
0.672023 0.537835 0.135988
0.736477 0.535882 0.135042
0.800015 0.533379 0.133211
0.863432 0.531121 0.131014
0.926604 0.528862 0.128145
0.988647 0.525750 0.122469
0.003082 0.606806 0.136629
0.069306 0.606561 0.136599
0.135927 0.606226 0.136385
0.202914 0.605890 0.136355
0.269749 0.605554 0.136324
0.336431 0.604944 0.136019
0.402899 0.604120 0.135409
0.469062 0.603143 0.135073
0.535149 0.602136 0.134463
0.600732 0.600885 0.133822
0.665797 0.599298 0.132631
0.730190 0.597375 0.131289
0.794156 0.595392 0.129244
0.858305 0.593713 0.126680
0.922026 0.591669 0.122652
0.983062 0.587701 0.114046
0.000000 0.667109 0.133761
0.066163 0.667140 0.133730
0.133333 0.666865 0.133669
0.199557 0.666438 0.133120
0.265843 0.665888 0.132845
0.332067 0.665095 0.132113
0.398077 0.664302 0.131807
0.464088 0.663416 0.131197
0.529808 0.662562 0.130312
0.595026 0.661372 0.129488
0.659907 0.659968 0.128359
0.724422 0.658442 0.126680
0.787594 0.655940 0.123079
0.850889 0.653651 0.118257
0.913603 0.650935 0.110842
0.974853 0.647089 0.098299
0.000000 0.726955 0.127901
0.056580 0.726772 0.127718
0.126833 0.726253 0.127260
0.194186 0.725521 0.126528
0.260563 0.724849 0.126101
0.326665 0.724056 0.124941
0.392615 0.723201 0.124269
0.457862 0.721981 0.122927
0.522850 0.720638 0.121096
0.587152 0.718837 0.118959
0.651179 0.716915 0.116609
0.714870 0.714931 0.113771
0.778408 0.713161 0.110597
0.841489 0.710933 0.102937
0.904173 0.708370 0.090730
0.967834 0.706477 0.074342
0.000000 0.775021 0.103609
0.008728 0.775174 0.103670
0.103120 0.775906 0.104128
0.178500 0.776608 0.104921
0.248692 0.777768 0.105684
0.316838 0.778714 0.106905
0.384741 0.780270 0.108156
0.451820 0.781277 0.108858
0.519036 0.782681 0.110109
0.585657 0.783474 0.110170
0.652705 0.784726 0.111177
0.719356 0.785458 0.111238
0.786618 0.786679 0.112032
0.851560 0.785733 0.109224
0.912718 0.781216 0.095094
0.969604 0.772976 0.058595
0.000000 0.842679 0.089296
0.000000 0.837919 0.079774
0.074495 0.835904 0.075471
0.160922 0.835538 0.074037
0.236057 0.836301 0.074830
0.306340 0.836942 0.074983
0.375219 0.837797 0.075593
0.442939 0.838712 0.076326
0.510491 0.840055 0.077485
0.577050 0.840482 0.076387
0.643702 0.841276 0.075990
0.709773 0.841489 0.073915
0.776089 0.842069 0.072023
0.840909 0.841093 0.064881
0.904326 0.838743 0.050599
0.964446 0.833402 0.000000
0.000000 0.901274 0.023774
0.000000 0.897124 0.003937
0.000000 0.894987 0.000000
0.127810 0.894316 0.000000
0.214298 0.894591 0.000000
0.289982 0.895109 0.000000
0.361913 0.896117 0.000000
0.431159 0.896635 0.000000
0.499397 0.897185 0.000000
0.566552 0.897429 0.000000
0.633631 0.898039 0.000000
0.700282 0.898497 0.000000
0.767391 0.899535 0.000000
0.833585 0.899779 0.000000
0.899229 0.899351 0.000000
0.961883 0.896117 0.000000
0.000000 0.962249 0.000000
0.000000 0.958740 0.000000
0.000000 0.956847 0.000000
0.040070 0.956268 0.000000
0.175387 0.956664 0.000000
0.264012 0.957183 0.000000
0.342260 0.958068 0.000000
0.415869 0.958831 0.000000
0.487312 0.960021 0.000000
0.557427 0.961273 0.000000
0.626886 0.962768 0.000000
0.695552 0.964019 0.000000
0.764523 0.965942 0.000000
0.833310 0.967681 0.000000
0.902647 0.970031 0.000000
0.972412 0.972564 0.000000
0.000183 0.000153 0.262272
0.091524 0.000000 0.258488
0.168948 0.000214 0.251133
0.242069 0.000305 0.242893
0.310399 0.000244 0.234348
0.376104 0.000244 0.227787
0.441077 0.001434 0.223301
0.505150 0.003998 0.219638
0.568688 0.006012 0.216434
0.633143 0.006744 0.214267
0.696681 0.007080 0.212070
0.757687 0.009949 0.209995
0.818265 0.010956 0.207645
0.880613 0.010437 0.206210
0.942473 0.009583 0.204288
1.000000 0.004181 0.201511
0.000000 0.086824 0.254490
0.084382 0.084627 0.249180
0.163943 0.082551 0.243412
0.237552 0.080598 0.237552
0.306523 0.080018 0.231327
0.374029 0.080049 0.226932
0.439582 0.079774 0.222873
0.503838 0.079438 0.219394
0.568658 0.078737 0.216739
0.633448 0.077668 0.214481
0.696620 0.076112 0.212100
0.757321 0.076661 0.209781
0.817807 0.075746 0.207523
0.879667 0.075532 0.205844
0.941344 0.072999 0.203830
1.000000 0.070130 0.201144
0.000000 0.164645 0.244114
0.083436 0.162264 0.240177
0.159854 0.159854 0.236332
0.233188 0.157534 0.233158
0.303258 0.155642 0.229404
0.371283 0.153597 0.225925
0.437476 0.151583 0.222507
0.502953 0.149325 0.219394
0.568322 0.147158 0.216861
0.632837 0.145235 0.214237
0.695125 0.143282 0.211582
0.755337 0.141878 0.209079
0.816129 0.140475 0.206973
0.877958 0.139193 0.205051
0.939849 0.137118 0.203067
1.000000 0.134371 0.200626
0.000000 0.235203 0.235080
0.082399 0.233005 0.232975
0.156588 0.230594 0.230533
0.228275 0.228275 0.228275
0.297765 0.225681 0.225620
0.365972 0.222934 0.222904
0.433051 0.220279 0.220249
0.499702 0.217899 0.217685
0.564813 0.215274 0.215122
0.629236 0.212741 0.212589
0.691676 0.210513 0.210269
0.752438 0.208194 0.208042
0.814481 0.206546 0.206271
0.875853 0.204501 0.204349
0.936492 0.201968 0.201572
0.997375 0.198825 0.198459
0.005188 0.296910 0.224521
0.081758 0.296147 0.224063
0.151949 0.294682 0.223148
0.221744 0.292912 0.221683
0.290440 0.290593 0.219821
0.358770 0.288273 0.217929
0.426001 0.285832 0.215946
0.492866 0.283543 0.214023
0.558434 0.281041 0.211978
0.623560 0.278904 0.210208
0.686793 0.276677 0.208530
0.749966 0.274846 0.207187
0.812772 0.272923 0.205814
0.875425 0.271183 0.204349
0.937530 0.268986 0.202152
0.998260 0.265873 0.198886
0.009033 0.361456 0.219821
0.080476 0.361242 0.219699
0.148836 0.360296 0.218936
0.218051 0.358679 0.218021
0.286381 0.356847 0.216373
0.354528 0.354589 0.214908
0.421729 0.352239 0.213169
0.488594 0.349981 0.211673
0.554345 0.347723 0.210117
0.619593 0.345495 0.208530
0.683253 0.343053 0.207218
0.746456 0.340764 0.205905
0.809079 0.338415 0.204318
0.871733 0.336095 0.202579
0.933867 0.333806 0.200290
0.995819 0.331121 0.197421
0.007538 0.425422 0.215763
0.078126 0.425727 0.215702
0.145937 0.425147 0.215427
0.214633 0.423987 0.214664
0.282933 0.422339 0.213687
0.350958 0.420447 0.212589
0.418097 0.418219 0.211154
0.484413 0.415747 0.209689
0.550011 0.413184 0.208103
0.615106 0.410803 0.206729
0.678492 0.407904 0.205386
0.741756 0.405402 0.203983
0.804501 0.402808 0.202396
0.867247 0.400488 0.200381
0.929839 0.398108 0.197910
0.992615 0.395697 0.194858
0.004120 0.487495 0.211185
