luts/Agfa_Optima_100.cube
# Generated for krafta web app
# https://www.facebook.com/krafta.visio
# Preset: AGF - Optima 100
# Color profile : sRGB Color Space Profile
LUT_3D_SIZE 16
DOMAIN_MIN 0.0 0.0 0.0
DOMAIN_MAX 1.0 1.0 1.0
0.000000 0.000000 0.000000
0.114748 0.001678 0.001190
0.231327 0.002167 0.002808
0.317906 0.003571 0.004242
0.386511 0.005432 0.005005
0.452155 0.006195 0.005371
0.512749 0.007538 0.006714
0.577325 0.011109 0.010956
0.638514 0.019348 0.018402
0.699580 0.028687 0.027832
0.757107 0.041688 0.040772
0.811551 0.055848 0.055055
0.864408 0.069184 0.067018
0.919371 0.080934 0.080293
0.974395 0.093660 0.092470
1.000000 0.103822 0.102968
0.003174 0.126131 0.003021
0.121157 0.121462 0.004395
0.218326 0.122377 0.002686
0.304570 0.117220 0.001587
0.376165 0.109407 0.002686
0.442329 0.103182 0.003845
0.508934 0.099214 0.007233
0.574090 0.098848 0.013855
0.634668 0.099367 0.022095
0.696620 0.101534 0.032532
0.754177 0.105715 0.044617
0.808499 0.110811 0.057893
0.861021 0.115511 0.069459
0.916136 0.122713 0.081453
0.971588 0.130282 0.093690
1.000000 0.136751 0.104402
0.000000 0.217899 0.000000
0.114717 0.211063 0.000000
0.203738 0.203891 0.000000
0.286931 0.197147 0.000000
0.361852 0.189303 0.001526
0.434180 0.183719 0.006653
0.502159 0.178958 0.013214
0.566857 0.175051 0.020508
0.628595 0.172152 0.029206
0.692164 0.171328 0.039521
0.749630 0.171054 0.051667
0.803922 0.170962 0.063447
0.856046 0.172152 0.073640
0.912261 0.174807 0.085847
0.968231 0.178683 0.097169
1.000000 0.183139 0.107668
0.000000 0.287877 0.000000
0.106600 0.283085 0.000366
0.191409 0.278141 0.002625
0.273198 0.273106 0.005768
0.348699 0.265873 0.012085
0.420142 0.259342 0.018128
0.487648 0.252720 0.025330
0.553521 0.247898 0.033051
0.618799 0.244297 0.041871
0.682246 0.241733 0.050752
0.739467 0.238346 0.060273
0.793851 0.235569 0.070588
0.847959 0.233799 0.079286
0.903380 0.233585 0.089570
0.957855 0.233890 0.098726
1.000000 0.235599 0.108461
0.020691 0.348211 0.021820
0.107424 0.347387 0.023468
0.185306 0.347509 0.025269
0.264164 0.344793 0.028717
0.340398 0.340581 0.032532
0.413428 0.335088 0.038453
0.482582 0.328679 0.044526
0.550347 0.323674 0.051148
0.616480 0.318944 0.057679
0.680720 0.314977 0.064912
0.738582 0.309850 0.073610
0.794858 0.305516 0.082734
0.851072 0.302525 0.091768
0.907866 0.300877 0.101350
0.962860 0.299565 0.110262
1.000000 0.297307 0.116609
0.046448 0.410559 0.048066
0.114351 0.411872 0.049500
0.184024 0.412085 0.051240
0.257267 0.409918 0.053864
0.329686 0.405859 0.055665
0.401221 0.401221 0.059602
0.471656 0.396918 0.063996
0.540795 0.392920 0.067781
0.607294 0.388220 0.072663
0.670954 0.383246 0.078737
0.729000 0.376745 0.085725
0.786740 0.371527 0.093874
0.843320 0.367254 0.101320
0.900298 0.364324 0.109224
0.955901 0.361578 0.117372
1.000000 0.358465 0.123201
0.069184 0.472694 0.069764
0.122469 0.474067 0.070649
0.184085 0.474098 0.071870
0.253056 0.472450 0.073182
0.323064 0.469886 0.075227
0.393561 0.466987 0.077394
0.463539 0.463813 0.080995
0.532189 0.459846 0.083925
0.597253 0.454017 0.087251
0.659449 0.447913 0.091676
0.718868 0.441321 0.097963
0.777646 0.436042 0.104982
0.834897 0.431098 0.111116
0.892210 0.427192 0.117952
0.948425 0.423682 0.124514
1.000000 0.420050 0.131044
0.085603 0.532372 0.085145
0.130770 0.535027 0.087098
0.186831 0.536400 0.088655
0.251713 0.535698 0.090028
0.319249 0.533471 0.091310
0.386633 0.529442 0.091859
0.453162 0.524163 0.093721
0.519280 0.519310 0.095766
0.584161 0.514397 0.098238
0.646632 0.508690 0.103243
0.707179 0.502770 0.109041
0.766842 0.497505 0.114534
0.824704 0.492256 0.120089
0.881926 0.487587 0.125154
0.938079 0.483314 0.130648
0.996246 0.480995 0.137819
0.096498 0.578363 0.096925
0.133761 0.578576 0.097017
0.184268 0.579675 0.098299
0.243900 0.579950 0.099611
0.307988 0.579706 0.101869
0.373541 0.578668 0.103975
0.440467 0.577203 0.106111
0.506737 0.575128 0.108522
0.573022 0.573083 0.111727
0.638453 0.570642 0.115877
0.701137 0.566552 0.121920
0.762173 0.562097 0.127077
0.821256 0.557000 0.132662
0.878874 0.551995 0.137728
0.935668 0.547417 0.143282
0.990936 0.542504 0.147005
0.112367 0.633448 0.113344
0.143801 0.632502 0.113191
0.187991 0.632380 0.113466
0.243229 0.631983 0.114382
0.303502 0.631464 0.115694
0.366491 0.630762 0.117617
0.431434 0.630243 0.119783
0.496162 0.629145 0.122072
0.561456 0.627985 0.125368
0.626154 0.626307 0.128634
0.690394 0.624170 0.132082
0.750637 0.619440 0.136202
0.809659 0.614435 0.140688
0.868772 0.610437 0.145449
0.927153 0.606653 0.150820
0.985046 0.603174 0.155978
0.127260 0.686915 0.126955
0.153719 0.686427 0.127077
0.194034 0.685908 0.127382
0.244999 0.685328 0.128359
0.302098 0.684871 0.129122
0.362432 0.684169 0.130404
0.424781 0.683497 0.132326
0.487984 0.682429 0.134371
0.551446 0.681331 0.137362
0.614679 0.679683 0.139437
0.677699 0.677729 0.142336
0.739773 0.675227 0.145632
0.799924 0.671504 0.149050
0.860014 0.668452 0.153841
0.919768 0.665583 0.159335
0.978393 0.662562 0.164309
0.139559 0.740078 0.140047
0.163149 0.739528 0.140230
0.199924 0.739071 0.139742
0.247532 0.738491 0.140902
0.301762 0.737758 0.140749
0.359686 0.736904 0.141909
0.419959 0.735958 0.143343
0.481056 0.735012 0.144961
0.543206 0.734096 0.147402
0.605341 0.732753 0.149752
0.667689 0.731380 0.152560
0.729763 0.729915 0.155215
0.791928 0.728542 0.158907
0.852781 0.726375 0.163424
0.913268 0.724269 0.168490
0.973846 0.722774 0.175296
0.143984 0.787320 0.145052
0.167056 0.787411 0.145113
0.202152 0.788052 0.146242
0.248051 0.788632 0.148013
0.301122 0.789487 0.150240
0.357885 0.789975 0.152285
0.417578 0.790646 0.155032
0.478584 0.791012 0.157473
0.540612 0.791684 0.161532
0.603113 0.791867 0.165438
0.666224 0.792355 0.169314
0.729274 0.792386 0.174014
0.792569 0.792691 0.179660
0.854643 0.791775 0.183352
0.914000 0.788571 0.186709
0.970550 0.783352 0.187411
0.164462 0.849729 0.164645
0.179721 0.846494 0.160037
0.209873 0.845182 0.158938
0.252781 0.844907 0.158816
0.303410 0.845426 0.161074
0.358953 0.845823 0.163241
0.416846 0.846372 0.166232
0.476692 0.846860 0.168704
0.537804 0.847623 0.172671
0.599207 0.847776 0.176364
0.661311 0.848112 0.180819
0.723323 0.848020 0.184909
0.785580 0.848051 0.190066
0.847074 0.847166 0.193668
0.907622 0.845548 0.197055
0.966369 0.842435 0.198978
0.177523 0.907042 0.177340
0.190463 0.904265 0.172274
0.217777 0.902770 0.170108
0.257969 0.902281 0.169894
0.306737 0.902464 0.171633
0.360571 0.902708 0.173526
0.417609 0.903319 0.176822
0.476234 0.903655 0.179538
0.536248 0.904204 0.183505
0.596918 0.904387 0.187381
0.658167 0.904723 0.191745
0.719753 0.904967 0.196719
0.782040 0.905638 0.202976
0.843931 0.905821 0.208713
0.905486 0.905608 0.214328
0.965332 0.903777 0.216312
0.192782 0.966888 0.193240
0.203769 0.964660 0.187716
0.228367 0.963470 0.184573
0.266758 0.963104 0.184634
0.313909 0.963256 0.186526
0.366125 0.963592 0.188296
0.421942 0.964202 0.192447
0.479957 0.964813 0.196017
0.539666 0.965759 0.201785
0.600458 0.966766 0.207553
0.662104 0.967987 0.214908
0.724117 0.969177 0.222599
0.787076 0.971008 0.233310
0.850126 0.972778 0.243931
0.913725 0.975036 0.257389
0.977630 0.977752 0.272465
0.000092 0.000092 0.116426
0.129732 0.000244 0.130312
0.233341 0.000000 0.128176
0.316838 0.000305 0.114595
0.382910 0.000000 0.107851
0.446357 0.005524 0.104952
0.509361 0.017182 0.103426
0.572808 0.026429 0.103944
0.633082 0.035309 0.104646
0.694850 0.046448 0.107301
0.752926 0.057008 0.111208
0.806821 0.068818 0.115114
0.859037 0.078462 0.119783
0.913817 0.088655 0.126192
0.968536 0.099245 0.132174
1.000000 0.108095 0.138125
0.000000 0.129091 0.129305
0.122194 0.122194 0.122194
0.221927 0.115450 0.115480
0.304112 0.111299 0.110536
0.374517 0.107576 0.107576
0.440894 0.105562 0.105165
0.506889 0.105501 0.105257
0.570825 0.105531 0.105715
0.631617 0.106752 0.106355
0.694911 0.109590 0.109285
0.752285 0.113375 0.113313
0.805783 0.117647 0.117372
0.857359 0.122164 0.120821
0.911925 0.127260 0.126589
0.966369 0.133455 0.133059
1.000000 0.139956 0.138796
0.000000 0.221592 0.117403
0.114504 0.214664 0.114290
0.207370 0.207401 0.111360
0.290227 0.199649 0.109316
0.364813 0.193027 0.108492
0.435737 0.187991 0.108125
0.502586 0.183322 0.108675
0.566674 0.179690 0.108705
0.630396 0.177768 0.110018
0.693080 0.176730 0.112947
0.748989 0.175540 0.115450
0.801694 0.175143 0.119356
0.853544 0.175418 0.123293
0.908721 0.177951 0.128176
0.963439 0.180728 0.134524
1.000000 0.183932 0.140749
0.012665 0.292210 0.115419
0.113283 0.287266 0.113588
0.195865 0.281865 0.112123
0.276066 0.276371 0.110903
0.351659 0.269535 0.110872
0.423072 0.263188 0.110628
0.490883 0.257023 0.111238
0.557488 0.252659 0.112428
0.622339 0.248814 0.114046
0.684596 0.245640 0.115419
0.741176 0.241733 0.118441
0.794827 0.238682 0.122560
0.849760 0.237308 0.126589
0.904479 0.236881 0.131746
0.957641 0.236210 0.136568
1.000000 0.236576 0.141268
0.039094 0.348241 0.114076
0.113985 0.346838 0.113680
0.186770 0.344060 0.113863
0.261723 0.340002 0.113558
0.334752 0.334874 0.112825
0.406348 0.329717 0.113222
0.475135 0.324559 0.114565
0.543023 0.320409 0.115785
0.608667 0.316075 0.116884
0.672724 0.312352 0.119509
0.731106 0.307958 0.122652
0.788266 0.304143 0.126986
0.845365 0.301793 0.132265
0.902342 0.300267 0.137728
0.957763 0.298894 0.142702
1.000000 0.296941 0.147036
0.060792 0.409583 0.118563
0.118624 0.409277 0.119203
0.184268 0.407568 0.118868
0.255070 0.404761 0.119478
0.326329 0.401068 0.119326
0.396612 0.396857 0.119203
0.465644 0.392157 0.120150
0.533471 0.388128 0.121828
0.599756 0.383764 0.122683
0.663233 0.379278 0.125429
0.722438 0.373816 0.128847
0.780911 0.369421 0.133120
0.838010 0.365515 0.137423
0.894835 0.362646 0.141695
0.950561 0.359899 0.146761
1.000000 0.357549 0.151095
0.076204 0.472755 0.125185
0.126436 0.473213 0.125948
0.185611 0.471931 0.126223
0.252232 0.469581 0.126802
0.321324 0.466224 0.126436
0.390143 0.462623 0.126894
0.458442 0.458350 0.127504
0.525475 0.454139 0.128359
0.591028 0.449561 0.129213
0.653651 0.444007 0.132387
0.712856 0.437873 0.135561
0.771542 0.432685 0.139071
0.829038 0.427924 0.142519
0.886259 0.424262 0.146517
0.942596 0.420874 0.150668
0.998718 0.418158 0.155337
0.088991 0.530602 0.130739
0.132143 0.531945 0.131930
0.186313 0.531395 0.132265
0.249454 0.529747 0.132143
0.315526 0.527092 0.132723
0.382605 0.523613 0.133120
0.449104 0.519463 0.133730
0.515160 0.515160 0.134188
0.579767 0.510552 0.135012
0.641993 0.504997 0.138094
0.702144 0.499306 0.141482
0.761654 0.494301 0.144869
0.820005 0.489448 0.148348
0.877043 0.484840 0.151278
0.933379 0.480690 0.154910
0.991821 0.478645 0.160159
0.099794 0.580865 0.135744
0.135927 0.580560 0.136202
0.185458 0.580102 0.136751
0.244114 0.579370 0.137301
0.307530 0.578149 0.138033
0.372717 0.576715 0.138796
0.439002 0.575280 0.140627
0.504997 0.573083 0.142245
0.570611 0.570672 0.144228
0.635554 0.568048 0.147066
0.697993 0.563897 0.151400
0.758877 0.559564 0.154940
0.817716 0.554681 0.158572
0.876097 0.550256 0.162173
0.933898 0.546471 0.166415
0.990600 0.542535 0.169986
0.114382 0.633692 0.145663
0.145785 0.632990 0.145815
0.189639 0.632380 0.145602
0.243992 0.631739 0.146670
0.303960 0.631159 0.147463
0.366552 0.630121 0.148287
0.430549 0.628840 0.150088
0.494820 0.627222 0.151553
0.559289 0.625605 0.153719
0.623468 0.623621 0.155520
0.686854 0.621180 0.157931
0.747372 0.616602 0.160861
0.806912 0.612299 0.164309
0.866636 0.608972 0.168032
0.925963 0.605890 0.172549
0.984771 0.603174 0.177615
0.129183 0.687037 0.155703
0.155856 0.686915 0.156100
0.195529 0.686336 0.156100
0.246311 0.685573 0.156741
0.302525 0.684657 0.156588
0.362493 0.683345 0.157534
0.423987 0.681941 0.158114
0.486519 0.680446 0.159915
0.549706 0.679164 0.161807
0.612604 0.677333 0.163302
0.675074 0.675196 0.165103
0.737026 0.672724 0.167147
0.797726 0.669642 0.170840
0.858274 0.667048 0.174960
0.918395 0.664576 0.179355
0.977661 0.661982 0.183474
0.140322 0.739437 0.164889
0.164340 0.739071 0.164767
0.200534 0.738430 0.164767
0.247837 0.737819 0.164675
0.301640 0.737118 0.165194
0.359655 0.736294 0.166171
0.419593 0.735439 0.166659
0.480842 0.734340 0.168032
0.542473 0.733089 0.169924
0.604395 0.731533 0.171023
0.666285 0.729854 0.173404
0.728023 0.728145 0.175174
0.789731 0.726528 0.177951
0.850431 0.724300 0.180880
0.910765 0.722133 0.185428
0.971649 0.720851 0.190311
0.146090 0.788449 0.168032
0.168521 0.788449 0.168856
0.203128 0.788907 0.169741
0.248905 0.789212 0.170809
0.301549 0.789761 0.171939
0.358465 0.790097 0.174228
0.417945 0.790829 0.176608
0.478706 0.791104 0.178927
0.540673 0.791562 0.181888
0.602930 0.791623 0.184878
0.665919 0.791928 0.188693
0.728878 0.791928 0.192844
0.792172 0.792264 0.197635
0.854276 0.791440 0.201022
0.913817 0.788479 0.204532
0.970794 0.783627 0.204715
0.165530 0.850370 0.185092
0.180850 0.847410 0.181308
0.210697 0.846098 0.179812
0.253727 0.845762 0.179904
0.304265 0.846128 0.181491
0.359442 0.846372 0.183413
0.417182 0.846708 0.185550
0.476783 0.847013 0.187900
0.537835 0.847562 0.191409
0.599084 0.847532 0.194400
0.661128 0.847776 0.198398
0.723079 0.847684 0.201846
0.785367 0.847868 0.206485
0.846983 0.847105 0.210056
0.907683 0.845640 0.212955
0.966735 0.842771 0.214725
0.178042 0.907469 0.195499
0.190921 0.904906 0.191348
0.218479 0.903563 0.189487
0.258885 0.903075 0.189059
0.307469 0.903197 0.190097
0.361028 0.903380 0.192111
0.418006 0.903868 0.194919
0.476387 0.904051 0.197055
0.536217 0.904326 0.200076
0.596704 0.904387 0.203616
0.658015 0.904631 0.207156
0.719661 0.904845 0.211978
0.781888 0.905516 0.217655
0.843870 0.905730 0.222934
0.905516 0.905669 0.228336
0.965545 0.904021 0.230533
0.193088 0.967254 0.209384
0.203738 0.965179 0.204013
0.228611 0.964019 0.201389
0.267002 0.963653 0.201144
0.313909 0.963867 0.202945
0.366430 0.964172 0.205234
0.422217 0.964752 0.207950
0.480201 0.965301 0.211765
0.539788 0.966094 0.216281
0.600427 0.966979 0.221592
0.661952 0.968078 0.228092
0.723934 0.969146 0.235386
0.786770 0.970794 0.244724
0.849729 0.972503 0.254704
0.913451 0.974792 0.267155
0.977417 0.977569 0.282078
0.000336 0.000000 0.247990
0.133455 0.000214 0.241489
0.225376 0.000061 0.226871
0.306981 0.000000 0.210544
0.375494 0.000183 0.196445
0.437232 0.017426 0.187747
0.500206 0.037568 0.184207
0.562921 0.050721 0.181460
0.624292 0.055512 0.178470
0.687861 0.063050 0.177584
0.746487 0.072572 0.177218
0.801114 0.082307 0.178317
0.854154 0.090211 0.178683
0.910369 0.099916 0.180880
0.965911 0.108553 0.183963
1.000000 0.115755 0.186252
0.000000 0.123903 0.236484
0.117647 0.117525 0.224857
0.214084 0.112367 0.214054
0.295354 0.110323 0.203006
0.364477 0.110567 0.193484
0.431830 0.113161 0.188785
0.497292 0.114900 0.185397
0.561456 0.114900 0.181735
0.624659 0.115541 0.179660
0.688380 0.117861 0.178683
0.746334 0.121157 0.178622
0.800381 0.125856 0.178775
0.852964 0.129397 0.179263
0.908690 0.134585 0.181613
0.963806 0.140566 0.184085
1.000000 0.145541 0.186679
0.000000 0.215396 0.215183
0.114076 0.209323 0.209506
0.203311 0.203311 0.203311
0.283360 0.197971 0.198032
0.357275 0.194034 0.194095
0.427924 0.190280 0.190005
0.494911 0.186618 0.186435
0.559167 0.183139 0.182773
0.624475 0.181521 0.181186
0.687282 0.180301 0.180301
0.743374 0.179812 0.179538
0.796689 0.179568 0.179019
0.849790 0.180148 0.179477
0.905425 0.182254 0.181857
0.960967 0.184817 0.184665
1.000000 0.187533 0.187350
0.027863 0.287755 0.201846
0.119570 0.282963 0.199405
0.196414 0.278202 0.196567
0.273228 0.273472 0.193362
0.347173 0.267887 0.190555
0.417853 0.262547 0.187778
0.485359 0.257145 0.184878
0.552941 0.253574 0.183169
0.617517 0.249851 0.181338
0.679866 0.246738 0.180240
0.736507 0.243442 0.180087
0.790433 0.240818 0.180270
0.846281 0.239719 0.181613
0.901335 0.238987 0.183139
0.954833 0.238346 0.184146
1.000000 0.238346 0.186069
0.059907 0.344579 0.190982
0.121462 0.343297 0.190524
0.189120 0.340917 0.189273
0.260838 0.337194 0.187472
0.332525 0.332403 0.185519
0.402899 0.327794 0.183413
0.471473 0.323278 0.182040
0.538903 0.319402 0.180789
0.604456 0.315404 0.180087
0.668330 0.312016 0.179995
0.727016 0.307988 0.180514
0.784878 0.305119 0.181796
0.842588 0.302953 0.183658
0.899901 0.301549 0.186618
0.955840 0.300328 0.188968
1.000000 0.298528 0.190646
0.071443 0.407507 0.187716
0.125063 0.407202 0.187655
0.187167 0.405493 0.186984
0.255741 0.402686 0.186160
0.325353 0.398993 0.185245
0.395117 0.394965 0.183627
0.463172 0.390600 0.182589
0.530877 0.386694 0.182071
0.596796 0.382727 0.181430
0.660090 0.378332 0.181674
0.719600 0.373419 0.182589
0.778225 0.369512 0.184634
0.835630 0.365820 0.186435
0.892729 0.363165 0.188266
0.948913 0.360571 0.190524
1.000000 0.358221 0.192844
0.083284 0.470680 0.187564
0.130373 0.471321 0.187625
0.187503 0.470130 0.187778
0.252873 0.467933 0.187015
0.320897 0.464668 0.186404
0.389380 0.461311 0.185641
0.457069 0.457252 0.185031
0.523827 0.452949 0.184298
0.589044 0.448219 0.183505
0.651453 0.442939 0.183902
0.710536 0.437171 0.185489
0.769406 0.432227 0.186709
0.826932 0.427771 0.188479
0.884367 0.424140 0.190463
0.941039 0.420966 0.192599
0.997772 0.418524 0.195132
0.092348 0.529107 0.186923
0.134401 0.530571 0.187442
0.187503 0.530022 0.187533
0.249912 0.528466 0.187442
0.315618 0.525719 0.187289
0.381994 0.522393 0.186770
0.448310 0.518181 0.185672
0.514031 0.514092 0.185428
0.578302 0.509514 0.185306
0.640589 0.504051 0.186526
0.700649 0.498634 0.187930
0.760098 0.493751 0.189822
0.818418 0.488960 0.191623
0.875486 0.484504 0.192538
0.932280 0.480598 0.194186
0.990875 0.478584 0.197757
0.102968 0.580041 0.186282
0.138460 0.579675 0.186526
0.186770 0.579217 0.186801
0.244968 0.578302 0.186923
0.307744 0.577203 0.187320
0.372717 0.575769 0.187716
0.438453 0.574304 0.188602
0.504295 0.572168 0.189761
0.569787 0.569757 0.190768
0.634485 0.567193 0.192203
0.696773 0.563195 0.194980
0.757595 0.558953 0.197421
0.816495 0.554131 0.199191
0.875059 0.550011 0.201205
0.933196 0.546410 0.204074
0.990204 0.542748 0.206241
0.118715 0.632959 0.191348
0.147890 0.632532 0.190951
0.191226 0.631952 0.191379
0.244938 0.631403 0.191775
0.304906 0.630823 0.192477
0.367041 0.629755 0.192691
0.430640 0.628412 0.193759
0.494728 0.626703 0.194491
0.558984 0.625147 0.196017
0.622919 0.623072 0.196994
0.686030 0.620508 0.198184
0.746426 0.616083 0.200412
0.806058 0.611994 0.201907
0.865995 0.608698 0.204776
0.925444 0.605859 0.208225
0.984558 0.603204 0.211337
0.131991 0.686580 0.197299
0.158419 0.686610 0.197116
0.197299 0.686183 0.197513
0.247379 0.685389 0.197696
0.303532 0.684382 0.197971
0.363165 0.683101 0.198245
0.424323 0.681758 0.198672
0.486915 0.680262 0.199161
0.549706 0.678920 0.200473
0.612329 0.676936 0.201450
0.674464 0.674739 0.202884
0.736416 0.672267 0.203952
0.797177 0.669368 0.206424
0.857847 0.666926 0.208927
0.918120 0.664485 0.212436
0.977508 0.662013 0.214939
0.143038 0.739071 0.202121
0.165896 0.738766 0.202213
0.201877 0.738155 0.201724
0.248783 0.737545 0.202243
0.302708 0.736934 0.202487
0.360082 0.736172 0.202914
0.420142 0.735317 0.203525
0.481025 0.734157 0.204257
0.542657 0.732876 0.205570
0.604273 0.731319 0.206302
0.666041 0.729641 0.207675
0.727810 0.727901 0.208957
0.789456 0.726314 0.210819
0.850126 0.724086 0.213260
0.910491 0.721920 0.215793
0.971466 0.720699 0.220035
0.147738 0.788724 0.203372
0.169680 0.788724 0.203464
0.204166 0.789059 0.204074
0.249454 0.789364 0.205051
0.302159 0.789853 0.206363
0.358862 0.790188 0.208133
0.418250 0.790860 0.210025
0.478920 0.791104 0.212314
0.540917 0.791592 0.215061
0.603143 0.791684 0.217319
0.666133 0.792020 0.220737
0.728969 0.792050 0.223789
0.792294 0.792416 0.227970
0.854276 0.791470 0.230747
0.913848 0.788479 0.232914
0.970947 0.783719 0.232242
0.166354 0.850492 0.216220
0.181491 0.847654 0.212558
0.211643 0.846403 0.211887
0.254124 0.846098 0.211704
0.304692 0.846403 0.213107
0.359625 0.846616 0.214389
0.417426 0.846952 0.216190
0.477089 0.847257 0.218601
0.538048 0.847776 0.221592
0.599298 0.847776 0.224002
0.661250 0.847990 0.226993
0.723171 0.847868 0.230564
0.785550 0.847959 0.234134
0.847074 0.847227 0.237156
0.907805 0.845731 0.239139
0.966918 0.842924 0.240391
0.177523 0.907622 0.224033
0.190555 0.905150 0.220218
0.217960 0.903838 0.218082
0.258518 0.903380 0.217899
0.307256 0.903502 0.218875
0.360937 0.903685 0.220493
0.417792 0.904173 0.222721
0.476387 0.904326 0.225162
0.536217 0.904570 0.227665
0.596826 0.904570 0.230320
0.658137 0.904814 0.233982
0.719722 0.905058 0.237369
0.782040 0.905699 0.242741
0.844053 0.905913 0.247532
0.905760 0.905882 0.252049
0.965850 0.904234 0.253666
0.191287 0.967498 0.234409
0.201846 0.965454 0.229465
0.227024 0.964324 0.227298
0.265629 0.963989 0.227237
0.313024 0.964233 0.228763
0.365667 0.964538 0.230350
0.421698 0.965057 0.233097
0.479713 0.965606 0.235996
0.539452 0.966369 0.240574
0.600366 0.967254 0.245457
0.661982 0.968322 0.251438
0.723934 0.969390 0.257633
0.786801 0.971008 0.265995
0.849882 0.972686 0.275303
0.913573 0.974975 0.287114
0.977630 0.977752 0.301152
0.000580 0.000122 0.332830
0.121035 0.000183 0.325231
0.211704 0.000000 0.310460
0.293767 0.000000 0.294469
0.365240 0.000000 0.278325
0.430457 0.019226 0.266117
0.494636 0.037415 0.258518
0.557092 0.052430 0.252842
0.618555 0.063722 0.248722
0.681758 0.072175 0.246403
0.740414 0.082490 0.244511
0.795529 0.093141 0.242832
0.849821 0.101381 0.241398
0.906889 0.110201 0.242039
0.962951 0.117739 0.242557
1.000000 0.123690 0.242130
0.000000 0.117189 0.318090
0.113283 0.113375 0.307225
0.203708 0.110323 0.295903
0.284489 0.108492 0.284764
0.356939 0.109071 0.272923
0.426062 0.112520 0.265202
0.491676 0.115267 0.258518
0.554742 0.117525 0.253239
0.618769 0.120394 0.249882
0.682216 0.123171 0.247379
0.740230 0.127199 0.245243
0.794766 0.132387 0.243229
0.848966 0.136751 0.241581
0.905150 0.142061 0.241703
0.960937 0.147097 0.242039
1.000000 0.151705 0.242466
0.008789 0.207095 0.298375
0.117067 0.202609 0.290715
0.198611 0.198734 0.283207
0.277440 0.195254 0.277226
0.351019 0.192294 0.270573
0.421210 0.189731 0.264958
0.487922 0.187289 0.259403
0.553124 0.184726 0.254704
0.618280 0.183444 0.251011
0.681086 0.182223 0.248234
0.737545 0.182498 0.245304
0.791318 0.183139 0.242954
0.845884 0.184634 0.241367
0.902159 0.186923 0.241215
0.958160 0.189487 0.242039
1.000000 0.191684 0.242222
0.035706 0.282170 0.282078
0.120027 0.278080 0.277989
0.195102 0.273655 0.273716
0.269566 0.269566 0.269566
0.341772 0.265324 0.265049
0.411902 0.260746 0.260563
0.480110 0.256474 0.256474
0.547417 0.253269 0.252964
0.612024 0.249760 0.249516
0.674434 0.246769 0.246708
0.731319 0.244572 0.244297
0.786069 0.242557 0.242161
0.842863 0.242161 0.241978
0.898192 0.241886 0.241581
0.952239 0.241062 0.240635
1.000000 0.240604 0.240146
0.061494 0.340368 0.263645
0.122713 0.339147 0.263066
0.188998 0.336614 0.261357
0.258946 0.333349 0.259220
0.329290 0.329412 0.256046
0.399054 0.325414 0.253391
0.467384 0.321324 0.250706
0.534905 0.317906 0.248295
0.600366 0.314153 0.245884
0.664088 0.311070 0.243992
0.722683 0.307774 0.243015
0.781552 0.305882 0.243168
0.839567 0.304295 0.243259
0.897246 0.303288 0.243839
0.953552 0.302190 0.244694
1.000000 0.300145 0.244053
0.076356 0.404578 0.257603
0.127535 0.404181 0.257389
0.187900 0.402472 0.256168
0.254765 0.399817 0.254826
0.323583 0.396338 0.252506
0.392676 0.392554 0.250553
0.460548 0.388464 0.248478
0.527825 0.384802 0.246708
0.593408 0.381079 0.245151
0.656855 0.377081 0.243992
0.716274 0.372930 0.243687
0.775235 0.369482 0.243687
0.832944 0.366308 0.243626
0.890379 0.363775 0.244053
0.946868 0.361517 0.244511
1.000000 0.359380 0.244816
0.086793 0.467506 0.253239
0.131930 0.467994 0.253941
0.187839 0.467140 0.253361
0.252445 0.465064 0.252323
0.319463 0.462165 0.251194
0.387762 0.458991 0.249668
0.455207 0.455085 0.248112
0.521294 0.450996 0.246433
0.586206 0.446540 0.245151
0.648585 0.441535 0.244144
0.707851 0.436194 0.243809
0.766720 0.431769 0.243870
0.824582 0.427680 0.243809
0.882292 0.424323 0.244175
0.939361 0.421424 0.244419
0.996582 0.418982 0.245701
0.094942 0.526665 0.249180
