luts/Agfa_Ultra_100.cube
# Generated for krafta web app
# https://www.facebook.com/krafta.visio
# Preset: AGF - Ultra 100
# Color profile : sRGB Color Space Profile
LUT_3D_SIZE 6
DOMAIN_MIN 0.0 0.0 0.0
DOMAIN_MAX 1.0 1.0 1.0
0.000000 0.000000 0.000000
0.283726 0.000000 0.000366
0.484627 0.000000 0.000214
0.678126 0.000061 0.000122
0.853452 0.006226 0.005035
1.000000 0.012024 0.010285
0.000000 0.261448 0.000000
0.250523 0.250614 0.000000
0.465034 0.235569 0.000000
0.664424 0.225071 0.000000
0.840665 0.213993 0.007660
1.000000 0.205936 0.008484
0.004028 0.451789 0.004700
0.229557 0.451026 0.005066
0.443366 0.443458 0.005463
0.644434 0.431464 0.006622
0.828611 0.416541 0.013672
1.000000 0.403357 0.006012
0.010895 0.623682 0.013001
0.211124 0.622278 0.012421
0.414679 0.620142 0.011994
0.615534 0.615656 0.011017
0.806729 0.605463 0.006928
0.990600 0.593408 0.000000
0.000000 0.786923 0.000000
0.190066 0.788113 0.000000
0.392279 0.789822 0.000000
0.591760 0.790463 0.000000
0.790249 0.790402 0.000000
0.976776 0.779629 0.000000
0.000000 0.972442 0.000000
0.112520 0.968841 0.000000
0.360052 0.969726 0.000000
0.569604 0.971801 0.000000
0.774380 0.975189 0.000000
0.980285 0.980468 0.000000
0.000000 0.000153 0.295811
0.267735 0.000000 0.268833
0.471992 0.003571 0.240970
0.665217 0.013672 0.227939
0.842863 0.027344 0.218479
1.000000 0.024506 0.209751
0.000000 0.257267 0.257176
0.247715 0.247715 0.247715
0.459632 0.236240 0.236179
0.658778 0.225528 0.225406
0.836881 0.216892 0.216556
1.000000 0.206180 0.205753
0.014862 0.447822 0.229343
0.227817 0.445655 0.227970
0.437293 0.437324 0.222934
0.636652 0.426184 0.216739
0.821225 0.413123 0.210971
1.000000 0.401221 0.201205
0.017945 0.622156 0.212619
0.211704 0.620966 0.212070
0.413306 0.617975 0.210575
0.612665 0.612665 0.207858
0.803525 0.602960 0.202335
0.990234 0.592737 0.190249
0.000000 0.788449 0.188174
0.187747 0.788663 0.188266
0.391669 0.790036 0.189120
0.591394 0.790372 0.188846
0.790219 0.790341 0.187411
0.977661 0.779782 0.161715
0.000000 0.973510 0.102480
0.083406 0.970245 0.085481
0.354040 0.971038 0.081147
0.567132 0.972778 0.073152
0.773373 0.975647 0.056855
0.980591 0.980774 0.021912
0.000397 0.000061 0.494423
0.242802 0.000031 0.477760
0.454597 0.005798 0.454475
0.653681 0.012146 0.437934
0.834195 0.035492 0.421027
1.000000 0.039979 0.408881
0.020813 0.243565 0.471839
0.237064 0.237095 0.461036
0.448035 0.229374 0.448005
0.646479 0.220768 0.433082
0.827878 0.218357 0.418555
1.000000 0.206851 0.404334
0.012787 0.438605 0.438605
0.222843 0.437018 0.436988
0.429938 0.429938 0.429938
0.627588 0.420935 0.420905
0.814176 0.411292 0.411261
0.998993 0.399176 0.399023
0.030457 0.617639 0.414221
0.214023 0.616663 0.413825
0.411933 0.613886 0.412055
0.608942 0.609033 0.408057
0.800381 0.600397 0.400366
0.989868 0.590204 0.387915
0.000000 0.788449 0.386877
0.177096 0.788937 0.387366
0.388251 0.790158 0.388434
0.589899 0.790188 0.387976
0.790158 0.790249 0.387396
0.979156 0.778622 0.365911
0.000000 0.975586 0.338293
0.000000 0.972717 0.330785
0.328740 0.973083 0.329137
0.557366 0.974945 0.328283
0.770291 0.977325 0.325048
0.982055 0.982238 0.321050
0.006012 0.004822 0.665675
0.225101 0.009277 0.659174
0.433845 0.017548 0.647181
0.632837 0.020111 0.632807
0.822782 0.028199 0.618219
1.000000 0.017823 0.603693
0.040558 0.230686 0.658869
0.227176 0.227115 0.651453
0.430854 0.222721 0.641444
0.628687 0.217075 0.628687
0.817868 0.213169 0.614649
0.999023 0.198947 0.599145
0.043793 0.424720 0.631739
0.222232 0.424140 0.630213
0.420233 0.420233 0.623957
0.616175 0.414099 0.616114
0.805997 0.406043 0.605615
0.995697 0.393561 0.595087
0.027253 0.610315 0.610254
0.210849 0.609674 0.609644
0.408515 0.607874 0.607874
0.602808 0.602930 0.602838
0.796719 0.596429 0.596307
0.990234 0.585779 0.585657
0.000000 0.788357 0.587366
0.165194 0.788815 0.587610
0.382788 0.789548 0.587823
0.587213 0.789609 0.587304
0.788022 0.788113 0.585229
0.981323 0.776761 0.567529
0.000000 0.978027 0.552544
0.000000 0.975799 0.545953
0.294987 0.976379 0.545464
0.545373 0.977874 0.545525
0.766293 0.979553 0.543297
0.984405 0.984527 0.543267
0.017426 0.016663 0.828550
0.212253 0.018372 0.826139
0.412573 0.021485 0.820066
0.610925 0.022156 0.813321
0.805173 0.013458 0.805112
0.995727 0.000000 0.796323
0.044282 0.217411 0.826078
0.215854 0.215579 0.822629
0.412787 0.213596 0.818021
0.609583 0.210056 0.811154
0.802457 0.202823 0.802426
0.991730 0.186099 0.792325
0.055268 0.411078 0.811734
0.215610 0.410376 0.810666
0.407385 0.407324 0.807218
0.601831 0.401984 0.801816
0.796292 0.395544 0.796262
0.990021 0.383337 0.789517
0.000000 0.598566 0.798550
0.196231 0.598352 0.798459
0.395514 0.596612 0.796994
0.593622 0.593652 0.794614
0.790951 0.589014 0.790921
0.987823 0.579217 0.784848
0.000000 0.786801 0.786801
0.149996 0.787045 0.787045
0.377203 0.787716 0.787716
0.583581 0.787808 0.787778
0.783352 0.783444 0.783383
0.984436 0.774655 0.774563
0.000000 0.979889 0.769833
0.000000 0.978210 0.766690
0.282933 0.979492 0.766049
0.533318 0.981170 0.763699
0.760708 0.983032 0.760800
0.988037 0.988190 0.763241
0.002136 0.000000 0.998291
0.197696 0.000000 0.997589
0.396429 0.000000 0.995697
0.593866 0.000000 0.993378
0.790768 0.000000 0.991119
0.987579 0.000000 0.988891
0.000000 0.196811 0.997742
0.195895 0.195529 0.996826
0.394842 0.191073 0.994476
0.592096 0.182925 0.991455
0.787930 0.166629 0.987579
0.984100 0.136233 0.984009
0.000000 0.390448 0.994293
0.179660 0.390021 0.994141
0.387182 0.387152 0.992889
0.587457 0.381231 0.990692
0.785550 0.370489 0.987518
0.985260 0.357000 0.985168
0.000000 0.584253 0.991394
0.126864 0.583673 0.991394
0.367895 0.581659 0.991424
0.577356 0.577325 0.989899
0.781491 0.570611 0.987671
0.986114 0.563622 0.986053
0.000000 0.781979 0.988312
0.000000 0.781674 0.988403
0.338109 0.781094 0.988861
0.563165 0.779690 0.989502
0.776608 0.776669 0.989563
0.988891 0.773129 0.988891
0.000000 0.988128 0.988098
0.000000 0.987640 0.987610
0.261143 0.988037 0.988006
0.528435 0.988891 0.988861
0.760403 0.990997 0.990906
0.996460 0.996460 0.996460
