luts/Agfa_Vista_Plus.cube
# Generated for krafta web app
# https://www.facebook.com/krafta.visio
# Preset: AGF - Vista Plus
# Color profile : sRGB Color Space Profile
LUT_3D_SIZE 6
DOMAIN_MIN 0.0 0.0 0.0
DOMAIN_MAX 1.0 1.0 1.0
0.000000 0.000000 0.000000
0.355871 0.002441 0.003052
0.528893 0.006775 0.006500
0.700771 0.028901 0.027832
0.856535 0.066499 0.064851
1.000000 0.096925 0.095308
0.000000 0.307469 0.000000
0.284672 0.284886 0.005097
0.493812 0.256382 0.025360
0.678431 0.240269 0.050019
0.834379 0.228428 0.074220
0.995514 0.227543 0.098054
0.070100 0.475929 0.069825
0.255192 0.476204 0.074311
0.464149 0.464302 0.081056
0.652888 0.443122 0.089540
0.822477 0.423438 0.104372
0.985168 0.409735 0.117800
0.105623 0.619806 0.105226
0.235477 0.618097 0.106538
0.421057 0.616938 0.112154
0.612848 0.613001 0.120363
0.792050 0.600092 0.128145
0.961334 0.585687 0.132021
0.108217 0.753597 0.108644
0.223453 0.757351 0.114199
0.397070 0.763699 0.124483
0.583307 0.768948 0.138216
0.773648 0.773770 0.155215
0.938415 0.754513 0.138003
0.076997 0.928008 0.078218
0.189242 0.918273 0.034577
0.371160 0.920775 0.050904
0.558587 0.926329 0.077546
0.749905 0.934600 0.112734
0.945220 0.945403 0.151583
0.000763 0.000000 0.383856
0.319188 0.000000 0.320012
0.505089 0.041077 0.264561
0.678645 0.071382 0.245029
0.838102 0.094423 0.235843
1.000000 0.110048 0.232822
0.046052 0.301061 0.300969
0.280980 0.280980 0.280980
0.486427 0.260380 0.260349
0.670527 0.245151 0.244846
0.829923 0.235843 0.235599
0.986725 0.228550 0.228275
0.087465 0.469520 0.254734
0.252995 0.466224 0.253117
0.451972 0.452064 0.246220
0.637964 0.433722 0.238834
0.808286 0.417212 0.234745
0.976501 0.405921 0.231357
0.113161 0.618158 0.238437
0.237919 0.616693 0.238254
0.419593 0.613458 0.238560
0.607446 0.607507 0.239292
0.785946 0.595514 0.237644
0.960937 0.585107 0.234440
0.106569 0.758083 0.220554
0.222171 0.759396 0.222141
0.397009 0.764920 0.229007
0.583368 0.769284 0.237095
0.773922 0.773983 0.248234
0.940429 0.755550 0.229374
0.019593 0.930571 0.188602
0.169406 0.921752 0.169772
0.364446 0.924041 0.174807
0.556054 0.928649 0.185214
0.748898 0.935454 0.200931
0.945861 0.945983 0.224979
0.001007 0.000000 0.553735
0.267369 0.009125 0.518212
0.473152 0.043214 0.473091
0.659907 0.069856 0.445899
0.826047 0.101076 0.424537
0.993286 0.116213 0.412573
0.072328 0.273838 0.512749
0.260838 0.260960 0.489693
0.465766 0.249027 0.465919
0.650233 0.238437 0.440742
0.817350 0.237675 0.421881
0.980255 0.224491 0.403723
0.085451 0.453376 0.453468
0.245640 0.451423 0.451301
0.439734 0.439734 0.439734
0.624140 0.426154 0.426062
0.798276 0.413886 0.413916
0.973266 0.401526 0.401251
0.121645 0.611994 0.419318
0.241215 0.610986 0.419196
0.417823 0.607874 0.417914
0.602075 0.602106 0.414221
0.781643 0.591943 0.406378
0.960967 0.581628 0.395087
0.063935 0.759854 0.384833
0.207675 0.761776 0.387030
0.392859 0.766690 0.393103
0.582300 0.770077 0.398383
0.774655 0.774716 0.406317
0.943297 0.754696 0.378424
0.000000 0.935088 0.343633
0.021942 0.927153 0.328923
0.330358 0.928435 0.330480
0.543694 0.933471 0.338598
0.745785 0.939178 0.347295
0.949310 0.949462 0.363348
0.026184 0.024048 0.685145
0.235569 0.035218 0.673182
0.440131 0.057618 0.652766
0.629603 0.074159 0.629664
0.810025 0.095613 0.611322
0.982696 0.101930 0.595331
0.090608 0.250217 0.678248
0.243320 0.243351 0.663630
0.437751 0.237644 0.646082
0.625147 0.231876 0.625177
0.803281 0.230533 0.606806
0.972015 0.214755 0.586816
0.104128 0.430610 0.632136
0.241398 0.430091 0.630182
0.423743 0.423713 0.619898
0.607996 0.415259 0.607904
0.786679 0.404578 0.594171
0.969970 0.389715 0.582452
0.117708 0.601740 0.601678
0.235630 0.601190 0.601160
0.411475 0.599603 0.599512
0.592676 0.592676 0.592676
0.777401 0.584985 0.584924
0.963867 0.572137 0.571984
0.012421 0.762844 0.571954
0.192386 0.764431 0.573083
0.382940 0.767788 0.575311
0.578088 0.770840 0.578149
0.771420 0.771481 0.579736
0.948730 0.752102 0.551751
0.000000 0.941039 0.527642
0.000000 0.934844 0.512932
0.260410 0.936584 0.514702
0.520226 0.940764 0.520348
0.738643 0.944579 0.523369
0.955047 0.955138 0.534844
0.042817 0.040803 0.824155
0.216312 0.046998 0.819944
0.410224 0.056336 0.809628
0.602075 0.069825 0.799619
0.787503 0.078584 0.787503
0.970214 0.075959 0.777432
0.080903 0.226871 0.822751
0.223789 0.223728 0.816007
0.412116 0.222263 0.808438
0.601068 0.220340 0.797421
0.783566 0.215030 0.783566
0.961517 0.198978 0.769436
0.089387 0.408545 0.798795
0.222721 0.407416 0.797086
0.403082 0.403113 0.791348
0.588586 0.396063 0.782589
0.774655 0.389227 0.774685
0.961425 0.374945 0.767086
0.058442 0.586389 0.779690
0.205722 0.586175 0.779751
0.388159 0.582818 0.777584
0.578424 0.578454 0.774441
0.769863 0.573754 0.769863
0.961425 0.560784 0.762631
0.000000 0.764309 0.764309
0.177096 0.765286 0.765255
0.377447 0.768032 0.768032
0.573327 0.770230 0.770169
0.763058 0.763180 0.763088
0.957824 0.747555 0.747463
0.000000 0.946380 0.741817
0.000000 0.941588 0.734127
0.229679 0.944945 0.733547
0.489662 0.949218 0.729274
0.725063 0.953338 0.725093
0.964263 0.964416 0.734127
0.013092 0.011322 0.982177
0.198123 0.011261 0.980957
0.391302 0.007019 0.977569
0.583764 0.001556 0.973724
0.775845 0.000000 0.970520
0.967041 0.000000 0.967437
0.000000 0.195407 0.981994
0.194003 0.193729 0.980133
0.387335 0.188540 0.975463
0.578637 0.179721 0.969390
0.766720 0.160861 0.961456
0.954223 0.126864 0.954223
0.000000 0.376959 0.976135
0.159976 0.376867 0.976043
0.373236 0.373053 0.973541
0.571038 0.365393 0.969207
0.763607 0.350439 0.962493
0.957977 0.334325 0.957946
0.000000 0.566522 0.972259
0.036988 0.564721 0.972320
0.333593 0.558618 0.972381
0.552239 0.552239 0.969238
0.757473 0.542535 0.964538
0.961334 0.534447 0.961364
0.000000 0.763577 0.967590
0.000000 0.762875 0.967834
0.306096 0.761501 0.969085
0.533776 0.757900 0.970886
0.751064 0.751156 0.971252
0.969696 0.746639 0.969696
0.000000 0.965148 0.965118
0.000000 0.963378 0.963348
0.173068 0.964202 0.964172
0.475410 0.966155 0.966094
0.719203 0.971496 0.971435
0.987152 0.987152 0.987152
