luts/Fujifilm_Negative.cube
# Generated for krafta web app
# https://www.facebook.com/krafta.visio
# Preset: FUJ - Negative
# Color profile : sRGB Color Space Profile
LUT_3D_SIZE 6
DOMAIN_MIN 0.0 0.0 0.0
DOMAIN_MAX 1.0 1.0 1.0
0.000000 0.000000 0.000000
0.267369 0.000305 0.000000
0.466896 0.000275 0.000397
0.661646 0.000244 0.000214
0.843565 0.005127 0.003845
1.000000 0.010224 0.009186
0.000000 0.249577 0.000000
0.240482 0.240604 0.000000
0.451606 0.228244 0.000000
0.651240 0.220005 0.000000
0.833097 0.211276 0.005829
1.000000 0.205478 0.007904
0.003143 0.442206 0.003693
0.224247 0.441901 0.003388
0.435981 0.436103 0.004364
0.637507 0.426490 0.005493
0.825406 0.414679 0.012055
1.000000 0.404486 0.008057
0.009857 0.620508 0.010651
0.209812 0.619501 0.010712
0.413336 0.618341 0.010590
0.615290 0.615473 0.011078
0.809171 0.607385 0.009674
0.996643 0.597711 0.000000
0.000000 0.791745 0.000000
0.194003 0.792996 0.000000
0.396094 0.795102 0.000000
0.596857 0.796475 0.000000
0.797269 0.797391 0.000000
0.986267 0.787961 0.000000
0.000000 0.981537 0.000000
0.139864 0.978332 0.000000
0.371405 0.979156 0.000000
0.578820 0.980987 0.000000
0.782803 0.983703 0.000000
0.987030 0.987213 0.000000
0.000031 0.000000 0.278843
0.255009 0.000122 0.255894
0.457343 0.002106 0.232578
0.651850 0.010742 0.222232
0.835111 0.021607 0.215000
1.000000 0.022889 0.209018
0.000000 0.246983 0.246860
0.238712 0.238712 0.238712
0.448096 0.229221 0.229221
0.647547 0.220645 0.220584
0.830716 0.214054 0.213718
1.000000 0.206119 0.205783
0.011688 0.439338 0.224155
0.222995 0.437690 0.223056
0.430945 0.430945 0.219089
0.630945 0.422126 0.213993
0.819089 0.411810 0.209873
1.000000 0.402808 0.203037
0.015656 0.619623 0.211124
0.210269 0.618799 0.210758
0.412360 0.616693 0.209751
0.612909 0.613001 0.208133
0.806455 0.605341 0.204501
0.996429 0.597406 0.196414
0.000000 0.793393 0.193240
0.192966 0.793759 0.193545
0.396124 0.795468 0.195071
0.596796 0.796536 0.195987
0.797360 0.797482 0.196658
0.987030 0.788235 0.177707
0.000000 0.982452 0.137942
0.124361 0.979553 0.125734
0.367346 0.980316 0.124056
0.577203 0.981811 0.121798
0.782101 0.984039 0.115938
0.987243 0.987457 0.102296
0.000183 0.000000 0.477058
0.234379 0.000061 0.462928
0.443763 0.004578 0.443702
0.643458 0.009247 0.430732
0.828916 0.029328 0.417762
1.000000 0.040955 0.409033
0.016693 0.235966 0.459266
0.230350 0.230411 0.449897
0.439246 0.224125 0.439307
0.638422 0.217136 0.427314
0.824186 0.215763 0.416052
1.000000 0.208469 0.405402
0.009674 0.432288 0.432288
0.219181 0.431098 0.431098
0.425391 0.425391 0.425391
0.624109 0.418280 0.418250
0.813779 0.411109 0.410956
1.000000 0.402350 0.402197
0.028504 0.616541 0.413306
0.213230 0.615900 0.413184
0.411902 0.613977 0.412085
0.610407 0.610468 0.409339
0.804135 0.603815 0.403845
0.996063 0.596216 0.395239
0.000000 0.793881 0.392920
0.188174 0.794491 0.393622
0.395056 0.795987 0.395270
0.596490 0.796750 0.395941
0.797604 0.797757 0.396979
0.988098 0.787655 0.379980
0.000000 0.984161 0.358587
0.035065 0.981598 0.351781
0.350530 0.981994 0.350927
0.570855 0.983551 0.351385
0.780148 0.985321 0.349676
0.988342 0.988464 0.346410
0.004059 0.003143 0.654353
0.220554 0.006806 0.648829
0.428077 0.013458 0.639063
0.627741 0.016266 0.627710
0.820798 0.025086 0.616602
1.000000 0.027192 0.605615
0.033112 0.225711 0.649958
0.222690 0.222568 0.643366
0.426001 0.219059 0.635065
0.624872 0.214755 0.624872
0.817044 0.212467 0.614008
1.000000 0.203586 0.601862
0.037018 0.421485 0.627649
0.219425 0.421118 0.626581
0.418097 0.418128 0.621515
0.615442 0.413489 0.615381
0.807828 0.407782 0.607233
0.999878 0.399908 0.599786
0.030915 0.611353 0.611322
0.212131 0.610956 0.610925
0.410651 0.609796 0.609796
0.606073 0.606134 0.606073
0.801358 0.601587 0.601495
0.996033 0.594232 0.594110
0.000000 0.794736 0.594202
0.185489 0.795224 0.594690
0.393530 0.796139 0.595483
0.595941 0.796780 0.596033
0.796262 0.796384 0.595422
0.989502 0.786831 0.581476
0.000000 0.986084 0.569177
0.000000 0.984100 0.563531
0.331853 0.984619 0.563531
0.563989 0.985901 0.564172
0.777859 0.986999 0.562585
0.989929 0.990051 0.561639
0.014984 0.013733 0.824949
0.210788 0.015991 0.822995
0.411322 0.019257 0.818173
0.610803 0.022065 0.813230
0.807340 0.018250 0.807248
1.000000 0.005676 0.800900
0.040406 0.215732 0.823697
0.214237 0.214206 0.820706
0.412085 0.212894 0.817105
0.610101 0.210788 0.811826
0.805264 0.206149 0.805234
0.997345 0.195560 0.797452
0.057588 0.411505 0.812222
0.216739 0.411078 0.811398
0.408820 0.408789 0.808713
0.604486 0.404974 0.804562
0.800656 0.400946 0.800656
0.996063 0.393469 0.795834
0.021942 0.602655 0.802548
0.206363 0.602686 0.802548
0.402197 0.601648 0.801450
0.599756 0.599847 0.799802
0.797452 0.596979 0.797452
0.994537 0.590539 0.793118
0.000000 0.794614 0.794583
0.181094 0.794919 0.794888
0.392187 0.795804 0.795773
0.595026 0.796384 0.796323
0.793027 0.793118 0.793057
0.991699 0.786313 0.786221
0.000000 0.987884 0.781460
0.000000 0.986389 0.778683
0.329076 0.987335 0.778500
0.558038 0.988464 0.777096
0.774838 0.989532 0.774929
0.992279 0.992432 0.775235
0.004913 0.003418 1.000000
0.201266 0.002197 1.000000
0.399908 0.000000 0.999695
0.598260 0.000000 0.998077
0.796567 0.000000 0.996735
0.994873 0.000000 0.995392
0.007752 0.201663 1.000000
0.201236 0.200809 1.000000
0.398932 0.198032 0.998718
0.596735 0.192721 0.996429
0.793698 0.182528 0.993530
0.990997 0.164706 0.990936
0.000000 0.397589 0.998596
0.195224 0.397406 0.998535
0.395727 0.395575 0.997589
0.594507 0.391791 0.995972
0.792477 0.384375 0.993591
0.992035 0.376287 0.991943
0.000000 0.593622 0.996582
0.173648 0.593378 0.996582
0.386847 0.592340 0.996521
0.589441 0.589410 0.995392
0.790494 0.584802 0.993774
0.992676 0.580255 0.992645
0.000000 0.791135 0.994415
0.124453 0.791012 0.994446
0.370855 0.790921 0.994781
0.582666 0.790494 0.995209
0.788785 0.788815 0.995148
0.994446 0.786130 0.994446
0.000000 0.992950 0.992920
0.000000 0.992523 0.992493
0.316869 0.992737 0.992706
0.553826 0.993164 0.993133
0.773709 0.994324 0.994293
0.997223 0.997223 0.997223
