luts/FUJI_CLASSIC_NEG.cube
TITLE "Generated for krafta web app"
LUT_3D_SIZE 25
#INPUTGAMMA sRGB
#IMAGEPROFILE sRGB
#OUTPUTGAMMA sRGB
0.000000 0.000000 0.000000
0.011510 0.002324 0.000321
0.055451 0.010884 0.001190
0.097546 0.019427 0.002950
0.143958 0.029394 0.005268
0.188538 0.039067 0.006257
0.232144 0.049084 0.006001
0.290336 0.062017 0.005190
0.395356 0.083954 0.002614
0.499909 0.108675 0.005682
0.571183 0.125911 0.007166
0.605688 0.134328 0.008920
0.625434 0.139321 0.009749
0.643226 0.143613 0.009939
0.669105 0.149465 0.009318
0.713288 0.157225 0.005195
0.748584 0.165706 0.005230
0.780868 0.173785 0.006430
0.808525 0.180956 0.007934
0.832719 0.187264 0.009322
0.851270 0.192049 0.010279
0.866026 0.195796 0.010908
0.879080 0.199041 0.011476
0.891420 0.202052 0.012023
0.899374 0.203986 0.012376
0.000314 0.007876 0.002978
0.012694 0.010795 0.003759
0.054616 0.019677 0.005070
0.098460 0.028240 0.006070
0.143826 0.037608 0.007332
0.185999 0.046304 0.007209
0.233096 0.056638 0.007578
0.292746 0.069556 0.007491
0.394440 0.091033 0.004619
0.499840 0.115586 0.008172
0.570548 0.132323 0.009675
0.605172 0.140656 0.011342
0.626001 0.145823 0.012355
0.643789 0.150097 0.012748
0.667919 0.155605 0.012462
0.710210 0.163512 0.009258
0.750956 0.173500 0.007848
0.783236 0.181628 0.009246
0.808847 0.188182 0.010409
0.832840 0.194278 0.011817
0.851954 0.199031 0.012888
0.866960 0.202661 0.013540
0.880065 0.205779 0.014087
0.892176 0.208616 0.014572
0.899953 0.210432 0.014881
0.001074 0.039850 0.014940
0.010767 0.043772 0.016463
0.053341 0.055578 0.020380
0.100739 0.064529 0.022056
0.141081 0.071673 0.020870
0.178002 0.077688 0.017949
0.234580 0.088518 0.019992
0.292473 0.099702 0.018994
0.387001 0.120278 0.014583
0.492087 0.143625 0.017867
0.563617 0.159399 0.019128
0.595229 0.166024 0.019697
0.617590 0.170906 0.020687
0.635821 0.174968 0.021313
0.659402 0.180336 0.021835
0.697593 0.188876 0.022403
0.743643 0.199807 0.018589
0.778240 0.209004 0.018079
0.802453 0.214527 0.018881
0.827220 0.219974 0.020425
0.847645 0.224536 0.021789
0.863692 0.228205 0.022796
0.876935 0.231102 0.023427
0.888500 0.233514 0.023797
0.895900 0.235044 0.024012
0.000208 0.070666 0.025825
0.005009 0.073909 0.026819
0.041522 0.086183 0.031781
0.095804 0.096644 0.036523
0.143317 0.105314 0.038136
0.186485 0.112164 0.037004
0.231499 0.119422 0.036493
0.280086 0.128046 0.033336
0.373322 0.147358 0.029312
0.492608 0.173456 0.031486
0.560835 0.187791 0.029256
0.590226 0.193612 0.028662
0.609072 0.197593 0.028379
0.626761 0.201439 0.028515
0.652880 0.207256 0.029193
0.689341 0.215419 0.029858
0.727911 0.224170 0.029966
0.765914 0.234463 0.027049
0.790296 0.240131 0.026480
0.815111 0.245436 0.027925
0.835780 0.249820 0.029507
0.852345 0.253367 0.030668
0.866422 0.256589 0.031581
0.879247 0.259707 0.032348
0.887463 0.261725 0.032832
0.000000 0.102228 0.036748
0.000590 0.105416 0.037487
0.028003 0.118262 0.042324
0.083464 0.129143 0.048359
0.136131 0.137949 0.052294
0.188395 0.146327 0.054289
0.236258 0.154672 0.054159
0.293058 0.165137 0.053283
0.369782 0.178843 0.048623
0.477802 0.201114 0.046991
0.560006 0.218895 0.046948
0.596889 0.226702 0.046837
0.614121 0.230579 0.045503
0.631703 0.234473 0.044735
0.659173 0.240685 0.044226
0.693426 0.248230 0.042306
0.730958 0.256415 0.041352
0.764431 0.264268 0.041252
0.788947 0.269700 0.040996
0.809448 0.274700 0.040697
0.828177 0.279359 0.040982
0.846635 0.283867 0.041845
0.870096 0.284593 0.042665
0.898276 0.282517 0.043488
0.917136 0.280874 0.044028
0.000000 0.131935 0.046275
-0.001317 0.135181 0.047091
0.020175 0.148794 0.052134
0.073995 0.161132 0.058951
0.127338 0.170102 0.064708
0.181026 0.178501 0.068345
0.236622 0.188259 0.070808
0.300882 0.198966 0.070371
0.389005 0.214552 0.068924
0.467130 0.229374 0.062009
0.533067 0.242781 0.058602
0.570554 0.250804 0.058265
0.591354 0.255252 0.057339
0.610852 0.259389 0.056947
0.640300 0.265632 0.057109
0.694486 0.277698 0.060302
0.732651 0.286545 0.058698
0.776344 0.291318 0.057108
0.803916 0.297441 0.055671
0.825628 0.302799 0.053794
0.842938 0.307210 0.052804
0.857594 0.311169 0.052818
0.882944 0.311462 0.053449
0.917359 0.309033 0.054569
0.940712 0.307168 0.055354
0.000000 0.149583 0.051009
-0.001764 0.153004 0.052083
0.017161 0.166881 0.057763
0.069329 0.180290 0.064743
0.123966 0.190284 0.071739
0.177722 0.198424 0.076481
0.232619 0.206718 0.079280
0.299361 0.217275 0.080330
0.397799 0.235233 0.078519
0.481442 0.251079 0.074837
0.532922 0.260941 0.068533
0.562072 0.266809 0.066674
0.593189 0.273690 0.068214
0.614431 0.278086 0.068074
0.635782 0.282238 0.066033
0.660337 0.286868 0.062305
0.706344 0.297551 0.062241
0.766434 0.305764 0.064422
0.813992 0.315219 0.067155
0.835409 0.319917 0.064992
0.847813 0.323437 0.062561
0.860550 0.327765 0.061623
0.888260 0.327828 0.062616
0.928396 0.324806 0.065178
0.955787 0.322445 0.066957
0.000000 0.161476 0.054212
-0.001847 0.164966 0.055477
0.015657 0.178878 0.061550
0.066542 0.192638 0.068678
0.121580 0.203206 0.075844
0.175636 0.211624 0.081259
0.230311 0.219626 0.084851
0.298441 0.229969 0.086684
0.399246 0.248161 0.084914
0.489697 0.265293 0.082671
0.539296 0.274546 0.076331
0.564965 0.279732 0.073924
0.593687 0.285846 0.075019
0.613155 0.289835 0.074560
0.631874 0.293250 0.071905
0.649520 0.296105 0.066534
0.695152 0.305591 0.066075
0.756620 0.315010 0.069130
0.806005 0.324136 0.072112
0.832352 0.330012 0.071218
0.850757 0.333048 0.069385
0.869503 0.334458 0.067912
0.898769 0.334634 0.069370
0.936955 0.333887 0.073075
0.962756 0.333299 0.075721
0.000000 0.177238 0.058498
-0.001706 0.180808 0.060047
0.014234 0.194836 0.066655
0.063265 0.208299 0.073944
0.118393 0.219970 0.080721
0.172938 0.229106 0.086844
0.227310 0.237284 0.092043
0.296332 0.247058 0.094658
0.396996 0.264596 0.093481
0.497342 0.283304 0.091963
0.555183 0.294446 0.088016
0.578816 0.299350 0.085380
0.593598 0.301958 0.083525
0.606926 0.304361 0.081910
0.625780 0.307819 0.079666
0.650931 0.312451 0.075990
0.689325 0.317341 0.073200
0.740430 0.326729 0.075209
0.777702 0.332271 0.075337
0.816741 0.341929 0.077926
0.854183 0.344360 0.078689
0.889527 0.338173 0.076697
0.920427 0.338696 0.078929
0.949083 0.344211 0.084379
0.967607 0.348344 0.088305
0.000000 0.207616 0.066914
-0.001458 0.211249 0.068744
0.011787 0.225055 0.076203
0.057457 0.237849 0.084075
0.111868 0.249837 0.091344
0.165828 0.259704 0.096866
0.220639 0.268261 0.101831
0.291213 0.278298 0.107690
0.397057 0.294944 0.109212
0.492313 0.315606 0.106414
0.567017 0.329606 0.105788
0.598576 0.335126 0.105128
0.614893 0.338044 0.103504
0.629190 0.340521 0.102224
0.648643 0.343711 0.100529
0.675002 0.348867 0.097372
0.706578 0.352047 0.093566
0.738119 0.353071 0.091260
0.768800 0.358628 0.091238
0.799022 0.366837 0.092511
0.837815 0.367489 0.093278
0.885822 0.360080 0.093192
0.917317 0.360470 0.096415
0.937567 0.366664 0.102210
0.949739 0.371283 0.106269
0.000000 0.257150 0.081803
-0.001081 0.260570 0.083749
0.008238 0.273677 0.091579
0.046679 0.286685 0.099541
0.099740 0.299604 0.107103
0.156600 0.310673 0.114917
0.213353 0.319460 0.121699
0.283581 0.329563 0.127257
0.386005 0.345683 0.130982
0.483744 0.364999 0.130395
0.557337 0.379536 0.129170
0.590550 0.386148 0.128763
0.612248 0.390132 0.128481
0.632447 0.393842 0.128505
0.661795 0.398697 0.128626
0.702301 0.405625 0.128748
0.744920 0.410346 0.128003
0.785800 0.410505 0.127054
0.807896 0.414517 0.125893
0.820845 0.417032 0.123261
0.849282 0.413539 0.122147
0.895160 0.404334 0.122651
0.923953 0.404008 0.125347
0.940847 0.410009 0.129600
0.950734 0.414547 0.132544
0.000000 0.319659 0.101755
-0.000732 0.323123 0.103801
0.004789 0.336459 0.112109
0.038259 0.349799 0.120588
0.091274 0.362745 0.128497
0.146536 0.375033 0.135832
0.203172 0.386695 0.142813
0.271212 0.396083 0.152910
0.367472 0.411090 0.155347
0.483830 0.428552 0.160442
0.567637 0.441413 0.162954
0.600103 0.447807 0.162339
0.619716 0.451757 0.161870
0.638108 0.455038 0.161602
0.665019 0.459184 0.161345
0.704506 0.465656 0.161009
0.752793 0.469769 0.160852
0.796224 0.471773 0.158798
0.826123 0.477985 0.158070
0.860705 0.476417 0.156114
0.895783 0.471032 0.153627
0.929796 0.464815 0.151078
0.950876 0.463779 0.150263
0.963054 0.466577 0.150716
0.970084 0.468786 0.151140
0.000000 0.383204 0.122801
-0.000630 0.386457 0.125015
0.003856 0.399061 0.133746
0.035079 0.411450 0.142245
0.086731 0.423877 0.150185
0.137982 0.435940 0.156804
0.190350 0.446635 0.163872
0.254801 0.459945 0.171043
0.356587 0.476211 0.178015
0.476235 0.489710 0.184843
0.561695 0.501146 0.188702
0.600245 0.507301 0.190611
0.623517 0.510821 0.191566
0.644308 0.514015 0.191965
0.673725 0.518619 0.191904
0.717260 0.525951 0.191378
0.765957 0.530930 0.189534
0.809731 0.534856 0.187363
0.845377 0.539595 0.185211
0.882039 0.536121 0.182450
0.912089 0.532660 0.180037
0.935866 0.532100 0.178111
0.953818 0.533054 0.177300
0.968136 0.535187 0.177290
0.977071 0.536708 0.177368
0.000000 0.412824 0.133483
-0.000555 0.416141 0.135572
0.003178 0.428615 0.143714
0.032698 0.440488 0.152073
0.083057 0.452454 0.159978
0.134132 0.464185 0.166700
0.183704 0.475555 0.172491
0.247714 0.488739 0.180697
0.354834 0.505252 0.190584
0.473237 0.518761 0.196614
0.558357 0.529994 0.199249
0.598364 0.535387 0.200510
0.623535 0.538541 0.201400
0.645972 0.541519 0.202095
0.677427 0.546058 0.202909
0.721221 0.552575 0.202684
0.767502 0.558100 0.200842
0.808728 0.562076 0.198988
0.845774 0.567808 0.198098
0.881280 0.564358 0.195562
0.908978 0.561256 0.193168
0.930179 0.561855 0.191511
0.947741 0.563502 0.190965
0.963243 0.566079 0.191261
0.973127 0.567868 0.191541
0.000000 0.439497 0.143650
-0.000506 0.442766 0.145582
0.002791 0.454936 0.153171
0.030622 0.466643 0.160982
0.079581 0.478572 0.168494
0.130116 0.490184 0.175279
0.179683 0.501440 0.181359
0.242318 0.514794 0.188754
0.353045 0.531198 0.201668
0.469611 0.545285 0.207511
0.554328 0.556145 0.209684
0.594932 0.561275 0.210287
0.619670 0.564313 0.210819
0.642159 0.566902 0.211053
0.674181 0.570430 0.211128
0.720806 0.577323 0.212622
0.769003 0.584022 0.212465
0.808529 0.588049 0.210687
0.843436 0.592923 0.209110
0.876824 0.589447 0.206082
0.902819 0.587027 0.203615
0.922547 0.588615 0.202169
0.940119 0.591066 0.202207
0.956708 0.594267 0.203360
0.967394 0.596445 0.204229
0.000000 0.469048 0.154072
-0.000406 0.472237 0.155991
0.001857 0.483776 0.163343
0.027721 0.495405 0.170953
0.076252 0.507622 0.178572
0.126480 0.519225 0.185467
0.176244 0.530862 0.192128
0.239469 0.545435 0.199408
0.350206 0.565218 0.212251
0.469908 0.576878 0.220434
0.556110 0.587285 0.222061
0.596405 0.592241 0.222456
0.621014 0.594823 0.222390
0.642564 0.597045 0.222263
0.672330 0.600170 0.222119
0.717135 0.606787 0.224061
0.764262 0.613187 0.225044
0.805817 0.617829 0.224331
0.838054 0.622123 0.222617
0.875212 0.621563 0.220120
0.901151 0.621271 0.218556
0.914561 0.622972 0.218103
0.929344 0.624572 0.217735
0.945662 0.626159 0.217421
0.956420 0.627202 0.217226
0.000000 0.501682 0.165423
-0.000313 0.504668 0.167358
0.000808 0.515560 0.174817
0.026825 0.526938 0.182691
0.075387 0.539499 0.190627
0.125662 0.551644 0.198043
0.175890 0.563534 0.204792
0.240381 0.578501 0.212453
0.350643 0.600868 0.224783
0.475972 0.612254 0.235347
0.561391 0.622656 0.236310
0.599490 0.627065 0.236499
0.622389 0.629048 0.235912
0.642358 0.631036 0.235393
0.669810 0.633997 0.234713
0.711007 0.639191 0.235729
0.754408 0.646227 0.238993
0.795560 0.653394 0.241912
0.830837 0.660292 0.244814
0.870924 0.664813 0.245195
0.896200 0.667460 0.245009
0.905718 0.669133 0.245141
0.919155 0.670882 0.245160
0.935989 0.672652 0.245035
0.947240 0.673809 0.244943
0.000000 0.535268 0.178790
-0.000249 0.538141 0.180562
0.000084 0.548473 0.187522
0.025999 0.559487 0.195340
0.076259 0.571996 0.203601
0.126539 0.583999 0.210825
0.176770 0.595727 0.217455
0.242776 0.610738 0.225818
0.354139 0.633274 0.240076
0.484128 0.653293 0.253436
0.572055 0.665598 0.260278
0.607614 0.670186 0.261181
0.629887 0.672974 0.261419
0.649124 0.675753 0.261892
0.675475 0.680241 0.263057
0.714582 0.687016 0.265571
0.756534 0.694153 0.269345
0.794130 0.701114 0.272514
0.827005 0.706649 0.273684
0.865703 0.712653 0.275115
0.890605 0.716190 0.275737
0.900405 0.717198 0.275411
0.913586 0.718433 0.274924
0.929784 0.719844 0.274270
0.940588 0.720771 0.273823
0.000000 0.563956 0.190438
-0.000231 0.566980 0.192333
-0.000240 0.577935 0.199372
0.027016 0.589366 0.207267
0.078604 0.601877 0.215663
0.129120 0.615129 0.224619
0.182417 0.628730 0.233163
0.253621 0.645878 0.243596
0.373237 0.672805 0.259987
0.502153 0.697341 0.273692
0.585742 0.709928 0.284985
0.621421 0.715130 0.287048
0.644403 0.719482 0.288903
0.662081 0.722432 0.290126
0.683396 0.725490 0.291210
0.718584 0.732387 0.291828
0.746675 0.736764 0.286941
0.787921 0.743665 0.292131
0.823199 0.749431 0.294813
0.857002 0.755294 0.299293
0.880949 0.758670 0.301891
0.896038 0.759611 0.301928
0.911361 0.760237 0.300752
0.927397 0.760645 0.298620
0.937901 0.760878 0.297119
0.000000 0.584814 0.198118
-0.000183 0.587698 0.199934
-0.000880 0.599188 0.207561
0.027262 0.612592 0.216907
0.081533 0.626876 0.226681
0.135025 0.641404 0.236815
0.191049 0.655967 0.246321
0.268136 0.676048 0.259066
0.395341 0.708514 0.279767
0.521803 0.736196 0.295135
0.603891 0.751907 0.306061
0.640730 0.759074 0.309832
0.665180 0.764414 0.312692
0.684152 0.767740 0.314850
0.706956 0.770476 0.317145
0.739139 0.773626 0.317107
0.758212 0.776019 0.306751
0.803953 0.782756 0.311809
0.836703 0.784987 0.316062
0.865908 0.788259 0.319110
0.887355 0.790564 0.319953
0.902354 0.791384 0.319034
0.916433 0.792144 0.317888
0.930323 0.792881 0.316524
0.939331 0.793353 0.315604
0.000000 0.603337 0.205467
-0.000317 0.606482 0.207548
0.000322 0.618869 0.216171
0.031522 0.633784 0.226798
0.088506 0.650060 0.238208
0.145837 0.665577 0.249043
0.204788 0.681267 0.259528
0.286049 0.703697 0.274295
0.415849 0.739334 0.298139
0.540944 0.769899 0.316703
0.627096 0.789565 0.328347
0.665139 0.798083 0.333243
0.689453 0.803167 0.335920
0.709210 0.806531 0.337985
0.734188 0.809583 0.340215
0.763807 0.809407 0.337921
0.784075 0.810265 0.327047
0.826480 0.815005 0.328366
0.854302 0.813957 0.331183
0.880460 0.815158 0.331326
0.899873 0.816685 0.330084
0.913031 0.817491 0.328474
0.925151 0.818474 0.327316
0.936956 0.819664 0.326458
0.944602 0.820478 0.325929
0.000000 0.623964 0.215037
-0.000738 0.627948 0.217906
0.004400 0.641985 0.227898
0.042502 0.657084 0.238918
0.101402 0.674517 0.251463
0.161955 0.691034 0.263169
0.224509 0.708797 0.275510
0.307946 0.732753 0.292087
0.435180 0.768390 0.316142
0.560932 0.801534 0.338541
0.653784 0.823332 0.353857
0.692435 0.831307 0.358478
0.714153 0.834893 0.359812
0.732086 0.837547 0.360197
0.754919 0.840216 0.359277
0.781763 0.839439 0.351796
0.810652 0.838629 0.343407
0.841633 0.839650 0.338858
0.865967 0.838593 0.337371
0.890678 0.839804 0.336015
0.909472 0.841356 0.334762
0.922504 0.842329 0.333667
0.934216 0.843237 0.332038
0.945355 0.844145 0.329956
0.952536 0.844706 0.328543
0.000000 0.645913 0.225119
-0.001778 0.649859 0.228098
0.007970 0.664632 0.239296
0.055434 0.681172 0.251983
0.117333 0.699671 0.265463
0.180018 0.717666 0.278484
0.244930 0.737157 0.292591
0.328668 0.762072 0.310805
0.452545 0.797376 0.335096
0.584125 0.833091 0.359642
0.668846 0.850205 0.369749
0.704167 0.855482 0.371260
0.725071 0.857981 0.371333
0.740232 0.858900 0.369277
0.757006 0.858458 0.363670
0.783400 0.857799 0.356311
0.813227 0.857641 0.349533
0.844954 0.859036 0.346521
0.872343 0.859656 0.344453
0.897696 0.861052 0.342815
0.916114 0.862234 0.341407
0.928750 0.862908 0.340070
0.939803 0.863466 0.338305
0.950046 0.863943 0.336154
0.956641 0.864267 0.334716
0.000000 0.672111 0.239051
0.000257 0.676208 0.242183
0.020163 0.691961 0.254225
0.073889 0.709269 0.267645
0.137015 0.728681 0.282004
0.200800 0.747922 0.296321
0.266257 0.767824 0.311130
0.350319 0.793254 0.330534
0.475227 0.829283 0.356224
0.605239 0.863095 0.378698
0.682327 0.874348 0.382603
0.714308 0.877091 0.381321
0.734231 0.878794 0.380299
0.747895 0.878876 0.377136
0.762131 0.877236 0.369968
0.788610 0.877055 0.363723
0.817185 0.877044 0.357937
0.849931 0.878659 0.356344
0.879618 0.880346 0.354567
0.903929 0.881777 0.352144
0.920818 0.882703 0.349958
0.932669 0.883206 0.348144
0.943137 0.883604 0.346337
0.952953 0.883927 0.344461
0.959265 0.884129 0.343232
0.000000 0.697959 0.254179
0.004776 0.702612 0.257652
0.038089 0.719489 0.270083
0.094453 0.736770 0.283208
0.156467 0.756731 0.298206
0.220539 0.776813 0.313576
0.285148 0.796047 0.328112
0.369768 0.821499 0.348092
0.499606 0.859210 0.376059
0.621005 0.887576 0.393406
0.694189 0.893977 0.392599
0.724335 0.895122 0.389695
0.742909 0.896342 0.387893
0.756631 0.896643 0.385057
0.772350 0.896079 0.379617
0.799089 0.896438 0.374316
0.825919 0.895826 0.368950
0.857758 0.896739 0.367240
0.887636 0.898496 0.365912
0.909216 0.899779 0.362156
0.923711 0.900592 0.358733
0.934589 0.901174 0.356428
0.944651 0.901650 0.354612
0.954463 0.902063 0.353099
0.960826 0.902325 0.352145
0.007384 0.005632 0.015335
0.018655 0.007467 0.013587
0.058649 0.014889 0.011826
0.102431 0.023760 0.012636
0.148111 0.033437 0.013211
0.190758 0.042582 0.012580
0.236116 0.053025 0.011810
0.296076 0.065540 0.009439
0.397109 0.086599 0.006978
0.502237 0.111619 0.011102
0.571296 0.128233 0.012576
0.606698 0.136893 0.014581
0.626558 0.141827 0.015482
0.644348 0.146251 0.016095
0.669457 0.152372 0.016489
0.710484 0.160179 0.013559
0.749587 0.167477 0.010502
0.783001 0.175621 0.012003
0.810972 0.182829 0.013856
0.835037 0.188928 0.015334
0.853539 0.193557 0.016287
0.868092 0.197182 0.016884
0.881225 0.200472 0.017517
0.893726 0.203617 0.018198
0.901795 0.205649 0.018646
0.005987 0.013426 0.018060
0.017608 0.015761 0.017732
0.055681 0.022609 0.015975
0.097303 0.030341 0.016240
0.144399 0.040115 0.017123
0.186904 0.049042 0.016081
0.232519 0.059169 0.015361
0.296348 0.072178 0.013903
0.396296 0.093143 0.011604
0.501102 0.117812 0.014705
0.571438 0.134445 0.016079
0.606899 0.142966 0.017901
0.627643 0.148064 0.018914
0.645270 0.152386 0.019527
0.668994 0.158094 0.019842
0.709372 0.166159 0.017630
0.751103 0.175060 0.015501
0.784339 0.183240 0.016985
0.810801 0.189968 0.018323
0.834909 0.195835 0.019563
0.853834 0.200381 0.020434
0.868622 0.203968 0.020981
0.882059 0.207041 0.021503
0.894951 0.209835 0.022024
0.903269 0.211621 0.022362
0.002476 0.046364 0.032061
0.011789 0.048042 0.031261
0.050381 0.055790 0.030535
0.094167 0.063318 0.032601
0.133945 0.070168 0.032368
0.174130 0.077267 0.030674
0.225584 0.087547 0.031261
0.284577 0.099086 0.028906
0.386693 0.120903 0.026627
0.493232 0.144582 0.028041
0.565939 0.160756 0.028579
0.598462 0.167704 0.028463
0.620473 0.172627 0.028874
0.638289 0.176628 0.028992
0.661522 0.181870 0.028879
0.699432 0.190375 0.029445
0.742290 0.200735 0.028752
0.776945 0.209542 0.028931
0.803090 0.215304 0.029585
0.828429 0.220833 0.030639
0.848550 0.225569 0.031610
0.864009 0.229597 0.032399
0.879057 0.232202 0.032807
0.894394 0.233843 0.032944
0.903986 0.234590 0.032447
-0.000499 0.076429 0.041935
0.005114 0.078302 0.040917
0.043003 0.087456 0.041772
0.096079 0.096712 0.046138
0.140229 0.104119 0.047670
0.182022 0.110909 0.047369
0.220629 0.116888 0.045908
0.271577 0.126294 0.043202
0.364567 0.146723 0.038563
0.482390 0.171924 0.040482
0.561903 0.188956 0.041031
0.595059 0.195836 0.040892
0.612775 0.199564 0.039559
0.630186 0.203353 0.039066
0.656783 0.209288 0.039221
0.691234 0.216998 0.038718
0.730141 0.225822 0.038639
0.766457 0.235111 0.036561
0.791055 0.240974 0.035615
0.815657 0.246457 0.036485
0.837814 0.250136 0.037652
0.857525 0.252104 0.038537
0.875663 0.254832 0.039227
0.893413 0.258240 0.039801
0.904939 0.260525 0.040162
-0.000268 0.107844 0.052490
0.000971 0.109502 0.051216
0.029382 0.119364 0.052087
0.084032 0.129806 0.058168
0.135812 0.137184 0.061173
0.188709 0.145652 0.063074
0.237225 0.153858 0.063497
0.289193 0.163092 0.063286
0.359834 0.174953 0.057926
0.467054 0.200315 0.054914
0.539214 0.215281 0.053091
0.580654 0.224132 0.054539
0.609546 0.230317 0.056301
0.631179 0.235108 0.056597
0.656216 0.240881 0.055329
0.688342 0.247955 0.052922
0.727585 0.256667 0.051916
0.761058 0.264348 0.050970
0.792854 0.271899 0.051761
0.815395 0.277613 0.051192
0.837376 0.280842 0.050997
0.862799 0.282439 0.051725
0.888197 0.283684 0.053004
0.914693 0.284715 0.054753
0.931946 0.285205 0.055846
-0.000001 0.137150 0.061408
-0.000948 0.139011 0.060368
0.021195 0.149561 0.061665
0.074757 0.162051 0.068458
0.128389 0.170727 0.074087
0.181269 0.177960 0.077063
0.236016 0.186723 0.078790
0.298611 0.196732 0.078776
0.387803 0.211538 0.079580
0.458845 0.229272 0.070107
0.520349 0.241353 0.066083
0.553894 0.248305 0.065044
0.573773 0.252481 0.064114
0.594003 0.256714 0.063943
0.625817 0.263385 0.064673
0.676579 0.274559 0.067641
0.723881 0.285290 0.068360
0.764560 0.289675 0.066159
0.792413 0.296530 0.064987
0.820569 0.303187 0.064636
0.848938 0.307236 0.065331
0.877343 0.309043 0.066811
0.905057 0.310463 0.068708
0.933245 0.311638 0.070989
0.951674 0.312369 0.072518
0.000002 0.154662 0.065977
-0.001389 0.156552 0.065201
0.018311 0.167384 0.067275
0.070259 0.180624 0.074292
0.124397 0.190449 0.080146
0.178288 0.198059 0.085224
0.231313 0.205658 0.087430
0.296486 0.215829 0.088186
0.396102 0.231591 0.088758
0.475119 0.249111 0.083863
0.525792 0.260909 0.077020
0.552137 0.266175 0.074658
0.575856 0.271236 0.074705
0.596059 0.275389 0.074469
0.622721 0.280706 0.073688
0.647401 0.285316 0.070138
0.687687 0.293908 0.069501
0.745838 0.302162 0.071343
0.789874 0.311846 0.073501
0.828003 0.314926 0.073232
0.856873 0.317493 0.073359
0.879162 0.322183 0.074808
0.907334 0.325031 0.077692
0.941107 0.326658 0.081790
0.963651 0.327559 0.084559
0.000001 0.166411 0.069023
-0.001634 0.168421 0.068448
0.016440 0.179218 0.070956
0.067361 0.192539 0.078192
0.122027 0.203029 0.084133
0.176011 0.211145 0.089732
0.228909 0.218703 0.093134
0.295040 0.228628 0.094392
0.396161 0.244736 0.094480
0.484631 0.261881 0.092263
0.533971 0.275246 0.085143
0.557475 0.279725 0.082332
0.579224 0.284207 0.082006
0.597517 0.287865 0.081369
0.620961 0.292375 0.079874
0.639755 0.295429 0.074798
0.676628 0.302204 0.073100
0.736941 0.311519 0.076034
0.782275 0.320872 0.078379
0.824056 0.322982 0.078305
0.856849 0.324803 0.078660
0.881989 0.328978 0.080251
0.911248 0.332502 0.083807
0.944598 0.335670 0.088961
0.966708 0.337707 0.092486
0.000000 0.182076 0.073084
-0.001899 0.184200 0.072755
0.013952 0.195127 0.075847
0.063620 0.207790 0.083377
0.118453 0.218763 0.089287
0.172730 0.228382 0.094688
0.225904 0.236195 0.100453
0.292998 0.245649 0.102504
0.390131 0.261832 0.101645
0.494271 0.277996 0.102124
0.550185 0.295848 0.096849
0.571864 0.299381 0.093847
0.585826 0.301907 0.091854
0.599127 0.304335 0.090276
0.618825 0.307946 0.088287
0.644764 0.312601 0.084865
0.679213 0.316551 0.081637
0.729930 0.325216 0.083878
0.765253 0.331443 0.083939
0.808527 0.334125 0.084281
0.850179 0.335185 0.085613
0.887942 0.335841 0.087701
0.919161 0.339821 0.092087
0.946832 0.346455 0.098380
0.964679 0.350899 0.101882
0.000000 0.212029 0.081148
-0.001532 0.214177 0.080987
0.011144 0.225306 0.084742
0.056635 0.237950 0.093062
0.111770 0.248962 0.100119
0.165404 0.258661 0.104979
0.219613 0.267737 0.109581
0.288523 0.277434 0.116604
0.390026 0.293209 0.117471
0.486071 0.311207 0.115651
0.564549 0.326453 0.115876
0.594120 0.336790 0.114005
0.611656 0.339295 0.112924
0.625421 0.341245 0.111552
0.642727 0.344168 0.109390
0.668999 0.348983 0.106275
0.701198 0.352422 0.102947
0.733347 0.353111 0.100577
0.762030 0.359179 0.100964
0.802594 0.360820 0.101122
0.846745 0.360732 0.102732
0.890885 0.360816 0.105972
0.920636 0.364533 0.110851
0.940841 0.371126 0.117165
0.953241 0.375971 0.122283
0.000000 0.260546 0.095003
-0.001053 0.262699 0.095169
0.007666 0.273579 0.099724
0.045546 0.286997 0.108187
0.099388 0.299409 0.115578
0.156812 0.309649 0.123599
0.211987 0.318553 0.129228
0.280673 0.329461 0.134242
