luts/FUJI_CLASSIC_CHROME.cube
TITLE "Generated for krafta web app"
LUT_3D_SIZE 25
#INPUTGAMMA sRGB
#IMAGEPROFILE sRGB
#OUTPUTGAMMA sRGB
0.000000 0.000000 0.000000
0.007850 0.001725 0.001721
0.057886 0.012466 0.012426
0.104512 0.022769 0.022818
0.156579 0.035030 0.035033
0.204307 0.046172 0.045477
0.251645 0.057873 0.056438
0.309590 0.072190 0.070092
0.385699 0.091180 0.087935
0.464650 0.107504 0.102632
0.525782 0.122914 0.117200
0.561808 0.132030 0.125770
0.584375 0.137782 0.131069
0.603452 0.142675 0.135570
0.628523 0.149176 0.141564
0.665821 0.158638 0.150427
0.704303 0.168615 0.159799
0.740338 0.178467 0.169043
0.779173 0.186503 0.176051
0.819892 0.193330 0.181493
0.852859 0.201504 0.188790
0.885688 0.210283 0.197217
0.919113 0.218332 0.204692
0.952929 0.222754 0.209253
0.979488 0.229966 0.215045
0.000315 0.010357 0.000396
0.008922 0.012147 0.002264
0.056450 0.021865 0.012350
0.104819 0.032250 0.023129
0.156129 0.043926 0.035177
0.201427 0.053999 0.045023
0.252419 0.066197 0.057103
0.311410 0.080411 0.071108
0.385927 0.098263 0.088295
0.467588 0.116086 0.104512
0.527611 0.130997 0.117943
0.563551 0.139981 0.126696
0.585422 0.145473 0.131812
0.604797 0.150381 0.136402
0.631663 0.157293 0.142979
0.670443 0.167024 0.152268
0.708523 0.176755 0.161522
0.744086 0.186146 0.170387
0.782094 0.194525 0.177955
0.822051 0.202303 0.184341
0.856398 0.210548 0.190988
0.890953 0.220088 0.198567
0.936974 0.236206 0.206716
0.956144 0.229364 0.209942
0.983999 0.237141 0.216079
0.001624 0.043604 0.001725
0.009910 0.045543 0.003517
0.057621 0.054485 0.013669
0.104335 0.063356 0.024056
0.150950 0.072646 0.034681
0.193363 0.080727 0.043837
0.252997 0.093893 0.058625
0.314064 0.107465 0.073334
0.387078 0.123888 0.089851
0.470028 0.143305 0.108275
0.528525 0.157208 0.120073
0.564345 0.166311 0.128274
0.586051 0.171427 0.133437
0.606422 0.176235 0.138412
0.637880 0.183828 0.146309
0.679363 0.193628 0.156416
0.718126 0.202921 0.165695
0.754954 0.212570 0.173957
0.790830 0.221151 0.182143
0.827568 0.228968 0.190453
0.864781 0.237988 0.197452
0.899088 0.246870 0.203013
0.955323 0.264078 0.209261
0.966661 0.251195 0.212160
0.996221 0.259647 0.218786
0.002561 0.075562 0.002673
0.010338 0.077158 0.004353
0.057950 0.086279 0.014913
0.105408 0.094128 0.025797
0.150537 0.102151 0.035901
0.194954 0.109844 0.045894
0.248595 0.120310 0.058797
0.311340 0.133706 0.073575
0.380243 0.149159 0.089232
0.465324 0.168742 0.108649
0.523919 0.182407 0.121116
0.559809 0.191717 0.128044
0.583101 0.196957 0.133768
0.604323 0.201690 0.139110
0.635761 0.208888 0.146903
0.676303 0.217991 0.156615
0.716275 0.227336 0.165948
0.756114 0.237308 0.174562
0.793476 0.245562 0.182603
0.829225 0.252724 0.191046
0.864924 0.260860 0.199572
0.899271 0.264756 0.205703
0.937810 0.266587 0.207971
0.975295 0.273690 0.213802
1.000512 0.281268 0.220002
0.002827 0.107612 0.003278
0.010213 0.109202 0.004735
0.056260 0.118508 0.014685
0.105820 0.126183 0.027084
0.156220 0.134038 0.039200
0.206163 0.142320 0.050830
0.250026 0.149697 0.060501
0.307165 0.161354 0.073441
0.365973 0.173143 0.086196
0.456874 0.193980 0.107515
0.520816 0.208892 0.121485
0.558650 0.217834 0.129588
0.581153 0.223097 0.134884
0.600811 0.227567 0.139560
0.628628 0.234015 0.146173
0.669572 0.243522 0.155587
0.708978 0.252430 0.164513
0.747165 0.260308 0.172821
0.786615 0.268558 0.181254
0.824591 0.277827 0.189738
0.860105 0.284088 0.197840
0.903941 0.284417 0.205861
0.944370 0.292197 0.209449
0.979646 0.298467 0.214568
0.999979 0.305790 0.220733
0.003632 0.140295 0.004214
0.010729 0.141853 0.005395
0.055246 0.151239 0.013938
0.104349 0.159476 0.026592
0.154667 0.166051 0.040055
0.205629 0.173461 0.051638
0.256665 0.182584 0.063218
0.311877 0.193001 0.075919
0.369801 0.203346 0.088053
0.443192 0.218982 0.105221
0.514256 0.235069 0.121121
0.550694 0.243406 0.129297
0.575974 0.249306 0.135258
0.597741 0.254360 0.140365
0.626344 0.260883 0.146924
0.668464 0.270790 0.156514
0.707919 0.279526 0.165281
0.744464 0.286135 0.172913
0.781469 0.293200 0.180599
0.819086 0.302515 0.189048
0.859423 0.310091 0.198363
0.908717 0.308660 0.207635
0.947473 0.317148 0.212553
0.984477 0.324427 0.216014
0.999989 0.332199 0.222886
0.004218 0.173132 0.004730
0.011097 0.174635 0.005633
0.054463 0.184069 0.012852
0.102631 0.193176 0.024405
0.153066 0.200422 0.038865
0.203485 0.206778 0.051734
0.255308 0.214218 0.063200
0.314385 0.224192 0.076778
0.380499 0.236350 0.091480
0.451049 0.250331 0.108815
0.504390 0.261669 0.120182
0.533766 0.267794 0.125771
0.560960 0.273982 0.132138
0.585706 0.279476 0.138096
0.619094 0.287188 0.146301
0.657575 0.296108 0.154841
0.694191 0.303768 0.162667
0.742505 0.312602 0.173622
0.788355 0.321733 0.183860
0.824016 0.329296 0.191711
0.867146 0.333960 0.201726
0.918203 0.336350 0.212328
0.951322 0.344477 0.218553
0.989714 0.352625 0.221768
0.999989 0.360519 0.226927
0.004674 0.206118 0.004979
0.011355 0.207518 0.005652
0.053828 0.216386 0.011803
0.101448 0.226201 0.022743
0.151590 0.234753 0.035881
0.201795 0.241544 0.049746
0.252810 0.248046 0.063091
0.311043 0.255754 0.075967
0.384091 0.268374 0.093255
0.462675 0.283872 0.112792
0.510553 0.293056 0.123401
0.536411 0.297350 0.126770
0.556521 0.301469 0.130981
0.574925 0.305501 0.135023
0.600056 0.310775 0.140460
0.636575 0.319297 0.149875
0.687067 0.330476 0.161489
0.737021 0.339101 0.172961
0.782814 0.347720 0.184187
0.840134 0.360507 0.196944
0.902336 0.369709 0.209726
0.923429 0.363145 0.216301
0.959826 0.372954 0.224371
0.993979 0.381192 0.227184
0.999997 0.389347 0.231426
0.004726 0.239486 0.004760
0.011184 0.240850 0.005266
0.052172 0.249085 0.010458
0.099391 0.258427 0.021429
0.150312 0.267907 0.034721
0.201591 0.276222 0.048150
0.251767 0.282983 0.061590
0.307109 0.289221 0.075533
0.384946 0.300879 0.093927
0.458605 0.314193 0.110699
0.523832 0.327937 0.128596
0.551286 0.332100 0.132662
0.568123 0.334194 0.134436
0.582677 0.336300 0.136304
0.602162 0.339907 0.139742
0.637101 0.348277 0.148827
0.683926 0.356929 0.161443
0.721180 0.362741 0.170415
0.759135 0.371224 0.179210
0.821739 0.381514 0.193971
0.893170 0.385266 0.210297
0.922047 0.389887 0.218215
0.967513 0.401262 0.228817
0.997530 0.410400 0.230682
0.999999 0.419269 0.236539
0.003576 0.273200 0.003362
0.009616 0.274369 0.004072
0.048541 0.281850 0.009420
0.095151 0.291546 0.018649
0.146744 0.302041 0.031625
0.199919 0.310698 0.047283
0.250979 0.317454 0.060794
0.306299 0.323520 0.075844
0.378681 0.332692 0.091509
0.450492 0.344170 0.106889
0.510973 0.355779 0.121679
0.544492 0.361895 0.129448
0.568433 0.366435 0.135165
0.590420 0.370710 0.140734
0.622210 0.376973 0.149534
0.659523 0.385242 0.158665
0.700078 0.391149 0.168629
0.736071 0.396770 0.176880
0.764737 0.403375 0.182641
0.806055 0.405842 0.191743
0.871355 0.404068 0.207319
0.921540 0.417741 0.220261
0.973994 0.430748 0.232488
0.999358 0.440491 0.234408
1.000000 0.448667 0.240795
0.003116 0.305857 0.002883
0.008014 0.307009 0.003318
0.042516 0.314734 0.007201
0.089121 0.324711 0.015486
0.140579 0.335690 0.027482
0.193820 0.345297 0.042279
0.246621 0.352219 0.059129
0.305638 0.360031 0.074891
0.376733 0.368810 0.091339
0.446152 0.377009 0.106085
0.506762 0.387640 0.120394
0.541488 0.394118 0.128385
0.564886 0.398640 0.134270
0.586536 0.402967 0.139992
0.618271 0.409049 0.148808
0.662818 0.418500 0.161538
0.711889 0.426550 0.175293
0.758162 0.434188 0.188031
0.784107 0.438631 0.191414
0.812022 0.435956 0.192908
0.878124 0.433438 0.209512
0.928094 0.447984 0.224185
0.971136 0.459279 0.236537
0.999680 0.468984 0.239214
1.000000 0.476637 0.243322
0.001114 0.349239 0.001552
0.004708 0.350349 0.001955
0.033620 0.358189 0.005576
0.078865 0.369029 0.012033
0.130353 0.380578 0.022022
0.183935 0.392060 0.034605
0.238631 0.401590 0.051048
0.300858 0.409094 0.073093
0.375164 0.418686 0.091295
0.448633 0.427633 0.108163
0.503711 0.434203 0.120337
0.540079 0.439702 0.128744
0.562739 0.443580 0.134048
0.582937 0.447217 0.138988
0.611041 0.452327 0.146265
0.654401 0.461008 0.158035
0.704309 0.469612 0.172044
0.757838 0.477642 0.187432
0.800814 0.486001 0.199003
0.842286 0.487968 0.208886
0.903073 0.481398 0.223992
0.945658 0.491040 0.234223
0.971194 0.497580 0.241314
0.995700 0.506435 0.248255
0.999998 0.513988 0.247402
-0.000007 0.393316 -0.000028
0.002357 0.394445 0.000276
0.025078 0.402634 0.003444
0.066752 0.413670 0.009788
0.117166 0.425956 0.017172
0.172397 0.438160 0.028352
0.228154 0.449028 0.043530
0.290106 0.459708 0.061763
0.372559 0.469985 0.090452
0.448716 0.479105 0.108709
0.507011 0.486361 0.122213
0.543948 0.491161 0.131499
0.568907 0.494804 0.137688
0.591511 0.498470 0.143432
0.623924 0.504414 0.152032
0.667172 0.512563 0.163084
0.711174 0.520096 0.173836
0.757220 0.526006 0.184818
0.800252 0.532852 0.194911
0.846857 0.536915 0.206525
0.904935 0.533227 0.221735
0.944480 0.538796 0.231014
0.970624 0.549397 0.241130
0.995751 0.550460 0.246773
0.999997 0.551763 0.248242
-0.000001 0.415370 -0.000004
0.001790 0.416539 -0.000015
0.020978 0.424759 0.001951
0.060209 0.436118 0.008415
0.111036 0.448936 0.015960
0.166459 0.461546 0.025320
0.223360 0.472403 0.041600
0.287797 0.484659 0.060794
0.369274 0.495708 0.086158
0.448884 0.504863 0.109148
0.509075 0.512447 0.122735
0.546461 0.517030 0.131735
0.570722 0.520486 0.137693
0.593173 0.523966 0.143309
0.626797 0.529875 0.151956
0.671732 0.537293 0.162560
0.716688 0.544957 0.172505
0.762842 0.551406 0.183070
0.806248 0.558414 0.193074
0.850711 0.562810 0.203619
0.901901 0.559639 0.216358
0.940144 0.564667 0.224881
0.967608 0.578861 0.235067
0.992623 0.578856 0.241453
0.999995 0.576213 0.246187
0.000000 0.436400 0.000000
0.001203 0.437669 -0.000063
0.016182 0.446495 0.000723
0.052216 0.458174 0.006044
0.103567 0.470633 0.014299
0.161433 0.483818 0.022877
0.219987 0.496541 0.038572
0.284836 0.508903 0.058678
0.367164 0.520222 0.085047
0.447318 0.529328 0.108891
0.508981 0.536575 0.122794
0.550593 0.542754 0.132855
0.576598 0.546573 0.139129
0.599742 0.550111 0.144743
0.632164 0.555346 0.152731
0.677470 0.562596 0.163022
0.723243 0.570058 0.172896
0.766747 0.576033 0.182116
0.806621 0.582059 0.190427
0.848472 0.585933 0.199600
0.896721 0.583748 0.210429
0.935054 0.588800 0.217930
0.961892 0.608621 0.229744
0.986221 0.607905 0.238358
0.999995 0.605065 0.244258
0.000000 0.461564 0.000000
0.000538 0.463018 -0.000032
0.011314 0.472564 0.000046
0.044159 0.484501 0.003606
0.096966 0.497932 0.011348
0.157248 0.511772 0.019938
0.216765 0.525240 0.035992
0.280782 0.537838 0.055365
0.364665 0.549108 0.084589
0.446413 0.559454 0.108714
0.514381 0.568666 0.125357
0.558384 0.574482 0.134799
0.585602 0.578713 0.141217
0.608946 0.582432 0.146725
0.639874 0.587366 0.153861
0.682513 0.593839 0.163348
0.726030 0.600288 0.172407
0.766840 0.605351 0.179999
0.804077 0.609967 0.186458
0.843430 0.613315 0.194153
0.887940 0.613594 0.204002
0.925028 0.620557 0.212574
0.952744 0.640519 0.226410
0.979828 0.638870 0.235521
1.000205 0.639581 0.240797
0.000000 0.488569 0.000000
-0.000052 0.490143 -0.000011
0.007665 0.500641 -0.000060
0.040675 0.514204 0.002192
0.096497 0.529236 0.008918
0.157965 0.543519 0.018794
0.217203 0.556696 0.035594
0.279627 0.569615 0.053186
0.365418 0.581545 0.084996
0.451714 0.593506 0.109995
0.524020 0.605068 0.128493
0.567159 0.610110 0.137005
0.592937 0.613875 0.142358
0.615166 0.617278 0.146993
0.645396 0.621827 0.153300
0.685021 0.627027 0.161358
0.724159 0.632540 0.169697
0.762009 0.637864 0.177369
0.797999 0.642732 0.184283
0.835206 0.646854 0.192044
0.875687 0.650417 0.201517
0.912209 0.658783 0.211564
0.943186 0.673485 0.224781
0.972425 0.671864 0.236394
0.998501 0.675573 0.240540
0.000000 0.516142 0.000000
-0.000419 0.518081 -0.000004
0.005093 0.530417 -0.000134
0.040660 0.544921 0.001702
0.100934 0.560672 0.008195
0.162655 0.575522 0.020211
0.219996 0.588283 0.036746
0.281295 0.601132 0.053617
0.363161 0.615065 0.079397
0.459095 0.628506 0.111832
0.529008 0.639730 0.129684
0.571874 0.646801 0.140083
0.598869 0.652204 0.148352
0.620309 0.655853 0.153730
0.644711 0.658202 0.156091
0.680499 0.662649 0.162319
0.717657 0.668430 0.170635
0.754292 0.674582 0.178976
0.790106 0.680218 0.187147
0.826217 0.685170 0.195407
0.864293 0.690146 0.203839
0.902635 0.696019 0.212701
0.936504 0.704815 0.223804
0.966914 0.705899 0.237570
0.994966 0.711031 0.240345
0.000000 0.543965 0.000000
-0.000559 0.546229 0.000001
0.004316 0.559721 -0.000175
0.042834 0.574429 0.001304
0.106721 0.590273 0.008194
0.168127 0.605177 0.022120
0.223426 0.617439 0.037737
0.285841 0.630519 0.055141
0.369514 0.647589 0.077304
0.469739 0.664430 0.111047
0.532628 0.673922 0.127713
0.572428 0.681563 0.138446
0.600673 0.687898 0.151575
0.621953 0.691964 0.159411
0.641458 0.693330 0.158999
0.674579 0.697867 0.163322
0.710378 0.703369 0.170692
0.745044 0.708762 0.178761
0.780864 0.714469 0.188108
0.818251 0.720441 0.198042
0.855720 0.726055 0.206859
0.895443 0.730224 0.214984
0.931023 0.734552 0.223766
0.965263 0.737563 0.236371
0.993250 0.743412 0.236645
0.000000 0.571789 0.000000
-0.000647 0.574160 0.000000
0.005658 0.588321 -0.000133
0.048644 0.603676 0.000854
0.113820 0.619465 0.008532
0.174680 0.633824 0.024004
0.229936 0.645853 0.039119
0.297002 0.660271 0.058396
0.390553 0.680422 0.085408
0.482066 0.699201 0.109225
0.538264 0.707774 0.124180
0.571989 0.713198 0.132291
0.597402 0.717641 0.144665
0.617757 0.721043 0.152801
0.639385 0.724125 0.154942
0.673954 0.729324 0.159463
0.708986 0.734010 0.165777
0.740190 0.737755 0.173505
0.774887 0.743255 0.183804
0.814746 0.750763 0.196177
0.852651 0.757319 0.207726
0.891494 0.762413 0.216597
0.926883 0.765277 0.225092
0.963479 0.768008 0.234541
0.993323 0.773344 0.232212
0.000000 0.600549 0.000000
-0.000890 0.603345 0.000000
0.008509 0.619234 -0.000137
0.058623 0.634800 0.000798
0.123304 0.650618 0.009501
0.184227 0.665014 0.026809
0.244720 0.678439 0.044251
0.317578 0.695230 0.066418
0.409169 0.715242 0.092759
0.484531 0.729179 0.110965
0.540644 0.738395 0.123651
0.573811 0.743491 0.130871
0.595144 0.746621 0.135046
0.613796 0.749505 0.139142
0.639165 0.754052 0.145983
0.676549 0.759855 0.154988
0.715781 0.765184 0.162537
0.748653 0.769017 0.170505
0.782757 0.773738 0.179392
0.823113 0.780452 0.190375
0.860794 0.786558 0.203680
0.896303 0.791707 0.211970
0.928520 0.796574 0.226200
0.960787 0.799934 0.229734
0.992490 0.805006 0.227652
0.000000 0.627752 0.000000
-0.001076 0.630616 0.000000
0.011699 0.646706 -0.000117
0.067383 0.662477 0.000346
0.133225 0.679550 0.011502
0.198664 0.695552 0.031539
0.263453 0.710854 0.052065
0.337371 0.728997 0.075234
0.415889 0.745007 0.093731
0.487291 0.758785 0.111620
0.541436 0.768568 0.125059
0.575550 0.774151 0.132891
0.596895 0.777629 0.137750
0.615742 0.780792 0.142247
0.641725 0.785412 0.149062
0.680200 0.790578 0.157397
0.720031 0.795347 0.165189
0.758332 0.800065 0.172157
0.795092 0.804834 0.178881
0.831200 0.809776 0.185577
0.866719 0.814836 0.191655
0.902728 0.820757 0.199789
0.935287 0.826643 0.211970
0.967127 0.831867 0.216666
0.991519 0.837492 0.222958
0.000000 0.658021 0.000000
0.000020 0.660877 0.000000
0.019289 0.676698 -0.000199
0.079851 0.692552 0.001046
0.147543 0.710964 0.014856
0.216243 0.728488 0.037803
0.282407 0.744322 0.059825
0.348870 0.758745 0.077433
0.421894 0.772032 0.094026
0.491400 0.783616 0.110171
0.546464 0.792119 0.122768
0.582860 0.797697 0.133078
0.604435 0.800586 0.137430
0.623328 0.803172 0.141158
0.649544 0.807037 0.146857
0.685765 0.812292 0.153367
0.725442 0.818330 0.161861
0.763512 0.824370 0.170659
0.798874 0.830031 0.178215
0.833734 0.835435 0.184931
0.868401 0.840836 0.191047
0.905252 0.847351 0.198903
0.938794 0.853916 0.207588
0.969409 0.859902 0.214833
0.991520 0.865912 0.222374
0.000003 0.689826 0.000000
0.003668 0.692548 -0.000002
0.038188 0.708587 -0.000533
0.101458 0.725764 0.004996
0.173434 0.745515 0.025256
0.238531 0.762166 0.044260
0.297047 0.773781 0.060126
0.357140 0.784781 0.074126
0.426960 0.796725 0.089796
0.495068 0.806036 0.105531
0.550743 0.813071 0.117156
0.586863 0.818385 0.127218
0.609722 0.821689 0.133128
0.628796 0.824448 0.137447
0.652922 0.827961 0.141600
0.685329 0.832472 0.145881
0.721721 0.838021 0.152837
0.760555 0.844969 0.163649
0.797494 0.851474 0.173190
0.832792 0.857266 0.180215
0.868996 0.863782 0.188112
0.904766 0.870295 0.195025
0.938806 0.877451 0.204692
0.971103 0.884000 0.214194
0.992127 0.889936 0.221156
0.000320 0.723783 0.000000
0.010549 0.726744 -0.000211
0.070380 0.743928 0.001949
0.131324 0.761212 0.015273
0.195458 0.776868 0.031448
0.252967 0.788649 0.044844
0.304454 0.797999 0.056073
0.362470 0.808446 0.070270
0.430594 0.818551 0.086458
0.498355 0.826282 0.099462
0.553533 0.833440 0.110975
0.586494 0.838804 0.120195
0.606981 0.841890 0.124865
0.624682 0.844506 0.128534
0.648414 0.847916 0.132987
0.681596 0.852776 0.138588
0.717741 0.858486 0.145737
0.755306 0.865240 0.155041
0.791745 0.871994 0.163908
0.827690 0.878493 0.171714
0.864550 0.885411 0.179964
0.901822 0.892530 0.188003
0.937268 0.900443 0.199518
0.969855 0.907314 0.209395
0.993147 0.914294 0.219032
0.001219 0.002465 0.007230
0.009597 0.003897 0.007777
0.056633 0.013747 0.017066
0.105547 0.024631 0.028339
0.157381 0.036705 0.040221
0.203669 0.047279 0.049908
0.252329 0.059409 0.061213
0.311058 0.073733 0.074938
0.387283 0.092520 0.092464
0.465582 0.108937 0.107219
0.525993 0.124062 0.121452
0.561964 0.133083 0.129864
0.584300 0.138714 0.135026
0.603500 0.143595 0.139499
0.628528 0.150058 0.145442
0.666029 0.159484 0.154240
0.704510 0.169517 0.163659
0.740604 0.179480 0.173026
0.779913 0.187622 0.180308
0.820962 0.194518 0.186069
0.854043 0.202781 0.193476
0.886400 0.211348 0.201667
0.919483 0.218967 0.208616
0.952799 0.223674 0.213112
0.979259 0.230935 0.218926
0.001251 0.012166 0.006613
0.009731 0.013851 0.008271
0.056727 0.023076 0.017449
0.104203 0.033165 0.027902
0.156065 0.044952 0.039934
0.201496 0.054985 0.049508
0.252360 0.067244 0.061509
0.312470 0.081599 0.075656
0.387253 0.099264 0.092527
0.467888 0.117016 0.108700
0.527585 0.131801 0.122076
0.563474 0.140742 0.130712
0.585528 0.146245 0.135821
0.604920 0.151131 0.140372
0.631395 0.157925 0.146796
0.670460 0.167645 0.156031
0.708770 0.177446 0.165323
0.744522 0.186946 0.174297
0.782862 0.195398 0.182053
0.822868 0.203198 0.188649
0.856775 0.211440 0.195408
0.890740 0.220587 0.202889
0.934288 0.235043 0.210459
0.955626 0.230328 0.213784
0.983087 0.238025 0.219850
0.002376 0.045338 0.008305
0.010413 0.046329 0.009607
0.056644 0.054434 0.017828
0.102424 0.062939 0.028008
0.149369 0.072291 0.038643
0.192501 0.080700 0.047908
0.250339 0.093594 0.062073
0.312891 0.107572 0.077029
0.387886 0.124292 0.093453
0.469537 0.143388 0.111674
0.527964 0.157308 0.123770
0.563850 0.166381 0.132080
0.586073 0.171646 0.137346
0.606401 0.176470 0.142278
0.637127 0.183918 0.149951
0.678726 0.193731 0.159960
0.717807 0.203065 0.169194
0.755145 0.212810 0.177569
0.791001 0.221390 0.185775
0.827277 0.229051 0.194018
0.864077 0.237779 0.201109
0.897707 0.246269 0.206826
0.949750 0.261830 0.212855
0.965128 0.252102 0.215852
0.994188 0.260051 0.221909
0.003141 0.076913 0.008901
0.010772 0.078290 0.010190
0.058027 0.086797 0.019421
0.105318 0.094192 0.030409
0.148575 0.101379 0.039857
0.193342 0.109336 0.049787
0.246910 0.119980 0.062531
0.307860 0.133026 0.076762
0.379489 0.149114 0.092774
0.463986 0.168683 0.111654
0.524365 0.182736 0.124785
0.559826 0.191776 0.131866
0.583002 0.197013 0.137501
0.604030 0.201744 0.142728
0.635076 0.208912 0.150379
0.675309 0.217990 0.159978
0.715315 0.227341 0.169272
0.755339 0.237343 0.177922
0.792681 0.245658 0.185982
0.828401 0.252542 0.194351
0.864960 0.260149 0.202950
0.898668 0.264650 0.209187
0.936169 0.267303 0.211782
0.973369 0.274385 0.217323
0.998861 0.281922 0.223472
0.003219 0.109094 0.009331
0.010513 0.110305 0.010428
0.056328 0.118790 0.019109
0.106103 0.126497 0.031707
0.155918 0.133768 0.043617
0.205019 0.141948 0.054835
0.249315 0.149372 0.064505
0.303742 0.160468 0.076650
0.364036 0.172337 0.089966
0.454389 0.193891 0.110291
0.519022 0.208714 0.124487
0.557754 0.217927 0.132972
0.580845 0.223192 0.138391
0.600967 0.227790 0.143158
0.629159 0.234340 0.149816
0.669324 0.243674 0.159045
0.708262 0.252623 0.167904
0.746819 0.260495 0.176323
0.786377 0.268941 0.184798
0.824698 0.277859 0.193305
0.860831 0.283387 0.201457
0.903258 0.285083 0.209443
0.942998 0.292812 0.213094
0.978201 0.299255 0.218218
0.999550 0.306410 0.224353
0.003906 0.141546 0.010041
0.010971 0.142908 0.010929
0.055374 0.151347 0.018338
0.104464 0.159648 0.030902
0.154680 0.166201 0.044340
0.205409 0.173159 0.055819
0.256786 0.182282 0.067437
0.310686 0.192261 0.079868
0.369029 0.202638 0.092298
0.441475 0.218328 0.108894
0.509900 0.234512 0.123309
0.548433 0.243144 0.132138
0.572867 0.248792 0.137856
0.594707 0.253840 0.142970
0.625381 0.260861 0.150106
0.669061 0.271146 0.160145
0.708336 0.279871 0.168909
0.744938 0.286605 0.176644
0.782603 0.293533 0.184537
0.821038 0.302101 0.193085
0.861635 0.309413 0.202394
0.908687 0.309650 0.211455
0.946992 0.318018 0.216264
0.983660 0.325377 0.219845
1.000122 0.333117 0.226680
0.004430 0.174470 0.010331
0.011333 0.175650 0.011021
0.054752 0.184252 0.017348
0.102819 0.193405 0.028692
0.152695 0.200347 0.042655
0.203373 0.206670 0.055806
0.255007 0.213894 0.067320
0.315007 0.224100 0.081591
0.381798 0.235931 0.096810
0.449471 0.248958 0.112982
0.502298 0.260984 0.123646
0.531910 0.267940 0.128663
0.557089 0.273505 0.134493
0.580351 0.278601 0.140088
0.613225 0.286058 0.148114
0.656017 0.296002 0.157909
0.694087 0.304088 0.166156
0.740740 0.312776 0.176748
0.788598 0.321403 0.187520
0.827869 0.328442 0.196176
0.869599 0.333821 0.205860
0.918449 0.337356 0.216174
0.951386 0.345475 0.222386
0.989306 0.353535 0.225493
0.999989 0.361431 0.230703
0.004919 0.207304 0.010324
0.011565 0.208529 0.010795
0.053938 0.216587 0.016193
0.101722 0.226111 0.027207
0.151905 0.234728 0.040101
0.201811 0.241432 0.053645
0.252082 0.247574 0.067136
0.310291 0.255210 0.080217
0.384238 0.267803 0.098119
0.462942 0.282792 0.117746
0.510401 0.291702 0.128244
0.536247 0.296749 0.131431
0.555446 0.301553 0.134708
0.572935 0.305717 0.138087
0.597107 0.310588 0.143327
0.634271 0.319126 0.152846
0.684704 0.330254 0.164398
0.734665 0.339024 0.175924
0.782535 0.347027 0.187667
0.840179 0.358428 0.200606
0.898391 0.367746 0.212684
0.922947 0.363961 0.219853
0.960184 0.373824 0.228209
0.994021 0.382060 0.230796
0.999997 0.390225 0.235134
0.004948 0.240620 0.009913
0.011350 0.241733 0.010218
0.052061 0.249446 0.014556
0.099444 0.258475 0.025568
0.150536 0.267652 0.039055
0.201246 0.275941 0.052060
0.250327 0.282351 0.065015
0.305461 0.288449 0.079494
0.383566 0.300080 0.098144
0.459279 0.313469 0.116184
0.524760 0.326721 0.134164
0.553079 0.331131 0.138942
0.569258 0.333093 0.140137
0.583122 0.335390 0.141299
0.601822 0.340166 0.143622
0.635650 0.348461 0.151885
0.681705 0.356788 0.164383
0.719767 0.362943 0.173665
0.759603 0.370491 0.182950
0.822161 0.379595 0.197797
0.889928 0.384949 0.213323
0.921639 0.390652 0.221786
0.967145 0.402021 0.232373
0.997523 0.411254 0.234267
0.999999 0.419947 0.239801
0.003907 0.274230 0.008343
0.009876 0.275257 0.008818
0.048483 0.282161 0.013276
0.094990 0.291752 0.022464
0.146585 0.301877 0.035607
0.199588 0.310333 0.051205
0.249834 0.316996 0.064285
0.304423 0.323098 0.079043
0.376037 0.331735 0.095359
0.449603 0.343325 0.111911
0.512456 0.355209 0.127830
0.548533 0.361847 0.136942
0.571682 0.365910 0.142171
0.592482 0.369519 0.147010
0.622696 0.375148 0.154659
0.657074 0.384142 0.162705
0.697172 0.390901 0.171628
0.733407 0.396631 0.179516
0.764639 0.402111 0.186227
0.808985 0.404210 0.196236
0.871696 0.405181 0.211195
0.922083 0.418795 0.224175
0.973368 0.431502 0.235908
0.999461 0.441325 0.237901
1.000000 0.449503 0.244723
0.003189 0.306869 0.007297
0.008136 0.307924 0.007592
0.042695 0.315065 0.011013
0.089141 0.324864 0.019483
0.140587 0.335696 0.031467
0.193940 0.345043 0.046669
0.246521 0.352030 0.062977
0.304310 0.359665 0.078141
0.374616 0.368431 0.094245
