luts/Fujifilm_Velvia_100.cube
# Generated for krafta web app
# https://www.facebook.com/krafta.visio
# Preset: FUJ - Velvia 100
# Color profile : sRGB Color Space Profile
LUT_3D_SIZE 6
DOMAIN_MIN 0.0 0.0 0.0
DOMAIN_MAX 1.0 1.0 1.0
0.000000 0.000000 0.000000
0.280217 0.000092 0.000305
0.482338 0.000214 0.000214
0.680781 0.000092 0.000549
0.862638 0.000122 0.000702
1.000000 0.000519 0.000671
0.000000 0.256657 0.000000
0.244968 0.245151 0.000000
0.463416 0.230991 0.000000
0.669001 0.218570 0.000000
0.851621 0.202213 0.000000
1.000000 0.183200 0.000000
0.000000 0.451240 0.000000
0.219272 0.450416 0.000000
0.442481 0.442786 0.000000
0.651270 0.431037 0.000000
0.842405 0.414649 0.000000
1.000000 0.396857 0.000000
0.000000 0.630610 0.000000
0.185641 0.629267 0.000000
0.411170 0.627375 0.000000
0.622858 0.623102 0.000000
0.822721 0.611963 0.000000
1.000000 0.595483 0.000000
0.000000 0.798398 0.000000
0.121096 0.800229 0.000000
0.376684 0.802976 0.000000
0.593774 0.804593 0.000000
0.805020 0.805203 0.000000
0.996857 0.788479 0.000000
0.000000 0.986236 0.000000
0.000000 0.981567 0.000000
0.295628 0.982330 0.000000
0.545586 0.984039 0.000000
0.768887 0.986084 0.000000
0.987518 0.987701 0.000000
0.000000 0.000153 0.295903
0.266026 0.000000 0.267216
0.471748 0.000000 0.237217
0.670649 0.000183 0.219547
0.854185 0.000153 0.203738
1.000000 0.000183 0.183505
0.000000 0.253483 0.253574
0.243076 0.243076 0.243076
0.460548 0.229313 0.229435
0.665797 0.214694 0.214969
0.849851 0.199832 0.199802
1.000000 0.176852 0.177066
0.000000 0.448188 0.217746
0.214908 0.445991 0.215610
0.437018 0.437079 0.208133
0.644587 0.425574 0.197604
0.835996 0.410285 0.185306
1.000000 0.393317 0.160159
0.000000 0.629816 0.185641
0.183261 0.628687 0.183963
0.409400 0.625757 0.179873
0.620386 0.620508 0.171481
0.820005 0.609491 0.155734
1.000000 0.594385 0.112886
0.000000 0.800992 0.116030
0.113283 0.801480 0.115023
0.375250 0.803769 0.111086
0.593256 0.804898 0.098665
0.805264 0.805356 0.070893
0.998199 0.788571 0.000000
0.000000 0.987671 0.000000
0.000000 0.983429 0.000000
0.283146 0.984070 0.000000
0.541070 0.985290 0.000000
0.767086 0.986603 0.000000
0.987732 0.987976 0.000000
0.000671 0.000000 0.498665
0.242161 0.000000 0.481575
0.457252 0.000153 0.457832
0.661585 0.000122 0.440742
0.847807 0.000336 0.421576
1.000000 0.000336 0.405768
0.000000 0.240940 0.475929
0.233249 0.233310 0.464576
0.451270 0.222965 0.451179
0.656001 0.209110 0.435370
0.843107 0.200656 0.418494
1.000000 0.180026 0.400793
0.000000 0.440681 0.440528
0.209476 0.438911 0.438880
0.431098 0.431098 0.431098
0.637537 0.420844 0.420722
0.830503 0.409155 0.408972
1.000000 0.392279 0.392065
0.000000 0.626825 0.411658
0.185000 0.625788 0.411170
0.408362 0.623011 0.408728
0.617823 0.617884 0.403204
0.817777 0.607446 0.392401
1.000000 0.592157 0.371374
0.000000 0.802213 0.371374
0.091981 0.803006 0.371801
0.371893 0.804959 0.372412
0.592309 0.805509 0.369451
0.805600 0.805753 0.364385
1.000000 0.787106 0.323217
0.000000 0.990265 0.261875
0.000000 0.986481 0.248997
0.238285 0.986603 0.239719
0.526757 0.987915 0.222873
0.761929 0.988495 0.183169
0.989014 0.989227 0.053590
0.000824 0.000000 0.675257
0.225010 0.000000 0.669032
0.438880 0.000000 0.657618
0.643366 0.000000 0.643915
0.839200 0.000183 0.628717
1.000000 0.000214 0.611536
0.007752 0.228580 0.669520
0.224155 0.224002 0.662165
0.435584 0.217105 0.652491
0.640223 0.206577 0.640101
0.835569 0.196353 0.625208
1.000000 0.172488 0.606989
0.000000 0.428229 0.642908
0.211490 0.427466 0.641474
0.423133 0.423224 0.635187
0.627497 0.415869 0.627527
0.823850 0.406256 0.615869
1.000000 0.391577 0.603052
0.000000 0.621149 0.621027
0.184176 0.620447 0.620447
0.407874 0.618616 0.618524
0.613245 0.613336 0.613306
0.814176 0.606104 0.606012
1.000000 0.592279 0.592218
0.000000 0.804074 0.592309
0.089723 0.804654 0.592828
0.373327 0.805600 0.593896
0.593530 0.805905 0.593744
0.804044 0.804166 0.589899
1.000000 0.785946 0.562371
0.000000 0.992615 0.534752
0.000000 0.989654 0.526757
0.205325 0.989929 0.524041
0.518181 0.990723 0.518608
0.758419 0.990356 0.504112
0.990539 0.990723 0.476173
0.003235 0.000214 0.842893
0.212436 0.000000 0.840757
0.417945 0.000000 0.835386
0.621424 0.000000 0.829709
0.821805 0.000000 0.822660
1.000000 0.000000 0.813291
0.022522 0.216617 0.841306
0.214511 0.214145 0.838010
0.418402 0.210208 0.833951
0.620905 0.202792 0.827970
0.820401 0.188785 0.820310
1.000000 0.159548 0.808743
0.030945 0.417365 0.828061
0.214420 0.416754 0.827115
0.413428 0.413153 0.824033
0.613519 0.407050 0.819211
0.814389 0.398749 0.814298
1.000000 0.383276 0.805661
0.000000 0.609766 0.816159
0.185885 0.609918 0.816007
0.401617 0.609064 0.814633
0.606867 0.606836 0.812406
0.809018 0.601373 0.808927
1.000000 0.589776 0.800504
0.000000 0.803922 0.803830
0.090425 0.804257 0.804257
0.374029 0.805295 0.805264
0.594568 0.805386 0.805325
0.800076 0.800137 0.800046
1.000000 0.788083 0.787991
0.000000 0.994629 0.772671
0.000000 0.992340 0.768826
0.213230 0.992920 0.768368
0.520897 0.993072 0.766262
0.759823 0.992493 0.760006
0.992370 0.992523 0.747616
0.002075 0.000000 1.000000
0.196384 0.000000 1.000000
0.400183 0.000000 1.000000
0.601495 0.000000 1.000000
0.802396 0.000000 1.000000
1.000000 0.000000 1.000000
0.000000 0.200412 1.000000
0.199283 0.198642 1.000000
0.400916 0.192325 1.000000
0.600946 0.179202 1.000000
0.800107 0.152041 1.000000
1.000000 0.092897 1.000000
0.000000 0.403265 1.000000
0.199374 0.402655 1.000000
0.399237 0.398993 1.000000
0.598901 0.391241 1.000000
0.798398 0.376440 1.000000
1.000000 0.356603 1.000000
0.000000 0.598505 1.000000
0.172580 0.599054 1.000000
0.395331 0.600366 1.000000
0.595117 0.595026 1.000000
0.795865 0.585840 1.000000
1.000000 0.574762 1.000000
0.000000 0.792447 1.000000
0.000000 0.792569 1.000000
0.352148 0.793393 1.000000
0.583398 0.794980 1.000000
0.794461 0.794491 1.000000
1.000000 0.787076 1.000000
0.000000 0.995453 0.995392
0.000000 0.994812 0.994720
0.143435 0.994751 0.994659
0.505364 0.994659 0.994598
0.756558 0.995026 0.994965
0.996002 0.996002 0.996002
