luts/FUJI_CLASSIC_NEG.cube
TITLE "Generated for krafta web app"
LUT_3D_SIZE 9
#INPUTGAMMA sRGB
#IMAGEPROFILE sRGB
#OUTPUTGAMMA sRGB
0.000000 0.000000 0.000000
0.097546 0.019427 0.002950
0.232144 0.049084 0.006001
0.499909 0.108675 0.005682
0.625434 0.139321 0.009749
0.713288 0.157225 0.005195
0.808525 0.180956 0.007934
0.866026 0.195796 0.010908
0.899374 0.203986 0.012376
0.000208 0.070666 0.025825
0.095804 0.096644 0.036523
0.231499 0.119422 0.036493
0.492608 0.173456 0.031486
0.609072 0.197593 0.028379
0.689341 0.215419 0.029858
0.790296 0.240131 0.026480
0.852345 0.253367 0.030668
0.887463 0.261725 0.032832
0.000000 0.149583 0.051009
0.069329 0.180290 0.064743
0.232619 0.206718 0.079280
0.481442 0.251079 0.074837
0.593189 0.273690 0.068214
0.660337 0.286868 0.062305
0.813992 0.315219 0.067155
0.860550 0.327765 0.061623
0.955787 0.322445 0.066957
0.000000 0.207616 0.066914
0.057457 0.237849 0.084075
0.220639 0.268261 0.101831
0.492313 0.315606 0.106414
0.614893 0.338044 0.103504
0.675002 0.348867 0.097372
0.768800 0.358628 0.091238
0.885822 0.360080 0.093192
0.949739 0.371283 0.106269
0.000000 0.383204 0.122801
0.035079 0.411450 0.142245
0.190350 0.446635 0.163872
0.476235 0.489710 0.184843
0.623517 0.510821 0.191566
0.717260 0.525951 0.191378
0.845377 0.539595 0.185211
0.935866 0.532100 0.178111
0.977071 0.536708 0.177368
0.000000 0.469048 0.154072
0.027721 0.495405 0.170953
0.176244 0.530862 0.192128
0.469908 0.576878 0.220434
0.621014 0.594823 0.222390
0.717135 0.606787 0.224061
0.838054 0.622123 0.222617
0.914561 0.622972 0.218103
0.956420 0.627202 0.217226
0.000000 0.563956 0.190438
0.027016 0.589366 0.207267
0.182417 0.628730 0.233163
0.502153 0.697341 0.273692
0.644403 0.719482 0.288903
0.718584 0.732387 0.291828
0.823199 0.749431 0.294813
0.896038 0.759611 0.301928
0.937901 0.760878 0.297119
0.000000 0.623964 0.215037
0.042502 0.657084 0.238918
0.224509 0.708797 0.275510
0.560932 0.801534 0.338541
0.714153 0.834893 0.359812
0.781763 0.839439 0.351796
0.865967 0.838593 0.337371
0.922504 0.842329 0.333667
0.952536 0.844706 0.328543
0.000000 0.697959 0.254179
0.094453 0.736770 0.283208
0.285148 0.796047 0.328112
0.621005 0.887576 0.393406
0.742909 0.896342 0.387893
0.799089 0.896438 0.374316
0.887636 0.898496 0.365912
0.934589 0.901174 0.356428
0.960826 0.902325 0.352145
0.044241 0.033488 0.090573
0.136018 0.051413 0.081479
0.270121 0.079640 0.071052
0.524399 0.137652 0.056709
0.654725 0.164698 0.047754
0.734410 0.183506 0.048057
0.828305 0.207036 0.048121
0.880647 0.216196 0.049699
0.906942 0.218304 0.049345
0.030081 0.111770 0.134166
0.099874 0.114427 0.113924
0.172217 0.118449 0.109054
0.446293 0.172926 0.108868
0.599695 0.205494 0.109332
0.694008 0.227330 0.112595
0.837832 0.253520 0.112360
0.920392 0.268912 0.116987
0.966751 0.279801 0.123610
0.002629 0.186639 0.160858
0.081719 0.193770 0.142521
0.203595 0.215301 0.143618
0.394001 0.236144 0.139157
0.529220 0.262690 0.139628
0.585596 0.272853 0.132242
0.775400 0.305179 0.137572
0.915360 0.332976 0.157889
0.969593 0.350636 0.172435
0.000079 0.242252 0.176084
0.063565 0.248007 0.160655
0.196145 0.271156 0.165053
0.474352 0.312674 0.176925
0.550046 0.321419 0.168623
0.634602 0.336073 0.170450
0.792195 0.357025 0.169512
0.930777 0.386096 0.188037
0.984073 0.402447 0.192787
0.000000 0.405760 0.218193
0.023717 0.413039 0.208991
0.172364 0.441218 0.224654
0.455856 0.481535 0.245091
0.605360 0.499116 0.246670
0.709366 0.514405 0.246573
0.850489 0.526417 0.244410
0.941292 0.539769 0.239011
0.979357 0.562283 0.248132
0.000000 0.484730 0.239807
0.017168 0.493702 0.235125
0.159183 0.522157 0.252602
0.466774 0.573027 0.272165
0.621092 0.589362 0.279324
0.715492 0.600804 0.278670
0.840653 0.614437 0.278763
0.919183 0.634606 0.280349
0.960646 0.661890 0.298256
0.000000 0.576593 0.269919
0.026457 0.597514 0.277769
0.198638 0.643822 0.307078
0.518048 0.715151 0.346960
0.653634 0.739099 0.358395
0.716702 0.747579 0.352086
0.836636 0.762452 0.364364
0.900895 0.767911 0.362176
0.943194 0.767731 0.354763
0.000019 0.648536 0.301288
0.081436 0.682257 0.322744
0.274484 0.741822 0.363242
0.598897 0.829998 0.420499
0.724408 0.845974 0.421524
0.795962 0.848318 0.415403
0.872083 0.847193 0.400372
0.921085 0.849402 0.390092
0.949591 0.850555 0.386754
0.024425 0.729293 0.344242
0.149273 0.770545 0.373789
0.334921 0.829228 0.416017
0.641500 0.899343 0.461047
0.741368 0.901478 0.446660
0.800793 0.901459 0.438083
0.878093 0.905789 0.423694
0.929376 0.908429 0.415469
0.958762 0.910791 0.411607
0.085808 0.065464 0.179297
0.176902 0.083655 0.168572
0.309946 0.113936 0.156420
0.569333 0.174820 0.135703
0.690992 0.201688 0.123890
0.765044 0.216690 0.116642
0.852197 0.224868 0.099516
0.891492 0.229835 0.093388
0.915139 0.231072 0.087924
0.077902 0.144993 0.217331
0.136772 0.140385 0.197555
0.250402 0.155905 0.196061
0.516394 0.214756 0.193986
0.656258 0.245668 0.191338
0.753345 0.265859 0.192190
0.868106 0.285791 0.186735
0.945436 0.295124 0.189114
0.975612 0.301282 0.193471
0.054309 0.225045 0.263750
0.135864 0.239649 0.246891
0.202546 0.237947 0.236761
0.336769 0.242156 0.218161
0.488218 0.278259 0.230544
0.640873 0.309460 0.244475
0.860029 0.350656 0.264730
0.961929 0.371675 0.271370
0.988662 0.380221 0.268644
0.034557 0.279886 0.285774
0.117260 0.289742 0.265072
0.192732 0.294431 0.257329
0.393927 0.315212 0.256047
0.463154 0.320728 0.248118
0.595764 0.346680 0.259210
0.835571 0.395077 0.280132
0.953623 0.418554 0.283749
0.989324 0.429312 0.284195
0.004877 0.444329 0.339609
0.067473 0.448250 0.321562
0.158499 0.449020 0.309924
0.427901 0.484090 0.319030
0.601633 0.508665 0.320750
0.709375 0.524489 0.323368
0.854384 0.563222 0.337112
0.948317 0.555656 0.314649
0.981005 0.588145 0.329908
0.000720 0.522891 0.360281
0.048393 0.523171 0.343256
0.168686 0.540598 0.343264
0.474263 0.590253 0.357306
0.628520 0.608908 0.360989
0.723374 0.622031 0.364302
0.848942 0.642858 0.365210
0.924068 0.659407 0.366459
0.963867 0.678841 0.375592
0.003394 0.614229 0.383485
0.081372 0.632100 0.383690
0.248391 0.674810 0.406836
0.549404 0.744112 0.442369
0.666600 0.760182 0.440068
0.751061 0.767610 0.443852
0.852784 0.775325 0.442268
0.907238 0.776643 0.428564
0.948529 0.776725 0.423068
0.032211 0.688523 0.411070
0.147964 0.724776 0.430993
0.335032 0.782736 0.473511
0.622919 0.849150 0.506594
0.729252 0.851913 0.493166
0.789281 0.852176 0.484821
0.866732 0.854998 0.467348
0.920216 0.856238 0.462918
0.950833 0.857883 0.457596
0.093531 0.773991 0.456245
0.211232 0.811266 0.481361
0.378664 0.859086 0.513905
0.644535 0.907326 0.534521
0.735752 0.907047 0.517955
0.792165 0.910485 0.507254
0.874584 0.914975 0.493369
0.930363 0.919100 0.485114
0.960382 0.921345 0.481163
0.115133 0.087243 0.240239
0.204145 0.105581 0.228892
0.343443 0.141267 0.218887
0.593052 0.200636 0.194686
0.714526 0.224190 0.179713
0.781043 0.233098 0.168987
0.847901 0.236310 0.152579
0.882699 0.240850 0.146301
0.904931 0.241129 0.141005
0.107355 0.166396 0.277764
0.164448 0.160587 0.259402
0.292586 0.185474 0.256966
0.553311 0.241427 0.248269
0.698387 0.274892 0.249929
0.781665 0.294942 0.248831
0.866712 0.300780 0.235165
0.926316 0.304593 0.234852
0.970218 0.307689 0.238200
0.094936 0.249157 0.321175
0.173589 0.272062 0.320171
0.227225 0.254440 0.296395
0.426124 0.288755 0.298766
0.629939 0.338843 0.323330
0.772305 0.362023 0.330320
0.908574 0.379870 0.326973
0.960605 0.387200 0.322017
0.977630 0.392027 0.317880
0.076066 0.309303 0.359472
0.152173 0.318876 0.334993
0.230914 0.325996 0.332294
0.356941 0.319579 0.312025
0.500532 0.350900 0.323483
0.662767 0.384132 0.341135
0.876445 0.424018 0.348688
0.958935 0.438290 0.345823
0.976138 0.445567 0.345610
0.025390 0.470760 0.422372
0.099114 0.478988 0.403468
0.195493 0.476177 0.383198
0.416991 0.497242 0.378375
0.594446 0.524621 0.383360
0.706801 0.540187 0.385093
0.858455 0.582311 0.397655
0.950522 0.578958 0.380127
0.978937 0.606719 0.392551
0.013427 0.551621 0.446366
0.089699 0.549647 0.422874
0.204746 0.562259 0.415743
0.478824 0.610059 0.422185
0.631040 0.626380 0.424499
0.722427 0.637265 0.423689
0.850279 0.666451 0.432815
0.927044 0.674667 0.426587
0.967282 0.681858 0.426710
0.033672 0.643860 0.465480
0.122207 0.659160 0.460113
0.287836 0.700789 0.480362
0.562218 0.757625 0.502672
0.685215 0.770502 0.501954
0.762674 0.775806 0.503217
0.848317 0.779279 0.492114
0.912831 0.783457 0.482274
0.954000 0.781998 0.475240
0.083173 0.721213 0.490223
0.193991 0.755317 0.508937
0.367040 0.807091 0.547223
0.630362 0.855281 0.563052
0.723962 0.855693 0.546039
0.780913 0.858330 0.533858
0.866039 0.859796 0.524852
0.922550 0.863056 0.515494
0.953653 0.864783 0.510336
0.141280 0.805720 0.535293
0.248705 0.835621 0.555485
0.410751 0.881570 0.588519
0.639314 0.910576 0.587536
0.727329 0.914202 0.571035
0.787180 0.917321 0.561126
0.874452 0.923104 0.548480
0.931893 0.927629 0.540592
0.962302 0.929736 0.535949
0.198871 0.149526 0.399026
0.293848 0.176940 0.392248
0.429012 0.213441 0.380113
0.647157 0.256068 0.343784
0.727264 0.258177 0.325011
0.774896 0.259722 0.315316
0.856405 0.267417 0.308900
0.907205 0.273585 0.307049
0.941013 0.277976 0.306598
0.179172 0.214435 0.434975
0.268679 0.232711 0.430324
0.397621 0.264152 0.422664
0.648542 0.318554 0.413972
0.728555 0.320489 0.394157
0.778604 0.321973 0.384217
0.861800 0.329186 0.375146
0.924957 0.334530 0.372870
0.975279 0.341673 0.382877
0.191672 0.326856 0.497327
0.239009 0.326303 0.485707
0.349532 0.344499 0.483977
0.656241 0.405732 0.494011
0.730382 0.407430 0.471910
0.778150 0.405459 0.456477
0.878085 0.408081 0.444216
0.946129 0.422234 0.441390
0.983828 0.425935 0.443235
0.178974 0.382891 0.527476
0.257605 0.410393 0.533514
0.329500 0.409041 0.524739
0.628525 0.453747 0.521743
0.723294 0.461580 0.504559
0.772082 0.459001 0.489284
0.875173 0.463802 0.475431
0.949419 0.478959 0.473943
0.986847 0.483402 0.478283
0.134357 0.547296 0.626923
0.204752 0.537246 0.596445
0.282085 0.544661 0.597548
0.473350 0.557849 0.564186
0.580589 0.568330 0.551184
0.709999 0.589729 0.550865
0.866359 0.616742 0.539759
0.949017 0.637039 0.549845
0.978473 0.645145 0.558419
0.132697 0.625015 0.660433
0.196542 0.627934 0.642026
0.317591 0.634999 0.617019
0.537284 0.658109 0.596849
0.637370 0.663493 0.578205
0.732380 0.677124 0.583802
0.859544 0.693540 0.575771
0.938170 0.706413 0.576874
0.976623 0.707626 0.578258
0.152351 0.724645 0.676692
0.231818 0.729007 0.658311
0.375596 0.760411 0.671975
0.603832 0.783229 0.662237
0.702923 0.788721 0.648995
0.768221 0.791181 0.643196
0.856328 0.798150 0.633367
0.928048 0.800519 0.621075
0.969028 0.796761 0.613771
0.197590 0.801192 0.697276
0.290179 0.824257 0.709288
0.424369 0.853050 0.723825
0.618242 0.867323 0.702814
0.715982 0.870430 0.688246
0.780079 0.873741 0.678751
0.870113 0.877670 0.667841
0.930055 0.882066 0.659323
0.964917 0.883135 0.655144
0.246999 0.876714 0.739491
0.338906 0.900492 0.755999
0.441463 0.915621 0.755695
0.624522 0.927534 0.731904
0.722075 0.934245 0.717624
0.786316 0.939408 0.707883
0.876995 0.945442 0.694862
0.938969 0.948922 0.684769
0.971624 0.950451 0.679409
0.262831 0.198376 0.502204
0.352382 0.224050 0.493793
0.479169 0.255626 0.477636
0.649862 0.265711 0.432626
0.740829 0.274059 0.424387
0.802080 0.280825 0.421007
0.894480 0.293143 0.419047
0.948015 0.300669 0.418401
0.981840 0.305749 0.418740
0.242757 0.259810 0.541491
0.326497 0.282852 0.538586
0.457478 0.305085 0.525302
0.641890 0.324446 0.498425
0.740138 0.338666 0.492184
0.806919 0.346597 0.485880
0.900506 0.356386 0.478115
0.955424 0.362153 0.473372
0.989552 0.368930 0.475401
0.259427 0.386395 0.628375
0.320134 0.390969 0.619424
0.476670 0.424672 0.624080
0.647796 0.429702 0.580721
0.739780 0.430528 0.558447
0.802921 0.432637 0.545563
0.893624 0.436870 0.531122
0.961440 0.443974 0.527309
0.993543 0.448912 0.527465
0.261652 0.459558 0.673135
0.329755 0.467312 0.658552
0.460296 0.478032 0.647159
0.641199 0.489972 0.614454
0.730107 0.486555 0.589116
0.793459 0.487861 0.575856
0.886973 0.492242 0.560315
0.960973 0.501674 0.559590
0.994547 0.507658 0.561604
0.194032 0.588008 0.754015
0.253778 0.587793 0.737713
0.383462 0.600732 0.705032
0.591012 0.617107 0.667205
0.693827 0.630026 0.655340
0.755675 0.632171 0.643224
0.867299 0.647889 0.636769
0.951578 0.663691 0.645350
0.985507 0.668743 0.651218
0.197798 0.675525 0.792568
0.267864 0.677884 0.773694
0.380848 0.675838 0.738583
0.584093 0.690363 0.700044
0.678284 0.693846 0.684196
0.740619 0.697328 0.674921
0.863019 0.720069 0.670495
0.943493 0.733042 0.679122
0.983896 0.737488 0.682293
0.222312 0.771224 0.805228
0.293844 0.772396 0.785468
0.408894 0.780267 0.771562
0.603924 0.791825 0.748122
0.708595 0.797639 0.734728
0.772890 0.802743 0.727399
0.861312 0.810754 0.718073
0.935496 0.810595 0.709809
0.979194 0.810968 0.703546
0.248220 0.838460 0.816098
0.329919 0.855642 0.822681
0.426876 0.866864 0.818332
0.613659 0.879005 0.793144
0.716542 0.882278 0.777116
0.783812 0.884441 0.767439
0.874498 0.890208 0.755173
0.935673 0.893428 0.749656
0.974180 0.894556 0.742375
0.286358 0.911149 0.857374
0.351182 0.921146 0.858137
0.437995 0.926748 0.848612
0.621369 0.940781 0.823813
0.722579 0.947998 0.808704
0.788817 0.952499 0.798905
0.880576 0.958170 0.784618
0.944740 0.962197 0.774713
0.979213 0.964541 0.769283
0.335097 0.254456 0.622605
0.411291 0.269067 0.608586
0.501557 0.274681 0.579998
0.679101 0.291570 0.562212
0.793853 0.313215 0.567405
0.869420 0.330994 0.572140
0.954684 0.347906 0.571189
0.997792 0.351694 0.565177
1.000000 0.351930 0.559558
0.326945 0.322671 0.675339
0.399476 0.332235 0.666647
0.494726 0.341078 0.649770
0.700756 0.379901 0.644583
0.819643 0.404896 0.645484
0.884915 0.413218 0.638740
0.960145 0.418142 0.622793
0.997226 0.416770 0.609110
0.999998 0.415963 0.601199
0.374624 0.479005 0.801275
0.462926 0.493728 0.796885
0.541709 0.496758 0.772787
0.723316 0.497334 0.727146
0.818590 0.497891 0.704052
0.875519 0.495422 0.686684
0.949970 0.491793 0.663171
0.994542 0.490840 0.650040
1.000084 0.490528 0.642946
0.380748 0.549234 0.835925
0.451418 0.556848 0.826560
0.528556 0.558893 0.807112
0.711018 0.553954 0.758466
0.803776 0.549915 0.731361
0.863233 0.547302 0.714076
0.943377 0.545907 0.692250
0.989215 0.545814 0.678838
1.000022 0.545642 0.671726
0.287471 0.685582 0.920409
0.358456 0.686921 0.892929
0.456493 0.686413 0.865631
0.658800 0.688039 0.811859
0.757226 0.690338 0.792759
0.820213 0.691797 0.780244
0.907005 0.694312 0.762822
0.963625 0.696348 0.751630
0.995464 0.700627 0.750856
0.242418 0.744311 0.954388
0.315410 0.740042 0.921678
0.418117 0.736214 0.889801
0.626284 0.744068 0.840040
0.736552 0.751532 0.815809
0.800390 0.755285 0.805274
0.886309 0.759278 0.789779
0.952588 0.766339 0.785607
0.992555 0.774350 0.789776
0.261059 0.816189 0.952633
0.307905 0.812445 0.940592
0.394187 0.805447 0.917482
0.599045 0.811353 0.874623
0.709239 0.814777 0.849376
0.778308 0.819963 0.837351
0.872557 0.829949 0.822037
0.946164 0.841140 0.825213
0.990135 0.851842 0.830612
0.276802 0.876815 0.956932
0.328675 0.878174 0.947206
0.416219 0.881992 0.933130
0.615813 0.891070 0.900075
0.723377 0.894398 0.880803
0.788339 0.899575 0.872436
0.882265 0.903019 0.859731
0.944738 0.907224 0.852896
0.987750 0.909710 0.847725
0.286430 0.932201 0.974377
0.341985 0.936479 0.968433
0.427677 0.943258 0.958883
0.622675 0.956684 0.933131
0.725532 0.964382 0.918169
0.792634 0.968904 0.908048
0.887020 0.974385 0.893548
0.951781 0.978358 0.884166
0.988540 0.980996 0.878529
0.367235 0.279813 0.683832
0.424705 0.281119 0.664029
0.512055 0.286937 0.645294
0.736962 0.338017 0.662394
0.855445 0.366798 0.670580
0.920227 0.378363 0.668924
0.990885 0.389769 0.660457
1.000133 0.397893 0.655341
1.000000 0.396611 0.647561
0.355718 0.342388 0.738272
0.425173 0.357427 0.737472
0.528677 0.381677 0.738739
0.774933 0.444717 0.752595
0.873439 0.455281 0.738411
0.932942 0.461364 0.728031
0.990614 0.457664 0.704186
1.000164 0.456664 0.690616
1.000000 0.456950 0.683880
0.444287 0.532817 0.891603
0.495158 0.532470 0.874855
0.582835 0.535810 0.855105
0.775819 0.541861 0.816105
0.862413 0.537138 0.788030
0.917694 0.532970 0.768869
0.986863 0.530900 0.747108
1.000251 0.530737 0.733789
1.000000 0.530847 0.726806
0.444296 0.603276 0.931174
0.492512 0.603186 0.916240
0.576482 0.599365 0.892014
0.759629 0.595253 0.844756
0.848309 0.588518 0.816285
0.908482 0.587104 0.800392
0.981233 0.585950 0.777496
1.000132 0.586111 0.764487
1.000000 0.586314 0.757748
0.342051 0.740758 0.991777
0.400071 0.737885 0.981947
0.503091 0.732675 0.955064
0.706487 0.734990 0.913665
0.804513 0.735715 0.889741
0.867679 0.737386 0.876467
0.949667 0.738503 0.856443
0.993100 0.738533 0.842710
0.999998 0.738619 0.835646
0.290142 0.784814 1.000184
0.365922 0.782481 0.990904
0.463532 0.784912 0.976775
0.675925 0.795082 0.935813
0.778025 0.800292 0.916363
0.836004 0.802273 0.904739
0.924047 0.803725 0.886706
0.982170 0.804254 0.872969
1.000225 0.804594 0.865588
0.264124 0.837150 1.000566
0.320319 0.839394 1.000743
0.416042 0.843903 0.994603
0.625433 0.856885 0.967838
0.738565 0.862131 0.945336
0.811691 0.866507 0.930732
0.903686 0.870585 0.913579
0.964010 0.871910 0.901062
0.997046 0.876186 0.898642
0.271101 0.901472 1.000284
0.327064 0.902783 1.000628
0.414027 0.906554 1.000867
0.606949 0.911260 0.986012
0.715580 0.913002 0.968204
0.787325 0.914256 0.954163
0.886047 0.916805 0.933224
0.951988 0.922622 0.923287
0.996124 0.932172 0.926479
0.284399 0.953433 1.000000
0.340475 0.957348 1.000191
0.424244 0.962423 1.000603
0.621640 0.969811 0.996537
0.727714 0.975378 0.985857
0.796992 0.978966 0.977457
0.891261 0.985096 0.964278
0.956541 0.988976 0.954550
0.995141 0.991904 0.948895
0.380398 0.286892 0.723528
0.434427 0.289467 0.705854
0.536657 0.311079 0.705280
0.781375 0.376542 0.729721
0.878906 0.388660 0.723481
0.956969 0.414689 0.731366
1.000059 0.423923 0.718904
1.000000 0.421530 0.704148
1.000000 0.421016 0.697060
0.377959 0.362142 0.793121
0.453305 0.389894 0.803785
0.579853 0.427926 0.812872
0.810969 0.477004 0.807523
0.898509 0.479838 0.786789
0.957029 0.484551 0.775967
0.999504 0.481775 0.753183
1.000000 0.481279 0.740345
1.000000 0.482047 0.734571
0.473696 0.559927 0.946727
0.522529 0.559526 0.932821
0.620455 0.564502 0.914696
0.804654 0.566352 0.865793
0.887604 0.558527 0.833763
0.944064 0.556053 0.816921
0.999251 0.555355 0.796901
1.000000 0.555535 0.784994
1.000000 0.556043 0.779051
0.470546 0.632176 0.979657
0.522976 0.629833 0.971959
0.614251 0.629417 0.951318
0.787408 0.617914 0.893874
0.876537 0.612380 0.864886
0.935813 0.610790 0.848312
0.998834 0.610812 0.828827
1.000000 0.611796 0.817098
1.000000 0.612719 0.811368
0.373910 0.769155 1.000000
0.438377 0.762916 1.000000
0.540888 0.759720 0.994205
0.738224 0.761887 0.967181
0.835838 0.764277 0.946018
0.895586 0.765609 0.932041
0.967789 0.766167 0.912695
0.999365 0.766698 0.900642
1.000000 0.767278 0.894651
0.334352 0.812609 1.000000
0.405866 0.812280 1.000000
0.502116 0.814987 1.000033
0.709787 0.828688 0.992515
0.798786 0.831357 0.977872
0.856839 0.831582 0.964250
0.946371 0.832374 0.945814
0.997459 0.833236 0.933133
1.000000 0.833779 0.926494
0.298687 0.868334 1.000000
0.358138 0.871405 1.000000
0.452175 0.875768 1.000000
0.650157 0.889061 1.000046
0.761727 0.896324 0.999424
0.833423 0.899018 0.993668
0.924742 0.900935 0.977625
0.987106 0.901807 0.964448
0.999946 0.902321 0.957128
0.276304 0.918934 1.000000
0.333454 0.921717 1.000000
0.417131 0.924830 1.000000
0.616590 0.934755 1.000000
0.729576 0.941722 0.999998
0.805452 0.946027 0.999994
0.908804 0.951471 0.997915
0.973544 0.952892 0.986841
0.999316 0.953856 0.979829
0.289449 0.968123 1.000000
0.342198 0.972182 1.000000
0.421224 0.976458 1.000000
0.614425 0.983362 1.000000
0.719509 0.987042 1.000000
0.789502 0.988656 0.999999
0.888235 0.993769 1.000050
0.957613 0.997582 0.998953
0.999986 0.999989 0.999986
