luts/FUJI_PROVIA.cube
TITLE "Generated for krafta web app"
LUT_3D_SIZE 25
#INPUTGAMMA sRGB
#IMAGEPROFILE sRGB
#OUTPUTGAMMA sRGB
0.000000 0.000000 0.000000
0.043735 0.006257 0.006245
0.094988 0.013281 0.013394
0.141436 0.020633 0.020645
0.188866 0.028195 0.027891
0.237608 0.036250 0.035615
0.282856 0.044055 0.042644
0.331778 0.051177 0.049120
0.376405 0.058121 0.055056
0.418666 0.065377 0.061294
0.463085 0.072816 0.068230
0.507150 0.080692 0.075448
0.552341 0.089044 0.082608
0.597170 0.097532 0.089996
0.641082 0.105821 0.096968
0.691845 0.112578 0.102078
0.733754 0.120200 0.108871
0.773669 0.127507 0.114686
0.811287 0.134644 0.120054
0.846674 0.142112 0.126814
0.879746 0.149246 0.133765
0.917517 0.155254 0.138295
0.954007 0.162151 0.143619
0.980727 0.169317 0.148804
0.998267 0.174592 0.155005
0.001010 0.037730 0.001008
0.040161 0.040100 0.001885
0.089812 0.045362 0.006731
0.138555 0.051660 0.013977
0.188614 0.058196 0.022231
0.237707 0.064909 0.030618
0.283030 0.071849 0.038167
0.328459 0.078886 0.045360
0.376389 0.085791 0.050850
0.420777 0.093252 0.056658
0.463392 0.100303 0.063766
0.507439 0.107643 0.070968
0.553463 0.115460 0.078518
0.599434 0.123506 0.086344
0.643521 0.131454 0.094006
0.691794 0.138849 0.100501
0.737689 0.146780 0.104326
0.777757 0.154006 0.110271
0.814763 0.161326 0.116398
0.849190 0.168872 0.122879
0.881917 0.176151 0.129881
0.921775 0.181452 0.134091
0.957805 0.187658 0.139262
0.985298 0.190884 0.146727
0.999996 0.197573 0.152070
0.000721 0.074792 0.000685
0.029928 0.077497 0.001414
0.084462 0.080139 0.004235
0.133372 0.083967 0.008613
0.186434 0.089997 0.016400
0.237700 0.095972 0.025106
0.283590 0.102159 0.032833
0.330950 0.108878 0.041108
0.377015 0.116565 0.048605
0.422995 0.123862 0.053642
0.467624 0.131643 0.058374
0.511630 0.138866 0.066593
0.556925 0.146080 0.074459
0.602691 0.153482 0.082242
0.647570 0.160625 0.090515
0.692208 0.167889 0.099008
0.737043 0.174980 0.104365
0.781407 0.182821 0.105990
0.818908 0.189283 0.112694
0.854534 0.195670 0.119718
0.885923 0.202211 0.126946
0.926695 0.206863 0.130024
0.968774 0.209189 0.137168
0.992282 0.212102 0.144649
0.999997 0.219077 0.149665
0.000002 0.113232 0.000002
0.019147 0.115308 -0.000045
0.073869 0.117102 0.001832
0.129107 0.119446 0.006565
0.181186 0.123657 0.011043
0.230918 0.127802 0.018667
0.278636 0.131922 0.026078
0.329619 0.139164 0.034791
0.378233 0.146244 0.042695
0.426906 0.153916 0.050863
0.471001 0.162726 0.053217
0.514111 0.169094 0.061196
0.564936 0.176709 0.071253
0.612964 0.183819 0.080047
0.656244 0.190910 0.087718
0.696816 0.197762 0.095463
0.740071 0.204863 0.102557
0.783623 0.212665 0.105789
0.824536 0.219341 0.108693
0.859433 0.225078 0.116032
0.891216 0.231349 0.123154
0.921359 0.237218 0.129738
0.968503 0.234831 0.137324
0.997721 0.238573 0.141061
0.999998 0.245047 0.146188
0.000000 0.150923 0.000000
0.009356 0.153045 0.000000
0.062023 0.155110 -0.000051
0.118054 0.156653 0.004462
0.174036 0.158959 0.008855
0.227793 0.162352 0.014795
0.277555 0.166732 0.020950
0.327330 0.171605 0.029115
0.376936 0.177243 0.036725
0.424286 0.183537 0.044331
0.471145 0.190633 0.051668
0.512346 0.199306 0.054303
0.565861 0.206732 0.065489
0.618216 0.214045 0.075866
0.659965 0.220478 0.083418
0.702416 0.227692 0.090076
0.748033 0.235164 0.098497
0.787801 0.242002 0.105225
0.827075 0.247054 0.111843
0.862246 0.254917 0.111759
0.893268 0.261347 0.118299
0.934632 0.260970 0.129097
0.974600 0.261339 0.133636
0.999391 0.265318 0.136740
1.000000 0.271718 0.141254
0.000000 0.188608 0.000000
0.002835 0.190550 0.000000
0.050169 0.193179 -0.000002
0.106567 0.194690 0.000158
0.162703 0.196168 0.005224
0.218693 0.198645 0.011089
0.274029 0.202219 0.017583
0.324638 0.206958 0.023729
0.371074 0.211050 0.031065
0.413141 0.215151 0.036701
0.461761 0.220766 0.044377
0.509780 0.227006 0.051063
0.560196 0.234578 0.059918
0.614170 0.242463 0.069055
0.661709 0.249734 0.077046
0.705065 0.256903 0.084697
0.750789 0.264450 0.092623
0.795866 0.270990 0.100388
0.835995 0.276151 0.107235
0.868162 0.281533 0.113052
0.895725 0.289915 0.114322
0.946608 0.284503 0.127597
0.982002 0.286832 0.129676
0.999589 0.292261 0.131360
1.000000 0.298742 0.136054
0.000000 0.226398 0.000000
-0.000673 0.228423 0.000000
0.039430 0.231090 0.000000
0.094545 0.233424 0.000002
0.151829 0.234679 0.000704
0.208060 0.236552 0.007630
0.263811 0.238747 0.013567
0.317843 0.241610 0.019397
0.365678 0.245838 0.025117
0.411901 0.249762 0.031575
0.460068 0.254583 0.040278
0.506072 0.259430 0.047069
0.547427 0.264353 0.050359
0.606864 0.272186 0.061117
0.657807 0.279288 0.069316
0.702200 0.285819 0.076740
0.749317 0.293331 0.085564
0.796334 0.300129 0.093922
0.839310 0.303957 0.101525
0.869543 0.309622 0.106572
0.899842 0.317337 0.109950
0.953469 0.310248 0.125002
0.987906 0.313741 0.123813
0.999746 0.319763 0.125955
1.000000 0.325925 0.130848
0.000000 0.264630 0.000000
-0.000784 0.266133 0.000000
0.029692 0.268700 0.000000
0.083690 0.271265 0.000000
0.140870 0.273634 0.000034
0.197343 0.275120 0.001869
0.253243 0.276826 0.010041
0.308146 0.278803 0.016214
0.359773 0.280941 0.021817
0.406845 0.285051 0.027095
0.453887 0.289013 0.032746
0.504333 0.294035 0.041442
0.551297 0.298866 0.047873
0.600162 0.304351 0.054851
0.654805 0.310392 0.062932
0.699492 0.316113 0.069903
0.744301 0.322409 0.077296
0.794063 0.328218 0.086660
0.835811 0.332080 0.093944
0.871670 0.338625 0.100241
0.914979 0.338404 0.110532
0.960132 0.336899 0.120522
0.993144 0.341546 0.117746
0.999896 0.347545 0.121218
1.000000 0.353766 0.126215
0.000000 0.303202 0.000000
-0.000552 0.304608 0.000000
0.020650 0.306710 0.000000
0.072399 0.309708 0.000000
0.128973 0.312581 -0.000002
0.186731 0.313773 0.000122
0.242906 0.315461 0.003095
0.297769 0.317403 0.009447
0.349726 0.318379 0.018685
0.400904 0.320668 0.024006
0.448155 0.323989 0.028869
0.496370 0.328108 0.034086
0.549371 0.333372 0.042352
0.598460 0.338336 0.049950
0.647120 0.343671 0.057830
0.688888 0.347965 0.062335
0.737632 0.353504 0.070326
0.789227 0.355783 0.079168
0.830814 0.361078 0.086728
0.869855 0.367952 0.093347
0.926158 0.362591 0.108190
0.965308 0.364016 0.117614
0.991963 0.369020 0.119908
0.999843 0.375543 0.116892
1.000000 0.381797 0.121736
0.000000 0.342589 0.000000
-0.000339 0.343298 0.000000
0.012462 0.345202 0.000000
0.061471 0.347875 0.000000
0.117705 0.350848 0.000000
0.174449 0.353901 -0.000001
0.232824 0.354462 0.000693
0.288187 0.356444 0.006735
0.339714 0.357446 0.014494
0.390340 0.358674 0.020359
0.440258 0.359925 0.025114
0.489622 0.363289 0.030199
0.539641 0.367142 0.035438
0.591058 0.371952 0.042022
0.641484 0.376922 0.050774
0.690242 0.382610 0.059019
0.736444 0.387627 0.066505
0.785161 0.389282 0.074760
0.816120 0.390975 0.077349
0.863220 0.398248 0.086625
0.931711 0.389226 0.104982
0.967595 0.392449 0.113677
0.989765 0.398082 0.118396
0.999766 0.403986 0.113811
1.000000 0.410498 0.117104
0.000000 0.381144 0.000000
-0.000158 0.382239 0.000000
0.005550 0.384110 0.000000
0.050843 0.386896 0.000000
0.105761 0.389981 0.000000
0.163211 0.392560 -0.000010
0.221141 0.394613 0.000212
0.277351 0.395087 0.004045
0.329424 0.396492 0.010835
0.379780 0.397826 0.016335
0.430358 0.398960 0.021892
0.482385 0.400499 0.026893
0.533259 0.402680 0.031891
0.584548 0.406715 0.037420
0.634931 0.411173 0.043647
0.683223 0.415811 0.051198
0.730907 0.421367 0.059568
0.784161 0.425088 0.069460
0.825448 0.426748 0.076456
0.861224 0.430270 0.083150
0.935578 0.436292 0.098587
0.966234 0.423847 0.108545
0.992986 0.427130 0.113081
0.999883 0.432630 0.108154
1.000000 0.439401 0.112368
0.000000 0.419743 0.000000
-0.000047 0.420976 0.000000
0.001312 0.422527 0.000000
0.041523 0.425367 0.000000
0.095106 0.428491 0.000000
0.152290 0.431530 0.000000
0.209644 0.434763 -0.000042
0.265584 0.435851 0.000510
0.318203 0.434899 0.007044
0.368524 0.435879 0.012513
0.418713 0.436537 0.017670
0.471492 0.438060 0.023417
0.526745 0.440066 0.029104
0.579714 0.442878 0.034502
0.629317 0.446573 0.039894
0.676846 0.450162 0.045671
0.725138 0.455245 0.052390
0.775872 0.458197 0.062084
0.823627 0.460462 0.071494
0.859945 0.465158 0.078091
0.930122 0.451433 0.096347
0.964143 0.452733 0.104887
0.992828 0.456649 0.107731
0.999882 0.461404 0.103755
1.000000 0.468370 0.107432
0.000000 0.459554 0.000000
0.000001 0.460315 0.000000
-0.000466 0.462131 0.000000
0.032765 0.464441 0.000000
0.084304 0.467457 0.000000
0.141390 0.470679 0.000000
0.198515 0.473896 0.000001
0.253270 0.475312 -0.000077
0.305515 0.474939 0.000350
0.356291 0.474394 0.008026
0.407098 0.475251 0.013502
0.460327 0.476699 0.018933
0.517072 0.478691 0.025915
0.573961 0.481051 0.031995
0.626721 0.484162 0.037801
0.673871 0.487737 0.043069
0.721709 0.492294 0.048648
0.770315 0.495373 0.055242
0.818748 0.496883 0.063194
0.856645 0.501096 0.070365
0.921909 0.489865 0.087746
0.961286 0.487774 0.093923
0.986073 0.488720 0.104653
0.999678 0.492276 0.108891
1.000000 0.498002 0.102366
0.000000 0.499145 0.000000
0.000000 0.499971 0.000000
-0.000312 0.501816 0.000000
0.024451 0.504402 0.000000
0.074472 0.507049 0.000000
0.130579 0.510315 0.000000
0.186496 0.512411 0.000000
0.241289 0.514185 0.000002
0.292255 0.515012 -0.000070
0.342527 0.515365 0.000040
0.394350 0.514333 0.009426
0.448155 0.515849 0.014966
0.505789 0.518360 0.021201
0.563558 0.520636 0.027094
0.618694 0.522814 0.033680
0.668832 0.525484 0.039576
0.716251 0.529614 0.044688
0.763588 0.532962 0.050282
0.811780 0.534585 0.056302
0.851579 0.538703 0.061939
0.911919 0.530897 0.076948
0.956145 0.526884 0.078784
0.981776 0.528724 0.092139
0.999551 0.529834 0.097366
1.000000 0.531840 0.094251
0.000000 0.538383 0.000000
0.000000 0.538969 0.000000
-0.000205 0.541410 0.000000
0.016073 0.544051 0.000000
0.064193 0.547038 0.000000
0.118806 0.549287 0.000000
0.173490 0.551818 0.000000
0.225725 0.553649 0.000000
0.276371 0.552562 -0.000002
0.327338 0.553639 -0.000004
0.380192 0.554630 0.000603
0.434953 0.554941 0.011314
0.492705 0.557495 0.016857
0.550851 0.559957 0.022582
0.606795 0.562381 0.028461
0.658895 0.564586 0.034865
0.708600 0.567454 0.040279
0.755024 0.571562 0.044873
0.802566 0.573681 0.049668
0.844809 0.577489 0.055151
0.901033 0.571981 0.064490
0.949207 0.567321 0.063316
0.976359 0.569543 0.077324
0.999421 0.571989 0.081643
1.000000 0.573147 0.083039
0.000000 0.576969 0.000000
0.000000 0.577674 0.000000
-0.000123 0.579819 0.000000
0.009657 0.582753 0.000000
0.053921 0.585284 0.000000
0.102994 0.587522 0.000000
0.155598 0.589199 0.000000
0.206032 0.590560 0.000000
0.252924 0.591594 0.000000
0.301256 0.593105 -0.000015
0.353058 0.592526 0.000055
0.408653 0.591495 0.007205
0.469211 0.594059 0.013488
0.529341 0.597137 0.018744
0.588039 0.600273 0.024398
0.643210 0.603337 0.029787
0.695706 0.606226 0.035536
0.746287 0.609165 0.040267
0.792953 0.612323 0.044803
0.836611 0.616183 0.049307
0.889557 0.612677 0.052847
0.937349 0.608789 0.051368
0.970333 0.611720 0.066222
0.999233 0.613843 0.068167
1.000000 0.615567 0.073194
0.000000 0.614097 0.000000
0.000000 0.614337 0.000000
-0.000079 0.616556 0.000000
0.006221 0.618944 0.000000
0.046001 0.621212 0.000000
0.092576 0.623434 0.000000
0.139270 0.624956 0.000000
0.185483 0.625348 0.000000
0.231578 0.626145 0.000000
0.280572 0.628180 0.000000
0.330662 0.630147 -0.000002
0.387062 0.629209 0.000247
0.445243 0.629629 0.009380
0.504562 0.632552 0.014513
0.562627 0.635781 0.020361
0.619918 0.639560 0.025920
0.675464 0.642997 0.029722
0.730279 0.646394 0.034983
0.781832 0.649270 0.040349
0.828359 0.652809 0.044650
0.878786 0.652617 0.048477
0.926137 0.652101 0.048967
0.963881 0.653579 0.054930
0.998655 0.654758 0.054780
1.000000 0.655061 0.061481
0.000000 0.650473 0.000000
0.000000 0.650634 0.000000
-0.000023 0.652521 0.000000
0.001847 0.654473 0.000000
0.038178 0.656161 0.000000
0.082557 0.657570 0.000000
0.127341 0.658596 0.000000
0.160859 0.658464 0.000000
0.196470 0.659446 0.000000
0.237444 0.659948 0.000000
0.280790 0.660465 0.000000
0.328786 0.661163 -0.000003
0.385404 0.660120 0.001007
0.459680 0.664322 0.010816
0.519516 0.668433 0.014438
0.589224 0.674461 0.019005
0.632704 0.675827 0.023258
0.700260 0.681051 0.030096
0.760282 0.685075 0.035714
0.817080 0.688579 0.039807
0.867989 0.690232 0.043610
0.915248 0.691906 0.045248
0.957312 0.694884 0.046476
0.997035 0.692519 0.041849
0.999999 0.692595 0.049432
0.000000 0.685323 0.000000
0.000000 0.684997 0.000000
-0.000001 0.686630 0.000000
0.000102 0.687299 0.000000
0.024223 0.687338 0.000000
0.052380 0.688533 0.000000
0.090512 0.689426 0.000000
0.123539 0.688979 0.000000
0.156372 0.688945 0.000000
0.190104 0.688115 0.000000
0.229012 0.687627 0.000000
0.295968 0.693510 0.000000
0.356126 0.697525 0.000024
0.420232 0.699014 0.000262
0.481072 0.703905 0.000939
0.552645 0.708749 0.007750
0.605760 0.712332 0.021212
0.666698 0.716413 0.031559
0.724148 0.717810 0.028419
0.788640 0.722064 0.033057
0.851769 0.725894 0.038709
0.905631 0.728060 0.042404
0.950879 0.731429 0.045160
0.987607 0.728546 0.045426
0.999996 0.729935 0.038454
0.000000 0.716110 0.000000
0.000000 0.717058 0.000000
0.000000 0.718707 0.000000
0.000009 0.719494 0.000000
0.015776 0.720328 0.000000
0.038912 0.720300 0.000000
0.060225 0.719424 0.000000
0.081632 0.717077 0.000000
0.118798 0.717520 0.000000
0.151311 0.717385 0.000000
0.219785 0.723507 0.000000
0.268326 0.725772 0.000000
0.328852 0.730156 -0.000016
0.394779 0.734974 -0.000159
0.455193 0.738812 -0.000124
0.530689 0.744216 0.000815
0.652192 0.759509 0.002761
0.623190 0.747070 0.004165
0.668850 0.746966 0.003185
0.766156 0.754480 0.030326
0.834068 0.758698 0.036088
0.893771 0.761986 0.039098
0.943251 0.764268 0.043561
0.982673 0.763418 0.041719
1.000124 0.764993 0.031999
0.000000 0.747936 0.000000
0.000000 0.750450 0.000000
0.000000 0.753348 0.000000
0.000011 0.755005 0.000000
0.005232 0.754836 0.000000
0.021822 0.752901 0.000000
0.040049 0.750599 0.000000
0.065978 0.751138 0.000000
0.096964 0.753501 0.000000
0.153625 0.758282 0.000000
0.205379 0.761200 0.000000
0.268630 0.767477 0.000000
0.323861 0.770563 0.000000
0.396136 0.776135 0.000001
0.547235 0.796108 -0.000012
0.600001 0.797771 -0.000169
0.671097 0.802962 -0.000479
0.697800 0.799792 -0.000725
0.669113 0.787133 -0.000780
0.713977 0.785926 0.005538
0.787533 0.790885 0.005933
0.860271 0.794456 0.017322
0.925580 0.798141 0.029934
0.972013 0.799583 0.042958
0.999499 0.801857 0.028278
0.000000 0.781981 0.000000
0.000000 0.784481 0.000000
0.000000 0.786219 0.000000
0.000001 0.786717 0.000000
0.000508 0.783892 0.000000
0.010861 0.781020 0.000000
0.023613 0.782027 0.000000
0.047244 0.786094 0.000000
0.094572 0.793624 0.000000
0.145903 0.797843 0.000000
0.192842 0.800721 0.000000
0.266440 0.809230 0.000000
0.428035 0.832451 0.000000
0.477695 0.833457 0.000000
0.578913 0.844657 0.000006
0.689242 0.857600 -0.000047
0.725642 0.855396 -0.000551
0.766520 0.854233 -0.000897
0.784918 0.849568 -0.000277
0.708561 0.828286 -0.001215
0.720127 0.822166 -0.000908
0.795374 0.826402 0.001586
0.873530 0.831893 0.003910
0.939173 0.835952 0.012223
0.987060 0.841641 0.020350
0.000000 0.815556 0.000000
0.000000 0.816466 0.000000
0.000000 0.815957 0.000000
0.000000 0.813069 0.000000
-0.000009 0.812744 0.000000
0.000973 0.812843 0.000000
0.003067 0.814705 0.000000
0.015751 0.818487 0.000000
0.067819 0.828221 0.000000
0.133637 0.834300 0.000000
0.310017 0.860805 0.000000
0.372588 0.866387 0.000000
0.487802 0.880203 0.000000
0.546563 0.883307 0.000000
0.622710 0.889859 -0.000077
0.711633 0.898382 0.000619
0.756331 0.898214 0.007289
0.793765 0.896422 0.012280
0.823144 0.894286 0.009834
0.844568 0.890859 0.009191
0.696017 0.858145 0.000838
0.715851 0.853800 -0.000231
0.796846 0.860291 -0.000308
0.867618 0.865980 0.000261
0.940459 0.872668 0.001949
0.000000 0.846087 0.000000
0.000000 0.844927 0.000000
0.000000 0.844126 0.000000
0.000000 0.844090 0.000000
-0.000001 0.844343 0.000000
-0.000013 0.847079 0.000000
-0.001612 0.849664 0.000000
0.014746 0.856310 0.000000
0.217813 0.893965 0.000000
0.262645 0.895670 0.000000
0.321044 0.899881 0.000000
0.397742 0.907741 0.000000
0.555498 0.929909 0.000000
0.617759 0.933294 0.000000
0.666084 0.933893 -0.000062
0.716594 0.935150 0.000532
0.761636 0.935728 0.005523
0.795631 0.934140 0.005339
0.826725 0.932332 0.003102
0.860167 0.930790 0.004367
0.841365 0.919797 0.003115
0.684791 0.885580 0.000276
0.705725 0.881825 -0.000013
0.784153 0.888928 -0.000016
0.865352 0.896305 -0.000051
0.000000 0.872971 0.000000
0.000000 0.874903 0.000000
0.000000 0.875515 0.000000
0.000000 0.875412 0.000000
0.000000 0.876923 0.000000
-0.000383 0.881563 0.000000
0.009566 0.890130 0.000000
0.144586 0.919965 0.000000
0.227603 0.930623 0.000000
0.283589 0.934942 0.000000
0.398005 0.950326 0.000000
0.520265 0.966539 0.000000
0.592575 0.972313 0.000000
0.634928 0.972316 0.000000
0.676252 0.971753 0.000000
0.715147 0.971112 0.000000
0.759397 0.971674 -0.000001
0.794911 0.970157 0.000015
0.830408 0.969255 0.000564
0.865835 0.968304 0.001206
0.852811 0.958762 0.000144
0.871608 0.954380 -0.000011
0.668354 0.912367 0.000000
0.671574 0.906516 0.000000
0.762885 0.915730 0.000000
0.012597 0.011081 0.042527
0.054589 0.016372 0.045531
0.101833 0.022244 0.050141
0.150211 0.029989 0.057856
0.198612 0.037005 0.064405
0.246464 0.044393 0.070938
0.292200 0.051780 0.077088
0.338215 0.058538 0.082516
0.383623 0.065636 0.088386
0.425781 0.072689 0.094327
0.468642 0.079608 0.100253
0.511904 0.087244 0.106550
0.555897 0.095239 0.113033
0.604015 0.103293 0.120104
0.648918 0.111364 0.126993
0.698056 0.118361 0.132733
0.739536 0.125814 0.139450
0.779013 0.132979 0.145231
0.816081 0.140185 0.151326
0.851542 0.147397 0.157936
0.884354 0.154425 0.164913
0.922992 0.159833 0.168657
0.957952 0.165806 0.172985
0.982254 0.171438 0.176126
0.999394 0.178482 0.181151
0.003968 0.043035 0.038964
0.038639 0.041024 0.033414
0.090964 0.045353 0.038957
0.137672 0.051289 0.045558
0.187282 0.058682 0.053818
0.234856 0.065971 0.060998
0.285886 0.072402 0.067398
0.332028 0.079577 0.074357
0.378037 0.086221 0.080364
0.420561 0.093390 0.086899
0.462466 0.100596 0.093787
0.506997 0.108248 0.100758
0.553103 0.116137 0.107804
0.599975 0.124334 0.115179
0.645245 0.132516 0.122493
0.695058 0.139792 0.128898
0.735735 0.147397 0.135103
0.774137 0.154848 0.141573
0.811129 0.162344 0.148119
0.845386 0.170087 0.155099
0.877925 0.176766 0.161694
0.928682 0.186844 0.164505
0.961900 0.187625 0.168576
0.985300 0.194402 0.173737
0.999995 0.201546 0.178671
0.001413 0.080257 0.030202
0.031259 0.077505 0.026846
0.084269 0.080398 0.035108
0.131020 0.082707 0.040202
0.187254 0.088464 0.049124
0.236528 0.094802 0.056351
0.281242 0.101701 0.062527
0.333472 0.109944 0.068253
0.380419 0.117395 0.075628
0.424628 0.124068 0.081761
0.469238 0.131091 0.088831
0.512990 0.138421 0.096458
0.558399 0.145877 0.104040
0.607277 0.153531 0.111774
0.651517 0.161014 0.119019
0.696631 0.168438 0.126871
0.737584 0.175394 0.133306
0.779338 0.182369 0.138594
0.816668 0.188980 0.145608
0.852393 0.195479 0.152104
0.884404 0.202111 0.158618
0.929957 0.204336 0.162469
0.969768 0.209418 0.165771
0.990897 0.216039 0.170902
0.999997 0.222949 0.174865
-0.000257 0.118032 0.021500
0.020631 0.116304 0.017694
0.075198 0.117272 0.027856
0.129100 0.119337 0.036710
0.178385 0.121821 0.043228
0.226617 0.124874 0.049154
0.276976 0.130029 0.056316
0.329972 0.138052 0.064973
0.378944 0.147148 0.067919
0.429097 0.154671 0.076725
0.472814 0.161598 0.083310
0.515029 0.168288 0.090214
0.569251 0.176576 0.100487
0.616461 0.184035 0.108634
0.660111 0.191456 0.115324
0.701986 0.198540 0.122194
0.745094 0.205569 0.129564
0.785375 0.212443 0.135681
0.823857 0.218279 0.141409
0.858048 0.224454 0.147666
0.896379 0.227449 0.156123
0.928508 0.232568 0.162434
0.968965 0.236917 0.164454
0.995916 0.242375 0.166866
0.999999 0.248944 0.171382
-0.000025 0.155852 0.014123
0.011461 0.153772 0.009815
0.063639 0.155177 0.017982
0.118977 0.156479 0.029057
0.173794 0.158436 0.038071
0.227732 0.161625 0.046388
0.278069 0.164699 0.053875
0.325440 0.168166 0.060006
0.374789 0.174052 0.067461
0.419766 0.184343 0.067850
0.473171 0.191583 0.077179
0.516695 0.198642 0.083836
0.569416 0.206368 0.093800
0.621371 0.213987 0.103294
0.663483 0.220926 0.110211
0.707810 0.228489 0.117288
0.752681 0.236095 0.125169
0.790331 0.242405 0.131354
0.827856 0.247630 0.137479
0.863350 0.253760 0.142544
0.904541 0.254654 0.152287
0.938583 0.258578 0.159020
0.973631 0.263829 0.159757
0.999525 0.269117 0.161756
1.000000 0.275483 0.166345
0.000000 0.193145 0.007463
0.004804 0.191185 0.003851
0.052016 0.193020 0.009884
0.107554 0.194847 0.018384
0.163294 0.196070 0.030965
0.218314 0.198032 0.039303
0.273524 0.201120 0.047967
0.323780 0.204015 0.056217
0.372023 0.207071 0.065002
0.412240 0.210478 0.069721
0.459329 0.221638 0.069279
0.506708 0.227542 0.075136
0.556233 0.234804 0.084090
0.615065 0.242947 0.094813
0.664825 0.250280 0.103570
0.708918 0.257342 0.111737
0.753153 0.264750 0.119044
0.796981 0.271607 0.126241
0.835348 0.276178 0.132972
0.869732 0.282932 0.138266
0.910562 0.282027 0.147699
0.946971 0.284678 0.155058
0.980639 0.290471 0.154401
0.999561 0.296318 0.156636
1.000000 0.302880 0.161396
0.000000 0.231176 0.001639
0.002138 0.228524 0.001139
0.042395 0.230437 0.005309
0.096612 0.232739 0.011092
0.152638 0.234741 0.019107
0.208566 0.235779 0.032691
0.262869 0.237602 0.041380
0.317617 0.240315 0.050630
0.366874 0.242936 0.059023
0.415304 0.246064 0.067714
0.458001 0.248813 0.074125
0.491816 0.259402 0.075582
0.540157 0.264351 0.073416
0.605831 0.273043 0.086355
0.659224 0.280027 0.095089
0.705606 0.286670 0.103190
0.751185 0.293639 0.112030
0.797702 0.301139 0.119735
0.836497 0.303341 0.127215
0.878964 0.307952 0.134716
0.918842 0.308948 0.143441
0.955494 0.311701 0.150124
0.986695 0.317714 0.148380
0.999714 0.323981 0.151686
1.000000 0.330360 0.156602
0.000000 0.268953 -0.001436
-0.001107 0.267479 -0.002472
0.032221 0.268318 0.002049
0.086515 0.269976 0.008014
0.143168 0.272231 0.013400
0.198770 0.274650 0.020666
0.253809 0.276840 0.029735
0.306266 0.277096 0.044166
0.357005 0.279062 0.052017
0.404610 0.281118 0.059666
0.454062 0.284354 0.068384
0.507399 0.288522 0.079089
0.546179 0.299221 0.081644
0.594714 0.304771 0.078689
0.652829 0.311202 0.087873
0.699522 0.317075 0.095129
0.748285 0.323549 0.103597
0.796967 0.328909 0.113533
0.835831 0.332128 0.120432
0.886246 0.332994 0.130833
0.925718 0.334766 0.139870
0.963200 0.338981 0.145103
0.992384 0.345365 0.142175
0.999868 0.351926 0.147154
1.000000 0.358392 0.152251
0.000000 0.307478 -0.002298
-0.000631 0.305802 -0.002161
0.021452 0.307572 -0.001700
0.073417 0.309580 0.001644
0.129826 0.312532 0.005857
0.188154 0.313065 0.015250
0.243261 0.315108 0.021447
0.297398 0.316932 0.030553
0.347564 0.316886 0.046390
0.397329 0.318535 0.053983
0.446060 0.320762 0.061818
0.495712 0.323067 0.069998
0.550980 0.327450 0.080820
0.591874 0.337304 0.083779
0.644413 0.344775 0.082776
0.687530 0.348897 0.088071
0.737197 0.354484 0.095610
0.793728 0.357454 0.105617
0.834416 0.362414 0.113846
0.888748 0.359417 0.126238
0.931160 0.361654 0.135281
0.966707 0.366447 0.142498
0.991380 0.372648 0.145477
0.999822 0.379985 0.142891
1.000000 0.386260 0.147143
0.000000 0.346430 -0.002016
-0.000369 0.344597 -0.001667
0.013604 0.345910 -0.001414
0.061676 0.348192 -0.001290
0.118417 0.351051 0.002377
0.176493 0.352603 0.009878
0.233412 0.353808 0.017223
0.287757 0.355880 0.023457
0.338914 0.357366 0.032205
0.387661 0.357098 0.048121
0.437109 0.357988 0.055581
0.487071 0.359818 0.063571
0.539123 0.362148 0.071968
0.595134 0.367049 0.082653
0.639674 0.376338 0.087298
0.689917 0.384180 0.084991
0.729508 0.387653 0.090234
0.784540 0.389849 0.100183
0.827434 0.392884 0.106314
0.885047 0.388240 0.121884
0.932113 0.390002 0.131589
0.966518 0.395984 0.137761
0.991367 0.401483 0.142943
0.999823 0.408457 0.138619
1.000000 0.415468 0.143718
0.000000 0.384836 -0.001543
-0.000214 0.383217 -0.001201
0.007711 0.384346 -0.000848
0.051431 0.386998 -0.001213
0.107934 0.389148 0.000507
0.165357 0.391776 0.005424
0.222645 0.392539 0.013745
