luts/FUJI_MONO_Green_Filter.cube
#Generated for krafta web app
#Black and White LUTs
TITLE "Fuji XTrans III - Mono+G"
#LUT size
LUT_3D_SIZE 5
#LUT data points
0.000000 0.000000 0.000000
0.015686 0.015686 0.015686
0.113725 0.113725 0.113725
0.243137 0.243137 0.243137
0.270588 0.270588 0.270588
0.094118 0.094118 0.094118
0.129412 0.129412 0.129412
0.239216 0.239216 0.239216
0.341176 0.341176 0.341176
0.376471 0.376471 0.376471
0.317647 0.317647 0.317647
0.392157 0.392157 0.392157
0.474510 0.474510 0.474510
0.525490 0.525490 0.525490
0.533333 0.533333 0.533333
0.435294 0.435294 0.435294
0.400000 0.400000 0.400000
0.588235 0.588235 0.588235
0.600000 0.600000 0.600000
0.674510 0.674510 0.674510
0.470588 0.470588 0.470588
0.596078 0.596078 0.596078
0.650980 0.650980 0.650980
0.721569 0.721569 0.721569
0.729412 0.729412 0.729412
0.047059 0.047059 0.047059
0.129412 0.129412 0.129412
0.227451 0.227451 0.227451
0.282353 0.282353 0.282353
0.333333 0.333333 0.333333
0.168627 0.168627 0.168627
0.200000 0.200000 0.200000
0.270588 0.270588 0.270588
0.352941 0.352941 0.352941
0.407843 0.407843 0.407843
0.435294 0.435294 0.435294
0.439216 0.439216 0.439216
0.498039 0.498039 0.498039
0.537255 0.537255 0.537255
0.529412 0.529412 0.529412
0.490196 0.490196 0.490196
0.596078 0.596078 0.596078
0.686275 0.686275 0.686275
0.717647 0.717647 0.717647
0.749020 0.749020 0.749020
0.545098 0.545098 0.545098
0.658824 0.658824 0.658824
0.690196 0.690196 0.690196
0.780392 0.780392 0.780392
0.784314 0.784314 0.784314
0.219608 0.219608 0.219608
0.266667 0.266667 0.266667
0.337255 0.337255 0.337255
0.384314 0.384314 0.384314
0.407843 0.407843 0.407843
0.298039 0.298039 0.298039
0.345098 0.345098 0.345098
0.407843 0.407843 0.407843
0.458824 0.458824 0.458824
0.474510 0.474510 0.474510
0.494118 0.494118 0.494118
0.521569 0.521569 0.521569
0.576471 0.576471 0.576471
0.615686 0.615686 0.615686
0.635294 0.635294 0.635294
0.643137 0.643137 0.643137
0.682353 0.682353 0.682353
0.725490 0.725490 0.725490
0.768627 0.768627 0.768627
0.815686 0.815686 0.815686
0.682353 0.682353 0.682353
0.721569 0.721569 0.721569
0.764706 0.764706 0.764706
0.854902 0.854902 0.854902
0.866667 0.866667 0.866667
0.325490 0.325490 0.325490
0.376471 0.376471 0.376471
0.462745 0.462745 0.462745
0.541176 0.541176 0.541176
0.572549 0.572549 0.572549
0.439216 0.439216 0.439216
0.494118 0.494118 0.494118
0.545098 0.545098 0.545098
0.592157 0.592157 0.592157
0.615686 0.615686 0.615686
0.580392 0.580392 0.580392
0.615686 0.615686 0.615686
0.662745 0.662745 0.662745
0.705882 0.705882 0.705882
0.737255 0.737255 0.737255
0.725490 0.725490 0.725490
0.749020 0.749020 0.749020
0.788235 0.788235 0.788235
0.827451 0.827451 0.827451
0.898039 0.898039 0.898039
0.862745 0.862745 0.862745
0.811765 0.811765 0.811765
0.858824 0.858824 0.858824
0.905882 0.905882 0.905882
0.937255 0.937255 0.937255
0.423529 0.423529 0.423529
0.458824 0.458824 0.458824
0.541176 0.541176 0.541176
0.627451 0.627451 0.627451
0.694118 0.694118 0.694118
0.541176 0.541176 0.541176
0.607843 0.607843 0.607843
0.666667 0.666667 0.666667
0.705882 0.705882 0.705882
0.729412 0.729412 0.729412
0.666667 0.666667 0.666667
0.729412 0.729412 0.729412
0.760784 0.760784 0.760784
0.796078 0.796078 0.796078
0.811765 0.811765 0.811765
0.803922 0.803922 0.803922
0.831373 0.831373 0.831373
0.862745 0.862745 0.862745
0.898039 0.898039 0.898039
0.933333 0.933333 0.933333
0.866667 0.866667 0.866667
0.854902 0.854902 0.854902
0.905882 0.905882 0.905882
0.945098 0.945098 0.945098
0.968627 0.968627 0.968627
