luts/FUJI_MONO_Green_Filter.cube
#Generated for krafta web app
#Black and White LUTs
TITLE "Fuji XTrans III - Mono+G"
#LUT size
LUT_3D_SIZE 9
#LUT data points
0.000000 0.000000 0.000000
0.003922 0.003922 0.003922
0.015686 0.015686 0.015686
0.070588 0.070588 0.070588
0.113725 0.113725 0.113725
0.223529 0.223529 0.223529
0.243137 0.243137 0.243137
0.270588 0.270588 0.270588
0.270588 0.270588 0.270588
0.011765 0.011765 0.011765
0.023529 0.023529 0.023529
0.043137 0.043137 0.043137
0.109804 0.109804 0.109804
0.168627 0.168627 0.168627
0.223529 0.223529 0.223529
0.274510 0.274510 0.274510
0.274510 0.274510 0.274510
0.341176 0.341176 0.341176
0.094118 0.094118 0.094118
0.109804 0.109804 0.109804
0.129412 0.129412 0.129412
0.192157 0.192157 0.192157
0.239216 0.239216 0.239216
0.286275 0.286275 0.286275
0.341176 0.341176 0.341176
0.364706 0.364706 0.364706
0.376471 0.376471 0.376471
0.164706 0.164706 0.164706
0.247059 0.247059 0.247059
0.286275 0.286275 0.286275
0.325490 0.325490 0.325490
0.352941 0.352941 0.352941
0.392157 0.392157 0.392157
0.435294 0.435294 0.435294
0.376471 0.376471 0.376471
0.376471 0.376471 0.376471
0.317647 0.317647 0.317647
0.321569 0.321569 0.321569
0.392157 0.392157 0.392157
0.447059 0.447059 0.447059
0.474510 0.474510 0.474510
0.501961 0.501961 0.501961
0.525490 0.525490 0.525490
0.525490 0.525490 0.525490
0.533333 0.533333 0.533333
0.239216 0.239216 0.239216
0.321569 0.321569 0.321569
0.403922 0.403922 0.403922
0.490196 0.490196 0.490196
0.588235 0.588235 0.588235
0.545098 0.545098 0.545098
0.600000 0.600000 0.600000
0.623529 0.623529 0.623529
0.623529 0.623529 0.623529
0.435294 0.435294 0.435294
0.321569 0.321569 0.321569
0.400000 0.400000 0.400000
0.549020 0.549020 0.549020
0.588235 0.588235 0.588235
0.588235 0.588235 0.588235
0.600000 0.600000 0.600000
0.631373 0.631373 0.631373
0.674510 0.674510 0.674510
0.470588 0.470588 0.470588
0.415686 0.415686 0.415686
0.596078 0.596078 0.596078
0.623529 0.623529 0.623529
0.650980 0.650980 0.650980
0.647059 0.647059 0.647059
0.615686 0.615686 0.615686
0.670588 0.670588 0.670588
0.674510 0.674510 0.674510
0.470588 0.470588 0.470588
0.423529 0.423529 0.423529
0.596078 0.596078 0.596078
0.623529 0.623529 0.623529
0.650980 0.650980 0.650980
0.690196 0.690196 0.690196
0.721569 0.721569 0.721569
0.725490 0.725490 0.725490
0.729412 0.729412 0.729412
0.007843 0.007843 0.007843
0.007843 0.007843 0.007843
0.047059 0.047059 0.047059
0.074510 0.074510 0.074510
0.180392 0.180392 0.180392
0.243137 0.243137 0.243137
0.262745 0.262745 0.262745
0.266667 0.266667 0.266667
0.333333 0.333333 0.333333
0.027451 0.027451 0.027451
0.039216 0.039216 0.039216
0.074510 0.074510 0.074510
0.121569 0.121569 0.121569
0.184314 0.184314 0.184314
0.235294 0.235294 0.235294
0.270588 0.270588 0.270588
0.313725 0.313725 0.313725
0.341176 0.341176 0.341176
0.121569 0.121569 0.121569
0.117647 0.117647 0.117647
0.156863 0.156863 0.156863
0.200000 0.200000 0.200000
0.247059 0.247059 0.247059
0.294118 0.294118 0.294118
0.325490 0.325490 0.325490
0.345098 0.345098 0.345098
0.388235 0.388235 0.388235
0.247059 0.247059 0.247059
0.266667 0.266667 0.266667
0.294118 0.294118 0.294118
0.325490 0.325490 0.325490
0.356863 0.356863 0.356863
0.396078 0.396078 0.396078
0.427451 0.427451 0.427451
0.435294 0.435294 0.435294
0.513725 0.513725 0.513725
0.333333 0.333333 0.333333
0.403922 0.403922 0.403922
0.411765 0.411765 0.411765
0.447059 0.447059 0.447059
0.478431 0.478431 0.478431
0.501961 0.501961 0.501961
0.525490 0.525490 0.525490
0.533333 0.533333 0.533333
0.556863 0.556863 0.556863
0.435294 0.435294 0.435294
0.466667 0.466667 0.466667
0.478431 0.478431 0.478431
0.501961 0.501961 0.501961
0.584314 0.584314 0.584314
0.596078 0.596078 0.596078
0.607843 0.607843 0.607843
0.643137 0.643137 0.643137
0.670588 0.670588 0.670588
0.470588 0.470588 0.470588
0.470588 0.470588 0.470588
0.592157 0.592157 0.592157
0.615686 0.615686 0.615686
0.650980 0.650980 0.650980
0.650980 0.650980 0.650980
0.662745 0.662745 0.662745
0.674510 0.674510 0.674510
0.674510 0.674510 0.674510
0.537255 0.537255 0.537255
0.470588 0.470588 0.470588
0.596078 0.596078 0.596078
0.623529 0.623529 0.623529
0.650980 0.650980 0.650980
0.690196 0.690196 0.690196
0.721569 0.721569 0.721569
0.721569 0.721569 0.721569
0.729412 0.729412 0.729412
0.537255 0.537255 0.537255
0.470588 0.470588 0.470588
0.658824 0.658824 0.658824
0.662745 0.662745 0.662745
0.650980 0.650980 0.650980
0.694118 0.694118 0.694118
0.721569 0.721569 0.721569
0.729412 0.729412 0.729412
0.784314 0.784314 0.784314
0.047059 0.047059 0.047059
0.074510 0.074510 0.074510
0.129412 0.129412 0.129412
0.180392 0.180392 0.180392
0.227451 0.227451 0.227451
0.247059 0.247059 0.247059
0.282353 0.282353 0.282353
0.301961 0.301961 0.301961
0.333333 0.333333 0.333333
0.074510 0.074510 0.074510
0.090196 0.090196 0.090196
0.129412 0.129412 0.129412
0.172549 0.172549 0.172549
0.211765 0.211765 0.211765
0.254902 0.254902 0.254902
0.286275 0.286275 0.286275
0.309804 0.309804 0.309804
0.345098 0.345098 0.345098
0.168627 0.168627 0.168627
0.176471 0.176471 0.176471
0.200000 0.200000 0.200000
0.235294 0.235294 0.235294
0.270588 0.270588 0.270588
0.309804 0.309804 0.309804
0.352941 0.352941 0.352941
0.388235 0.388235 0.388235
0.407843 0.407843 0.407843
0.286275 0.286275 0.286275
0.298039 0.298039 0.298039
0.321569 0.321569 0.321569
0.356863 0.356863 0.356863
0.384314 0.384314 0.384314
0.415686 0.415686 0.415686
0.447059 0.447059 0.447059
0.466667 0.466667 0.466667
0.447059 0.447059 0.447059
0.435294 0.435294 0.435294
0.423529 0.423529 0.423529
0.439216 0.439216 0.439216
0.474510 0.474510 0.474510
0.498039 0.498039 0.498039
0.525490 0.525490 0.525490
0.537255 0.537255 0.537255
0.556863 0.556863 0.556863
0.529412 0.529412 0.529412
0.482353 0.482353 0.482353
0.482353 0.482353 0.482353
0.541176 0.541176 0.541176
0.568627 0.568627 0.568627
0.596078 0.596078 0.596078
0.619608 0.619608 0.619608
0.635294 0.635294 0.635294
0.647059 0.647059 0.647059
0.674510 0.674510 0.674510
0.490196 0.490196 0.490196
0.631373 0.631373 0.631373
0.596078 0.596078 0.596078
0.662745 0.662745 0.662745
0.686275 0.686275 0.686275
0.686275 0.686275 0.686275
0.717647 0.717647 0.717647
0.729412 0.729412 0.729412
0.749020 0.749020 0.749020
0.545098 0.545098 0.545098
0.533333 0.533333 0.533333
0.658824 0.658824 0.658824
0.666667 0.666667 0.666667
0.690196 0.690196 0.690196
0.701961 0.701961 0.701961
0.729412 0.729412 0.729412
0.784314 0.784314 0.784314
0.752941 0.752941 0.752941
0.545098 0.545098 0.545098
0.533333 0.533333 0.533333
0.658824 0.658824 0.658824
0.670588 0.670588 0.670588
0.690196 0.690196 0.690196
0.764706 0.764706 0.764706
0.780392 0.780392 0.780392
0.784314 0.784314 0.784314
0.784314 0.784314 0.784314
0.145098 0.145098 0.145098
0.160784 0.160784 0.160784
0.196078 0.196078 0.196078
0.227451 0.227451 0.227451
0.282353 0.282353 0.282353
0.301961 0.301961 0.301961
0.309804 0.309804 0.309804
0.352941 0.352941 0.352941
0.352941 0.352941 0.352941
0.149020 0.149020 0.149020
0.168627 0.168627 0.168627
0.203922 0.203922 0.203922
0.243137 0.243137 0.243137
0.278431 0.278431 0.278431
0.309804 0.309804 0.309804
0.329412 0.329412 0.329412
0.341176 0.341176 0.341176
0.388235 0.388235 0.388235
0.223529 0.223529 0.223529
0.239216 0.239216 0.239216
0.274510 0.274510 0.274510
0.305882 0.305882 0.305882
0.337255 0.337255 0.337255
0.364706 0.364706 0.364706
0.388235 0.388235 0.388235
0.403922 0.403922 0.403922
0.407843 0.407843 0.407843
0.337255 0.337255 0.337255
0.349020 0.349020 0.349020
0.372549 0.372549 0.372549
0.403922 0.403922 0.403922
0.435294 0.435294 0.435294
0.458824 0.458824 0.458824
0.474510 0.474510 0.474510
0.486275 0.486275 0.486275
0.494118 0.494118 0.494118
0.450980 0.450980 0.450980
0.458824 0.458824 0.458824
0.478431 0.478431 0.478431
0.505882 0.505882 0.505882
0.533333 0.533333 0.533333
0.560784 0.560784 0.560784
0.572549 0.572549 0.572549
0.576471 0.576471 0.576471
0.588235 0.588235 0.588235
0.505882 0.505882 0.505882
0.552941 0.552941 0.552941
0.572549 0.572549 0.572549
0.600000 0.600000 0.600000
0.627451 0.627451 0.627451
0.654902 0.654902 0.654902
0.670588 0.670588 0.670588
0.678431 0.678431 0.678431
0.678431 0.678431 0.678431
0.564706 0.564706 0.564706
0.647059 0.647059 0.647059
0.658824 0.658824 0.658824
0.674510 0.674510 0.674510
0.701961 0.701961 0.701961
0.725490 0.725490 0.725490
0.741176 0.741176 0.741176
0.756863 0.756863 0.756863
0.776471 0.776471 0.776471
0.647059 0.647059 0.647059
0.647059 0.647059 0.647059
0.705882 0.705882 0.705882
0.713725 0.713725 0.713725
0.749020 0.749020 0.749020
0.764706 0.764706 0.764706
0.780392 0.780392 0.780392
0.796078 0.796078 0.796078
0.807843 0.807843 0.807843
0.647059 0.647059 0.647059
0.647059 0.647059 0.647059
0.709804 0.709804 0.709804
0.717647 0.717647 0.717647
0.749020 0.749020 0.749020
0.764706 0.764706 0.764706
0.788235 0.788235 0.788235
0.854902 0.854902 0.854902
0.862745 0.862745 0.862745
0.219608 0.219608 0.219608
0.239216 0.239216 0.239216
0.266667 0.266667 0.266667
0.305882 0.305882 0.305882
0.337255 0.337255 0.337255
0.372549 0.372549 0.372549
0.384314 0.384314 0.384314
0.403922 0.403922 0.403922
0.407843 0.407843 0.407843
0.235294 0.235294 0.235294
0.258824 0.258824 0.258824
0.290196 0.290196 0.290196
0.325490 0.325490 0.325490
0.360784 0.360784 0.360784
0.392157 0.392157 0.392157
0.407843 0.407843 0.407843
0.415686 0.415686 0.415686
0.403922 0.403922 0.403922
0.298039 0.298039 0.298039
0.317647 0.317647 0.317647
0.345098 0.345098 0.345098
0.376471 0.376471 0.376471
0.407843 0.407843 0.407843
0.439216 0.439216 0.439216
0.458824 0.458824 0.458824
0.466667 0.466667 0.466667
0.474510 0.474510 0.474510
0.388235 0.388235 0.388235
0.407843 0.407843 0.407843
0.431373 0.431373 0.431373
0.462745 0.462745 0.462745
0.490196 0.490196 0.490196
0.517647 0.517647 0.517647
0.537255 0.537255 0.537255
0.541176 0.541176 0.541176
0.545098 0.545098 0.545098
0.494118 0.494118 0.494118
0.505882 0.505882 0.505882
0.521569 0.521569 0.521569
0.549020 0.549020 0.549020
0.576471 0.576471 0.576471
0.600000 0.600000 0.600000
0.615686 0.615686 0.615686
0.627451 0.627451 0.627451
0.635294 0.635294 0.635294
0.588235 0.588235 0.588235
0.592157 0.592157 0.592157
0.611765 0.611765 0.611765
0.631373 0.631373 0.631373
0.658824 0.658824 0.658824
0.686275 0.686275 0.686275
0.701961 0.701961 0.701961
0.713725 0.713725 0.713725
0.717647 0.717647 0.717647
0.643137 0.643137 0.643137
0.635294 0.635294 0.635294
0.682353 0.682353 0.682353
0.701961 0.701961 0.701961
0.725490 0.725490 0.725490
0.749020 0.749020 0.749020
0.768627 0.768627 0.768627
0.792157 0.792157 0.792157
0.815686 0.815686 0.815686
0.682353 0.682353 0.682353
0.678431 0.678431 0.678431
0.721569 0.721569 0.721569
0.733333 0.733333 0.733333
0.764706 0.764706 0.764706
0.788235 0.788235 0.788235
0.803922 0.803922 0.803922
0.854902 0.854902 0.854902
0.866667 0.866667 0.866667
0.682353 0.682353 0.682353
0.678431 0.678431 0.678431
0.721569 0.721569 0.721569
0.733333 0.733333 0.733333
0.764706 0.764706 0.764706
0.788235 0.788235 0.788235
0.854902 0.854902 0.854902
0.854902 0.854902 0.854902
0.866667 0.866667 0.866667
0.274510 0.274510 0.274510
0.294118 0.294118 0.294118
0.325490 0.325490 0.325490
0.368627 0.368627 0.368627
0.415686 0.415686 0.415686
0.450980 0.450980 0.450980
0.470588 0.470588 0.470588
0.482353 0.482353 0.482353
0.509804 0.509804 0.509804
0.305882 0.305882 0.305882
0.352941 0.352941 0.352941
0.372549 0.372549 0.372549
0.407843 0.407843 0.407843
0.439216 0.439216 0.439216
0.466667 0.466667 0.466667
0.490196 0.490196 0.490196
0.505882 0.505882 0.505882
0.505882 0.505882 0.505882
0.364706 0.364706 0.364706
0.400000 0.400000 0.400000
0.423529 0.423529 0.423529
0.447059 0.447059 0.447059
0.478431 0.478431 0.478431
0.505882 0.505882 0.505882
0.529412 0.529412 0.529412
0.541176 0.541176 0.541176
0.545098 0.545098 0.545098
0.447059 0.447059 0.447059
0.474510 0.474510 0.474510
0.490196 0.490196 0.490196
0.513725 0.513725 0.513725
0.541176 0.541176 0.541176
0.568627 0.568627 0.568627
0.588235 0.588235 0.588235
0.603922 0.603922 0.603922
0.607843 0.607843 0.607843
0.537255 0.537255 0.537255
0.552941 0.552941 0.552941
0.568627 0.568627 0.568627
0.592157 0.592157 0.592157
0.619608 0.619608 0.619608
0.643137 0.643137 0.643137
0.662745 0.662745 0.662745
0.678431 0.678431 0.678431
0.690196 0.690196 0.690196
0.623529 0.623529 0.623529
0.635294 0.635294 0.635294
0.650980 0.650980 0.650980
0.670588 0.670588 0.670588
0.694118 0.694118 0.694118
0.717647 0.717647 0.717647
0.733333 0.733333 0.733333
0.752941 0.752941 0.752941
0.764706 0.764706 0.764706
0.701961 0.701961 0.701961
0.701961 0.701961 0.701961
0.713725 0.713725 0.713725
0.733333 0.733333 0.733333
0.756863 0.756863 0.756863
0.780392 0.780392 0.780392
0.800000 0.800000 0.800000
0.819608 0.819608 0.819608
0.862745 0.862745 0.862745
0.737255 0.737255 0.737255
0.737255 0.737255 0.737255
0.745098 0.745098 0.745098
0.764706 0.764706 0.764706
0.792157 0.792157 0.792157
0.811765 0.811765 0.811765
0.870588 0.870588 0.870588
0.882353 0.882353 0.882353
0.913725 0.913725 0.913725
0.737255 0.737255 0.737255
0.737255 0.737255 0.737255
0.811765 0.811765 0.811765
0.768627 0.768627 0.768627
0.858824 0.858824 0.858824
0.878431 0.878431 0.878431
0.874510 0.874510 0.874510
0.882353 0.882353 0.882353
0.913725 0.913725 0.913725
0.325490 0.325490 0.325490
0.345098 0.345098 0.345098
0.376471 0.376471 0.376471
0.419608 0.419608 0.419608
0.462745 0.462745 0.462745
0.505882 0.505882 0.505882
0.541176 0.541176 0.541176
0.552941 0.552941 0.552941
0.572549 0.572549 0.572549
0.360784 0.360784 0.360784
0.415686 0.415686 0.415686
0.435294 0.435294 0.435294
0.474510 0.474510 0.474510
0.509804 0.509804 0.509804
0.541176 0.541176 0.541176
0.560784 0.560784 0.560784
0.576471 0.576471 0.576471
0.584314 0.584314 0.584314
0.439216 0.439216 0.439216
0.478431 0.478431 0.478431
0.494118 0.494118 0.494118
0.517647 0.517647 0.517647
0.545098 0.545098 0.545098
0.572549 0.572549 0.572549
0.592157 0.592157 0.592157
0.607843 0.607843 0.607843
0.615686 0.615686 0.615686
0.501961 0.501961 0.501961
0.537255 0.537255 0.537255
0.549020 0.549020 0.549020
0.576471 0.576471 0.576471
0.596078 0.596078 0.596078
0.623529 0.623529 0.623529
0.647059 0.647059 0.647059
0.666667 0.666667 0.666667
0.670588 0.670588 0.670588
0.580392 0.580392 0.580392
0.607843 0.607843 0.607843
0.615686 0.615686 0.615686
0.639216 0.639216 0.639216
0.662745 0.662745 0.662745
0.690196 0.690196 0.690196
0.705882 0.705882 0.705882
0.725490 0.725490 0.725490
0.737255 0.737255 0.737255
0.662745 0.662745 0.662745
0.682353 0.682353 0.682353
0.690196 0.690196 0.690196
0.705882 0.705882 0.705882
0.725490 0.725490 0.725490
0.749020 0.749020 0.749020
0.768627 0.768627 0.768627
0.792157 0.792157 0.792157
0.803922 0.803922 0.803922
0.725490 0.725490 0.725490
0.733333 0.733333 0.733333
0.749020 0.749020 0.749020
0.764706 0.764706 0.764706
0.788235 0.788235 0.788235
0.807843 0.807843 0.807843
0.827451 0.827451 0.827451
0.854902 0.854902 0.854902
0.898039 0.898039 0.898039
0.756863 0.756863 0.756863
0.772549 0.772549 0.772549
0.811765 0.811765 0.811765
0.854902 0.854902 0.854902
0.858824 0.858824 0.858824
0.878431 0.878431 0.878431
0.866667 0.866667 0.866667
0.909804 0.909804 0.909804
0.937255 0.937255 0.937255
0.862745 0.862745 0.862745
0.811765 0.811765 0.811765
0.811765 0.811765 0.811765
0.854902 0.854902 0.854902
0.858824 0.858824 0.858824
0.882353 0.882353 0.882353
0.905882 0.905882 0.905882
0.909804 0.909804 0.909804
0.937255 0.937255 0.937255
0.372549 0.372549 0.372549
0.392157 0.392157 0.392157
0.423529 0.423529 0.423529
0.466667 0.466667 0.466667
0.513725 0.513725 0.513725
0.564706 0.564706 0.564706
0.596078 0.596078 0.596078
0.619608 0.619608 0.619608
0.600000 0.600000 0.600000
0.396078 0.396078 0.396078
0.474510 0.474510 0.474510
0.498039 0.498039 0.498039
0.537255 0.537255 0.537255
0.572549 0.572549 0.572549
0.607843 0.607843 0.607843
0.627451 0.627451 0.627451
0.643137 0.643137 0.643137
0.619608 0.619608 0.619608
0.509804 0.509804 0.509804
0.556863 0.556863 0.556863
0.568627 0.568627 0.568627
0.588235 0.588235 0.588235
0.607843 0.607843 0.607843
0.639216 0.639216 0.639216
0.658824 0.658824 0.658824
0.670588 0.670588 0.670588
0.654902 0.654902 0.654902
0.560784 0.560784 0.560784
0.600000 0.600000 0.600000
0.611765 0.611765 0.611765
0.635294 0.635294 0.635294
0.658824 0.658824 0.658824
0.682353 0.682353 0.682353
0.701961 0.701961 0.701961
0.717647 0.717647 0.717647
0.698039 0.698039 0.698039
0.627451 0.627451 0.627451
0.662745 0.662745 0.662745
0.674510 0.674510 0.674510
0.690196 0.690196 0.690196
0.709804 0.709804 0.709804
0.737255 0.737255 0.737255
0.752941 0.752941 0.752941
0.768627 0.768627 0.768627
0.811765 0.811765 0.811765
0.701961 0.701961 0.701961
0.721569 0.721569 0.721569
0.729412 0.729412 0.729412
0.749020 0.749020 0.749020
0.768627 0.768627 0.768627
0.788235 0.788235 0.788235
0.807843 0.807843 0.807843
0.831373 0.831373 0.831373
0.858824 0.858824 0.858824
0.764706 0.764706 0.764706
0.780392 0.780392 0.780392
0.788235 0.788235 0.788235
0.803922 0.803922 0.803922
0.823529 0.823529 0.823529
0.843137 0.843137 0.843137
0.862745 0.862745 0.862745
0.886275 0.886275 0.886275
0.913725 0.913725 0.913725
0.862745 0.862745 0.862745
0.811765 0.811765 0.811765
0.854902 0.854902 0.854902
0.858824 0.858824 0.858824
0.886275 0.886275 0.886275
0.913725 0.913725 0.913725
0.917647 0.917647 0.917647
0.941176 0.941176 0.941176
0.964706 0.964706 0.964706
0.866667 0.866667 0.866667
0.835294 0.835294 0.835294
0.854902 0.854902 0.854902
0.858824 0.858824 0.858824
0.890196 0.890196 0.890196
0.913725 0.913725 0.913725
0.921569 0.921569 0.921569
0.941176 0.941176 0.941176
0.964706 0.964706 0.964706
0.423529 0.423529 0.423529
0.435294 0.435294 0.435294
0.458824 0.458824 0.458824
0.498039 0.498039 0.498039
0.541176 0.541176 0.541176
0.588235 0.588235 0.588235
0.627451 0.627451 0.627451
0.694118 0.694118 0.694118
0.694118 0.694118 0.694118
0.435294 0.435294 0.435294
0.447059 0.447059 0.447059
0.482353 0.482353 0.482353
0.521569 0.521569 0.521569
0.564706 0.564706 0.564706
0.611765 0.611765 0.611765
0.654902 0.654902 0.654902
0.705882 0.705882 0.705882
0.705882 0.705882 0.705882
0.541176 0.541176 0.541176
0.529412 0.529412 0.529412
0.607843 0.607843 0.607843
0.643137 0.643137 0.643137
0.666667 0.666667 0.666667
0.682353 0.682353 0.682353
0.705882 0.705882 0.705882
0.729412 0.729412 0.729412
0.729412 0.729412 0.729412
0.615686 0.615686 0.615686
0.643137 0.643137 0.643137
0.682353 0.682353 0.682353
0.701961 0.701961 0.701961
0.717647 0.717647 0.717647
0.737255 0.737255 0.737255
0.752941 0.752941 0.752941
0.768627 0.768627 0.768627
0.776471 0.776471 0.776471
0.666667 0.666667 0.666667
0.686275 0.686275 0.686275
0.729412 0.729412 0.729412
0.745098 0.745098 0.745098
0.760784 0.760784 0.760784
0.784314 0.784314 0.784314
0.796078 0.796078 0.796078
0.811765 0.811765 0.811765
0.811765 0.811765 0.811765
0.737255 0.737255 0.737255
0.749020 0.749020 0.749020
0.772549 0.772549 0.772549
0.796078 0.796078 0.796078
0.811765 0.811765 0.811765
0.831373 0.831373 0.831373
0.847059 0.847059 0.847059
0.866667 0.866667 0.866667
0.878431 0.878431 0.878431
0.803922 0.803922 0.803922
0.815686 0.815686 0.815686
0.831373 0.831373 0.831373
0.843137 0.843137 0.843137
0.862745 0.862745 0.862745
0.882353 0.882353 0.882353
0.898039 0.898039 0.898039
0.917647 0.917647 0.917647
0.933333 0.933333 0.933333
0.835294 0.835294 0.835294
0.850980 0.850980 0.850980
0.862745 0.862745 0.862745
0.874510 0.874510 0.874510
0.878431 0.878431 0.878431
0.909804 0.909804 0.909804
0.929412 0.929412 0.929412
0.964706 0.964706 0.964706
0.968627 0.968627 0.968627
0.866667 0.866667 0.866667
0.850980 0.850980 0.850980
0.854902 0.854902 0.854902
0.858824 0.858824 0.858824
0.905882 0.905882 0.905882
0.929412 0.929412 0.929412
0.945098 0.945098 0.945098
0.964706 0.964706 0.964706
0.968627 0.968627 0.968627
