luts/FUJI_ACROS_Red_Filter.cube
#Generated for krafta web app
#Black and White LUTs
TITLE "Fuji XTrans III - Acros+R"
#LUT size
LUT_3D_SIZE 5
#LUT data points
0.003922 0.003922 0.003922
0.113725 0.113725 0.113725
0.333333 0.333333 0.333333
0.588235 0.588235 0.588235
0.654902 0.654902 0.654902
0.047059 0.047059 0.047059
0.160784 0.160784 0.160784
0.443137 0.443137 0.443137
0.670588 0.670588 0.670588
0.721569 0.721569 0.721569
0.231373 0.231373 0.231373
0.329412 0.329412 0.329412
0.549020 0.549020 0.549020
0.717647 0.717647 0.717647
0.768627 0.768627 0.768627
0.298039 0.298039 0.298039
0.329412 0.329412 0.329412
0.607843 0.607843 0.607843
0.772549 0.772549 0.772549
0.862745 0.862745 0.862745
0.364706 0.364706 0.364706
0.474510 0.474510 0.474510
0.678431 0.678431 0.678431
0.807843 0.807843 0.807843
0.874510 0.874510 0.874510
0.000000 0.000000 0.000000
0.231373 0.231373 0.231373
0.427451 0.427451 0.427451
0.678431 0.678431 0.678431
0.796078 0.796078 0.796078
0.070588 0.070588 0.070588
0.184314 0.184314 0.184314
0.450980 0.450980 0.450980
0.690196 0.690196 0.690196
0.815686 0.815686 0.815686
0.290196 0.290196 0.290196
0.349020 0.349020 0.349020
0.552941 0.552941 0.552941
0.741176 0.741176 0.741176
0.854902 0.854902 0.854902
0.333333 0.333333 0.333333
0.474510 0.474510 0.474510
0.650980 0.650980 0.650980
0.807843 0.807843 0.807843
0.913725 0.913725 0.913725
0.380392 0.380392 0.380392
0.533333 0.533333 0.533333
0.650980 0.650980 0.650980
0.839216 0.839216 0.839216
0.909804 0.909804 0.909804
0.117647 0.117647 0.117647
0.219608 0.219608 0.219608
0.462745 0.462745 0.462745
0.709804 0.709804 0.709804
0.850980 0.850980 0.850980
0.121569 0.121569 0.121569
0.235294 0.235294 0.235294
0.490196 0.490196 0.490196
0.717647 0.717647 0.717647
0.843137 0.843137 0.843137
0.309804 0.309804 0.309804
0.392157 0.392157 0.392157
0.576471 0.576471 0.576471
0.764706 0.764706 0.764706
0.878431 0.878431 0.878431
0.447059 0.447059 0.447059
0.525490 0.525490 0.525490
0.670588 0.670588 0.670588
0.823529 0.823529 0.823529
0.968627 0.968627 0.968627
0.490196 0.490196 0.490196
0.564706 0.564706 0.564706
0.686275 0.686275 0.686275
0.925490 0.925490 0.925490
0.960784 0.960784 0.960784
0.266667 0.266667 0.266667
0.329412 0.329412 0.329412
0.490196 0.490196 0.490196
0.721569 0.721569 0.721569
0.854902 0.854902 0.854902
0.192157 0.192157 0.192157
0.298039 0.298039 0.298039
0.517647 0.517647 0.517647
0.733333 0.733333 0.733333
0.862745 0.862745 0.862745
0.329412 0.329412 0.329412
0.427451 0.427451 0.427451
0.600000 0.600000 0.600000
0.776471 0.776471 0.776471
0.898039 0.898039 0.898039
0.505882 0.505882 0.505882
0.564706 0.564706 0.564706
0.698039 0.698039 0.698039
0.843137 0.843137 0.843137
0.988235 0.988235 0.988235
0.654902 0.654902 0.654902
0.619608 0.619608 0.619608
0.745098 0.745098 0.745098
0.921569 0.921569 0.921569
1.000000 1.000000 1.000000
0.427451 0.427451 0.427451
0.470588 0.470588 0.470588
0.580392 0.580392 0.580392
0.737255 0.737255 0.737255
0.823529 0.823529 0.823529
0.356863 0.356863 0.356863
0.458824 0.458824 0.458824
0.576471 0.576471 0.576471
0.745098 0.745098 0.745098
0.839216 0.839216 0.839216
0.352941 0.352941 0.352941
0.470588 0.470588 0.470588
0.639216 0.639216 0.639216
0.796078 0.796078 0.796078
0.909804 0.909804 0.909804
0.545098 0.545098 0.545098
0.592157 0.592157 0.592157
0.733333 0.733333 0.733333
0.874510 0.874510 0.874510
0.968627 0.968627 0.968627
0.654902 0.654902 0.654902
0.635294 0.635294 0.635294
0.780392 0.780392 0.780392
0.929412 0.929412 0.929412
0.988235 0.988235 0.988235
