luts/Fujifilm_Velvia_100.cube
# Generated for krafta web app
# https://www.facebook.com/krafta.visio
# Preset: FUJ - Velvia 100
# Color profile : sRGB Color Space Profile
LUT_3D_SIZE 16
DOMAIN_MIN 0.0 0.0 0.0
DOMAIN_MAX 1.0 1.0 1.0
0.000000 0.000000 0.000000
0.098085 0.000275 0.000244
0.197360 0.000000 0.000092
0.280217 0.000092 0.000305
0.350408 0.000122 0.000122
0.418036 0.000336 0.000122
0.482338 0.000214 0.000214
0.549584 0.000244 0.000305
0.614954 0.000336 0.000488
0.680781 0.000092 0.000549
0.743984 0.000153 0.000610
0.803952 0.000275 0.000244
0.862638 0.000122 0.000702
0.922759 0.000305 0.000641
0.982879 0.000488 0.000671
1.000000 0.000519 0.000671
0.000000 0.101991 0.000000
0.097993 0.098238 0.000000
0.187564 0.098390 0.000000
0.270390 0.094453 0.000000
0.342901 0.088106 0.000000
0.411231 0.081666 0.000000
0.479927 0.075959 0.000000
0.547692 0.072755 0.000000
0.612787 0.066011 0.000000
0.679316 0.060670 0.000000
0.742519 0.054963 0.000000
0.802396 0.047028 0.000000
0.860990 0.037720 0.000000
0.921355 0.026215 0.000000
0.981811 0.013581 0.000000
1.000000 0.000305 0.000824
0.000000 0.185916 0.000000
0.091279 0.180880 0.000000
0.175570 0.175601 0.000000
0.256260 0.171878 0.000000
0.331518 0.166995 0.000000
0.404517 0.162295 0.000000
0.474556 0.157595 0.000000
0.542321 0.152621 0.000000
0.608240 0.147921 0.000000
0.676081 0.143557 0.000000
0.739223 0.139040 0.000000
0.799130 0.133150 0.000000
0.857420 0.127413 0.000000
0.918608 0.121248 0.000000
0.979522 0.113344 0.000000
1.000000 0.103182 0.000000
0.000000 0.256657 0.000000
0.079805 0.253086 0.000000
0.165652 0.249332 0.000000
0.244968 0.245151 0.000000
0.320439 0.240330 0.000000
0.393439 0.235935 0.000000
0.463416 0.230991 0.000000
0.532647 0.226596 0.000000
0.601160 0.222568 0.000000
0.669001 0.218570 0.000000
0.731807 0.213657 0.000000
0.791806 0.208286 0.000000
0.851621 0.202213 0.000000
0.912261 0.196872 0.000000
0.972076 0.190280 0.000000
1.000000 0.183200 0.000000
0.000000 0.320287 0.000000
0.069459 0.319646 0.000000
0.156527 0.319310 0.000000
0.236881 0.316899 0.000000
0.313115 0.313329 0.000000
0.387091 0.309209 0.000000
0.458686 0.304845 0.000000
0.529503 0.301061 0.000000
0.599023 0.296971 0.000000
0.667750 0.293187 0.000000
0.731075 0.287724 0.000000
0.792691 0.282048 0.000000
0.854124 0.276921 0.000000
0.915862 0.271458 0.000000
0.976104 0.265721 0.000000
1.000000 0.257725 0.000000
0.000000 0.385657 0.000000
0.058076 0.386328 0.000000
0.148287 0.386358 0.000000
0.228061 0.384436 0.000000
0.303563 0.381140 0.000000
0.377173 0.377111 0.000000
0.449561 0.373754 0.000000
0.521599 0.371099 0.000000
0.591760 0.367529 0.000000
0.660395 0.363531 0.000000
0.723751 0.357580 0.000000
0.786709 0.351934 0.000000
0.848569 0.346532 0.000000
0.910552 0.341283 0.000000
0.971313 0.335454 0.000000
1.000000 0.328344 0.000000
0.000000 0.451240 0.000000
0.043488 0.452003 0.000000
0.138247 0.451881 0.000000
0.219272 0.450416 0.000000
0.295476 0.448371 0.000000
0.369726 0.445686 0.000000
0.442481 0.442786 0.000000
0.513939 0.439429 0.000000
0.583490 0.435462 0.000000
0.651270 0.431037 0.000000
0.715877 0.425513 0.000000
0.779843 0.420172 0.000000
0.842405 0.414649 0.000000
0.904723 0.409369 0.000000
0.966094 0.403601 0.000000
1.000000 0.396857 0.000000
0.000000 0.515221 0.000000
0.022278 0.517052 0.000000
0.127138 0.517937 0.000000
0.211032 0.517174 0.000000
0.288060 0.515312 0.000000
0.362005 0.511986 0.000000
0.433387 0.507805 0.000000
0.503655 0.503624 0.000000
0.572900 0.499763 0.000000
0.640681 0.495735 0.000000
0.706538 0.490913 0.000000
0.771420 0.486000 0.000000
0.834684 0.480659 0.000000
0.897215 0.475135 0.000000
0.958648 0.469337 0.000000
1.000000 0.463874 0.000000
0.000000 0.569909 0.000000
0.000000 0.570062 0.000000
0.110842 0.570855 0.000000
0.196536 0.570886 0.000000
0.274540 0.570428 0.000000
0.348821 0.569360 0.000000
0.421759 0.567895 0.000000
0.493050 0.565881 0.000000
0.563592 0.563775 0.000000
0.633234 0.561425 0.000000
0.701228 0.557977 0.000000
0.767453 0.553887 0.000000
0.831815 0.548913 0.000000
0.894865 0.543420 0.000000
0.957031 0.537530 0.000000
1.000000 0.530510 0.000000
0.000000 0.630610 0.000000
0.000000 0.629908 0.000000
0.096376 0.629725 0.000000
0.185641 0.629267 0.000000
0.263706 0.628779 0.000000
0.338293 0.628016 0.000000
0.411170 0.627375 0.000000
0.482582 0.626154 0.000000
0.553185 0.624903 0.000000
0.622858 0.623102 0.000000
0.691798 0.620935 0.000000
0.757931 0.616724 0.000000
0.822721 0.611963 0.000000
0.887114 0.607385 0.000000
0.950683 0.602258 0.000000
1.000000 0.595483 0.000000
0.000000 0.690120 0.000000
0.000000 0.689754 0.000000
0.074220 0.689296 0.000000
0.172488 0.688808 0.000000
0.253117 0.688289 0.000000
0.328252 0.687648 0.000000
0.401160 0.686885 0.000000
0.472450 0.685817 0.000000
0.542870 0.684657 0.000000
0.612238 0.683009 0.000000
0.680934 0.681056 0.000000
0.748653 0.678584 0.000000
0.814633 0.674830 0.000000
0.879576 0.670619 0.000000
0.943206 0.665461 0.000000
1.000000 0.658961 0.000000
0.000000 0.749325 0.000000
0.000000 0.748928 0.000000
0.032227 0.748592 0.000000
0.154696 0.747951 0.000000
0.239658 0.747158 0.000000
0.316625 0.746151 0.000000
0.389929 0.745205 0.000000
0.461280 0.744045 0.000000
0.531792 0.742977 0.000000
0.601038 0.741421 0.000000
0.669673 0.739742 0.000000
0.737667 0.737850 0.000000
0.805478 0.736049 0.000000
0.871336 0.732540 0.000000
0.936095 0.728176 0.000000
1.000000 0.723415 0.000000
0.000000 0.798398 0.000000
0.000000 0.798581 0.000000
0.000000 0.799466 0.000000
0.121096 0.800229 0.000000
0.218784 0.801328 0.000000
0.300206 0.802029 0.000000
0.376684 0.802976 0.000000
0.450202 0.803494 0.000000
0.522576 0.804318 0.000000
0.593774 0.804593 0.000000
0.664668 0.805142 0.000000
0.734829 0.805051 0.000000
0.805020 0.805203 0.000000
0.873442 0.803647 0.000000
0.937377 0.798001 0.000000
0.996857 0.788479 0.000000
0.000000 0.865568 0.000000
0.000000 0.861601 0.000000
0.000000 0.859922 0.000000
0.061280 0.859586 0.000000
0.189731 0.860319 0.000000
0.279667 0.860807 0.000000
0.359899 0.861448 0.000000
0.435706 0.862058 0.000000
0.509422 0.862974 0.000000
0.581109 0.863035 0.000000
0.652308 0.863310 0.000000
0.722469 0.862913 0.000000
0.792325 0.862577 0.000000
0.860807 0.861021 0.000000
0.928008 0.858274 0.000000
0.991272 0.851896 0.000000
0.000000 0.925322 0.000000
0.000000 0.921935 0.000000
0.000000 0.920073 0.000000
0.000000 0.919432 0.000000
0.136965 0.919615 0.000000
0.247623 0.919860 0.000000
0.335790 0.920531 0.000000
0.415747 0.920867 0.000000
0.491859 0.921324 0.000000
0.565301 0.921324 0.000000
0.637659 0.921324 0.000000
0.708858 0.921202 0.000000
0.779904 0.921355 0.000000
0.850004 0.920714 0.000000
0.919249 0.919432 0.000000
0.986206 0.916014 0.000000
0.000000 0.986236 0.000000
0.000000 0.983551 0.000000
0.000000 0.982086 0.000000
0.000000 0.981567 0.000000
0.000000 0.981659 0.000000
0.186526 0.981872 0.000000
0.295628 0.982330 0.000000
0.385412 0.982757 0.000000
0.467506 0.983429 0.000000
0.545586 0.984039 0.000000
0.621210 0.984741 0.000000
0.695338 0.985199 0.000000
0.768887 0.986084 0.000000
0.841672 0.986572 0.000000
0.914549 0.987182 0.000000
0.987518 0.987701 0.000000
0.000000 0.000275 0.101045
0.107027 0.000000 0.107607
0.198489 0.000000 0.105226
0.279484 0.000000 0.094118
0.347814 0.000031 0.084871
0.414191 0.000183 0.078798
0.480659 0.000122 0.074098
0.547234 0.000031 0.068971
0.611810 0.000061 0.062806
0.678218 0.000275 0.056184
0.741665 0.000122 0.050263
0.801175 0.000397 0.042298
0.859342 0.000336 0.031769
0.919249 0.000214 0.020264
0.979065 0.000549 0.005066
1.000000 0.000488 0.000580
0.000000 0.103517 0.103700
0.098329 0.098329 0.098329
0.190036 0.092561 0.092439
0.270726 0.087495 0.086763
0.342321 0.082368 0.082429
0.410986 0.077516 0.077058
0.479316 0.072724 0.073396
0.546319 0.068513 0.068025
0.611566 0.062013 0.062654
0.678981 0.056489 0.055451
0.742000 0.050019 0.049744
0.801236 0.042939 0.042847
0.858946 0.032532 0.032624
0.918853 0.020294 0.021393
0.978515 0.006317 0.005035
1.000000 0.000549 0.000885
0.000000 0.188327 0.090059
0.088167 0.183322 0.087648
0.177829 0.177890 0.083680
0.259251 0.172580 0.080720
0.334447 0.167025 0.077974
0.406317 0.162173 0.073823
0.475776 0.156893 0.069825
0.543236 0.151736 0.064820
0.610468 0.147005 0.059083
0.677729 0.142489 0.052979
0.739467 0.137148 0.045869
0.798306 0.131441 0.038636
0.856260 0.124941 0.029053
0.916564 0.118746 0.015869
0.976532 0.110262 0.001068
1.000000 0.098726 0.000000
0.000000 0.259739 0.080476
0.078828 0.256168 0.078370
0.166842 0.251926 0.076509
0.247105 0.247593 0.073762
0.323339 0.242191 0.070924
0.396399 0.237278 0.067597
0.466651 0.232303 0.063478
0.536187 0.227512 0.059083
0.604364 0.223178 0.053498
0.671412 0.218631 0.046571
0.733700 0.213199 0.038788
0.793179 0.207553 0.031281
0.853544 0.201846 0.021912
0.913634 0.196078 0.009522
0.972412 0.189242 0.000000
1.000000 0.180941 0.000000
0.000000 0.320653 0.070161
0.069062 0.319402 0.068910
0.155276 0.317296 0.067964
0.234470 0.313878 0.064942
0.309422 0.309483 0.062135
0.382666 0.305455 0.058747
0.454292 0.301579 0.054841
0.525078 0.297948 0.049409
0.594110 0.293889 0.043519
0.662531 0.290013 0.035218
0.726131 0.284977 0.028595
0.788296 0.279637 0.021515
0.850401 0.274723 0.012238
0.912291 0.269566 0.000000
0.972808 0.263645 0.000000
1.000000 0.255985 0.000000
0.000000 0.385168 0.058503
0.057130 0.384894 0.057618
0.146304 0.383398 0.056184
0.225498 0.381109 0.054444
0.300877 0.377966 0.050385
0.374151 0.374243 0.046845
0.445777 0.370520 0.041596
0.517052 0.367407 0.036164
0.586725 0.363928 0.029236
0.655146 0.359960 0.022644
0.719448 0.354772 0.015778
0.782742 0.349767 0.008881
0.844999 0.344457 0.000000
0.906889 0.339086 0.000000
0.967742 0.333288 0.000000
1.000000 0.326452 0.000000
0.000000 0.451362 0.042817
0.041657 0.451667 0.042786
0.137331 0.450507 0.041077
0.217594 0.448524 0.039338
0.293400 0.445869 0.035248
0.367254 0.442725 0.030610
0.438941 0.439002 0.024414
0.509545 0.435492 0.017548
0.579370 0.432166 0.010315
0.647303 0.428077 0.003845
0.711788 0.422553 0.000000
0.775662 0.417304 0.000000
0.838285 0.411994 0.000000
0.900633 0.406775 0.000000
0.962005 0.401099 0.000000
1.000000 0.394934 0.000000
0.000000 0.514122 0.021332
0.018219 0.515007 0.019440
0.125277 0.514488 0.018830
0.208469 0.513024 0.015900
0.284794 0.510948 0.012757
0.358770 0.508019 0.007538
0.430518 0.504479 0.002289
0.500755 0.500816 0.000000
0.569787 0.497017 0.000000
0.637507 0.492927 0.000000
0.703151 0.488106 0.000000
0.767788 0.483497 0.000000
0.831418 0.478279 0.000000
0.893767 0.472816 0.000000
0.955200 0.466926 0.000000
1.000000 0.460975 0.000000
0.000000 0.571954 0.000000
0.000000 0.571618 0.000000
0.110170 0.571283 0.000000
0.195956 0.570428 0.000000
0.273533 0.569421 0.000000
0.347631 0.568017 0.000000
0.420478 0.566583 0.000000
0.491829 0.564477 0.000000
0.562097 0.562066 0.000000
0.631403 0.559503 0.000000
0.698970 0.556085 0.000000
0.765133 0.551995 0.000000
0.829435 0.547082 0.000000
0.892973 0.541955 0.000000
0.955901 0.536614 0.000000
1.000000 0.530144 0.000000
0.000000 0.630884 0.000000
0.000000 0.630396 0.000000
0.095552 0.629847 0.000000
0.184970 0.629267 0.000000
0.263401 0.628687 0.000000
0.337987 0.627588 0.000000
0.410315 0.626429 0.000000
0.481361 0.624811 0.000000
0.551751 0.623133 0.000000
0.621027 0.621149 0.000000
0.689448 0.618738 0.000000
0.755612 0.614710 0.000000
0.820768 0.610346 0.000000
0.885649 0.606195 0.000000
0.949737 0.601373 0.000000
1.000000 0.595209 0.000000
0.000000 0.690333 0.000000
0.000000 0.690211 0.000000
0.074159 0.689723 0.000000
0.172488 0.689052 0.000000
0.252903 0.688228 0.000000
0.327459 0.687160 0.000000
0.400366 0.685817 0.000000
0.471168 0.684413 0.000000
0.541436 0.683131 0.000000
0.610712 0.681361 0.000000
0.679103 0.679194 0.000000
0.746700 0.676753 0.000000
0.812497 0.672969 0.000000
0.877562 0.668910 0.000000
0.941772 0.664088 0.000000
1.000000 0.658137 0.000000
0.000000 0.748989 0.000000
0.000000 0.748714 0.000000
0.031006 0.748074 0.000000
0.153384 0.747341 0.000000
0.238529 0.746548 0.000000
0.315892 0.745602 0.000000
0.389258 0.744656 0.000000
0.460548 0.743374 0.000000
0.530846 0.741878 0.000000
0.599695 0.740017 0.000000
0.667933 0.737942 0.000000
0.735622 0.735744 0.000000
0.802914 0.733639 0.000000
0.868528 0.729976 0.000000
0.933135 0.725490 0.000000
0.997986 0.721096 0.000000
0.000000 0.800015 0.000000
0.000000 0.800076 0.000000
0.000000 0.800656 0.000000
0.119905 0.801083 0.000000
0.217868 0.801785 0.000000
0.299870 0.802335 0.000000
0.376501 0.803250 0.000000
0.450111 0.803647 0.000000
0.522362 0.804318 0.000000
0.593347 0.804379 0.000000
0.664179 0.804715 0.000000
0.734279 0.804593 0.000000
0.804623 0.804715 0.000000
0.873136 0.803281 0.000000
0.937377 0.797848 0.000000
0.997375 0.788693 0.000000
0.000000 0.866484 0.000000
0.000000 0.862791 0.000000
0.000000 0.861143 0.000000
0.059358 0.860746 0.000000
0.189487 0.861234 0.000000
0.279240 0.861570 0.000000
0.359716 0.861967 0.000000
0.435340 0.862333 0.000000
0.509117 0.862974 0.000000
0.580743 0.862882 0.000000
0.651942 0.863005 0.000000
0.722103 0.862608 0.000000
0.792081 0.862394 0.000000
0.860746 0.860960 0.000000
0.928161 0.858457 0.000000
0.991791 0.852201 0.000000
0.000000 0.925963 0.000000
0.000000 0.922820 0.000000
0.000000 0.921111 0.000000
0.000000 0.920500 0.000000
0.135256 0.920592 0.000000
0.246372 0.920775 0.000000
0.334997 0.921294 0.000000
0.415106 0.921386 0.000000
0.491371 0.921538 0.000000
0.564904 0.921355 0.000000
0.637171 0.921294 0.000000
0.708522 0.921080 0.000000
0.779599 0.921233 0.000000
0.849851 0.920684 0.000000
0.919310 0.919524 0.000000
0.986633 0.916258 0.000000
0.000000 0.986755 0.000000
0.000000 0.984222 0.000000
0.000000 0.982788 0.000000
0.000000 0.982300 0.000000
0.000000 0.982391 0.000000
0.183078 0.982605 0.000000
0.293828 0.983032 0.000000
0.384283 0.983337 0.000000
0.466712 0.983856 0.000000
0.544854 0.984344 0.000000
0.620630 0.984894 0.000000
0.694728 0.985199 0.000000
0.768338 0.985901 0.000000
0.841184 0.986267 0.000000
0.914183 0.986938 0.000000
0.987274 0.987488 0.000000
0.000397 0.000183 0.213321
0.111666 0.000000 0.208042
0.195438 0.000061 0.196994
0.273411 0.000305 0.185214
0.343206 0.000183 0.173770
0.408606 0.000275 0.164645
0.475135 0.000000 0.158938
0.541436 0.000000 0.152773
0.606836 0.000305 0.146822
0.674098 0.000183 0.141665
0.737942 0.000427 0.136507
0.797879 0.000214 0.131350
0.856596 0.000122 0.125124
0.917510 0.000092 0.118868
0.977783 0.000397 0.110353
1.000000 0.000580 0.097200
0.000000 0.101289 0.202579
0.095552 0.095216 0.194278
0.186099 0.089937 0.185794
0.265293 0.085359 0.177584
0.336278 0.081483 0.169223
0.405402 0.078401 0.163149
0.473793 0.073487 0.157626
0.540826 0.067536 0.152377
0.607630 0.060883 0.146700
0.675380 0.052613 0.142153
0.738674 0.045808 0.136965
0.798123 0.039338 0.131899
0.856596 0.028504 0.125399
0.917235 0.017182 0.118532
0.977386 0.001160 0.109957
1.000000 0.000549 0.097841
0.000000 0.184909 0.184573
0.085908 0.180148 0.180331
0.175235 0.175235 0.175235
0.255558 0.170474 0.170199
0.330175 0.165743 0.165652
0.401953 0.161074 0.160952
0.471382 0.155947 0.156008
0.538903 0.150423 0.150118
0.607385 0.145357 0.145266
0.674464 0.140414 0.140108
0.736385 0.135348 0.135195
0.795407 0.129763 0.129122
0.854337 0.123201 0.122774
0.914916 0.116640 0.116640
0.975341 0.107790 0.107088
1.000000 0.095186 0.095064
0.000000 0.257084 0.171054
0.079835 0.253605 0.168795
0.166110 0.249668 0.166049
0.245518 0.245548 0.162448
0.320867 0.240726 0.158999
0.393439 0.235935 0.155581
0.463691 0.230655 0.150729
0.533776 0.226444 0.146120
0.601862 0.221622 0.141085
0.669001 0.216648 0.136385
0.731075 0.211429 0.131411
0.790768 0.205905 0.126101
0.851743 0.200381 0.120241
0.911986 0.194614 0.112306
0.970947 0.187350 0.102663
1.000000 0.178592 0.088655
0.000000 0.318364 0.157565
0.071077 0.317296 0.157076
0.155184 0.315373 0.155123
0.233402 0.312108 0.153231
0.308110 0.308019 0.149905
0.380835 0.304082 0.146517
0.452491 0.300114 0.142611
0.522728 0.296391 0.139193
0.591913 0.292119 0.134524
0.660060 0.288304 0.129915
0.723903 0.283146 0.126101
0.786587 0.278508 0.121370
0.849027 0.273503 0.115297
0.911131 0.268376 0.108034
0.971954 0.262547 0.097871
1.000000 0.254795 0.082582
0.000000 0.384039 0.147890
0.058198 0.383673 0.147402
0.145846 0.382300 0.146273
0.224918 0.379828 0.144656
0.300053 0.376715 0.142092
0.373144 0.373144 0.138643
0.444495 0.369360 0.135073
0.515770 0.366094 0.131716
0.585412 0.362615 0.127443
0.653437 0.358526 0.122988
0.717891 0.353552 0.119448
0.781399 0.348669 0.114290
0.843870 0.343389 0.108339
0.905821 0.338201 0.100069
0.966979 0.332372 0.088930
1.000000 0.325536 0.071077
0.000000 0.450141 0.138003
0.039826 0.450507 0.137972
0.136416 0.449409 0.136416
0.216892 0.447608 0.134981
0.292729 0.444953 0.132937
0.366461 0.441993 0.130220
0.438300 0.438422 0.126406
0.508721 0.434760 0.122560
0.578332 0.431098 0.118471
0.646143 0.426886 0.114839
0.710567 0.421515 0.110964
0.774411 0.416388 0.105501
0.837156 0.411200 0.097993
0.899657 0.405859 0.087984
0.961334 0.400275 0.074250
1.000000 0.394079 0.052735
0.000000 0.513268 0.124971
0.015137 0.514305 0.125216
0.123354 0.513725 0.124666
0.207340 0.512383 0.123384
0.284154 0.510155 0.121401
0.358068 0.507317 0.118257
0.429816 0.503716 0.114839
0.500053 0.500237 0.111147
0.569238 0.496437 0.106264
0.636835 0.492287 0.102724
0.702388 0.487495 0.098451
0.767056 0.482673 0.093080
0.830533 0.477668 0.083864
0.892973 0.472114 0.072694
0.954437 0.466102 0.052277
1.000000 0.460060 0.018708
0.000000 0.571466 0.109865
0.000000 0.571252 0.109743
0.108553 0.570733 0.108949
0.194919 0.569909 0.108186
0.272618 0.568933 0.106935
0.347143 0.567559 0.104219
0.419898 0.566003 0.102419
0.491279 0.563928 0.098634
0.561486 0.561608 0.094270
0.630823 0.559045 0.089631
0.698421 0.555474 0.085725
0.764492 0.551476 0.079072
0.828763 0.546502 0.068574
0.892576 0.541436 0.053223
0.955627 0.536187 0.027466
1.000000 0.529717 0.000000
0.000000 0.630518 0.096071
0.000000 0.630213 0.096071
0.093416 0.629725 0.095094
0.184115 0.629206 0.093355
0.263127 0.628565 0.092042
0.337346 0.627588 0.090150
0.410040 0.626215 0.086732
0.481056 0.624659 0.083040
0.551476 0.622950 0.077668
0.620783 0.620874 0.071717
0.689021 0.618311 0.063081
0.755215 0.614282 0.051820
0.820401 0.609949 0.035859
0.885405 0.605768 0.013519
0.949615 0.601068 0.000000
1.000000 0.594873 0.000000
0.000000 0.690120 0.075441
0.000000 0.690150 0.074434
0.071412 0.689784 0.074372
0.171511 0.689082 0.072114
0.252110 0.688228 0.070253
0.327153 0.687098 0.066224
0.400000 0.685847 0.061158
0.471229 0.684443 0.056153
0.541375 0.683040 0.048188
0.610498 0.681117 0.037385
0.678828 0.678889 0.024750
0.746487 0.676478 0.009857
0.812161 0.672633 0.000000
0.877409 0.668605 0.000000
0.941741 0.663874 0.000000
1.000000 0.657832 0.000000
0.000000 0.748867 0.032654
0.000000 0.748592 0.033753
0.026032 0.748043 0.030610
0.152560 0.747311 0.027588
0.238254 0.746609 0.022034
0.315160 0.745754 0.017090
0.389136 0.744778 0.009461
0.460578 0.743404 0.000458
0.530632 0.741848 0.000000
0.599573 0.739956 0.000000
0.667872 0.737819 0.000000
0.735531 0.735653 0.000000
0.802884 0.733455 0.000000
0.868437 0.729732 0.000000
0.933074 0.725185 0.000000
0.998047 0.720729 0.000000
0.000000 0.800565 0.000000
0.000000 0.800656 0.000000
0.000000 0.801083 0.000000
0.117800 0.801511 0.000000
0.216678 0.802182 0.000000
0.299260 0.802670 0.000000
0.375982 0.803555 0.000000
0.449683 0.803922 0.000000
0.522148 0.804532 0.000000
0.593378 0.804593 0.000000
0.664240 0.804959 0.000000
0.734463 0.804837 0.000000
0.804929 0.805020 0.000000
0.873350 0.803433 0.000000
0.937560 0.797848 0.000000
0.997772 0.788663 0.000000
0.000000 0.866850 0.000000
0.000000 0.863279 0.000000
0.000000 0.861723 0.000000
0.050202 0.861326 0.000000
0.186709 0.861784 0.000000
0.277714 0.862028 0.000000
0.358709 0.862394 0.000000
0.434730 0.862791 0.000000
0.508629 0.863401 0.000000
0.580682 0.863249 0.000000
0.651789 0.863340 0.000000
0.722072 0.862882 0.000000
0.792172 0.862638 0.000000
0.860960 0.861173 0.000000
0.928435 0.858579 0.000000
0.992218 0.852293 0.000000
0.000000 0.926268 0.000000
0.000000 0.923217 0.000000
0.000000 0.921599 0.000000
0.000000 0.920989 0.000000
0.128878 0.921080 0.000000
0.243351 0.921294 0.000000
0.333257 0.921782 0.000000
0.413977 0.921843 0.000000
0.490394 0.921904 0.000000
0.564294 0.921691 0.000000
0.636744 0.921630 0.000000
0.708339 0.921386 0.000000
0.779568 0.921508 0.000000
0.849943 0.920928 0.000000
0.919585 0.919768 0.000000
0.987060 0.916503 0.000000
0.000000 0.987152 0.000000
0.000000 0.984649 0.000000
0.000000 0.983276 0.000000
0.000000 0.982788 0.000000
0.000000 0.982940 0.000000
0.175937 0.983154 0.000000
0.289982 0.983520 0.000000
0.381537 0.983795 0.000000
0.464698 0.984253 0.000000
0.543389 0.984710 0.000000
0.619654 0.985229 0.000000
0.694026 0.985534 0.000000
0.767819 0.986145 0.000000
0.840909 0.986511 0.000000
0.914122 0.987121 0.000000
0.987457 0.987671 0.000000
0.000000 0.000153 0.295903
0.103487 0.000000 0.290288
0.187991 0.000153 0.279515
0.266026 0.000000 0.267216
0.336767 0.000092 0.254520
0.404517 0.000214 0.244358
0.471748 0.000000 0.237217
0.537835 0.000244 0.230503
0.603388 0.000031 0.224765
0.670649 0.000183 0.219547
0.734310 0.000122 0.214450
0.794614 0.000122 0.209628
0.854185 0.000153 0.203738
0.915709 0.000427 0.198672
0.976349 0.000214 0.192111
1.000000 0.000183 0.183505
0.000000 0.095552 0.283757
0.091798 0.092226 0.276249
0.180240 0.087953 0.267796
0.259037 0.083955 0.259007
0.331456 0.080201 0.249607
0.402075 0.077394 0.242588
0.470192 0.072877 0.236118
0.536828 0.067536 0.229587
0.604181 0.059998 0.224613
0.671870 0.050111 0.219730
0.735073 0.043854 0.214572
0.794888 0.038331 0.209476
0.854459 0.028199 0.204013
0.915404 0.018067 0.198245
0.975952 0.000580 0.192020
1.000000 0.000549 0.183322
0.000000 0.179934 0.267948
0.086519 0.175998 0.262333
0.172274 0.172244 0.256626
0.251774 0.168460 0.251743
0.326146 0.164309 0.245579
0.397681 0.160342 0.239963
0.467018 0.155062 0.234379
0.535332 0.149447 0.228428
0.603693 0.143832 0.223331
0.670924 0.138338 0.218235
0.732906 0.133303 0.213016
0.792233 0.128420 0.207431
0.852140 0.122805 0.202213
0.913207 0.116121 0.196506
0.973999 0.106508 0.190219
1.000000 0.093324 0.181460
0.000000 0.253483 0.253574
0.079225 0.250523 0.250462
0.165072 0.246769 0.246738
0.243076 0.243076 0.243076
0.317510 0.238987 0.238895
0.389776 0.234257 0.234287
0.460548 0.229313 0.229435
0.530571 0.224918 0.224582
0.598718 0.219669 0.219791
0.665797 0.214694 0.214969
0.728115 0.209964 0.209598
0.788266 0.204807 0.204471
0.849851 0.199832 0.199802
0.910369 0.194003 0.193912
0.969696 0.186343 0.186252
1.000000 0.176852 0.177066
0.000000 0.315679 0.236759
0.071565 0.314611 0.235966
0.154513 0.312596 0.234165
0.231876 0.309819 0.231968
0.306065 0.306126 0.228611
0.378668 0.302434 0.225132
0.450019 0.298344 0.221347
0.520531 0.294652 0.217472
0.589563 0.290379 0.213260
0.657740 0.286259 0.209232
0.721340 0.281743 0.204990
0.784787 0.277440 0.201389
0.847379 0.272892 0.197147
0.909728 0.267979 0.191440
0.970825 0.261845 0.184726
1.000000 0.253788 0.174502
0.000000 0.382177 0.227085
0.057862 0.381750 0.226780
0.144747 0.380438 0.225681
0.223758 0.377996 0.223758
0.298405 0.375097 0.221134
0.371496 0.371618 0.217838
0.443061 0.368048 0.214572
0.514092 0.364599 0.211276
0.583612 0.360937 0.207492
0.651698 0.357092 0.203830
0.716030 0.352300 0.200778
0.779812 0.347539 0.196963
0.842405 0.342718 0.191836
0.904601 0.337560 0.186465
0.966003 0.331579 0.178988
1.000000 0.324865 0.168765
0.000000 0.448188 0.217746
0.036713 0.448585 0.217716
0.134920 0.447608 0.216739
0.214908 0.445991 0.215610
0.291325 0.443397 0.213504
0.365087 0.440589 0.211063
0.437018 0.437079 0.208133
0.507652 0.433417 0.204440
0.576959 0.429725 0.201144
0.644587 0.425574 0.197604
0.709041 0.420356 0.194553
0.773007 0.415473 0.190372
0.835996 0.410285 0.185306
0.898589 0.405188 0.179171
0.960601 0.399481 0.171023
1.000000 0.393317 0.160159
0.000000 0.511833 0.206973
