luts/FUJI_VELVIA.cube
TITLE "Generated for krafta web app"
LUT_3D_SIZE 25
#INPUTGAMMA sRGB
#IMAGEPROFILE sRGB
#OUTPUTGAMMA sRGB
0.000000 0.000000 0.000000
0.000000 0.000000 0.000000
0.060067 0.005549 0.002686
0.117988 0.010517 0.004965
0.180896 0.017574 0.009846
0.244416 0.024122 0.013098
0.303867 0.030802 0.016445
0.363804 0.037782 0.020663
0.422597 0.044482 0.024066
0.480919 0.051005 0.027103
0.546382 0.055107 0.027430
0.599391 0.060604 0.030194
0.648322 0.066552 0.033584
0.695393 0.072324 0.036749
0.740157 0.078065 0.039389
0.784136 0.083819 0.042237
0.826860 0.089714 0.045809
0.865703 0.095391 0.048342
0.902766 0.101654 0.051196
0.941423 0.107830 0.053661
0.975498 0.112100 0.053242
0.997973 0.113864 0.047541
1.000122 0.118156 0.045833
1.000000 0.122954 0.043274
1.000000 0.128330 0.043115
0.000000 0.000000 0.000000
0.000271 0.000025 0.000012
0.058149 0.005389 0.002622
0.118465 0.010569 0.005001
0.181258 0.017612 0.009868
0.243316 0.024009 0.013048
0.303867 0.030802 0.016445
0.363804 0.037782 0.020663
0.422749 0.044500 0.024075
0.481067 0.051015 0.027104
0.546038 0.055076 0.027418
0.599480 0.060614 0.030200
0.648017 0.066515 0.033563
0.695458 0.072333 0.036753
0.740215 0.078073 0.039393
0.784187 0.083826 0.042240
0.826905 0.089720 0.045812
0.865741 0.095397 0.048345
0.902766 0.101654 0.051196
0.941289 0.107810 0.053656
0.975522 0.112103 0.053240
0.997930 0.113858 0.047559
1.000121 0.118159 0.045832
1.000000 0.122957 0.043273
1.000000 0.128332 0.043115
0.000914 0.036969 0.000950
0.001145 0.037556 0.000963
0.049616 0.037285 0.002231
0.114295 0.038114 0.003302
0.178565 0.043719 0.007265
0.240826 0.049447 0.009105
0.302058 0.055736 0.012313
0.361273 0.062207 0.015856
0.421227 0.068461 0.019532
0.480810 0.074345 0.023266
0.539989 0.080451 0.027717
0.596577 0.084702 0.028362
0.648233 0.089857 0.030219
0.694916 0.095624 0.033834
0.740058 0.101357 0.036856
0.784637 0.107255 0.040282
0.826642 0.112928 0.043186
0.865561 0.118675 0.046233
0.904758 0.124404 0.048517
0.945327 0.130308 0.050164
0.971499 0.135970 0.051636
0.997136 0.139064 0.047618
1.000152 0.141354 0.040739
1.000000 0.145872 0.037752
1.000000 0.151586 0.038882
0.000977 0.086182 0.000008
0.001126 0.086180 0.000008
0.034964 0.085718 0.000120
0.099370 0.085122 0.002327
0.162083 0.085441 0.004093
0.232259 0.086358 0.005475
0.294972 0.091277 0.007102
0.356991 0.097484 0.010806
0.420101 0.104407 0.015970
0.478678 0.109866 0.018789
0.535190 0.115196 0.021782
0.589428 0.121318 0.026693
0.641594 0.126024 0.028820
0.692556 0.130706 0.030004
0.738183 0.135920 0.033722
0.783151 0.141079 0.037098
0.826165 0.146471 0.041014
0.867670 0.151502 0.043905
0.907363 0.156255 0.045168
0.947230 0.161139 0.045376
0.973583 0.166634 0.047148
0.997462 0.169002 0.041181
1.000150 0.171059 0.034237
1.000000 0.175426 0.031733
1.000000 0.180258 0.030509
-0.000057 0.137842 0.000000
0.000001 0.137840 0.000000
0.015346 0.137671 -0.000006
0.079300 0.135045 -0.000136
0.143228 0.134122 -0.000246
0.211475 0.135589 -0.000327
0.280574 0.132332 -0.000768
0.349371 0.135288 0.003696
0.409238 0.139993 0.005795
0.472170 0.146600 0.012395
0.528365 0.152283 0.015557
0.582508 0.158028 0.020485
0.633352 0.162903 0.022536
0.683837 0.166999 0.023323
0.730798 0.172680 0.028033
0.777212 0.178573 0.032762
0.823793 0.183251 0.035829
0.865469 0.188313 0.037987
0.904642 0.193158 0.038457
0.944512 0.198009 0.038282
0.971887 0.203070 0.039079
0.990450 0.207868 0.039654
0.999508 0.209265 0.029105
1.000013 0.211990 0.022746
1.000000 0.216351 0.021984
0.000000 0.190708 0.000000
0.000000 0.190708 0.000000
0.002872 0.190601 0.000000
0.057391 0.189081 0.000000
0.123296 0.185659 0.000000
0.192341 0.184734 0.000000
0.262936 0.186633 -0.000138
0.341395 0.185383 0.001729
0.400518 0.185652 0.002006
0.456888 0.183727 0.002373
0.516538 0.188948 0.005872
0.568460 0.194233 0.008803
0.623586 0.200461 0.015453
0.672274 0.204909 0.017339
0.722475 0.210228 0.021041
0.771235 0.215772 0.024837
0.818980 0.220962 0.027914
0.861645 0.226148 0.030894
0.902808 0.230982 0.031983
0.942244 0.235678 0.030983
0.969284 0.240383 0.031171
0.988842 0.244439 0.031042
0.999404 0.246983 0.019213
1.000015 0.250292 0.013784
1.000000 0.255201 0.015458
0.000000 0.242325 0.000000
-0.000002 0.242326 0.000000
0.001169 0.242712 0.000000
0.035931 0.242215 0.000000
0.104157 0.240004 0.000000
0.171222 0.236644 0.000000
0.239519 0.235524 0.000010
0.309234 0.236882 -0.000208
0.378604 0.240064 0.001423
0.441823 0.238126 0.000054
0.505196 0.238069 0.003853
0.563260 0.233137 0.004492
0.610807 0.236673 0.004182
0.660905 0.242223 0.007412
0.711768 0.247085 0.010263
0.765082 0.253078 0.016036
0.811929 0.257839 0.018330
0.860304 0.263877 0.024702
0.904613 0.269285 0.027669
0.943922 0.274080 0.026147
0.970619 0.278793 0.025943
0.992156 0.282861 0.026828
0.999693 0.286171 0.015134
1.000010 0.290368 0.009770
1.000000 0.295066 0.010661
0.000000 0.291565 0.000000
0.000000 0.291565 0.000000
0.000342 0.291567 0.000000
0.017095 0.291890 0.000000
0.082424 0.290436 0.000000
0.150077 0.287919 0.000000
0.216686 0.285102 0.000000
0.282481 0.283437 0.000003
0.356118 0.284512 -0.000067
0.424139 0.288531 0.000041
0.488239 0.290835 0.001025
0.550036 0.291099 0.003905
0.603155 0.289261 0.005664
0.647075 0.279291 0.000317
0.690501 0.282017 0.000862
0.745243 0.286667 0.001625
0.803273 0.293237 0.008327
0.853628 0.299414 0.015178
0.897239 0.304661 0.017615
0.944028 0.310967 0.021506
0.972768 0.316296 0.022775
0.996339 0.320821 0.022715
1.000058 0.325153 0.009201
1.000002 0.329675 0.007224
1.000000 0.333953 0.007287
0.000000 0.338838 0.000000
0.000000 0.338960 0.000000
-0.000102 0.338738 0.000000
0.006266 0.338489 0.000000
0.062137 0.337392 0.000000
0.132116 0.336180 0.000000
0.199941 0.334304 0.000000
0.265216 0.331419 0.000000
0.331089 0.329953 0.000000
0.401478 0.330791 -0.000002
0.462686 0.333283 0.000002
0.524238 0.336863 0.000209
0.589080 0.339497 0.000480
0.633336 0.336893 -0.000021
0.699206 0.325049 0.000207
0.742951 0.326300 -0.000328
0.790429 0.329085 0.000133
0.840394 0.332871 0.002268
0.888961 0.338994 0.007757
0.939408 0.345751 0.013781
0.971013 0.352044 0.017576
0.993975 0.357153 0.019326
0.999855 0.362348 0.015071
1.000006 0.366590 0.004525
1.000000 0.370823 0.004179
0.000000 0.385093 0.000000
0.000000 0.385189 0.000000
-0.000086 0.384182 0.000000
0.002812 0.383885 0.000000
0.040918 0.383968 0.000000
0.109503 0.382188 0.000000
0.180284 0.380316 0.000000
0.248690 0.377748 0.000000
0.316047 0.376598 0.000000
0.379971 0.375248 0.000000
0.438999 0.374659 0.000000
0.494873 0.376425 0.000000
0.551493 0.379722 0.000000
0.616012 0.384117 -0.000031
0.681882 0.385423 0.000086
0.738246 0.386721 0.007434
0.791917 0.372522 0.002548
0.833028 0.372014 0.000574
0.885908 0.375814 0.004118
0.938662 0.381826 0.010812
0.968705 0.387744 0.013070
0.991704 0.392965 0.015069
0.999692 0.399028 0.016878
1.000010 0.402346 0.002907
1.000000 0.406645 0.001858
0.000000 0.427864 0.000000
0.000000 0.427865 0.000000
-0.000034 0.427822 0.000000
0.000743 0.427534 0.000000
0.022740 0.428000 0.000000
0.085991 0.427233 0.000000
0.155935 0.426618 0.000000
0.227903 0.423430 0.000000
0.296995 0.421460 0.000000
0.361575 0.420397 0.000000
0.424326 0.419263 0.000000
0.483583 0.419286 0.000000
0.538633 0.420444 0.000000
0.590420 0.423003 0.000001
0.652006 0.427141 -0.000002
0.709777 0.430571 -0.000207
0.771632 0.429853 0.001416
0.818181 0.432017 0.005071
0.897121 0.424180 0.015942
0.935639 0.419736 0.010022
0.962036 0.423522 0.008757
0.988352 0.429431 0.014126
0.999475 0.433236 0.011634
1.000014 0.437151 0.000628
1.000000 0.442154 0.001498
0.000000 0.468941 0.000000
0.000000 0.468943 0.000000
-0.000003 0.469179 0.000000
-0.000396 0.469566 0.000000
0.009844 0.470065 0.000000
0.062320 0.470520 0.000000
0.131587 0.470891 0.000000
0.203546 0.469407 0.000000
0.277157 0.465025 0.000000
0.344301 0.463895 0.000000
0.407445 0.462889 0.000000
0.464883 0.462012 0.000000
0.522371 0.461861 0.000000
0.577314 0.462504 0.000000
0.629554 0.464825 0.000000
0.691048 0.468687 0.000001
0.747868 0.471037 -0.000044
0.802135 0.470021 -0.000751
0.857621 0.474475 0.006953
0.917582 0.463944 0.006247
0.960522 0.460177 0.006821
0.984763 0.465729 0.015556
0.999133 0.468506 0.009115
1.000021 0.471117 0.000224
1.000000 0.476536 0.001349
0.000000 0.509471 0.000000
0.000000 0.509407 0.000000
0.000000 0.509283 0.000000
-0.000300 0.509592 0.000000
0.004155 0.510840 0.000000
0.042308 0.511508 0.000000
0.109941 0.512441 0.000000
0.182635 0.512208 0.000000
0.257282 0.509363 0.000000
0.330344 0.506702 0.000000
0.395131 0.505814 0.000000
0.452866 0.504918 0.000000
0.508848 0.504028 0.000000
0.565317 0.503690 0.000000
0.620312 0.504069 0.000000
0.673182 0.506290 0.000000
0.732103 0.509490 0.000000
0.792771 0.510351 -0.000079
0.846815 0.512639 0.000877
0.907173 0.504221 0.001751
0.955870 0.499683 0.004724
0.985338 0.498333 0.006239
0.999236 0.500318 0.001033
1.000020 0.504150 0.000001
1.000000 0.509890 0.001205
0.000000 0.548596 0.000000
0.000000 0.548593 0.000000
0.000000 0.548153 0.000000
-0.000159 0.548524 0.000000
0.001799 0.550189 0.000000
0.026931 0.551675 0.000000
0.088099 0.552255 0.000000
0.164183 0.552535 0.000000
0.240196 0.552347 0.000000
0.312051 0.550818 0.000000
0.380108 0.547158 0.000000
0.438544 0.546421 0.000000
0.496143 0.545652 0.000000
0.553431 0.545079 0.000000
0.609252 0.544767 0.000000
0.664943 0.544869 0.000000
0.719480 0.547334 0.000000
0.777764 0.548878 0.000001
0.832845 0.550291 -0.000151
0.892871 0.544769 0.001205
0.948514 0.539858 0.005041
0.979054 0.539295 0.008738
0.998732 0.538366 0.010173
1.000031 0.538712 0.001341
1.000000 0.543584 0.002251
0.000000 0.587560 0.000000
0.000000 0.587555 0.000000
0.000000 0.586506 0.000000
-0.000021 0.587293 0.000000
-0.000723 0.589304 0.000000
0.012604 0.591199 0.000000
0.069892 0.593045 0.000000
0.145402 0.594684 0.000000
0.226065 0.592572 0.000000
0.297739 0.591390 0.000000
0.365303 0.589665 0.000000
0.428047 0.587203 0.000000
0.485973 0.586527 0.000000
0.543631 0.585429 0.000000
0.602407 0.585520 0.000000
0.656777 0.584847 0.000000
0.711760 0.584405 0.000000
0.765126 0.585583 0.000003
0.821091 0.586410 -0.000382
0.876416 0.584192 0.003482
0.933475 0.580022 0.009202
0.970492 0.580310 0.014824
0.997690 0.580047 0.016607
1.000023 0.580070 0.007443
1.000000 0.580871 0.003222
0.000000 0.624753 0.000000
0.000000 0.624752 0.000000
0.000000 0.624424 0.000000
-0.000001 0.625832 0.000000
-0.000768 0.628284 0.000000
0.006593 0.631031 0.000000
0.056415 0.632605 0.000000
0.130834 0.634070 0.000000
0.207643 0.634967 0.000000
0.283825 0.630127 0.000000
0.348911 0.628648 0.000000
0.412340 0.626868 0.000000
0.472668 0.626240 0.000000
0.531255 0.624318 0.000000
0.589773 0.623781 0.000000
0.645342 0.623163 0.000000
0.700703 0.622401 0.000007
0.754671 0.621647 -0.000285
0.808643 0.621196 0.001415
0.860035 0.621886 0.007778
0.917480 0.618017 0.014272
0.961578 0.620637 0.023071
0.990495 0.620893 0.023680
0.999778 0.621804 0.012378
1.000000 0.621110 0.003933
0.000000 0.657487 0.000000
0.000000 0.657489 0.000000
0.000000 0.657952 0.000000
0.000001 0.660238 0.000000
-0.000420 0.663355 0.000000
0.001886 0.666459 0.000000
0.044463 0.668773 0.000000
0.118374 0.669969 0.000000
0.194384 0.671051 0.000000
0.268729 0.667379 0.000000
0.338760 0.663533 0.000000
0.404644 0.662155 0.000000
0.467136 0.660764 0.000000
0.525453 0.659213 0.000000
0.583134 0.658688 0.000000
0.636006 0.658415 0.000009
0.688719 0.657843 -0.000434
0.741995 0.657035 0.000931
0.795294 0.655791 0.007885
0.847988 0.655813 0.015902
0.903317 0.654688 0.022562
0.954239 0.657684 0.028908
0.984815 0.658238 0.028953
0.999589 0.659900 0.016739
1.000000 0.658498 0.006208
0.000000 0.693299 0.000000
0.000000 0.693308 0.000000
0.000000 0.695303 0.000000
0.000000 0.698621 0.000000
-0.000150 0.701827 0.000000
-0.001248 0.705094 0.000000
0.035410 0.707698 0.000000
0.107122 0.708887 0.000000
0.184724 0.710496 0.000000
0.257652 0.709769 0.000000
0.331490 0.706633 0.000000
0.400581 0.705445 0.000000
0.466552 0.704488 0.000000
0.525169 0.702513 0.000000
0.571437 0.700419 -0.000001
0.624142 0.699956 -0.000085
0.676183 0.699026 0.002891
0.727932 0.698222 0.007083
0.779440 0.696927 0.014543
0.833779 0.696490 0.024172
0.888207 0.696083 0.032449
0.941285 0.698945 0.037043
0.975319 0.700595 0.039318
0.999338 0.700405 0.017556
1.000000 0.697999 0.007481
0.000000 0.738126 0.000000
0.000000 0.738135 0.000000
0.000000 0.740222 0.000000
0.000000 0.744171 0.000000
-0.000018 0.747671 0.000000
-0.002441 0.750215 0.000000
0.026096 0.752843 0.000000
0.095938 0.754457 0.000000
0.174472 0.756408 0.000000
0.250159 0.757881 0.000000
0.323695 0.758199 0.000000
0.390394 0.758342 0.000000
0.451257 0.757384 0.000000
0.511041 0.753509 0.000000
0.558571 0.752292 0.000000
0.601448 0.750050 -0.000041
0.647572 0.749750 0.001424
0.695147 0.749818 0.002569
0.749676 0.749497 0.008073
0.813411 0.748302 0.025462
0.872948 0.746846 0.039103
0.924612 0.746595 0.043936
0.965260 0.748567 0.047637
0.998671 0.745895 0.028137
1.000000 0.744531 0.009221
0.000000 0.782893 0.000000
0.000000 0.782911 0.000000
0.000000 0.786826 0.000000
0.000000 0.791070 0.000000
0.000002 0.794715 0.000000
-0.002101 0.796651 0.000000
0.018617 0.798539 0.000000
0.087269 0.800588 0.000000
0.169025 0.803034 0.000000
0.246988 0.804730 0.000000
0.316262 0.805107 0.000000
0.378152 0.804998 0.000000
0.435898 0.804809 0.000000
0.493118 0.803912 0.000000
0.547127 0.803729 0.000000
0.590625 0.801484 0.000003
0.638027 0.800358 -0.000119
0.685407 0.799883 -0.000586
0.745460 0.798938 0.002650
0.809983 0.798027 0.013447
0.869077 0.795798 0.031724
0.918018 0.793768 0.043581
0.959524 0.792973 0.048867
0.994607 0.791778 0.034148
0.999998 0.791961 0.012096
0.000000 0.823561 0.000000
0.000000 0.823619 0.000000
0.000000 0.829191 0.000000
0.000000 0.833576 0.000000
0.000000 0.837747 0.000000
-0.001974 0.840574 0.000000
0.017461 0.843256 0.000000
0.087763 0.846522 0.000000
0.168421 0.849638 0.000000
0.241361 0.850990 0.000000
0.307529 0.851561 0.000000
0.369868 0.853001 0.000000
0.428716 0.853530 0.000000
0.485255 0.853793 0.000000
0.537767 0.852113 0.000000
0.584365 0.849451 0.000000
0.632558 0.847323 0.000000
0.683589 0.845683 -0.000039
0.741802 0.844858 0.000203
0.802261 0.844200 0.003138
0.860538 0.843180 0.007722
0.912446 0.841839 0.014516
0.957069 0.840071 0.024365
0.987561 0.838215 0.036898
0.999996 0.839865 0.015892
0.000000 0.863216 0.000000
0.000000 0.863209 0.000000
0.000000 0.868290 0.000000
0.000000 0.873105 0.000000
0.000000 0.878111 0.000000
-0.002584 0.881649 0.000000
0.024971 0.885761 0.000000
0.089771 0.888851 0.000000
0.161983 0.890798 0.000000
0.230733 0.892037 0.000000
0.295110 0.892820 0.000000
0.355127 0.893710 0.000000
0.410413 0.892980 0.000000
0.463291 0.892142 0.000000
0.512248 0.890927 0.000000
0.559414 0.889642 0.000000
0.613242 0.889035 0.000000
0.669143 0.888589 0.000003
0.725621 0.888032 -0.000051
0.785706 0.887349 0.000138
0.844043 0.887110 0.000044
0.901810 0.886858 0.001805
0.950655 0.886600 0.005652
0.988103 0.886443 0.013306
0.999996 0.887142 0.018528
0.000000 0.902868 0.000000
0.000000 0.902919 0.000000
0.000000 0.907595 0.000000
0.000000 0.912646 0.000000
0.000000 0.918617 0.000000
-0.002217 0.922818 0.000000
0.020880 0.925620 0.000000
0.083563 0.928455 0.000000
0.153747 0.930174 0.000000
0.219290 0.929420 0.000000
0.280539 0.927922 0.000000
0.338335 0.927579 0.000000
0.393349 0.926440 0.000000
0.445959 0.925838 0.000000
0.496510 0.925694 0.000000
0.546942 0.925411 0.000000
0.598272 0.925147 0.000000
0.651736 0.924977 0.000000
0.703987 0.925263 0.000001
0.766221 0.925710 -0.000011
0.826011 0.926468 -0.000028
0.885308 0.926894 0.000049
0.939555 0.927226 0.000149
0.982540 0.927613 0.001722
0.999994 0.928113 0.006692
0.000000 0.943554 0.000000
0.000000 0.943551 0.000000
0.000000 0.948160 0.000000
0.000000 0.953110 0.000000
0.000000 0.957765 0.000000
-0.001858 0.960906 0.000000
0.017040 0.963611 0.000000
0.075611 0.965541 0.000000
0.139782 0.964177 0.000000
0.204126 0.963239 0.000000
0.266024 0.962157 0.000000
0.323977 0.961898 0.000000
0.379245 0.961719 0.000000
0.432739 0.961439 0.000000
0.483422 0.961322 0.000000
0.533777 0.961253 0.000000
0.581942 0.961309 0.000000
0.633366 0.961767 0.000000
0.687678 0.962349 0.000000
0.746468 0.963161 0.000000
0.806975 0.963923 0.000000
0.868738 0.964259 -0.000002
0.924036 0.964746 -0.000008
0.975306 0.965286 0.000027
1.000106 0.965539 0.000166
0.000000 0.972083 0.000000
0.000000 0.972098 0.000000
0.000000 0.975227 0.000000
0.000000 0.978007 0.000000
0.000000 0.981211 0.000000
-0.001401 0.984307 0.000000
0.012198 0.986497 0.000000
0.064526 0.987291 0.000000
0.128448 0.986563 0.000000
0.192715 0.986601 0.000000
0.255775 0.986994 0.000000
0.312460 0.986511 0.000000
0.366398 0.985813 0.000000
0.420279 0.985790 0.000000
0.470927 0.986079 0.000000
0.515373 0.986658 0.000000
0.564363 0.987296 0.000000
0.618357 0.987975 0.000000
0.674982 0.988753 0.000000
0.735088 0.989597 0.000000
0.794694 0.990489 0.000000
0.854155 0.991476 0.000000
0.910758 0.991981 0.000000
0.962703 0.992470 0.000000
0.995517 0.993351 0.000000
0.000000 0.000000 0.000000
0.000271 0.000025 0.000012
0.057503 0.005334 0.002600
0.118465 0.010569 0.005001
0.181258 0.017612 0.009868
0.243316 0.024009 0.013048
0.303867 0.030802 0.016445
0.363804 0.037782 0.020663
0.422749 0.044500 0.024075
0.481067 0.051015 0.027104
0.546038 0.055076 0.027418
0.599480 0.060614 0.030200
0.648017 0.066515 0.033563
0.695458 0.072333 0.036753
0.740215 0.078073 0.039393
0.784187 0.083826 0.042240
0.826905 0.089720 0.045812
0.865741 0.095397 0.048345
0.902800 0.101660 0.051199
0.941289 0.107810 0.053656
0.975522 0.112103 0.053240
0.997930 0.113858 0.047559
1.000121 0.118159 0.045832
1.000000 0.122957 0.043273
1.000000 0.128332 0.043115
0.000000 0.000000 0.000000
0.000271 0.000025 0.000012
0.058791 0.005443 0.002644
0.118465 0.010569 0.005001
0.181258 0.017612 0.009868
0.243591 0.024038 0.013061
0.304083 0.030828 0.016459
0.363987 0.037803 0.020675
0.422901 0.044517 0.024083
0.481215 0.051025 0.027106
0.546038 0.055076 0.027418
0.599480 0.060614 0.030200
0.648093 0.066524 0.033568
0.695524 0.072341 0.036757
0.740215 0.078073 0.039393
0.784239 0.083833 0.042244
0.826950 0.089727 0.045816
0.865779 0.095403 0.048347
0.902800 0.101660 0.051199
0.941323 0.107815 0.053657
0.975546 0.112105 0.053238
0.997941 0.113859 0.047555
1.000121 0.118159 0.045832
1.000000 0.122961 0.043272
1.000000 0.128332 0.043115
0.000925 0.037557 0.000957
0.001135 0.036968 0.000956
0.049616 0.037285 0.002231
0.114295 0.038114 0.003302
0.178929 0.043753 0.007280
0.241099 0.049471 0.009111
0.301394 0.055662 0.012265
0.361456 0.062227 0.015867
0.421383 0.068477 0.019541
0.480945 0.074359 0.023277
0.539989 0.080451 0.027717
0.596194 0.084668 0.028354
0.648310 0.089866 0.030224
0.694916 0.095624 0.033834
0.740116 0.101364 0.036860
0.784637 0.107255 0.040282
0.826464 0.112903 0.043174
0.865600 0.118681 0.046236
0.904795 0.124409 0.048519
0.945360 0.130313 0.050165
0.971516 0.135974 0.051636
0.997136 0.139064 0.047618
1.000160 0.141345 0.040756
1.000000 0.145875 0.037751
1.000000 0.151227 0.038959
0.000977 0.086182 0.000008
0.001126 0.086180 0.000008
0.034833 0.086102 0.000110
0.099370 0.085122 0.002327
0.161809 0.085098 0.004111
0.232557 0.086372 0.005478
0.294972 0.091277 0.007102
0.357184 0.097504 0.010820
0.419623 0.104358 0.015939
0.478808 0.109877 0.018794
0.535302 0.115208 0.021792
0.589520 0.121327 0.026699
0.641676 0.126031 0.028822
0.692556 0.130706 0.030004
0.738242 0.135926 0.033726
0.783151 0.141079 0.037098
0.826165 0.146471 0.041014
0.867670 0.151502 0.043905
0.907400 0.156259 0.045169
0.947132 0.161126 0.045376
0.973600 0.166638 0.047148
0.997476 0.169004 0.041175
1.000148 0.171061 0.034233
1.000000 0.175429 0.031732
1.000000 0.180261 0.030508
-0.000059 0.138143 0.000000
0.000001 0.137840 0.000000
0.015346 0.137671 -0.000006
0.079179 0.135346 -0.000139
0.142964 0.133828 -0.000240
0.211475 0.135589 -0.000327
0.280574 0.132332 -0.000768
0.349577 0.135545 0.003698
0.408971 0.139756 0.005824
0.472095 0.146807 0.012335
0.528477 0.152295 0.015568
0.582528 0.158243 0.020432
0.633352 0.162903 0.022536
0.683906 0.167006 0.023328
0.730859 0.172687 0.028039
0.777267 0.178579 0.032766
0.823767 0.183464 0.035787
0.865510 0.188318 0.037989
0.904678 0.193163 0.038456
0.944545 0.198013 0.038282
0.971836 0.203058 0.039077
0.990461 0.207870 0.039652
0.999512 0.209266 0.029097
1.000013 0.211993 0.022743
1.000000 0.216138 0.022028
0.000000 0.190708 0.000000
0.000000 0.190708 0.000000
0.002888 0.190366 0.000000
0.057391 0.189081 0.000000
0.123214 0.185899 0.000000
0.192127 0.184503 0.000000
0.263199 0.186642 -0.000138
0.341395 0.185383 0.001729
0.400666 0.185649 0.002006
0.456888 0.183727 0.002373
0.516221 0.188919 0.005862
0.568559 0.194245 0.008815
0.623427 0.200446 0.015444
0.672346 0.204917 0.017344
0.722540 0.210235 0.021046
0.771292 0.215778 0.024841
0.818980 0.220962 0.027914
0.861686 0.226153 0.030897
0.902846 0.230986 0.031983
0.942276 0.235682 0.030982
0.969301 0.240386 0.031172
0.988805 0.244431 0.031050
0.999408 0.246985 0.019204
1.000015 0.250295 0.013783
1.000000 0.255202 0.015458
0.000000 0.242511 0.000000
-0.000002 0.242326 0.000000
0.001169 0.242712 0.000000
0.035857 0.242404 0.000000
0.103844 0.239831 0.000000
0.171222 0.236644 0.000000
0.239519 0.235524 0.000010
0.309325 0.237042 -0.000203
0.378562 0.239897 0.001447
0.441967 0.238128 0.000060
0.505196 0.238069 0.003853
0.563260 0.233137 0.004492
0.610807 0.236673 0.004182
0.660861 0.242360 0.007373
0.711836 0.247092 0.010269
0.765082 0.253078 0.016036
0.811980 0.257844 0.018334
0.860284 0.264012 0.024669
0.904648 0.269428 0.027649
0.943953 0.274084 0.026145
0.970555 0.278642 0.025955
0.992169 0.282863 0.026826
0.999696 0.286319 0.015109
1.000009 0.290371 0.009768
1.000000 0.295069 0.010662
0.000000 0.291565 0.000000
0.000000 0.291565 0.000000
0.000342 0.291567 0.000000
0.017095 0.291890 0.000000
0.082357 0.290583 0.000000
0.150077 0.287919 0.000000
0.216686 0.285102 0.000000
0.282481 0.283437 0.000003
0.356063 0.284647 -0.000065
0.424139 0.288531 0.000041
0.488239 0.290835 0.001025
0.550036 0.291099 0.003905
0.603210 0.289427 0.005676
0.647075 0.279291 0.000317
0.690565 0.282022 0.000862
0.745243 0.286667 0.001625
0.803334 0.293244 0.008335
0.853675 0.299420 0.015183
0.897239 0.304661 0.017615
0.944025 0.311077 0.021490
0.972785 0.316300 0.022775
0.996353 0.320825 0.022712
1.000057 0.325156 0.009192
1.000002 0.329678 0.007224
1.000000 0.333953 0.007287
0.000000 0.338838 0.000000
0.000000 0.338838 0.000000
-0.000103 0.338859 0.000000
0.006266 0.338489 0.000000
0.062137 0.337392 0.000000
0.132066 0.336303 0.000000
0.199747 0.334188 0.000000
0.265216 0.331419 0.000000
0.331210 0.330073 0.000000
0.401478 0.330791 -0.000002
0.462686 0.333283 0.000002
0.524238 0.336863 0.000209
0.589080 0.339497 0.000480
0.633336 0.336893 -0.000021
0.699206 0.325049 0.000207
0.743003 0.326303 -0.000328
0.790323 0.329078 0.000130
0.840445 0.332875 0.002272
0.888961 0.338994 0.007757
0.939450 0.345757 0.013786
0.970958 0.352030 0.017570
0.993975 0.357153 0.019326
0.999853 0.362337 0.015087
1.000006 0.366590 0.004525
1.000000 0.370728 0.004186
0.000000 0.385093 0.000000
0.000000 0.385189 0.000000
-0.000086 0.384182 0.000000
0.002812 0.383885 0.000000
0.040918 0.383968 0.000000
0.109503 0.382188 0.000000
0.180083 0.380216 0.000000
0.248690 0.377748 0.000000
0.316047 0.376598 0.000000
0.379877 0.375150 0.000000
0.439113 0.374660 0.000000
0.494823 0.376328 0.000000
0.551493 0.379722 0.000000
0.615967 0.384017 -0.000031
0.681826 0.385540 0.000086
0.738246 0.386721 0.007434
0.791971 0.372509 0.002542
0.833070 0.372018 0.000575
0.885800 0.375806 0.004107
0.938662 0.381826 0.010812
0.968722 0.387749 0.013071
0.991719 0.392969 0.015071
0.999687 0.399016 0.016885
1.000010 0.402349 0.002900
1.000000 0.406645 0.001858
0.000000 0.427781 0.000000
0.000000 0.427865 0.000000
-0.000034 0.427906 0.000000
0.000743 0.427534 0.000000
0.022740 0.428000 0.000000
0.085944 0.427321 0.000000
0.155935 0.426618 0.000000
