luts/FUJI_ETERNA_Bleach_Bypass.cube
TITLE "Generated for krafta web app"
LUT_3D_SIZE 9
#INPUTGAMMA sRGB
#IMAGEPROFILE sRGB
#OUTPUTGAMMA sRGB
0.000000 0.000000 0.000000
0.075036 0.020952 0.021681
0.133912 0.036730 0.038803
0.223961 0.061225 0.066020
0.328748 0.089589 0.098078
0.437544 0.121288 0.133379
0.515960 0.136693 0.152131
0.556022 0.147441 0.164090
0.600046 0.154756 0.173048
0.033580 0.076621 0.034291
0.113703 0.105003 0.064429
0.174560 0.120803 0.082977
0.261283 0.143592 0.109521
0.366294 0.170500 0.140032
0.472528 0.197690 0.171920
0.549889 0.213340 0.190111
0.592438 0.224218 0.202972
0.649850 0.231433 0.213254
0.063286 0.145073 0.064998
0.144114 0.173391 0.097594
0.210206 0.194775 0.121169
0.298009 0.218760 0.148448
0.402104 0.245868 0.178968
0.508935 0.273196 0.209599
0.588397 0.291401 0.231191
0.634787 0.302809 0.244831
0.695010 0.317792 0.261295
0.105294 0.237836 0.108880
0.182642 0.266202 0.138692
0.250690 0.289995 0.164631
0.344967 0.318597 0.198490
0.451935 0.347598 0.230184
0.557260 0.374016 0.259563
0.642588 0.394772 0.284300
0.705340 0.407427 0.302276
0.762504 0.428119 0.322228
0.156427 0.356189 0.161083
0.228717 0.382047 0.187352
0.296932 0.407531 0.214524
0.393145 0.436684 0.251142
0.509527 0.473033 0.291405
0.618377 0.501248 0.324905
0.705380 0.521811 0.351208
0.769458 0.531876 0.368111
0.813598 0.541122 0.380991
0.205596 0.478036 0.210743
0.271024 0.499432 0.234688
0.329020 0.520064 0.256359
0.421297 0.549164 0.294623
0.537843 0.583189 0.336641
0.667608 0.624846 0.382231
0.760485 0.654839 0.413890
0.818380 0.668693 0.430395
0.861483 0.682790 0.447771
0.230377 0.560525 0.239977
0.271976 0.576238 0.258610
0.291807 0.575659 0.262118
0.352470 0.594040 0.286150
0.501186 0.654551 0.352371
0.676284 0.725424 0.429096
0.806915 0.775981 0.478704
0.860722 0.790974 0.496079
0.903129 0.797918 0.507558
0.240211 0.611901 0.256830
0.252250 0.609999 0.260049
0.273011 0.613603 0.266855
0.344762 0.644776 0.302182
0.541537 0.735664 0.389864
0.789749 0.843411 0.491828
0.891680 0.870811 0.524813
0.920100 0.872329 0.533865
0.946544 0.876849 0.539902
0.227964 0.645503 0.258421
0.239121 0.645365 0.262617
0.273724 0.659077 0.279168
0.362893 0.699158 0.323129
0.670999 0.843112 0.457708
0.884913 0.923841 0.537877
0.933877 0.928680 0.553408
0.964440 0.932365 0.561800
0.984656 0.935214 0.568246
0.034020 0.030101 0.068315
0.106918 0.049539 0.089442
0.166209 0.064079 0.104942
0.254825 0.089302 0.131379
0.360265 0.119275 0.163206
0.466441 0.143687 0.190382
0.538868 0.161527 0.208487
0.575383 0.173113 0.218661
0.617240 0.180456 0.225723
0.069513 0.110998 0.110246
0.114631 0.111992 0.112388
0.159086 0.118488 0.117017
0.248021 0.146498 0.143879
0.358308 0.180369 0.179210
0.466195 0.207481 0.209582
0.557640 0.230782 0.234659
0.618247 0.253820 0.255959
0.675746 0.274002 0.273220
0.097678 0.176216 0.139606
0.141694 0.176965 0.139114
0.184617 0.182329 0.146260
0.260341 0.201099 0.166619
0.369899 0.234627 0.201726
0.500527 0.279983 0.246230
0.606429 0.311554 0.278170
0.667969 0.333562 0.298318
0.726578 0.352532 0.314304
0.138517 0.268580 0.182153
0.184325 0.268426 0.183432
0.231113 0.275682 0.193663
0.315142 0.299271 0.219027
0.434851 0.340761 0.259450
0.562951 0.385685 0.303914
0.662906 0.413044 0.332850
0.724014 0.431854 0.351480
0.768505 0.445023 0.367247
0.188613 0.386125 0.232096
0.233746 0.385555 0.234158
0.286992 0.399031 0.248737
0.383828 0.429544 0.283921
0.508595 0.472033 0.329556
0.622462 0.504158 0.366914
0.711420 0.526288 0.395102
0.774517 0.542036 0.410717
0.820425 0.559438 0.428469
0.238362 0.506477 0.279739
0.280594 0.507522 0.282643
0.325760 0.518478 0.299548
0.398954 0.539766 0.323810
0.530700 0.583644 0.374005
0.672989 0.630790 0.427577
0.763902 0.659292 0.457735
0.827227 0.686105 0.479692
0.867921 0.694510 0.493342
0.267674 0.590047 0.303656
0.293736 0.593068 0.306910
0.321158 0.599350 0.316944
0.389468 0.622746 0.346837
0.537392 0.685729 0.418077
0.738230 0.767523 0.498709
0.822564 0.789498 0.525198
0.867220 0.797525 0.537466
0.908422 0.802524 0.546072
0.273430 0.636968 0.311956
0.297305 0.644751 0.322743
0.326614 0.653620 0.334833
0.409165 0.692305 0.377440
0.669111 0.810544 0.486695
0.842011 0.871697 0.549211
0.894116 0.876550 0.566160
0.922816 0.879206 0.573903
0.945737 0.881390 0.582493
0.268081 0.675651 0.316665
0.297554 0.687260 0.332087
0.337321 0.704296 0.351776
0.539446 0.797288 0.438475
0.773607 0.897718 0.536674
0.885970 0.928865 0.580133
0.930865 0.933485 0.592836
0.962230 0.937559 0.601496
0.985782 0.941899 0.608837
0.059712 0.052751 0.121427
0.130938 0.070605 0.140786
0.191157 0.086572 0.157652
0.280090 0.111485 0.185065
0.388471 0.139759 0.216634
0.484668 0.161294 0.238318
0.555688 0.177838 0.254676
0.592969 0.189828 0.264151
0.631516 0.205023 0.276460
0.093518 0.132114 0.158380
0.133576 0.128828 0.155980
0.178051 0.132591 0.157625
0.271352 0.162680 0.187623
0.387500 0.202344 0.229227
0.494638 0.234380 0.262612
0.583430 0.261209 0.288530
0.638975 0.281690 0.306434
0.697005 0.301367 0.321751
0.122617 0.198347 0.193214
0.168308 0.204933 0.194089
0.209676 0.207915 0.205036
0.266347 0.212399 0.206130
0.381216 0.253377 0.244400
0.512886 0.299653 0.290440
0.625679 0.338758 0.326280
0.691337 0.362670 0.347301
0.739901 0.372689 0.357785
0.164671 0.292156 0.238881
0.210599 0.295133 0.239147
0.244792 0.294569 0.238199
0.309620 0.305014 0.252592
0.439350 0.354020 0.299097
0.574903 0.404832 0.347447
0.672095 0.432208 0.375853
0.729491 0.446945 0.392406
0.774478 0.459404 0.406383
0.215517 0.411904 0.291148
0.259147 0.411281 0.290769
0.298932 0.410289 0.294651
0.388599 0.437570 0.323691
0.510716 0.480065 0.366369
0.626566 0.513895 0.406141
0.716576 0.539446 0.435793
0.779502 0.553716 0.450371
0.823121 0.566693 0.464604
0.266570 0.532559 0.337831
0.312627 0.531100 0.339116
0.353229 0.542120 0.352117
0.419329 0.558562 0.372696
0.544376 0.602063 0.426827
0.683680 0.648046 0.473501
0.771576 0.678153 0.503269
0.832931 0.698419 0.520638
0.872720 0.700372 0.529026
0.302369 0.617354 0.357952
0.332302 0.621779 0.362610
0.364031 0.629730 0.374723
0.438209 0.656197 0.409821
0.592648 0.723796 0.483606
0.760617 0.782939 0.540722
0.827607 0.795459 0.561494
0.869190 0.800701 0.571107
0.913022 0.807154 0.577601
0.312695 0.666385 0.366911
0.341886 0.678666 0.382565
0.378699 0.692631 0.399609
0.486380 0.742261 0.450922
0.728779 0.845344 0.546915
0.843753 0.874805 0.586515
0.889732 0.879667 0.597368
0.919147 0.881195 0.610446
0.946115 0.885661 0.615254
0.306366 0.704672 0.370327
0.340749 0.718992 0.388585
0.400397 0.745766 0.417959
0.609820 0.841033 0.507924
0.809151 0.920009 0.587900
0.880641 0.931290 0.613543
0.928241 0.937480 0.625964
0.962833 0.943090 0.635234
0.986497 0.946873 0.642877
0.105634 0.092993 0.214227
0.175664 0.111022 0.234216
0.236785 0.126340 0.252534
0.327971 0.152640 0.281778
0.424353 0.171611 0.302941
0.514048 0.195876 0.323623
0.580753 0.221623 0.343550
0.621201 0.236821 0.356227
0.658445 0.252142 0.368381
0.130582 0.167493 0.243166
0.172815 0.162655 0.238749
0.229939 0.176730 0.252527
0.316853 0.199775 0.278279
0.435502 0.242084 0.323346
0.538000 0.277169 0.354959
0.611014 0.302520 0.378250
0.661285 0.320372 0.393007
0.719162 0.337833 0.407843
0.165706 0.237465 0.279328
0.211526 0.248748 0.286661
0.242314 0.238653 0.281732
0.334945 0.275502 0.313536
0.454567 0.317684 0.354690
0.566962 0.354821 0.390695
0.656679 0.380997 0.414459
0.706242 0.394367 0.427391
0.753100 0.402078 0.436907
0.208812 0.332741 0.332060
0.254844 0.339802 0.331855
0.292599 0.343562 0.336504
0.348420 0.344751 0.347633
0.457639 0.381311 0.380501
0.583960 0.428766 0.421831
0.678882 0.456573 0.448041
0.741895 0.473733 0.465721
0.787082 0.483718 0.477089
0.261858 0.450070 0.386610
0.306177 0.453162 0.387399
0.346885 0.457153 0.394335
0.401851 0.460349 0.402165
0.515679 0.500589 0.437109
0.633572 0.538030 0.477199
0.725058 0.563715 0.507851
0.790141 0.579012 0.522748
0.830097 0.590501 0.534898
0.319216 0.578632 0.436645
0.367176 0.580070 0.439542
0.415532 0.595103 0.456315
0.467895 0.600386 0.468146
0.576406 0.637063 0.512176
0.688883 0.668195 0.544857
0.778941 0.697940 0.575643
0.837671 0.702697 0.585133
0.879680 0.708349 0.593374
0.366891 0.668242 0.455874
0.407821 0.679476 0.469045
0.446880 0.691580 0.485903
0.533490 0.724875 0.528585
0.686348 0.778425 0.583820
0.774199 0.794961 0.609875
0.825384 0.800228 0.628867
0.871768 0.808120 0.637685
0.916569 0.815614 0.645516
0.383796 0.721380 0.467513
0.412776 0.732050 0.482270
0.468364 0.757906 0.511149
0.652963 0.837493 0.585726
0.774868 0.874237 0.629848
0.837822 0.881596 0.650126
0.886246 0.886000 0.664324
0.919451 0.889818 0.673634
0.948278 0.893715 0.682498
0.382376 0.760178 0.471816
0.447826 0.790481 0.505377
0.578709 0.851533 0.564691
0.734656 0.914721 0.629388
0.812307 0.931081 0.660678
0.876461 0.940039 0.679039
0.928451 0.948056 0.692417
0.964058 0.953323 0.703326
0.989387 0.957641 0.710905
0.156817 0.137250 0.319515
0.227738 0.156764 0.342363
0.289701 0.173520 0.361491
0.368153 0.188172 0.379177
0.453216 0.211951 0.397847
0.539809 0.246981 0.423710
0.606396 0.275152 0.446495
0.647716 0.292355 0.460715
0.681651 0.306949 0.472615
0.166858 0.196999 0.335184
0.224727 0.206914 0.345606
0.292998 0.230073 0.369629
0.379806 0.259169 0.397710
0.475388 0.293534 0.427518
0.570230 0.326925 0.456761
0.637214 0.349586 0.477285
0.679401 0.366079 0.491412
0.729231 0.380061 0.506437
0.214478 0.287782 0.382658
0.245716 0.277272 0.373870
0.319082 0.313386 0.405626
0.411920 0.346112 0.437209
0.511445 0.375995 0.464983
0.604755 0.398107 0.488246
0.670870 0.416125 0.506599
0.719188 0.433732 0.524108
0.764183 0.439903 0.534555
0.259083 0.377513 0.428225
0.308649 0.395498 0.441633
0.347424 0.398929 0.448692
0.427208 0.420824 0.471042
0.538658 0.454761 0.500698
0.635788 0.479094 0.523047
0.699164 0.493664 0.541256
0.757623 0.509972 0.559185
0.803351 0.517928 0.570033
0.317618 0.504832 0.500389
0.359934 0.504175 0.501477
0.397986 0.506018 0.506059
0.452955 0.511249 0.511595
0.526911 0.524522 0.523758
0.643399 0.565553 0.558663
0.742426 0.597091 0.592605
0.799847 0.609678 0.606904
0.838581 0.617420 0.614378
0.385407 0.631435 0.549396
0.430302 0.639984 0.558536
0.473830 0.646247 0.568392
0.534649 0.658134 0.586216
0.602706 0.669005 0.601735
0.695745 0.687677 0.621722
0.783402 0.705877 0.647813
0.840242 0.717228 0.661466
0.886625 0.728850 0.672219
0.439924 0.728741 0.573048
0.477486 0.728737 0.578307
0.532044 0.753233 0.605843
0.629858 0.781787 0.638947
0.710150 0.795507 0.662766
0.776689 0.802451 0.685405
0.826868 0.809778 0.700603
0.876460 0.818299 0.710974
0.926144 0.826597 0.720131
0.470583 0.785464 0.584170
0.506364 0.800572 0.603855
0.615957 0.847580 0.650148
0.707196 0.874427 0.684965
0.769394 0.883062 0.706810
0.834709 0.889002 0.724562
0.885108 0.894837 0.738498
0.919595 0.899046 0.748825
0.956146 0.905113 0.757751
0.502899 0.844536 0.608977
0.603436 0.889338 0.656212
0.686074 0.920354 0.691469
0.744425 0.931675 0.716442
0.807523 0.941451 0.737014
0.876031 0.951461 0.755561
0.929296 0.959485 0.770607
0.966320 0.965647 0.781191
0.992457 0.969523 0.789012
0.210455 0.182817 0.427676
0.275022 0.197725 0.446201
0.328233 0.208548 0.457945
0.395340 0.228166 0.472391
0.476691 0.264007 0.496982
0.566180 0.305184 0.529051
0.634314 0.335997 0.554138
0.680215 0.354593 0.569651
0.717199 0.367223 0.580960
0.219781 0.242353 0.439089
0.287384 0.266427 0.464969
0.340648 0.282736 0.480670
0.414787 0.309759 0.501880
0.505176 0.343363 0.530137
0.596080 0.378154 0.561491
0.667163 0.402489 0.585996
0.712416 0.415739 0.598044
0.749567 0.424639 0.607247
0.260790 0.336197 0.491354
0.330896 0.366747 0.518648
0.387321 0.383144 0.533908
0.461187 0.402978 0.551893
0.550125 0.426190 0.573429
0.627757 0.445493 0.592270
0.694490 0.459779 0.611506
0.741139 0.469413 0.621920
0.779946 0.478634 0.632187
0.319534 0.447282 0.554999
0.364381 0.452057 0.554518
0.412535 0.463747 0.564945
0.496551 0.485538 0.587585
0.587919 0.501913 0.604859
0.659219 0.518751 0.623251
0.722880 0.534191 0.639784
0.772901 0.547243 0.652952
0.818431 0.556219 0.666391
0.372240 0.557552 0.615510
0.412993 0.558800 0.612649
0.456724 0.561946 0.606653
0.517900 0.569200 0.615843
0.610982 0.588958 0.635080
0.683071 0.609943 0.658203
0.753308 0.629762 0.679095
0.814231 0.644837 0.696229
0.860291 0.654265 0.708715
0.445206 0.684045 0.660178
0.483889 0.686670 0.663402
0.520498 0.686430 0.666476
0.577200 0.689779 0.670165
0.639765 0.695002 0.680849
0.702522 0.703600 0.697258
0.792793 0.730390 0.726973
0.847764 0.744650 0.739410
0.896645 0.756447 0.753822
0.504515 0.778836 0.680373
0.545850 0.779668 0.685679
0.589977 0.788614 0.698353
0.645460 0.796464 0.716324
0.710764 0.803640 0.736619
0.777601 0.811854 0.755741
0.828418 0.819643 0.771339
0.883803 0.829450 0.783380
0.936087 0.839630 0.796952
0.543374 0.843020 0.698833
0.610884 0.867658 0.727620
0.649971 0.875909 0.743880
0.702077 0.884170 0.763261
0.766417 0.889816 0.780463
0.834256 0.898541 0.798307
0.885397 0.904459 0.812497
0.918427 0.907020 0.824368
0.961797 0.915014 0.834745
0.606793 0.915382 0.739568
0.654307 0.928114 0.761486
0.688575 0.934779 0.776426
0.740220 0.942793 0.794635
0.806303 0.952929 0.813238
0.877346 0.963506 0.833076
0.930906 0.971690 0.848136
0.967137 0.976775 0.857630
0.994805 0.980436 0.864826
0.248909 0.216212 0.510000
0.303622 0.227247 0.522974
0.349771 0.240965 0.534315
0.414959 0.272546 0.553938
0.504845 0.319260 0.589913
0.602123 0.370288 0.634199
0.674682 0.397340 0.658650
0.725871 0.415319 0.675991
0.757807 0.421696 0.681411
0.264411 0.289325 0.538324
0.320414 0.309283 0.555594
0.374494 0.332236 0.574601
0.452689 0.366705 0.604032
0.546232 0.408566 0.641294
0.637582 0.441881 0.672880
0.707136 0.457146 0.688682
0.753770 0.465661 0.698193
0.786750 0.472111 0.704482
0.324730 0.404180 0.601561
0.379639 0.422706 0.624943
0.432318 0.438659 0.639685
0.503461 0.457976 0.658213
0.578499 0.475671 0.676196
0.664405 0.494535 0.695765
0.732659 0.507216 0.708944
0.779151 0.515406 0.718907
0.812093 0.521154 0.725513
0.371753 0.501746 0.653340
0.419008 0.509152 0.659445
0.461331 0.518278 0.669356
0.530925 0.531843 0.685629
0.608553 0.549031 0.707713
0.696171 0.567103 0.726087
0.763991 0.579895 0.738838
0.810551 0.588311 0.748035
0.844625 0.594379 0.755210
0.417840 0.610154 0.713055
0.464797 0.616083 0.712642
0.504626 0.616450 0.713076
0.558219 0.620605 0.719217
0.636402 0.638096 0.738153
0.726009 0.657809 0.757350
0.793856 0.672050 0.771620
0.843096 0.680927 0.783524
0.880962 0.688498 0.792809
0.470165 0.724543 0.768724
0.511134 0.724200 0.767739
0.546069 0.723666 0.770378
0.604415 0.730354 0.772484
0.673203 0.735601 0.775498
0.749519 0.748992 0.787817
0.816960 0.765461 0.803253
0.866470 0.777074 0.816934
0.916765 0.788445 0.833503
0.536907 0.815260 0.779458
0.571749 0.817549 0.788507
0.602633 0.818114 0.795465
0.653939 0.817179 0.801197
0.717548 0.821981 0.810605
0.783269 0.825257 0.819450
0.833321 0.831338 0.831686
0.890439 0.848644 0.847686
0.943133 0.862136 0.864860
0.581115 0.877551 0.790281
0.615044 0.882057 0.802125
0.647221 0.886176 0.811638
0.698805 0.891396 0.825427
0.765058 0.897344 0.840610
0.834142 0.905396 0.858755
0.884614 0.909694 0.872127
0.918984 0.914434 0.881587
0.968300 0.923499 0.895506
0.617014 0.933254 0.816250
0.653264 0.938941 0.830584
0.685822 0.944925 0.842370
0.738600 0.952037 0.857635
0.806685 0.961702 0.876122
0.878415 0.973083 0.896411
0.931079 0.980248 0.910034
0.967086 0.984935 0.919071
0.995891 0.988634 0.927195
0.262657 0.229733 0.550014
0.314351 0.243425 0.563760
0.358659 0.262852 0.576789
0.431842 0.304000 0.607638
0.530774 0.362598 0.656490
0.632550 0.412521 0.701514
0.706942 0.436931 0.724615
0.750437 0.445674 0.734220
0.783163 0.452680 0.740723
0.288313 0.316812 0.588589
0.346896 0.342742 0.611224
0.401959 0.368718 0.633830
0.482539 0.407948 0.669451
0.571527 0.446447 0.706874
0.666177 0.473978 0.734416
0.733819 0.487382 0.747851
0.778830 0.496770 0.757757
0.811802 0.503839 0.764648
0.354547 0.437957 0.665278
0.409019 0.455257 0.681567
0.456465 0.468978 0.695288
0.518941 0.485769 0.712937
0.598777 0.506763 0.736602
0.691595 0.524530 0.756071
0.758621 0.537074 0.770660
0.804461 0.545635 0.780121
0.837738 0.551735 0.786568
0.397624 0.535492 0.718036
0.442680 0.541299 0.723518
0.489278 0.549435 0.732574
0.550003 0.561860 0.747187
0.630609 0.579942 0.767763
0.723410 0.597426 0.787361
0.792033 0.609884 0.801771
0.838192 0.618229 0.811499
0.872154 0.624775 0.818119
0.445495 0.643640 0.774947
0.488187 0.645505 0.776751
0.525887 0.646595 0.777980
0.578517 0.651626 0.782281
0.663202 0.671498 0.804182
0.756264 0.689032 0.823330
0.824965 0.701976 0.838163
0.872347 0.711027 0.848255
0.909574 0.717969 0.856191
0.495018 0.751560 0.827052
0.530029 0.753248 0.831315
0.564041 0.755602 0.835568
0.620224 0.760471 0.839733
0.694276 0.765070 0.838746
0.781137 0.781368 0.855717
0.849862 0.795708 0.871427
0.897877 0.805442 0.881893
0.937682 0.813093 0.890831
0.543212 0.835938 0.852106
0.575560 0.837811 0.862739
0.608030 0.839394 0.869918
0.659271 0.841846 0.878917
0.729183 0.846437 0.883853
0.803355 0.853112 0.886030
0.864099 0.862670 0.892135
0.910723 0.873603 0.903271
0.955973 0.883483 0.916221
0.587417 0.901440 0.866061
0.623314 0.904815 0.875497
0.655325 0.906794 0.882686
0.705910 0.909579 0.892664
0.770435 0.913286 0.902022
0.837695 0.915958 0.909657
0.887397 0.917732 0.915069
0.922817 0.922238 0.920405
0.973305 0.936183 0.937427
0.620567 0.948948 0.876569
0.656290 0.953376 0.887252
0.687928 0.955959 0.894048
0.740112 0.961507 0.904557
0.807927 0.969211 0.918883
0.878877 0.979088 0.936186
0.931065 0.985573 0.949065
0.967169 0.989955 0.958155
0.998003 0.994696 0.966160
0.273807 0.243951 0.584772
0.321720 0.262204 0.599651
0.375217 0.292347 0.622807
0.454960 0.340160 0.660614
0.555032 0.398591 0.709901
0.659861 0.445871 0.751999
0.724694 0.459468 0.766591
0.769817 0.468230 0.776526
0.803285 0.475111 0.784384
0.312101 0.345725 0.637592
0.371967 0.376041 0.665115
0.429722 0.404305 0.691054
0.506518 0.441213 0.724863
0.592953 0.471270 0.752524
0.684913 0.496547 0.776111
0.752055 0.509727 0.789750
0.798532 0.519298 0.800785
0.832871 0.526412 0.809017
0.379400 0.465348 0.712273
0.427813 0.479466 0.727880
0.469677 0.490719 0.740003
0.535581 0.508728 0.759154
0.621936 0.529474 0.780631
0.709798 0.546250 0.798973
0.777178 0.558622 0.812565
0.823471 0.567522 0.823062
0.858078 0.574154 0.831244
0.421534 0.557763 0.760468
0.465202 0.564051 0.768058
0.504167 0.572715 0.778151
0.564871 0.586080 0.793658
0.653809 0.602753 0.813112
0.743876 0.619020 0.830955
0.811205 0.631646 0.845810
0.857514 0.640706 0.856081
0.893597 0.647787 0.864173
0.466807 0.664348 0.815550
0.500406 0.665289 0.818118
0.534211 0.666741 0.820144
0.597757 0.676128 0.828571
0.686236 0.694061 0.849684
0.778315 0.711472 0.870569
0.846661 0.724648 0.885197
0.894412 0.734196 0.895646
0.932418 0.741935 0.904211
0.503113 0.770321 0.873623
0.543024 0.773075 0.876662
0.580251 0.775669 0.878868
0.640082 0.781151 0.882855
0.715433 0.788256 0.887432
0.804180 0.805138 0.906305
0.874050 0.819499 0.922212
0.922926 0.829571 0.933369
0.962822 0.837778 0.942235
0.544895 0.852893 0.910994
0.582570 0.854851 0.916357
0.618780 0.857773 0.920098
0.676272 0.861763 0.925387
0.748745 0.868485 0.930283
0.823562 0.876234 0.935415
0.889249 0.888087 0.947136
0.937681 0.898269 0.958001
0.978507 0.906882 0.967167
0.593476 0.918388 0.921239
0.630344 0.922041 0.929583
0.662360 0.923570 0.936851
0.713790 0.926153 0.946821
0.778468 0.929614 0.957616
0.849401 0.935510 0.966431
0.904690 0.940791 0.969299
0.947630 0.947623 0.974595
0.989467 0.956885 0.984577
0.627949 0.965649 0.930001
0.663590 0.969077 0.940046
0.695319 0.971912 0.946841
0.747761 0.976159 0.956290
0.814240 0.982505 0.967410
0.882560 0.988349 0.978421
0.933267 0.993161 0.987846
0.968607 0.996465 0.994139
0.999992 0.999990 0.999989
