luts/FUJI_MONO_Red_Filter.cube
#Generated for krafta web app
#Black and White LUTs
TITLE "Fuji XTrans III - Mono+R"
#LUT size
LUT_3D_SIZE 9
#LUT data points
0.000000 0.000000 0.000000
0.019608 0.019608 0.019608
0.113725 0.113725 0.113725
0.258824 0.258824 0.254902
0.341176 0.341176 0.341176
0.545098 0.545098 0.545098
0.584314 0.584314 0.584314
0.647059 0.647059 0.647059
0.647059 0.647059 0.647059
0.007843 0.007843 0.007843
0.031373 0.031373 0.031373
0.133333 0.133333 0.133333
0.278431 0.278431 0.278431
0.415686 0.415686 0.415686
0.545098 0.545098 0.545098
0.631373 0.631373 0.631373
0.639216 0.639216 0.639216
0.705882 0.705882 0.705882
0.047059 0.047059 0.047059
0.086275 0.086275 0.086275
0.164706 0.164706 0.164706
0.317647 0.317647 0.317647
0.443137 0.443137 0.443137
0.568627 0.568627 0.568627
0.666667 0.666667 0.666667
0.709804 0.709804 0.709804
0.709804 0.709804 0.709804
0.094118 0.094118 0.094118
0.188235 0.188235 0.188235
0.254902 0.254902 0.254902
0.380392 0.380392 0.380392
0.486275 0.486275 0.486275
0.588235 0.588235 0.588235
0.674510 0.674510 0.674510
0.709804 0.709804 0.709804
0.709804 0.709804 0.709804
0.239216 0.239216 0.239216
0.239216 0.239216 0.239216
0.325490 0.325490 0.325490
0.435294 0.435294 0.435294
0.537255 0.537255 0.537255
0.627451 0.627451 0.627451
0.701961 0.701961 0.701961
0.701961 0.701961 0.701961
0.749020 0.749020 0.749020
0.152941 0.152941 0.152941
0.239216 0.239216 0.239216
0.337255 0.337255 0.337255
0.466667 0.466667 0.466667
0.615686 0.615686 0.615686
0.654902 0.654902 0.654902
0.745098 0.745098 0.745098
0.768627 0.768627 0.768627
0.772549 0.772549 0.772549
0.301961 0.301961 0.301961
0.239216 0.239216 0.239216
0.337255 0.337255 0.337255
0.517647 0.517647 0.517647
0.596078 0.596078 0.596078
0.623529 0.623529 0.623529
0.745098 0.745098 0.745098
0.768627 0.768627 0.768627
0.835294 0.835294 0.835294
0.364706 0.364706 0.364706
0.313725 0.313725 0.313725
0.470588 0.470588 0.470588
0.556863 0.556863 0.556863
0.662745 0.662745 0.662745
0.690196 0.690196 0.690196
0.745098 0.745098 0.745098
0.835294 0.835294 0.835294
0.835294 0.835294 0.835294
0.364706 0.364706 0.364706
0.313725 0.313725 0.313725
0.470588 0.470588 0.470588
0.560784 0.560784 0.560784
0.662745 0.662745 0.662745
0.690196 0.690196 0.690196
0.784314 0.784314 0.784314
0.815686 0.815686 0.815686
0.843137 0.843137 0.843137
0.003922 0.003922 0.003922
0.003922 0.003922 0.003922
0.121569 0.121569 0.121569
0.184314 0.184314 0.184314
0.419608 0.419608 0.419608
0.607843 0.607843 0.607843
0.650980 0.650980 0.650980
0.650980 0.650980 0.650980
0.741176 0.741176 0.741176
0.011765 0.011765 0.011765
0.043137 0.043137 0.043137
0.129412 0.129412 0.129412
0.278431 0.278431 0.278431
0.419608 0.419608 0.419608
0.552941 0.552941 0.552941
0.647059 0.647059 0.647059
0.705882 0.705882 0.705882
0.745098 0.745098 0.745098
0.047059 0.047059 0.047059
0.098039 0.098039 0.098039
0.188235 0.188235 0.188235
0.317647 0.317647 0.317647
0.450980 0.450980 0.450980
0.564706 0.564706 0.564706
0.662745 0.662745 0.662745
0.709804 0.709804 0.709804
0.764706 0.764706 0.764706
0.145098 0.145098 0.145098
0.192157 0.192157 0.192157
0.266667 0.266667 0.266667
0.372549 0.372549 0.372549
0.486275 0.486275 0.486275
0.596078 0.596078 0.596078
0.682353 0.682353 0.682353
0.725490 0.725490 0.725490
0.780392 0.780392 0.780392
0.231373 0.231373 0.231373
0.298039 0.298039 0.298039
0.337255 0.337255 0.337255
0.435294 0.435294 0.435294
0.537255 0.537255 0.537255
0.631373 0.631373 0.631373
0.705882 0.705882 0.705882
0.749020 0.749020 0.749020
0.796078 0.796078 0.796078
0.301961 0.301961 0.301961
0.364706 0.364706 0.364706
0.380392 0.380392 0.380392
0.470588 0.470588 0.470588
0.596078 0.596078 0.596078
0.670588 0.670588 0.670588
0.737255 0.737255 0.737255
0.803922 0.803922 0.803922
0.862745 0.862745 0.862745
0.364706 0.364706 0.364706
0.368627 0.368627 0.368627
0.466667 0.466667 0.466667
0.552941 0.552941 0.552941
0.662745 0.662745 0.662745
0.686275 0.686275 0.686275
0.760784 0.760784 0.760784
0.835294 0.835294 0.835294
0.835294 0.835294 0.835294
0.384314 0.384314 0.384314
0.368627 0.368627 0.368627
0.470588 0.470588 0.470588
0.560784 0.560784 0.560784
0.662745 0.662745 0.662745
0.690196 0.690196 0.690196
0.784314 0.784314 0.784314
0.819608 0.819608 0.819608
0.839216 0.839216 0.839216
0.388235 0.388235 0.388235
0.368627 0.368627 0.368627
0.529412 0.529412 0.529412
0.568627 0.568627 0.568627
0.662745 0.662745 0.662745
0.690196 0.690196 0.690196
0.784314 0.784314 0.784314
0.843137 0.843137 0.843137
0.874510 0.874510 0.874510
0.000000 0.000000 0.000000
0.043137 0.043137 0.043137
0.235294 0.235294 0.235294
0.278431 0.278431 0.278431
0.427451 0.427451 0.427451
0.584314 0.584314 0.584314
0.658824 0.658824 0.658824
0.701961 0.701961 0.701961
0.768627 0.768627 0.768627
0.019608 0.019608 0.019608
0.066667 0.066667 0.066667
0.152941 0.152941 0.152941
0.294118 0.294118 0.294118
0.439216 0.439216 0.439216
0.564706 0.564706 0.564706
0.662745 0.662745 0.662745
0.709804 0.709804 0.709804
0.752941 0.752941 0.752941
0.066667 0.066667 0.066667
0.113725 0.113725 0.113725
0.207843 0.207843 0.207843
0.329412 0.329412 0.329412
0.454902 0.454902 0.454902
0.576471 0.576471 0.576471
0.682353 0.682353 0.682353
0.764706 0.764706 0.764706
0.800000 0.800000 0.800000
0.168627 0.168627 0.168627
0.203922 0.203922 0.203922
0.274510 0.274510 0.274510
0.384314 0.384314 0.384314
0.494118 0.494118 0.494118
0.603922 0.603922 0.603922
0.701961 0.701961 0.701961
0.772549 0.772549 0.772549
0.815686 0.815686 0.815686
0.298039 0.298039 0.298039
0.305882 0.305882 0.305882
0.360784 0.360784 0.360784
0.450980 0.450980 0.450980
0.545098 0.545098 0.545098
0.643137 0.643137 0.643137
0.725490 0.725490 0.725490
0.796078 0.796078 0.796078
0.835294 0.835294 0.835294
0.337255 0.337255 0.337255
0.352941 0.352941 0.352941
0.431373 0.431373 0.431373
0.505882 0.505882 0.505882
0.592157 0.592157 0.592157
0.678431 0.678431 0.678431
0.749020 0.749020 0.749020
0.819608 0.819608 0.819608
0.866667 0.866667 0.866667
0.337255 0.337255 0.337255
0.478431 0.478431 0.478431
0.470588 0.470588 0.470588
0.568627 0.568627 0.568627
0.643137 0.643137 0.643137
0.690196 0.690196 0.690196
0.784314 0.784314 0.784314
0.843137 0.843137 0.843137
0.882353 0.882353 0.882353
0.388235 0.388235 0.388235
0.403922 0.403922 0.403922
0.525490 0.525490 0.525490
0.572549 0.572549 0.572549
0.643137 0.643137 0.643137
0.690196 0.690196 0.690196
0.792157 0.792157 0.792157
0.874510 0.874510 0.874510
0.878431 0.878431 0.878431
0.388235 0.388235 0.388235
0.403922 0.403922 0.403922
0.529412 0.529412 0.529412
0.572549 0.572549 0.572549
0.643137 0.643137 0.643137
0.737255 0.737255 0.737255
0.811765 0.811765 0.811765
0.874510 0.874510 0.874510
0.874510 0.874510 0.874510
0.000000 0.000000 0.000000
0.074510 0.074510 0.074510
0.172549 0.172549 0.172549
0.294118 0.294118 0.294118
0.439216 0.439216 0.439216
0.572549 0.572549 0.572549
0.678431 0.678431 0.678431
0.768627 0.768627 0.768627
0.768627 0.768627 0.768627
0.019608 0.019608 0.019608
0.090196 0.090196 0.090196
0.176471 0.176471 0.176471
0.313725 0.313725 0.313725
0.454902 0.454902 0.454902
0.576471 0.576471 0.576471
0.682353 0.682353 0.682353
0.760784 0.760784 0.760784
0.807843 0.807843 0.807843
0.082353 0.082353 0.082353
0.137255 0.137255 0.137255
0.227451 0.227451 0.227451
0.352941 0.352941 0.352941
0.470588 0.470588 0.470588
0.588235 0.588235 0.588235
0.690196 0.690196 0.690196
0.768627 0.768627 0.768627
0.811765 0.811765 0.811765
0.188235 0.188235 0.188235
0.231373 0.231373 0.231373
0.301961 0.301961 0.301961
0.403922 0.403922 0.403922
0.509804 0.509804 0.509804
0.615686 0.615686 0.615686
0.713725 0.713725 0.713725
0.784314 0.784314 0.784314
0.827451 0.827451 0.827451
0.301961 0.301961 0.301961
0.325490 0.325490 0.325490
0.376471 0.376471 0.376471
0.470588 0.470588 0.470588
0.556863 0.556863 0.556863
0.654902 0.654902 0.654902
0.737255 0.737255 0.737255
0.811765 0.811765 0.811765
0.843137 0.843137 0.843137
0.349020 0.349020 0.349020
0.407843 0.407843 0.407843
0.454902 0.454902 0.454902
0.525490 0.525490 0.525490
0.607843 0.607843 0.607843
0.690196 0.690196 0.690196
0.764706 0.764706 0.764706
0.831373 0.831373 0.831373
0.866667 0.866667 0.866667
0.396078 0.396078 0.396078
0.490196 0.490196 0.490196
0.509804 0.509804 0.509804
0.568627 0.568627 0.568627
0.650980 0.650980 0.650980
0.725490 0.725490 0.725490
0.796078 0.796078 0.796078
0.854902 0.854902 0.854902
0.890196 0.890196 0.890196
0.490196 0.490196 0.490196
0.490196 0.490196 0.490196
0.584314 0.584314 0.584314
0.588235 0.588235 0.588235
0.666667 0.666667 0.666667
0.745098 0.745098 0.745098
0.815686 0.815686 0.815686
0.874510 0.874510 0.874510
0.905882 0.905882 0.905882
0.490196 0.490196 0.490196
0.490196 0.490196 0.490196
0.576471 0.576471 0.576471
0.588235 0.588235 0.588235
0.666667 0.666667 0.666667
0.745098 0.745098 0.745098
0.819608 0.819608 0.819608
0.898039 0.898039 0.898039
0.933333 0.933333 0.933333
0.062745 0.062745 0.062745
0.113725 0.113725 0.113725
0.196078 0.196078 0.196078
0.313725 0.313725 0.313725
0.454902 0.454902 0.454902
0.580392 0.580392 0.580392
0.686275 0.686275 0.686275
0.764706 0.764706 0.764706
0.819608 0.819608 0.819608
0.031373 0.031373 0.031373
0.109804 0.109804 0.109804
0.196078 0.196078 0.196078
0.329412 0.329412 0.329412
0.458824 0.458824 0.458824
0.580392 0.580392 0.580392
0.686275 0.686275 0.686275
0.768627 0.768627 0.768627
0.815686 0.815686 0.815686
0.086275 0.086275 0.086275
0.160784 0.160784 0.160784
0.243137 0.243137 0.243137
0.360784 0.360784 0.360784
0.482353 0.482353 0.482353
0.596078 0.596078 0.596078
0.698039 0.698039 0.698039
0.780392 0.780392 0.780392
0.819608 0.819608 0.819608
0.196078 0.196078 0.196078
0.250980 0.250980 0.250980
0.321569 0.321569 0.321569
0.419608 0.419608 0.419608
0.525490 0.525490 0.525490
0.627451 0.627451 0.627451
0.717647 0.717647 0.717647
0.796078 0.796078 0.796078
0.839216 0.839216 0.839216
0.309804 0.309804 0.309804
0.345098 0.345098 0.345098
0.403922 0.403922 0.403922
0.486275 0.486275 0.486275
0.572549 0.572549 0.572549
0.666667 0.666667 0.666667
0.745098 0.745098 0.745098
0.815686 0.815686 0.815686
0.854902 0.854902 0.854902
0.407843 0.407843 0.407843
0.435294 0.435294 0.435294
0.474510 0.474510 0.474510
0.545098 0.545098 0.545098
0.623529 0.623529 0.623529
0.705882 0.705882 0.705882
0.776471 0.776471 0.776471
0.843137 0.843137 0.843137
0.878431 0.878431 0.878431
0.458824 0.458824 0.458824
0.466667 0.466667 0.466667
0.533333 0.533333 0.533333
0.588235 0.588235 0.588235
0.670588 0.670588 0.670588
0.741176 0.741176 0.741176
0.811765 0.811765 0.811765
0.870588 0.870588 0.870588
0.949020 0.949020 0.949020
0.498039 0.498039 0.498039
0.509804 0.509804 0.509804
0.568627 0.568627 0.568627
0.611765 0.611765 0.611765
0.686275 0.686275 0.686275
0.764706 0.764706 0.764706
0.827451 0.827451 0.827451
0.898039 0.898039 0.898039
0.937255 0.937255 0.937255
0.498039 0.498039 0.498039
0.513725 0.513725 0.513725
0.568627 0.568627 0.568627
0.611765 0.611765 0.611765
0.682353 0.682353 0.682353
0.764706 0.764706 0.764706
0.898039 0.898039 0.898039
0.898039 0.898039 0.898039
0.937255 0.937255 0.937255
0.121569 0.121569 0.121569
0.156863 0.156863 0.156863
0.211765 0.211765 0.211765
0.317647 0.317647 0.317647
0.450980 0.450980 0.450980
0.580392 0.580392 0.580392
0.686275 0.686275 0.686275
0.768627 0.768627 0.768627
0.819608 0.819608 0.819608
0.090196 0.090196 0.090196
0.145098 0.145098 0.145098
0.211765 0.211765 0.211765
0.333333 0.333333 0.333333
0.470588 0.470588 0.470588
0.584314 0.584314 0.584314
0.694118 0.694118 0.694118
0.772549 0.772549 0.772549
0.819608 0.819608 0.819608
0.074510 0.074510 0.074510
0.184314 0.184314 0.184314
0.266667 0.266667 0.266667
0.372549 0.372549 0.372549
0.494118 0.494118 0.494118
0.603922 0.603922 0.603922
0.705882 0.705882 0.705882
0.792157 0.792157 0.792157
0.831373 0.831373 0.831373
0.180392 0.180392 0.180392
0.270588 0.270588 0.270588
0.337255 0.337255 0.337255
0.435294 0.435294 0.435294
0.533333 0.533333 0.533333
0.639216 0.639216 0.639216
0.729412 0.729412 0.729412
0.803922 0.803922 0.803922
0.847059 0.847059 0.847059
0.305882 0.305882 0.305882
0.364706 0.364706 0.364706
0.419608 0.419608 0.419608
0.498039 0.498039 0.498039
0.584314 0.584314 0.584314
0.678431 0.678431 0.678431
0.752941 0.752941 0.752941
0.827451 0.827451 0.827451
0.866667 0.866667 0.866667
0.419608 0.419608 0.419608
0.450980 0.450980 0.450980
0.498039 0.498039 0.498039
0.564706 0.564706 0.564706
0.643137 0.643137 0.643137
0.717647 0.717647 0.717647
0.788235 0.788235 0.788235
0.850980 0.850980 0.850980
0.890196 0.890196 0.890196
0.498039 0.498039 0.498039
0.513725 0.513725 0.513725
0.552941 0.552941 0.552941
0.611765 0.611765 0.611765
0.686275 0.686275 0.686275
0.752941 0.752941 0.752941
0.819608 0.819608 0.819608
0.878431 0.878431 0.878431
0.964706 0.964706 0.964706
0.537255 0.537255 0.537255
0.552941 0.552941 0.552941
0.580392 0.580392 0.580392
0.635294 0.635294 0.635294
0.705882 0.705882 0.705882
0.776471 0.776471 0.776471
0.894118 0.894118 0.894118
0.925490 0.925490 0.925490
0.976471 0.976471 0.976471
0.537255 0.537255 0.537255
0.552941 0.552941 0.552941
0.631373 0.631373 0.631373
0.639216 0.639216 0.639216
0.749020 0.749020 0.749020
0.823529 0.823529 0.823529
0.898039 0.898039 0.898039
0.925490 0.925490 0.925490
0.976471 0.976471 0.976471
0.188235 0.188235 0.188235
0.211765 0.211765 0.211765
0.247059 0.247059 0.247059
0.329412 0.329412 0.329412
0.447059 0.447059 0.447059
0.576471 0.576471 0.576471
0.686275 0.686275 0.686275
0.768627 0.768627 0.768627
0.815686 0.815686 0.815686
0.156863 0.156863 0.156863
0.184314 0.184314 0.184314
0.235294 0.235294 0.235294
0.341176 0.341176 0.341176
0.474510 0.474510 0.474510
0.588235 0.588235 0.588235
0.701961 0.701961 0.701961
0.776471 0.776471 0.776471
0.831373 0.831373 0.831373
0.086275 0.086275 0.086275
0.203922 0.203922 0.203922
0.270588 0.270588 0.270588
0.384314 0.384314 0.384314
0.498039 0.498039 0.498039
0.607843 0.607843 0.607843
0.705882 0.705882 0.705882
0.792157 0.792157 0.792157
0.835294 0.835294 0.835294
0.156863 0.156863 0.156863
0.286275 0.286275 0.286275
0.352941 0.352941 0.352941
0.447059 0.447059 0.447059
0.545098 0.545098 0.545098
0.639216 0.639216 0.639216
0.729412 0.729412 0.729412
0.807843 0.807843 0.807843
0.847059 0.847059 0.847059
0.286275 0.286275 0.286275
0.380392 0.380392 0.380392
0.435294 0.435294 0.435294
0.509804 0.509804 0.509804
0.592157 0.592157 0.592157
0.682353 0.682353 0.682353
0.760784 0.760784 0.760784
0.831373 0.831373 0.831373
0.874510 0.874510 0.874510
0.411765 0.411765 0.411765
0.466667 0.466667 0.466667
0.509804 0.509804 0.509804
0.576471 0.576471 0.576471
0.647059 0.647059 0.647059
0.725490 0.725490 0.725490
0.792157 0.792157 0.792157
0.866667 0.866667 0.866667
0.901961 0.901961 0.901961
0.509804 0.509804 0.509804
0.533333 0.533333 0.533333
0.576471 0.576471 0.576471
0.631373 0.631373 0.631373
0.698039 0.698039 0.698039
0.764706 0.764706 0.764706
0.827451 0.827451 0.827451
0.894118 0.894118 0.894118
0.976471 0.976471 0.976471
0.541176 0.541176 0.541176
0.564706 0.564706 0.564706
0.631373 0.631373 0.631373
0.725490 0.725490 0.725490
0.749020 0.749020 0.749020
0.823529 0.823529 0.823529
0.850980 0.850980 0.850980
0.937255 0.937255 0.937255
0.980392 0.980392 0.980392
0.674510 0.674510 0.674510
0.611765 0.611765 0.611765
0.631373 0.631373 0.631373
0.725490 0.725490 0.725490
0.752941 0.752941 0.752941
0.823529 0.823529 0.823529
0.909804 0.909804 0.909804
0.937255 0.937255 0.937255
0.980392 0.980392 0.980392
0.282353 0.282353 0.282353
0.294118 0.294118 0.294118
0.321569 0.321569 0.321569
0.376471 0.376471 0.376471
0.466667 0.466667 0.466667
0.584314 0.584314 0.584314
0.690196 0.690196 0.690196
0.772549 0.772549 0.772549
0.823529 0.823529 0.823529
0.258824 0.258824 0.258824
0.258824 0.258824 0.258824
0.286275 0.286275 0.286275
0.356863 0.356863 0.356863
0.482353 0.482353 0.482353
0.592157 0.592157 0.592157
0.694118 0.694118 0.694118
0.788235 0.788235 0.788235
0.823529 0.823529 0.823529
0.117647 0.117647 0.117647
0.223529 0.223529 0.223529
0.290196 0.290196 0.290196
0.384314 0.384314 0.384314
0.505882 0.505882 0.505882
0.611765 0.611765 0.611765
0.709804 0.709804 0.709804
0.792157 0.792157 0.792157
0.835294 0.835294 0.835294
0.137255 0.137255 0.137255
0.301961 0.301961 0.301961
0.364706 0.364706 0.364706
0.450980 0.450980 0.450980
0.549020 0.549020 0.549020
0.650980 0.650980 0.650980
0.733333 0.733333 0.733333
0.815686 0.815686 0.815686
0.854902 0.854902 0.854902
0.262745 0.262745 0.262745
0.400000 0.400000 0.400000
0.447059 0.447059 0.447059
0.517647 0.517647 0.517647
0.603922 0.603922 0.603922
0.690196 0.690196 0.690196
0.768627 0.768627 0.768627
0.839216 0.839216 0.839216
0.890196 0.890196 0.890196
0.392157 0.392157 0.392157
0.486275 0.486275 0.486275
0.529412 0.529412 0.529412
0.588235 0.588235 0.588235
0.662745 0.662745 0.662745
0.733333 0.733333 0.733333
0.803922 0.803922 0.803922
0.870588 0.870588 0.870588
0.921569 0.921569 0.921569
0.517647 0.517647 0.517647
0.552941 0.552941 0.552941
0.592157 0.592157 0.592157
0.650980 0.650980 0.650980
0.713725 0.713725 0.713725
0.780392 0.780392 0.780392
0.843137 0.843137 0.843137
0.901961 0.901961 0.901961
0.976471 0.976471 0.976471
0.674510 0.674510 0.674510
0.592157 0.592157 0.592157
0.654902 0.654902 0.654902
0.705882 0.705882 0.705882
0.764706 0.764706 0.764706
0.831373 0.831373 0.831373
0.878431 0.878431 0.878431
0.945098 0.945098 0.945098
0.992157 0.992157 0.992157
0.674510 0.674510 0.674510
0.639216 0.639216 0.639216
0.654902 0.654902 0.654902
0.705882 0.705882 0.705882
0.764706 0.764706 0.764706
0.831373 0.831373 0.831373
0.878431 0.878431 0.878431
0.945098 0.945098 0.945098
0.992157 0.992157 0.992157
0.364706 0.364706 0.364706
0.372549 0.372549 0.372549
0.400000 0.400000 0.400000
0.439216 0.439216 0.439216
0.509804 0.509804 0.509804
0.600000 0.600000 0.600000
0.690196 0.690196 0.690196
0.788235 0.788235 0.788235
0.788235 0.788235 0.788235
0.360784 0.360784 0.360784
0.403922 0.403922 0.403922
0.423529 0.423529 0.423529
0.458824 0.458824 0.458824
0.521569 0.521569 0.521569
0.607843 0.607843 0.607843
0.694118 0.694118 0.694118
0.792157 0.792157 0.792157
0.792157 0.792157 0.792157
0.227451 0.227451 0.227451
0.325490 0.325490 0.325490
0.333333 0.333333 0.333333
0.400000 0.400000 0.400000
0.509804 0.509804 0.509804
0.615686 0.615686 0.615686
0.701961 0.701961 0.701961
0.792157 0.792157 0.792157
0.792157 0.792157 0.792157
0.149020 0.149020 0.149020
0.196078 0.196078 0.196078
0.333333 0.333333 0.333333
0.419608 0.419608 0.419608
0.525490 0.525490 0.525490
0.635294 0.635294 0.635294
0.721569 0.721569 0.721569
0.815686 0.815686 0.815686
0.866667 0.866667 0.866667
0.219608 0.219608 0.219608
0.235294 0.235294 0.235294
0.419608 0.419608 0.419608
0.498039 0.498039 0.498039
0.584314 0.584314 0.584314
0.678431 0.678431 0.678431
0.756863 0.756863 0.756863
0.843137 0.843137 0.843137
0.890196 0.890196 0.890196
0.376471 0.376471 0.376471
0.380392 0.380392 0.380392
0.419608 0.419608 0.419608
0.572549 0.572549 0.572549
0.650980 0.650980 0.650980
0.733333 0.733333 0.733333
0.796078 0.796078 0.796078
0.870588 0.870588 0.870588
0.921569 0.921569 0.921569
0.509804 0.509804 0.509804
0.517647 0.517647 0.517647
0.572549 0.572549 0.572549
0.647059 0.647059 0.647059
0.709804 0.709804 0.709804
0.776471 0.776471 0.776471
0.839216 0.839216 0.839216
0.901961 0.901961 0.901961
0.937255 0.937255 0.937255
0.564706 0.564706 0.564706
0.596078 0.596078 0.596078
0.631373 0.631373 0.631373
0.678431 0.678431 0.678431
0.745098 0.745098 0.745098
0.803922 0.803922 0.803922
0.874510 0.874510 0.874510
0.952941 0.952941 0.952941
0.960784 0.960784 0.960784
0.674510 0.674510 0.674510
0.596078 0.596078 0.596078
0.654902 0.654902 0.654902
0.705882 0.705882 0.705882
0.792157 0.792157 0.792157
0.854902 0.854902 0.854902
0.917647 0.917647 0.917647
0.952941 0.952941 0.952941
0.960784 0.960784 0.960784
