luts/Fujifilm_XPro.cube
# Generated for krafta web app
# https://www.facebook.com/krafta.visio
# Preset: FUJ - XPro
# Color profile : sRGB Color Space Profile
LUT_3D_SIZE 16
DOMAIN_MIN 0.0 0.0 0.0
DOMAIN_MAX 1.0 1.0 1.0
0.000000 0.000000 0.000000
0.105501 0.000000 0.000000
0.213016 0.000000 0.000183
0.297978 0.000031 0.000031
0.367346 0.000000 0.000275
0.433814 0.000092 0.000336
0.496345 0.000366 0.000214
0.562249 0.000183 0.000122
0.625483 0.000183 0.000458
0.689021 0.000275 0.000397
0.749355 0.000275 0.000336
0.806607 0.003021 0.002777
0.862455 0.007660 0.006561
0.920012 0.011414 0.010651
0.977630 0.015686 0.014374
1.000000 0.016052 0.014466
0.000000 0.112947 0.000000
0.108400 0.108583 0.000000
0.201633 0.109743 0.000000
0.286290 0.105196 0.000000
0.358221 0.098543 0.000000
0.425483 0.092164 0.000000
0.493111 0.087037 0.000000
0.559503 0.084596 0.000000
0.622248 0.082063 0.000000
0.686488 0.080629 0.000000
0.746853 0.080049 0.000000
0.803983 0.080049 0.003510
0.859464 0.079988 0.007324
0.917266 0.080629 0.010864
0.975250 0.081514 0.014405
1.000000 0.080842 0.015106
0.000000 0.200778 0.000000
0.102632 0.194858 0.000000
0.188724 0.188602 0.000000
0.270481 0.183749 0.000000
0.345556 0.177157 0.000000
0.418158 0.172183 0.000000
0.487129 0.167269 0.000000
0.553246 0.162783 0.000000
0.616968 0.158724 0.000000
0.682612 0.156313 0.000000
0.742916 0.153536 0.000702
0.799985 0.151034 0.004425
0.855222 0.148623 0.008118
0.913878 0.147402 0.012024
0.972381 0.146273 0.014282
1.000000 0.144717 0.015869
0.000000 0.271153 0.000000
0.091981 0.267094 0.000000
0.177615 0.262821 0.000000
0.258061 0.258152 0.000000
0.333471 0.252049 0.000000
0.405646 0.246494 0.000000
0.474250 0.240787 0.000000
0.541741 0.236027 0.000000
0.608453 0.232273 0.000000
0.674098 0.228885 0.000000
0.734096 0.224613 0.002502
0.791318 0.220432 0.006714
0.848203 0.216556 0.009583
0.906218 0.213870 0.011994
0.963378 0.211063 0.012390
1.000000 0.208438 0.012940
0.000000 0.333135 0.000000
0.087343 0.332433 0.000000
0.169894 0.332250 0.000000
0.249485 0.329717 0.000000
0.325719 0.325841 0.000000
0.399115 0.320928 0.000000
0.469429 0.315526 0.000000
0.538598 0.310979 0.000000
0.606226 0.306645 0.000793
0.672724 0.302770 0.002594
0.733303 0.297337 0.006409
0.792203 0.292302 0.010376
0.851041 0.288182 0.014282
0.910246 0.284794 0.017517
0.967956 0.281041 0.019318
1.000000 0.276127 0.015869
0.000000 0.396918 0.000000
0.086793 0.397894 0.000000
0.164920 0.398016 0.000153
0.241367 0.396002 0.000610
0.315435 0.392218 0.000793
0.387945 0.387976 0.001740
0.459388 0.384100 0.002777
0.529839 0.380621 0.003418
0.598047 0.376440 0.004242
0.664149 0.371893 0.005493
0.724758 0.365759 0.010071
0.785092 0.360296 0.014038
0.844358 0.355413 0.016632
0.903807 0.351293 0.019348
0.962036 0.347021 0.019348
1.000000 0.341924 0.015503
0.005676 0.460578 0.005585
0.086244 0.461738 0.006104
0.160372 0.461646 0.006348
0.234867 0.460090 0.006500
0.307988 0.457740 0.006836
0.380285 0.454932 0.006622
0.451698 0.451850 0.006958
0.521569 0.448249 0.006348
0.588769 0.443244 0.007385
0.653773 0.438025 0.008820
0.715694 0.431983 0.013336
0.777066 0.426642 0.017029
0.837003 0.421363 0.018616
0.896849 0.416754 0.019501
0.955596 0.412085 0.018311
1.000000 0.406989 0.013611
0.008911 0.522240 0.009552
0.085481 0.524529 0.010132
0.157504 0.525628 0.010346
0.230198 0.524926 0.010590
0.302464 0.522820 0.010498
0.372961 0.519188 0.009796
0.441810 0.514397 0.009094
0.509911 0.509880 0.008087
0.576837 0.505486 0.008545
0.641962 0.500603 0.011170
0.705043 0.495308 0.014649
0.767361 0.490211 0.017609
0.827939 0.484901 0.018402
0.887755 0.479835 0.017426
0.946654 0.474800 0.013764
1.000000 0.470985 0.009186
0.010132 0.572534 0.010773
0.080690 0.572717 0.010590
0.149722 0.573663 0.011627
0.219730 0.573754 0.011872
0.290135 0.573449 0.012512
0.359960 0.572351 0.012818
0.429572 0.570916 0.012573
0.498329 0.568872 0.012848
0.566613 0.566766 0.013306
0.634150 0.564324 0.014008
0.699397 0.560571 0.017792
0.763027 0.556359 0.020630
0.824704 0.551324 0.021180
0.885039 0.546136 0.019440
0.944549 0.540917 0.015015
1.000000 0.535149 0.004456
0.016175 0.630304 0.016693
0.081727 0.629480 0.016449
0.146944 0.629328 0.016205
0.214481 0.628901 0.016480
0.282841 0.628382 0.016693
0.351232 0.627649 0.016449
0.419715 0.627100 0.016999
0.487770 0.625910 0.016968
0.555749 0.624689 0.016571
0.622766 0.622889 0.017090
0.689235 0.620722 0.016663
0.752377 0.616297 0.017182
0.814237 0.611505 0.015290
0.876036 0.607202 0.012360
0.937041 0.602808 0.005707
0.997925 0.598627 0.000000
0.018036 0.686763 0.018738
0.079835 0.686305 0.017975
0.144076 0.685786 0.018219
0.210178 0.685298 0.017639
0.277195 0.684810 0.017731
0.344305 0.684047 0.017182
0.411566 0.683406 0.016815
0.478614 0.682277 0.016480
0.545495 0.681178 0.015869
0.611749 0.679469 0.015045
0.677424 0.677516 0.013611
0.742184 0.675013 0.010956
0.805264 0.671290 0.007172
0.868193 0.668086 0.002228
0.930877 0.664820 0.000000
0.992615 0.661158 0.000000
0.012482 0.742855 0.014130
0.075471 0.742367 0.013092
0.139284 0.741970 0.012909
0.204959 0.741421 0.012268
0.271122 0.740780 0.011292
0.337621 0.740017 0.010376
0.403937 0.739162 0.009216
0.470161 0.738216 0.007813
0.536370 0.737270 0.006592
0.602167 0.735988 0.004669
0.667750 0.734615 0.002655
0.732937 0.733150 0.000000
0.798123 0.731716 0.000000
0.862058 0.729335 0.000000
0.925444 0.726711 0.000000
0.988861 0.724208 0.000000
0.000000 0.795346 0.000000
0.056916 0.795407 0.000000
0.128542 0.795865 0.000000
0.196536 0.796201 0.000000
0.263981 0.796750 0.000000
0.330938 0.796963 0.000000
0.397803 0.797360 0.000000
0.464607 0.797421 0.000000
0.531334 0.797665 0.000000
0.597803 0.797543 0.000000
0.664424 0.797604 0.000000
0.730617 0.797330 0.000000
0.796994 0.797147 0.000000
0.862364 0.796017 0.000000
0.925292 0.792782 0.000000
0.985931 0.787686 0.000000
0.000000 0.859159 0.000000
0.035431 0.856809 0.000000
0.115663 0.855802 0.000000
0.186954 0.855558 0.000000
0.256046 0.855863 0.000000
0.323980 0.856077 0.000000
0.391272 0.856321 0.000000
0.458198 0.856504 0.000000
0.525048 0.856901 0.000000
0.591241 0.856779 0.000000
0.657740 0.856779 0.000000
0.723720 0.856443 0.000000
0.789731 0.856107 0.000000
0.854948 0.855131 0.000000
0.919554 0.853483 0.000000
0.982391 0.850309 0.000000
0.000000 0.919341 0.000000
0.000000 0.917357 0.000000
0.089754 0.916228 0.000000
0.171115 0.915831 0.000000
0.244236 0.915923 0.000000
0.314336 0.916014 0.000000
0.383062 0.916350 0.000000
0.450660 0.916472 0.000000
0.517815 0.916747 0.000000
0.584527 0.916686 0.000000
0.651118 0.916716 0.000000
0.717525 0.916625 0.000000
0.784054 0.916838 0.000000
0.850187 0.916625 0.000000
0.915953 0.916106 0.000000
0.980529 0.914427 0.000000
0.000000 0.981659 0.000000
0.000000 0.980102 0.000000
0.019135 0.979248 0.000000
0.141695 0.978943 0.000000
0.225132 0.979034 0.000000
0.300237 0.979187 0.000000
0.371893 0.979553 0.000000
0.441627 0.979889 0.000000
0.510552 0.980438 0.000000
0.578820 0.980987 0.000000
0.646784 0.981689 0.000000
0.714504 0.982330 0.000000
0.782437 0.983368 0.000000
0.850248 0.984283 0.000000
0.918364 0.985534 0.000000
0.986816 0.986999 0.000000
0.000000 0.000275 0.107820
0.117617 0.000061 0.117769
0.214664 0.000122 0.115846
0.296971 0.000000 0.103578
0.364019 0.000000 0.095491
0.429236 0.000244 0.091127
0.494026 0.000000 0.088136
0.558953 0.000153 0.085939
0.621363 0.000275 0.083986
0.685512 0.001068 0.082521
0.746212 0.004639 0.082460
0.802884 0.010224 0.082582
0.858061 0.013519 0.082490
0.915496 0.016571 0.082643
0.972808 0.019440 0.082734
1.000000 0.018982 0.080964
0.000000 0.115175 0.115389
0.109163 0.109163 0.109163
0.204929 0.102998 0.102907
0.286412 0.098207 0.098024
0.357336 0.094118 0.094087
0.424781 0.090517 0.090547
0.491951 0.088167 0.088411
0.557305 0.086366 0.086183
0.620142 0.084413 0.084230
0.685420 0.083406 0.083040
0.745663 0.083528 0.083070
0.801999 0.083589 0.082918
0.856626 0.083345 0.082521
0.913817 0.083345 0.082734
0.970916 0.083345 0.082368
1.000000 0.081605 0.080751
0.000000 0.203861 0.102632
0.099763 0.198093 0.099733
0.191379 0.191684 0.096315
0.273716 0.185153 0.093843
0.348486 0.178988 0.092226
0.420020 0.173892 0.090486
0.487984 0.168795 0.088563
0.553582 0.164706 0.086427
0.618982 0.161257 0.084962
0.683894 0.158450 0.083925
0.742763 0.155428 0.083223
0.798489 0.152468 0.083223
0.853361 0.149813 0.082612
0.911070 0.148501 0.082521
0.968475 0.146700 0.082307
1.000000 0.144259 0.080598
0.000000 0.275029 0.096620
0.095125 0.270695 0.095155
0.180392 0.265873 0.093263
0.260624 0.260960 0.091218
0.336431 0.254887 0.090242
0.408545 0.249149 0.089052
0.477455 0.243595 0.087556
0.545434 0.239078 0.086244
0.611933 0.234745 0.084779
0.676539 0.230930 0.083650
0.735897 0.226139 0.082948
0.792416 0.221897 0.083192
0.850065 0.218448 0.083131
0.907469 0.215488 0.082856
0.963409 0.212009 0.081025
1.000000 0.208469 0.077943
0.000000 0.333349 0.091432
0.090791 0.332036 0.091188
0.170016 0.329595 0.090547
0.247044 0.325750 0.089082
0.320897 0.321111 0.087770
0.393286 0.316472 0.086488
0.463508 0.311894 0.085603
0.532616 0.307927 0.084749
0.599908 0.303655 0.083406
0.666072 0.299901 0.082460
0.727077 0.295079 0.082826
0.786679 0.290593 0.083497
0.846281 0.286900 0.084108
0.905730 0.283635 0.084169
0.963684 0.280003 0.083314
1.000000 0.275395 0.079561
0.007050 0.396185 0.089418
0.089357 0.395911 0.089509
0.164462 0.394324 0.089265
0.239200 0.391730 0.088472
0.312383 0.388281 0.087160
0.384222 0.384283 0.086061
0.454444 0.380072 0.084779
0.523919 0.376410 0.083864
0.591669 0.372473 0.083040
0.657618 0.368292 0.082368
0.719295 0.362951 0.083284
0.780209 0.358251 0.084016
0.839811 0.353643 0.083772
0.899168 0.349584 0.083345
0.957488 0.345281 0.081819
1.000000 0.340673 0.077852
0.010986 0.460639 0.088685
0.088472 0.461097 0.089052
0.161227 0.459785 0.088411
0.234134 0.457649 0.088014
0.306218 0.454688 0.086976
0.377478 0.451270 0.085939
0.447303 0.447303 0.084443
0.515984 0.443397 0.083497
0.583581 0.439338 0.082002
0.648859 0.434577 0.082216
0.710567 0.428717 0.082887
0.771817 0.423590 0.083436
0.831907 0.418555 0.082673
0.891691 0.414038 0.081880
0.950591 0.409583 0.079103
1.000000 0.405188 0.074983
0.011170 0.520867 0.086122
0.086336 0.521935 0.086641
0.156191 0.521386 0.086336
0.228183 0.519799 0.085847
0.299046 0.517418 0.084871
0.369329 0.514214 0.084077
0.438331 0.510399 0.082704
0.506249 0.506401 0.081697
0.573053 0.502159 0.079957
0.637934 0.497414 0.080690
0.700832 0.492195 0.081697
0.762936 0.487312 0.082033
0.823819 0.482338 0.081086
0.883574 0.477333 0.078859
0.942687 0.472450 0.074434
1.000000 0.469062 0.070344
0.011719 0.574792 0.082643
0.082521 0.574456 0.082856
0.150271 0.574090 0.082826
0.219669 0.573266 0.082429
0.289311 0.572168 0.082429
0.358801 0.570764 0.082155
0.428260 0.569268 0.082155
0.496834 0.567102 0.081697
0.564599 0.564660 0.081331
0.631678 0.562097 0.080964
0.696590 0.558373 0.082734
0.760159 0.554162 0.083162
0.821744 0.549279 0.082582
0.882689 0.544549 0.080629
0.943084 0.540002 0.076875
1.000000 0.535058 0.069673
0.017639 0.630579 0.083528
0.082490 0.630030 0.083070
0.147646 0.629389 0.083223
0.214664 0.628809 0.083070
0.282902 0.628168 0.083070
0.350927 0.627131 0.082826
0.419013 0.625879 0.082216
0.486549 0.624292 0.082002
0.553887 0.622583 0.081392
0.620539 0.620539 0.080537
0.686305 0.618097 0.079408
0.749538 0.613916 0.079133
0.811887 0.609613 0.077516
0.874266 0.605859 0.074556
0.936095 0.602106 0.070100
0.997803 0.598535 0.062654
0.019501 0.686885 0.082765
0.081697 0.686793 0.082856
0.145174 0.686244 0.082521
0.210727 0.685542 0.082216
0.277256 0.684627 0.081788
0.343908 0.683436 0.080537
0.410773 0.682033 0.079774
0.477333 0.680598 0.078706
0.543969 0.679286 0.078126
0.609888 0.677485 0.076753
0.675166 0.675319 0.075441
0.739834 0.672816 0.072999
0.803555 0.669886 0.070680
0.866972 0.667018 0.066896
0.929961 0.664027 0.060517
0.992157 0.660639 0.049165
0.012329 0.742336 0.077363
0.076448 0.742031 0.077028
0.139315 0.741482 0.076539
0.204807 0.740963 0.075868
0.270848 0.740352 0.074922
0.337346 0.739559 0.074128
0.403662 0.738766 0.073640
0.469917 0.737728 0.072328
0.535790 0.736538 0.071382
0.601404 0.735103 0.068971
0.666682 0.733516 0.066712
0.731685 0.731838 0.064332
0.796536 0.730220 0.061433
0.860319 0.727779 0.054871
0.923644 0.725154 0.044160
0.987274 0.722866 0.027344
0.000000 0.796201 0.059937
0.058015 0.796201 0.059907
0.128939 0.796475 0.060395
0.196780 0.796628 0.060883
0.263951 0.796933 0.061036
0.330968 0.797086 0.061341
0.397894 0.797452 0.061860
0.464546 0.797482 0.061677
0.531273 0.797604 0.061433
0.597620 0.797360 0.061036
0.664118 0.797299 0.060578
0.730312 0.796963 0.059693
0.796689 0.796841 0.058381
0.862089 0.795773 0.055360
0.925231 0.792691 0.041596
0.986206 0.787808 0.010346
0.000000 0.859678 0.045411
0.035615 0.857481 0.038056
0.115450 0.856474 0.034211
0.187289 0.856168 0.032776
0.256382 0.856382 0.033783
0.324071 0.856474 0.033600
0.391302 0.856565 0.032929
0.458106 0.856657 0.031312
0.524834 0.856870 0.031739
0.591119 0.856657 0.029328
0.657496 0.856565 0.027283
0.723476 0.856199 0.023926
0.789548 0.855985 0.020386
0.854917 0.855100 0.013519
0.919615 0.853574 0.002594
0.982666 0.850523 0.000000
0.000000 0.919677 0.000000
0.000000 0.917845 0.000000
0.088960 0.916838 0.000000
0.170535 0.916442 0.000000
0.244022 0.916472 0.000000
0.314122 0.916503 0.000000
0.382879 0.916777 0.000000
0.450568 0.916777 0.000000
0.517662 0.916838 0.000000
0.584375 0.916686 0.000000
0.650904 0.916655 0.000000
0.717342 0.916564 0.000000
0.783902 0.916747 0.000000
0.850095 0.916594 0.000000
0.915984 0.916167 0.000000
0.980743 0.914580 0.000000
0.000000 0.981964 0.000000
0.000000 0.980468 0.000000
0.014008 0.979644 0.000000
0.140108 0.979370 0.000000
0.224094 0.979461 0.000000
0.299626 0.979644 0.000000
0.371466 0.979950 0.000000
0.441352 0.980224 0.000000
0.510277 0.980682 0.000000
0.578576 0.981170 0.000000
0.646601 0.981781 0.000000
0.714260 0.982330 0.000000
0.782132 0.983215 0.000000
0.849943 0.984131 0.000000
0.918181 0.985382 0.000000
0.986725 0.986877 0.000000
0.000458 0.000061 0.229496
0.121706 0.000000 0.223728
0.209537 0.000275 0.211002
0.289097 0.000092 0.197116
0.358190 0.000000 0.184146
0.422126 0.000000 0.175235
0.486854 0.004852 0.170626
0.551263 0.010040 0.166506
0.614496 0.009430 0.161898
0.679866 0.010529 0.159182
0.741115 0.013672 0.156863
0.798367 0.020356 0.154940
0.854215 0.022644 0.152499
0.912840 0.025879 0.151217
0.970825 0.027924 0.149691
1.000000 0.025422 0.146456
0.000000 0.111910 0.218570
0.105440 0.105440 0.208621
0.199039 0.100221 0.198978
0.279362 0.096803 0.189425
0.349310 0.095247 0.180514
0.417548 0.095247 0.175113
0.484382 0.093782 0.170565
0.549828 0.091402 0.166262
0.614710 0.089143 0.162234
0.680354 0.087648 0.159487
0.740932 0.087617 0.157107
0.797696 0.088045 0.154910
0.853178 0.087709 0.152346
0.911376 0.088167 0.150973
0.969055 0.087495 0.149233
1.000000 0.085115 0.146365
0.000000 0.199222 0.199161
0.099275 0.193698 0.193851
0.188296 0.188296 0.188296
0.268345 0.183291 0.183200
0.342809 0.178897 0.178897
0.413825 0.174655 0.174716
0.482033 0.170291 0.170230
0.547784 0.165713 0.165652
0.614496 0.162509 0.162448
0.679408 0.159579 0.159640
0.738369 0.157046 0.156771
0.794400 0.154574 0.154208
0.850431 0.152193 0.151736
0.908568 0.150637 0.150362
0.966552 0.148806 0.148440
1.000000 0.146059 0.145541
0.000000 0.271336 0.185367
0.099184 0.267216 0.183139
0.180240 0.262943 0.180301
0.258335 0.258518 0.177157
0.333043 0.253300 0.173922
0.404547 0.248112 0.170718
0.473304 0.242893 0.166751
0.542016 0.238956 0.163882
0.608240 0.234653 0.160708
0.672908 0.230655 0.157870
0.732235 0.226596 0.155337
0.788968 0.222354 0.153231
0.847379 0.219303 0.151522
0.904997 0.216220 0.149599
0.961212 0.212619 0.146517
1.000000 0.208713 0.142885
0.013550 0.330358 0.173526
0.096437 0.329290 0.172793
0.171115 0.327092 0.171237
0.246036 0.323613 0.169345
0.319310 0.319158 0.166659
0.390753 0.314855 0.164279
0.460578 0.310582 0.161807
0.529503 0.306706 0.159457
0.596612 0.302647 0.157015
0.662623 0.299016 0.155032
0.723781 0.294438 0.153384
0.784115 0.290532 0.152468
0.844083 0.287114 0.151095
0.903807 0.284031 0.150149
0.962249 0.280552 0.147982
1.000000 0.275944 0.144167
0.015961 0.394629 0.167178
0.093812 0.394263 0.166720
0.165743 0.392676 0.166049
0.239292 0.390082 0.164797
0.311589 0.386664 0.162997
0.382727 0.382879 0.160800
0.452522 0.378759 0.158633
0.521752 0.375128 0.157015
0.589471 0.371344 0.154910
0.655146 0.367071 0.152956
0.717067 0.362158 0.152102
0.778103 0.357733 0.151217
0.838010 0.353399 0.150057
0.897581 0.349432 0.148379
0.956268 0.345312 0.145998
1.000000 0.340856 0.142275
0.015869 0.459083 0.162509
0.091585 0.459510 0.162692
0.161685 0.458442 0.162112
0.233921 0.456367 0.161135
0.305638 0.453498 0.159823
0.376654 0.450233 0.158175
0.446296 0.446357 0.156283
0.514733 0.442359 0.154513
0.582025 0.438209 0.152224
0.647089 0.433478 0.151156
0.708797 0.427955 0.150515
0.770077 0.422919 0.149447
0.830259 0.418097 0.147646
0.890196 0.413703 0.145876
0.949432 0.409339 0.143252
1.000000 0.405097 0.139406
0.014191 0.519646 0.156802
0.087160 0.520928 0.157168
0.156741 0.520348 0.157015
0.228061 0.518883 0.156374
0.298650 0.516381 0.155428
0.368627 0.513207 0.154086
0.437507 0.509361 0.152163
0.505364 0.505486 0.150637
0.572045 0.501366 0.148684
0.636866 0.496620 0.148470
0.699763 0.491432 0.147799
0.761776 0.486702 0.147005
0.822629 0.481819 0.145357
0.882414 0.476844 0.142580
0.941894 0.472145 0.139223
1.000000 0.468727 0.135714
0.013397 0.574090 0.150729
0.082856 0.573785 0.150820
0.150515 0.573327 0.150729
0.219669 0.572503 0.150515
0.289067 0.571405 0.150332
0.358618 0.569970 0.149599
0.427649 0.568475 0.149477
0.496132 0.566369 0.148714
0.563897 0.564019 0.148013
0.630854 0.561395 0.147372
0.695735 0.557702 0.147921
0.759121 0.553582 0.147524
0.820737 0.548699 0.145937
0.881926 0.544182 0.143832
0.942596 0.539818 0.140871
1.000000 0.534936 0.135470
0.020111 0.630030 0.149020
0.083497 0.629633 0.148806
0.147890 0.629114 0.148653
0.215152 0.628565 0.148379
0.283207 0.627955 0.148379
0.351049 0.626886 0.147951
0.418860 0.625574 0.147341
0.486275 0.623957 0.146914
0.553613 0.622248 0.146090
0.620020 0.620203 0.145327
0.685664 0.617517 0.144076
0.748836 0.613397 0.143252
0.811276 0.609247 0.141268
0.873747 0.605554 0.139315
0.935790 0.601953 0.135744
0.997711 0.598383 0.130678
0.022492 0.686549 0.146578
0.083589 0.686580 0.146517
0.145998 0.686152 0.146395
0.211368 0.685451 0.145876
0.277562 0.684504 0.145541
0.344182 0.683284 0.144656
0.410864 0.681971 0.143984
0.477455 0.680537 0.143374
0.543786 0.679103 0.142367
0.609644 0.677150 0.141390
0.674769 0.674891 0.139895
0.739437 0.672419 0.138125
0.803159 0.669612 0.136202
0.866697 0.666835 0.133394
0.929778 0.663905 0.129213
0.992096 0.660548 0.122347
0.013367 0.742123 0.140993
0.076753 0.741848 0.140749
0.139895 0.741299 0.140475
0.204868 0.740780 0.140047
0.271153 0.740169 0.139498
0.337438 0.739498 0.138949
0.403784 0.738674 0.138338
0.469856 0.737606 0.137270
0.535760 0.736385 0.136110
0.601221 0.734920 0.134981
0.666529 0.733333 0.133272
0.731533 0.731685 0.131472
0.796353 0.730037 0.129366
0.860136 0.727596 0.125521
0.923491 0.724941 0.119112
0.987243 0.722591 0.110933
0.000000 0.796384 0.129030
0.058137 0.796384 0.129030
0.128389 0.796597 0.129366
0.196567 0.796750 0.129305
0.263920 0.797055 0.129549
0.330877 0.797177 0.129946
0.397772 0.797513 0.130251
0.464515 0.797482 0.130007
0.531212 0.797635 0.130037
0.597589 0.797421 0.129641
0.664088 0.797391 0.129549
0.730404 0.797055 0.128664
0.796841 0.796933 0.128206
0.862119 0.795804 0.126223
0.925261 0.792660 0.118746
0.986358 0.787808 0.102693
0.000000 0.859770 0.121004
0.032105 0.857664 0.117250
0.114443 0.856718 0.115724
0.186648 0.856443 0.114900
0.255772 0.856626 0.114961
0.323735 0.856657 0.114565
0.391028 0.856748 0.114473
0.457923 0.856840 0.114382
0.524773 0.857053 0.114199
0.591119 0.856809 0.113130
0.657527 0.856718 0.112001
0.723568 0.856321 0.110292
0.789578 0.856077 0.108888
0.854978 0.855192 0.104982
0.919738 0.853635 0.098878
0.982879 0.850584 0.080964
0.000000 0.919829 0.095247
0.000000 0.918029 0.089540
0.084718 0.917082 0.086244
0.168826 0.916686 0.084962
0.242741 0.916686 0.084077
0.313237 0.916777 0.083467
0.382269 0.917021 0.083070
0.450050 0.917021 0.081849
0.517327 0.917021 0.079927
0.584039 0.916869 0.077272
0.650782 0.916838 0.074617
0.717250 0.916747 0.071351
0.783871 0.916899 0.068055
0.850126 0.916747 0.062348
0.916167 0.916320 0.053010
0.980987 0.914733 0.031800
0.000000 0.982177 0.024720
0.000000 0.980713 0.011658
0.000946 0.979889 0.004089
0.135164 0.979644 0.000000
0.221500 0.979767 0.000000
0.297765 0.979919 0.000000
0.370031 0.980224 0.000000
0.440284 0.980499 0.000000
0.509514 0.980896 0.000000
0.578027 0.981384 0.000000
0.646174 0.981994 0.000000
0.713985 0.982513 0.000000
0.781979 0.983398 0.000000
0.849882 0.984283 0.000000
0.918212 0.985504 0.000000
0.986847 0.986999 0.000000
0.000427 0.000031 0.313237
0.112215 0.000000 0.306645
0.199008 0.000153 0.294072
0.278874 0.000183 0.280064
0.350042 0.000061 0.265537
0.416693 0.000183 0.254368
0.482338 0.005219 0.246921
0.546532 0.011414 0.240940
0.609979 0.015473 0.235813
0.675105 0.016205 0.232273
0.736263 0.021698 0.228763
0.793942 0.029236 0.225589
0.850858 0.033600 0.222263
0.910185 0.038117 0.220096
0.968566 0.038819 0.217563
1.000000 0.035218 0.213596
0.000000 0.105409 0.300084
0.101656 0.101869 0.290898
0.191043 0.098177 0.281041
0.270878 0.095369 0.271031
0.343236 0.093782 0.260472
0.413031 0.094392 0.252995
0.479774 0.094057 0.246433
0.544457 0.093385 0.240543
0.610071 0.092042 0.236332
0.675563 0.090547 0.232578
0.736080 0.091127 0.228977
0.793271 0.093202 0.225467
0.850034 0.093629 0.222049
0.908659 0.094118 0.219577
0.966827 0.092714 0.216861
1.000000 0.090303 0.213230
0.000000 0.192508 0.282261
0.100801 0.188540 0.275547
0.184512 0.184604 0.268864
0.263798 0.180819 0.263523
0.337621 0.177310 0.257328
0.408270 0.174014 0.251560
0.476265 0.170352 0.245792
0.542870 0.166598 0.240696
0.609430 0.163394 0.236393
0.674464 0.160037 0.232334
0.733639 0.158145 0.228153
0.790158 0.156344 0.224399
0.847349 0.154849 0.221225
0.906035 0.153536 0.218601
0.964446 0.151553 0.215854
1.000000 0.148470 0.212314
0.000336 0.267002 0.266850
0.099519 0.263279 0.263371
0.179263 0.259190 0.259220
0.255344 0.255344 0.255344
0.328679 0.251133 0.251011
0.399817 0.246403 0.246555
0.469093 0.241947 0.241947
0.537621 0.238132 0.237919
0.603815 0.233707 0.233799
0.668574 0.229953 0.229770
0.728054 0.226474 0.226169
0.785489 0.222934 0.222782
0.844663 0.220584 0.220310
0.902647 0.217685 0.217411
0.959289 0.213901 0.213565
1.000000 0.209537 0.209140
0.014923 0.327092 0.249180
0.097780 0.325780 0.248478
0.171054 0.323522 0.246891
0.244358 0.320562 0.244480
0.316564 0.316655 0.241276
0.387793 0.312840 0.238315
0.457343 0.308873 0.234958
0.526299 0.305180 0.231968
0.593317 0.301152 0.228794
0.659174 0.297612 0.225925
0.720333 0.293614 0.223484
0.781460 0.290623 0.221653
0.841794 0.287572 0.219730
0.901793 0.284642 0.217716
0.960540 0.281315 0.214878
1.000000 0.276493 0.210391
0.020081 0.392248 0.241367
0.095796 0.391791 0.241154
0.165835 0.390204 0.239902
0.238315 0.387701 0.238407
0.309789 0.384527 0.235966
0.380957 0.380865 0.233402
0.450477 0.377050 0.230686
0.519463 0.373480 0.228367
0.586908 0.369757 0.225681
0.652522 0.365789 0.223362
0.714473 0.361364 0.221592
0.775784 0.357305 0.219791
0.835904 0.353307 0.217685
0.895781 0.349432 0.215366
0.954742 0.345495 0.212436
1.000000 0.341192 0.208469
0.018311 0.456489 0.234592
0.091981 0.456947 0.234836
0.161166 0.456031 0.234287
0.232883 0.454139 0.233127
0.304356 0.451392 0.231540
0.375036 0.448402 0.229587
0.444648 0.444800 0.227420
0.512932 0.440711 0.224949
0.579889 0.436652 0.222568
0.644862 0.432166 0.220615
0.706661 0.426886 0.218875
0.768093 0.422248 0.217105
0.828458 0.417639 0.214908
0.888640 0.413458 0.212375
0.948241 0.409125 0.209293
1.000000 0.404974 0.205570
0.013977 0.517723 0.227634
