luts/FUJI_MONO_Red_Filter.cube
#Generated for krafta web app
#Black and White LUTs
TITLE "Fuji XTrans III - Mono+R"
#LUT size
LUT_3D_SIZE 5
#LUT data points
0.000000 0.000000 0.000000
0.113725 0.113725 0.113725
0.341176 0.341176 0.341176
0.584314 0.584314 0.584314
0.647059 0.647059 0.647059
0.047059 0.047059 0.047059
0.164706 0.164706 0.164706
0.443137 0.443137 0.443137
0.666667 0.666667 0.666667
0.709804 0.709804 0.709804
0.239216 0.239216 0.239216
0.325490 0.325490 0.325490
0.537255 0.537255 0.537255
0.701961 0.701961 0.701961
0.749020 0.749020 0.749020
0.301961 0.301961 0.301961
0.337255 0.337255 0.337255
0.596078 0.596078 0.596078
0.745098 0.745098 0.745098
0.835294 0.835294 0.835294
0.364706 0.364706 0.364706
0.470588 0.470588 0.470588
0.662745 0.662745 0.662745
0.784314 0.784314 0.784314
0.843137 0.843137 0.843137
0.000000 0.000000 0.000000
0.235294 0.235294 0.235294
0.427451 0.427451 0.427451
0.658824 0.658824 0.658824
0.768627 0.768627 0.768627
0.066667 0.066667 0.066667
0.207843 0.207843 0.207843
0.454902 0.454902 0.454902
0.682353 0.682353 0.682353
0.800000 0.800000 0.800000
0.298039 0.298039 0.298039
0.360784 0.360784 0.360784
0.545098 0.545098 0.545098
0.725490 0.725490 0.725490
0.835294 0.835294 0.835294
0.337255 0.337255 0.337255
0.470588 0.470588 0.470588
0.643137 0.643137 0.643137
0.784314 0.784314 0.784314
0.882353 0.882353 0.882353
0.388235 0.388235 0.388235
0.529412 0.529412 0.529412
0.643137 0.643137 0.643137
0.811765 0.811765 0.811765
0.874510 0.874510 0.874510
0.062745 0.062745 0.062745
0.196078 0.196078 0.196078
0.454902 0.454902 0.454902
0.686275 0.686275 0.686275
0.819608 0.819608 0.819608
0.086275 0.086275 0.086275
0.243137 0.243137 0.243137
0.482353 0.482353 0.482353
0.698039 0.698039 0.698039
0.819608 0.819608 0.819608
0.309804 0.309804 0.309804
0.403922 0.403922 0.403922
0.572549 0.572549 0.572549
0.745098 0.745098 0.745098
0.854902 0.854902 0.854902
0.458824 0.458824 0.458824
0.533333 0.533333 0.533333
0.670588 0.670588 0.670588
0.811765 0.811765 0.811765
0.949020 0.949020 0.949020
0.498039 0.498039 0.498039
0.568627 0.568627 0.568627
0.682353 0.682353 0.682353
0.898039 0.898039 0.898039
0.937255 0.937255 0.937255
0.188235 0.188235 0.188235
0.247059 0.247059 0.247059
0.447059 0.447059 0.447059
0.686275 0.686275 0.686275
0.815686 0.815686 0.815686
0.086275 0.086275 0.086275
0.270588 0.270588 0.270588
0.498039 0.498039 0.498039
0.705882 0.705882 0.705882
0.835294 0.835294 0.835294
0.286275 0.286275 0.286275
0.435294 0.435294 0.435294
0.592157 0.592157 0.592157
0.760784 0.760784 0.760784
0.874510 0.874510 0.874510
0.509804 0.509804 0.509804
0.576471 0.576471 0.576471
0.698039 0.698039 0.698039
0.827451 0.827451 0.827451
0.976471 0.976471 0.976471
0.674510 0.674510 0.674510
0.631373 0.631373 0.631373
0.752941 0.752941 0.752941
0.909804 0.909804 0.909804
0.980392 0.980392 0.980392
0.364706 0.364706 0.364706
0.400000 0.400000 0.400000
0.509804 0.509804 0.509804
0.690196 0.690196 0.690196
0.788235 0.788235 0.788235
0.227451 0.227451 0.227451
0.333333 0.333333 0.333333
0.509804 0.509804 0.509804
0.701961 0.701961 0.701961
0.792157 0.792157 0.792157
0.219608 0.219608 0.219608
0.419608 0.419608 0.419608
0.584314 0.584314 0.584314
0.756863 0.756863 0.756863
0.890196 0.890196 0.890196
0.509804 0.509804 0.509804
0.572549 0.572549 0.572549
0.709804 0.709804 0.709804
0.839216 0.839216 0.839216
0.937255 0.937255 0.937255
0.674510 0.674510 0.674510
0.654902 0.654902 0.654902
0.792157 0.792157 0.792157
0.917647 0.917647 0.917647
0.960784 0.960784 0.960784
