luts/FUJI_MONO_Red_Filter.cube
#Generated for krafta web app
#Black and White LUTs
TITLE "Fuji XTrans III - Mono+R"
#LUT size
LUT_3D_SIZE 25
#LUT data points
0.000000 0.000000 0.000000
0.003922 0.003922 0.003922
0.007843 0.007843 0.007843
0.019608 0.019608 0.019608
0.039216 0.039216 0.039216
0.070588 0.070588 0.070588
0.113725 0.113725 0.113725
0.152941 0.152941 0.152941
0.203922 0.203922 0.203922
0.258824 0.258824 0.254902
0.313725 0.313725 0.313725
0.337255 0.337255 0.337255
0.341176 0.341176 0.341176
0.458824 0.458824 0.458824
0.521569 0.521569 0.521569
0.545098 0.545098 0.545098
0.572549 0.572549 0.572549
0.584314 0.584314 0.584314
0.584314 0.584314 0.584314
0.584314 0.584314 0.584314
0.611765 0.611765 0.611765
0.647059 0.647059 0.647059
0.647059 0.647059 0.647059
0.647059 0.647059 0.647059
0.647059 0.647059 0.647059
0.000000 0.000000 0.000000
0.003922 0.003922 0.003922
0.011765 0.011765 0.011765
0.019608 0.019608 0.019608
0.039216 0.039216 0.039216
0.074510 0.074510 0.074510
0.113725 0.113725 0.113725
0.156863 0.156863 0.156863
0.219608 0.219608 0.219608
0.258824 0.258824 0.258824
0.313725 0.313725 0.313725
0.349020 0.349020 0.349020
0.384314 0.384314 0.384314
0.474510 0.474510 0.474510
0.521569 0.521569 0.521569
0.545098 0.545098 0.545098
0.568627 0.568627 0.568627
0.584314 0.584314 0.584314
0.584314 0.584314 0.584314
0.611765 0.611765 0.611765
0.627451 0.627451 0.627451
0.643137 0.643137 0.643137
0.643137 0.643137 0.643137
0.643137 0.643137 0.643137
0.643137 0.643137 0.643137
0.003922 0.003922 0.003922
0.007843 0.007843 0.007843
0.015686 0.015686 0.015686
0.023529 0.023529 0.023529
0.050980 0.050980 0.050980
0.078431 0.078431 0.078431
0.113725 0.113725 0.113725
0.164706 0.164706 0.164706
0.223529 0.223529 0.223529
0.270588 0.270588 0.270588
0.309804 0.309804 0.309804
0.360784 0.360784 0.360784
0.415686 0.415686 0.415686
0.478431 0.478431 0.478431
0.517647 0.517647 0.517647
0.545098 0.545098 0.545098
0.568627 0.568627 0.568627
0.592157 0.592157 0.592157
0.600000 0.600000 0.600000
0.627451 0.627451 0.627451
0.639216 0.639216 0.639216
0.639216 0.639216 0.639216
0.639216 0.639216 0.639216
0.647059 0.647059 0.647059
0.658824 0.658824 0.658824
0.007843 0.007843 0.007843
0.011765 0.011765 0.011765
0.015686 0.015686 0.015686
0.031373 0.031373 0.031373
0.058824 0.058824 0.058824
0.090196 0.090196 0.090196
0.133333 0.133333 0.133333
0.172549 0.172549 0.172549
0.231373 0.231373 0.231373
0.278431 0.278431 0.278431
0.321569 0.321569 0.321569
0.364706 0.364706 0.364706
0.415686 0.415686 0.415686
0.466667 0.466667 0.466667
0.521569 0.521569 0.521569
0.545098 0.545098 0.545098
0.568627 0.568627 0.568627
0.603922 0.603922 0.603922
0.631373 0.631373 0.631373
0.635294 0.635294 0.635294
0.639216 0.639216 0.639216
0.639216 0.639216 0.639216
0.639216 0.639216 0.639216
0.658824 0.658824 0.658824
0.705882 0.705882 0.705882
0.015686 0.015686 0.015686
0.019608 0.019608 0.019608
0.027451 0.027451 0.027451
0.039216 0.039216 0.039216
0.078431 0.078431 0.078431
0.117647 0.117647 0.117647
0.149020 0.149020 0.149020
0.188235 0.188235 0.188235
0.250980 0.250980 0.250980
0.294118 0.294118 0.294118
0.333333 0.333333 0.333333
0.380392 0.380392 0.380392
0.423529 0.423529 0.423529
0.470588 0.470588 0.470588
0.513725 0.513725 0.513725
0.552941 0.552941 0.552941
0.580392 0.580392 0.580392
0.615686 0.615686 0.615686
0.639216 0.639216 0.639216
0.639216 0.639216 0.639216
0.639216 0.639216 0.639216
0.639216 0.639216 0.639216
0.674510 0.674510 0.674510
0.690196 0.690196 0.690196
0.709804 0.709804 0.709804
0.027451 0.027451 0.027451
0.031373 0.031373 0.031373
0.043137 0.043137 0.043137
0.058824 0.058824 0.058824
0.090196 0.090196 0.090196
0.125490 0.125490 0.125490
0.160784 0.160784 0.160784
0.219608 0.219608 0.219608
0.258824 0.258824 0.258824
0.301961 0.301961 0.301961
0.349020 0.349020 0.349020
0.400000 0.400000 0.400000
0.435294 0.435294 0.435294
0.474510 0.474510 0.474510
0.517647 0.517647 0.517647
0.560784 0.560784 0.560784
0.592157 0.592157 0.592157
0.615686 0.615686 0.615686
0.647059 0.647059 0.647059
0.654902 0.654902 0.654902
0.662745 0.662745 0.662745
0.658824 0.658824 0.658824
0.694118 0.694118 0.694118
0.709804 0.709804 0.709804
0.709804 0.709804 0.709804
0.047059 0.047059 0.047059
0.058824 0.058824 0.058824
0.066667 0.066667 0.066667
0.086275 0.086275 0.086275
0.098039 0.098039 0.098039
0.121569 0.121569 0.121569
0.164706 0.164706 0.164706
0.219608 0.219608 0.219608
0.286275 0.286275 0.286275
0.317647 0.317647 0.317647
0.360784 0.360784 0.360784
0.400000 0.400000 0.403922
0.443137 0.443137 0.443137
0.482353 0.482353 0.482353
0.525490 0.525490 0.525490
0.568627 0.568627 0.568627
0.592157 0.592157 0.592157
0.623529 0.623529 0.623529
0.666667 0.666667 0.666667
0.698039 0.698039 0.698039
0.701961 0.701961 0.701961
0.709804 0.709804 0.709804
0.709804 0.709804 0.709804
0.709804 0.709804 0.709804
0.709804 0.709804 0.709804
0.078431 0.078431 0.078431
0.086275 0.086275 0.086275
0.101961 0.101961 0.101961
0.113725 0.113725 0.113725
0.137255 0.137255 0.137255
0.168627 0.168627 0.168627
0.207843 0.207843 0.207843
0.254902 0.254902 0.254902
0.301961 0.301961 0.301961
0.333333 0.333333 0.333333
0.376471 0.376471 0.376471
0.419608 0.419608 0.419608
0.454902 0.454902 0.454902
0.498039 0.498039 0.498039
0.541176 0.541176 0.541176
0.576471 0.576471 0.576471
0.600000 0.600000 0.600000
0.635294 0.635294 0.635294
0.662745 0.662745 0.662745
0.694118 0.694118 0.694118
0.709804 0.709804 0.709804
0.709804 0.709804 0.709804
0.709804 0.709804 0.709804
0.709804 0.709804 0.709804
0.709804 0.709804 0.709804
0.094118 0.094118 0.094118
0.125490 0.125490 0.125490
0.145098 0.145098 0.145098
0.156863 0.156863 0.156863
0.176471 0.176471 0.176471
0.196078 0.196078 0.196078
0.235294 0.235294 0.235294
0.286275 0.286275 0.286275
0.329412 0.329412 0.329412
0.345098 0.345098 0.345098
0.396078 0.396078 0.396078
0.443137 0.443137 0.443137
0.474510 0.474510 0.474510
0.505882 0.505882 0.505882
0.552941 0.552941 0.552941
0.580392 0.580392 0.580392
0.615686 0.615686 0.615686
0.643137 0.643137 0.643137
0.666667 0.666667 0.666667
0.686275 0.686275 0.686275
0.701961 0.701961 0.701961
0.709804 0.709804 0.709804
0.709804 0.709804 0.709804
0.709804 0.709804 0.709804
0.709804 0.709804 0.709804
0.094118 0.094118 0.094118
0.145098 0.145098 0.145098
0.192157 0.192157 0.192157
0.188235 0.188235 0.188235
0.203922 0.203922 0.203922
0.223529 0.223529 0.223529
0.254902 0.254902 0.254902
0.317647 0.317647 0.317647
0.356863 0.356863 0.356863
0.380392 0.380392 0.380392
0.415686 0.415686 0.415686
0.458824 0.458824 0.458824
0.486275 0.486275 0.486275
0.525490 0.525490 0.525490
0.560784 0.560784 0.560784
0.588235 0.588235 0.588235
0.627451 0.627451 0.627451
0.654902 0.654902 0.654902
0.674510 0.674510 0.674510
0.674510 0.674510 0.674510
0.690196 0.690196 0.690196
0.709804 0.709804 0.709804
0.709804 0.709804 0.709804
0.709804 0.709804 0.709804
0.709804 0.709804 0.709804
0.137255 0.137255 0.137255
0.188235 0.188235 0.188235
0.219608 0.219608 0.219608
0.219608 0.219608 0.219608
0.243137 0.243137 0.243137
0.254902 0.254902 0.254902
0.274510 0.274510 0.274510
0.337255 0.337255 0.337255
0.376471 0.376471 0.376471
0.403922 0.403922 0.403922
0.443137 0.443137 0.443137
0.474510 0.474510 0.474510
0.505882 0.505882 0.505882
0.533333 0.533333 0.537255
0.572549 0.572549 0.572549
0.600000 0.600000 0.600000
0.627451 0.627451 0.627451
0.658824 0.658824 0.658824
0.678431 0.678431 0.678431
0.682353 0.682353 0.682353
0.682353 0.682353 0.682353
0.690196 0.690196 0.690196
0.713725 0.713725 0.713725
0.741176 0.741176 0.741176
0.752941 0.752941 0.752941
0.176471 0.176471 0.176471
0.219608 0.219608 0.219608
0.239216 0.239216 0.239216
0.239216 0.239216 0.239216
0.258824 0.258824 0.258824
0.282353 0.282353 0.282353
0.298039 0.298039 0.298039
0.345098 0.345098 0.345098
0.400000 0.400000 0.400000
0.423529 0.423529 0.423529
0.454902 0.454902 0.454902
0.498039 0.498039 0.498039
0.521569 0.521569 0.521569
0.549020 0.549020 0.549020
0.580392 0.580392 0.580392
0.607843 0.607843 0.607843
0.643137 0.643137 0.643137
0.662745 0.662745 0.662745
0.690196 0.690196 0.690196
0.690196 0.690196 0.690196
0.690196 0.690196 0.690196
0.690196 0.690196 0.690196
0.725490 0.725490 0.725490
0.749020 0.749020 0.749020
0.772549 0.772549 0.772549
0.239216 0.239216 0.239216
0.239216 0.239216 0.239216
0.239216 0.239216 0.239216
0.239216 0.239216 0.239216
0.262745 0.262745 0.262745
0.294118 0.294118 0.294118
0.325490 0.325490 0.325490
0.368627 0.368627 0.368627
0.411765 0.411765 0.411765
0.435294 0.435294 0.435294
0.470588 0.470588 0.470588
0.505882 0.505882 0.505882
0.537255 0.537255 0.537255
0.572549 0.572549 0.572549
0.596078 0.596078 0.596078
0.627451 0.627451 0.627451
0.650980 0.650980 0.650980
0.678431 0.678431 0.678431
0.701961 0.701961 0.701961
0.701961 0.701961 0.701961
0.701961 0.701961 0.701961
0.701961 0.701961 0.701961
0.733333 0.733333 0.733333
0.749020 0.749020 0.749020
0.749020 0.749020 0.749020
0.176471 0.176471 0.176471
0.219608 0.219608 0.219608
0.239216 0.239216 0.239216
0.239216 0.239216 0.239216
0.270588 0.270588 0.270588
0.309804 0.309804 0.309804
0.329412 0.329412 0.329412
0.376471 0.376471 0.376471
0.419608 0.419608 0.419608
0.450980 0.450980 0.450980
0.478431 0.478431 0.478431
0.505882 0.505882 0.505882
0.564706 0.564706 0.564706
0.580392 0.580392 0.580392
0.600000 0.600000 0.600000
0.643137 0.643137 0.643137
0.662745 0.662745 0.662745
0.686275 0.686275 0.686275
0.709804 0.709804 0.709804
0.709804 0.709804 0.709804
0.709804 0.709804 0.709804
0.709804 0.709804 0.709804
0.745098 0.745098 0.745098
0.768627 0.768627 0.768627
0.788235 0.788235 0.788235
0.152941 0.152941 0.152941
0.211765 0.211765 0.211765
0.239216 0.239216 0.239216
0.243137 0.243137 0.243137
0.305882 0.305882 0.305882
0.337255 0.337255 0.337255
0.337255 0.337255 0.337255
0.396078 0.396078 0.396078
0.439216 0.439216 0.439216
0.462745 0.462745 0.462745
0.474510 0.474510 0.474510
0.525490 0.525490 0.525490
0.592157 0.592157 0.592157
0.600000 0.600000 0.600000
0.623529 0.623529 0.623529
0.654902 0.654902 0.654902
0.674510 0.674510 0.674510
0.698039 0.698039 0.698039
0.721569 0.721569 0.721569
0.717647 0.717647 0.717647
0.717647 0.717647 0.717647
0.729412 0.729412 0.729412
0.756863 0.756863 0.756863
0.772549 0.772549 0.772549
0.796078 0.796078 0.796078
0.152941 0.152941 0.152941
0.203922 0.203922 0.203922
0.239216 0.239216 0.239216
0.239216 0.239216 0.239216
0.349020 0.349020 0.349020
0.376471 0.376471 0.376471
0.337255 0.337255 0.337255
0.407843 0.407843 0.407843
0.462745 0.462745 0.462745
0.466667 0.466667 0.466667
0.466667 0.466667 0.466667
0.529412 0.529412 0.529412
0.615686 0.615686 0.615686
0.623529 0.623529 0.623529
0.635294 0.635294 0.635294
0.654902 0.654902 0.654902
0.690196 0.690196 0.690196
0.721569 0.721569 0.721569
0.745098 0.745098 0.745098
0.725490 0.725490 0.725490
0.737255 0.737255 0.737255
0.768627 0.768627 0.768627
0.768627 0.768627 0.768627
0.772549 0.772549 0.772549
0.772549 0.772549 0.772549
0.243137 0.243137 0.243137
0.247059 0.247059 0.247059
0.239216 0.239216 0.239216
0.243137 0.243137 0.243137
0.352941 0.352941 0.352941
0.384314 0.384314 0.384314
0.341176 0.341176 0.341176
0.392157 0.392157 0.392157
0.439216 0.439216 0.439216
0.462745 0.462745 0.462745
0.486275 0.486275 0.486275
0.549020 0.549020 0.549020
0.623529 0.623529 0.623529
0.623529 0.623529 0.623529
0.650980 0.650980 0.650980
0.682353 0.682353 0.682353
0.698039 0.698039 0.698039
0.721569 0.721569 0.721569
0.745098 0.745098 0.745098
0.741176 0.741176 0.741176
0.752941 0.752941 0.752941
0.768627 0.768627 0.768627
0.768627 0.768627 0.768627
0.784314 0.784314 0.784314
0.807843 0.807843 0.807843
0.301961 0.301961 0.301961
0.258824 0.258824 0.258824
0.239216 0.239216 0.239216
0.239216 0.239216 0.239216
0.309804 0.309804 0.309804
0.352941 0.352941 0.352941
0.337255 0.337255 0.337255
0.368627 0.368627 0.368627
0.419608 0.419608 0.419608
0.482353 0.482353 0.482353
0.505882 0.505882 0.505882
0.556863 0.556863 0.556863
0.611765 0.611765 0.611765
0.619608 0.619608 0.619608
0.643137 0.643137 0.643137
0.678431 0.678431 0.678431
0.690196 0.690196 0.690196
0.713725 0.713725 0.713725
0.745098 0.745098 0.745098
0.752941 0.752941 0.752941
0.760784 0.760784 0.760784
0.768627 0.768627 0.768627
0.784314 0.784314 0.784314
0.803922 0.803922 0.803922
0.835294 0.835294 0.835294
0.301961 0.301961 0.301961
0.258824 0.258824 0.258824
0.239216 0.239216 0.239216
0.239216 0.239216 0.239216
0.282353 0.282353 0.282353
0.317647 0.317647 0.317647
0.337255 0.337255 0.337255
0.376471 0.376471 0.376471
0.443137 0.443137 0.443137
0.517647 0.517647 0.517647
0.521569 0.521569 0.521569
0.552941 0.552941 0.552941
0.596078 0.596078 0.596078
0.611765 0.611765 0.611765
0.623529 0.623529 0.623529
0.623529 0.623529 0.623529
0.670588 0.670588 0.670588
0.713725 0.713725 0.713725
0.745098 0.745098 0.745098
0.760784 0.760784 0.760784
0.768627 0.768627 0.768627
0.768627 0.768627 0.768627
0.811765 0.811765 0.811765
0.835294 0.835294 0.835294
0.835294 0.835294 0.835294
0.301961 0.301961 0.301961
0.266667 0.266667 0.266667
0.239216 0.239216 0.239216
0.243137 0.243137 0.243137
0.364706 0.364706 0.364706
0.427451 0.427451 0.427451
0.427451 0.427451 0.427451
0.443137 0.443137 0.443137
0.474510 0.474510 0.474510
0.517647 0.517647 0.517647
0.521569 0.521569 0.521569
0.541176 0.541176 0.541176
0.596078 0.596078 0.596078
0.611765 0.611765 0.611765
0.623529 0.623529 0.623529
0.627451 0.627451 0.627451
0.670588 0.670588 0.670588
0.713725 0.713725 0.713725
0.745098 0.745098 0.745098
0.760784 0.760784 0.760784
0.788235 0.788235 0.788235
0.811765 0.811765 0.811765
0.827451 0.827451 0.827451
0.835294 0.835294 0.835294
0.835294 0.835294 0.835294
0.329412 0.329412 0.329412
0.309804 0.309804 0.309804
0.274510 0.274510 0.274510
0.270588 0.270588 0.270588
0.380392 0.380392 0.380392
0.470588 0.470588 0.470588
0.470588 0.470588 0.470588
0.482353 0.482353 0.482353
0.501961 0.501961 0.501961
0.529412 0.529412 0.529412
0.533333 0.533333 0.533333
0.572549 0.572549 0.572549
0.627451 0.627451 0.627451
0.623529 0.623529 0.623529
0.635294 0.635294 0.635294
0.650980 0.650980 0.650980
0.682353 0.682353 0.682353
0.713725 0.713725 0.713725
0.745098 0.745098 0.745098
0.756863 0.756863 0.756863
0.784314 0.784314 0.784314
0.835294 0.835294 0.835294
0.835294 0.835294 0.835294
0.835294 0.835294 0.835294
0.835294 0.835294 0.835294
0.364706 0.364706 0.364706
0.364706 0.364706 0.364706
0.345098 0.345098 0.345098
0.313725 0.313725 0.313725
0.419608 0.419608 0.419608
0.470588 0.470588 0.470588
0.470588 0.470588 0.470588
0.478431 0.478431 0.478431
0.517647 0.517647 0.517647
0.556863 0.556863 0.556863
0.560784 0.560784 0.560784
0.603922 0.603922 0.603922
0.662745 0.662745 0.662745
0.635294 0.635294 0.635294
0.643137 0.643137 0.643137
0.690196 0.690196 0.690196
0.698039 0.698039 0.698039
0.713725 0.713725 0.713725
0.745098 0.745098 0.745098
0.745098 0.745098 0.745098
0.772549 0.772549 0.772549
0.835294 0.835294 0.835294
0.835294 0.835294 0.835294
0.835294 0.835294 0.835294
0.835294 0.835294 0.835294
0.364706 0.364706 0.364706
0.364706 0.364706 0.364706
0.349020 0.349020 0.349020
0.305882 0.305882 0.305882
0.419608 0.419608 0.419608
0.470588 0.470588 0.470588
0.470588 0.470588 0.470588
0.478431 0.478431 0.478431
0.517647 0.517647 0.517647
0.560784 0.560784 0.560784
0.560784 0.560784 0.560784
0.603922 0.603922 0.603922
0.662745 0.662745 0.662745
0.658824 0.658824 0.658824
0.662745 0.662745 0.662745
0.690196 0.690196 0.690196
0.705882 0.705882 0.705882
0.741176 0.741176 0.741176
0.768627 0.768627 0.768627
0.788235 0.788235 0.788235
0.807843 0.807843 0.807843
0.835294 0.835294 0.835294
0.835294 0.835294 0.835294
0.835294 0.835294 0.835294
0.835294 0.835294 0.835294
0.364706 0.364706 0.364706
0.364706 0.364706 0.364706
0.352941 0.352941 0.352941
0.313725 0.313725 0.313725
0.400000 0.400000 0.400000
0.470588 0.470588 0.470588
0.470588 0.470588 0.470588
0.478431 0.478431 0.478431
0.517647 0.517647 0.517647
0.560784 0.560784 0.560784
0.560784 0.560784 0.560784
0.603922 0.603922 0.603922
0.662745 0.662745 0.662745
0.662745 0.662745 0.662745
0.674510 0.674510 0.674510
0.690196 0.690196 0.690196
0.721569 0.721569 0.721569
0.760784 0.760784 0.760784
0.788235 0.788235 0.788235
0.807843 0.807843 0.807843
0.823529 0.823529 0.823529
0.827451 0.827451 0.827451
0.831373 0.831373 0.831373
0.835294 0.835294 0.835294
0.839216 0.839216 0.839216
0.364706 0.364706 0.364706
0.364706 0.364706 0.364706
0.349020 0.349020 0.349020
0.313725 0.313725 0.313725
0.400000 0.400000 0.400000
0.470588 0.470588 0.470588
0.470588 0.470588 0.470588
0.478431 0.478431 0.478431
0.517647 0.517647 0.517647
0.560784 0.560784 0.560784
0.560784 0.560784 0.560784
0.603922 0.603922 0.603922
0.662745 0.662745 0.662745
0.658824 0.658824 0.658824
0.666667 0.666667 0.666667
0.690196 0.690196 0.690196
0.745098 0.745098 0.745098
0.784314 0.784314 0.784314
0.784314 0.784314 0.784314
0.807843 0.807843 0.807843
0.815686 0.815686 0.815686
0.815686 0.815686 0.815686
0.827451 0.827451 0.827451
0.835294 0.835294 0.835294
0.843137 0.843137 0.843137
0.000000 0.000000 0.000000
0.003922 0.003922 0.003922
0.007843 0.007843 0.007843
0.015686 0.015686 0.015686
0.039216 0.039216 0.039216
0.070588 0.070588 0.070588
0.113725 0.113725 0.113725
0.160784 0.160784 0.160784
0.211765 0.211765 0.211765
0.254902 0.254902 0.254902
0.305882 0.305882 0.305882
0.356863 0.356863 0.356863
0.392157 0.392157 0.392157
0.470588 0.470588 0.470588
0.513725 0.513725 0.513725
0.549020 0.549020 0.549020
0.572549 0.572549 0.572549
0.600000 0.600000 0.600000
0.627451 0.627451 0.627451
0.619608 0.619608 0.619608
0.635294 0.635294 0.635294
0.647059 0.647059 0.647059
0.647059 0.647059 0.647059
0.647059 0.647059 0.647059
0.647059 0.647059 0.647059
0.003922 0.003922 0.003922
0.003922 0.003922 0.003922
0.011765 0.011765 0.011765
0.019608 0.019608 0.019608
0.043137 0.043137 0.043137
0.070588 0.070588 0.070588
0.113725 0.113725 0.113725
0.152941 0.152941 0.152941
0.215686 0.215686 0.215686
0.258824 0.258824 0.258824
0.309804 0.309804 0.309804
0.368627 0.368627 0.368627
0.407843 0.407843 0.407843
0.474510 0.474510 0.474510
0.517647 0.517647 0.517647
0.549020 0.549020 0.549020
0.572549 0.572549 0.572549
0.600000 0.600000 0.600000
0.627451 0.627451 0.627451
0.635294 0.635294 0.635294
0.639216 0.639216 0.639216
0.647059 0.647059 0.647059
0.647059 0.647059 0.647059
0.654902 0.654902 0.654902
0.674510 0.674510 0.674510
0.003922 0.003922 0.003922
0.007843 0.007843 0.007843
0.015686 0.015686 0.015686
0.027451 0.027451 0.027451
0.043137 0.043137 0.043137
0.074510 0.074510 0.074510
0.117647 0.117647 0.117647
0.168627 0.168627 0.168627
0.223529 0.223529 0.223529
0.266667 0.266667 0.266667
0.313725 0.313725 0.313725
0.376471 0.376471 0.376471
0.419608 0.419608 0.419608
0.474510 0.474510 0.474510
0.513725 0.513725 0.513725
0.549020 0.549020 0.549020
0.572549 0.572549 0.572549
0.607843 0.607843 0.607843
0.627451 0.627451 0.627451
0.643137 0.643137 0.643137
0.643137 0.643137 0.643137
0.647059 0.647059 0.647059
0.654902 0.654902 0.654902
0.670588 0.670588 0.670588
0.686275 0.686275 0.686275
0.007843 0.007843 0.007843
0.011765 0.011765 0.011765
0.023529 0.023529 0.023529
0.031373 0.031373 0.031373
0.062745 0.062745 0.062745
0.090196 0.090196 0.090196
0.121569 0.121569 0.121569
0.172549 0.172549 0.172549
0.223529 0.223529 0.223529
0.274510 0.274510 0.274510
0.321569 0.321569 0.321569
0.376471 0.376471 0.376471
0.415686 0.415686 0.415686
0.466667 0.466667 0.466667
0.517647 0.517647 0.517647
0.549020 0.549020 0.549020
0.572549 0.572549 0.572549
0.611765 0.611765 0.611765
0.639216 0.639216 0.639216
0.647059 0.647059 0.647059
0.647059 0.647059 0.647059
0.647059 0.647059 0.647059
0.670588 0.670588 0.670588
0.694118 0.694118 0.694118
0.705882 0.705882 0.705882
0.015686 0.015686 0.015686
0.023529 0.023529 0.023529
0.035294 0.035294 0.035294
0.043137 0.043137 0.043137
0.078431 0.078431 0.078431
0.105882 0.105882 0.105882
0.133333 0.133333 0.133333
0.196078 0.196078 0.196078
0.247059 0.247059 0.247059
0.290196 0.290196 0.290196
0.329412 0.329412 0.329412
0.388235 0.388235 0.388235
0.427451 0.427451 0.427451
0.478431 0.478431 0.478431
0.521569 0.521569 0.521569
0.552941 0.552941 0.552941
0.588235 0.588235 0.588235
0.611765 0.611765 0.611765
0.643137 0.643137 0.643137
0.643137 0.643137 0.643137
0.654902 0.654902 0.654902
0.674510 0.674510 0.674510
0.690196 0.690196 0.690196
0.701961 0.701961 0.701961
0.709804 0.709804 0.709804
0.027451 0.027451 0.027451
0.035294 0.035294 0.035294
0.050980 0.050980 0.050980
0.062745 0.062745 0.062745
0.094118 0.094118 0.094118
0.121569 0.121569 0.121569
0.152941 0.152941 0.152941
0.211765 0.211765 0.211765
0.254902 0.254902 0.254902
0.301961 0.301961 0.301961
0.352941 0.352941 0.352941
0.392157 0.392157 0.392157
0.435294 0.435294 0.435294
0.474510 0.474510 0.474510
0.517647 0.517647 0.517647
0.560784 0.560784 0.560784
0.588235 0.588235 0.588235
0.619608 0.619608 0.619608
0.650980 0.650980 0.650980
0.658824 0.658824 0.658824
0.674510 0.674510 0.674510
0.694118 0.694118 0.694118
0.701961 0.701961 0.701961
0.709804 0.709804 0.709804
0.709804 0.709804 0.709804
0.043137 0.043137 0.043137
0.062745 0.062745 0.062745
0.070588 0.070588 0.070588
0.086275 0.086275 0.086275
0.105882 0.105882 0.105882
0.129412 0.129412 0.129412
0.168627 0.168627 0.168627
0.223529 0.223529 0.223529
0.282353 0.282353 0.282353
0.317647 0.317647 0.317647
0.356863 0.356863 0.356863
0.400000 0.400000 0.400000
0.443137 0.443137 0.443137
0.490196 0.490196 0.490196
0.525490 0.525490 0.525490
0.568627 0.568627 0.568627
0.596078 0.596078 0.596078
0.631373 0.631373 0.631373
0.654902 0.654902 0.654902
0.694118 0.694118 0.694118
0.701961 0.701961 0.701961
0.705882 0.705882 0.705882
0.709804 0.709804 0.709804
0.709804 0.709804 0.709804
0.709804 0.709804 0.709804
0.078431 0.078431 0.078431
0.082353 0.082353 0.082353
0.101961 0.101961 0.101961
0.117647 0.117647 0.117647
0.145098 0.145098 0.145098
0.168627 0.168627 0.168627
0.207843 0.207843 0.207843
0.247059 0.247059 0.247059
0.301961 0.301961 0.301961
0.333333 0.333333 0.333333
0.384314 0.384314 0.384314
0.419608 0.419608 0.419608
0.458824 0.458824 0.458824
0.498039 0.498039 0.498039
0.537255 0.537255 0.537255
0.572549 0.572549 0.572549
0.603922 0.603922 0.603922
0.639216 0.639216 0.639216
0.662745 0.662745 0.662745
0.694118 0.694118 0.694118
0.709804 0.709804 0.709804
0.709804 0.709804 0.709804
0.709804 0.709804 0.709804
0.709804 0.709804 0.709804
0.709804 0.709804 0.709804
0.101961 0.101961 0.101961
0.125490 0.125490 0.125490
0.141176 0.141176 0.141176
0.160784 0.160784 0.160784
0.168627 0.168627 0.168627
0.203922 0.203922 0.203922
0.243137 0.243137 0.243137
0.278431 0.278431 0.278431
0.325490 0.325490 0.325490
0.360784 0.360784 0.360784
0.392157 0.392157 0.392157
0.443137 0.443137 0.443137
0.474510 0.474510 0.474510
0.509804 0.509804 0.509804
0.552941 0.552941 0.552941
0.588235 0.588235 0.588235
0.611765 0.611765 0.611765
0.647059 0.647059 0.647059
0.674510 0.674510 0.674510
0.698039 0.698039 0.698039
0.709804 0.709804 0.709804
0.709804 0.709804 0.709804
0.709804 0.709804 0.709804
0.713725 0.713725 0.713725
0.725490 0.725490 0.725490
0.133333 0.133333 0.133333
0.156863 0.156863 0.156863
0.176471 0.176471 0.176471
0.188235 0.188235 0.188235
0.211765 0.211765 0.211765
0.231373 0.231373 0.231373
0.262745 0.262745 0.262745
0.309804 0.309804 0.309804
0.345098 0.345098 0.345098
0.380392 0.380392 0.380392
0.419608 0.419608 0.419608
0.454902 0.454902 0.454902
0.486275 0.486275 0.486275
0.525490 0.525490 0.525490
0.564706 0.564706 0.564706
0.592157 0.592157 0.592157
0.619608 0.619608 0.619608
0.650980 0.650980 0.650980
0.674510 0.674510 0.674510
0.698039 0.698039 0.698039
0.709804 0.709804 0.709804
0.709804 0.709804 0.709804
0.709804 0.709804 0.709804
0.733333 0.733333 0.733333
0.749020 0.749020 0.749020
0.145098 0.145098 0.145098
0.188235 0.188235 0.188235
0.219608 0.219608 0.219608
0.219608 0.219608 0.219608
0.239216 0.239216 0.239216
0.258824 0.258824 0.258824
0.278431 0.278431 0.278431
0.333333 0.333333 0.333333
0.364706 0.364706 0.364706
