luts/Fujifilm_Negative.cube
# Generated for krafta web app
# https://www.facebook.com/krafta.visio
# Preset: FUJ - Negative
# Color profile : sRGB Color Space Profile
LUT_3D_SIZE 16
DOMAIN_MIN 0.0 0.0 0.0
DOMAIN_MAX 1.0 1.0 1.0
0.000000 0.000000 0.000000
0.093172 0.000000 0.000000
0.187167 0.000000 0.000000
0.267369 0.000305 0.000000
0.336645 0.000031 0.000336
0.403235 0.000122 0.000122
0.466896 0.000275 0.000397
0.532982 0.000153 0.000031
0.597131 0.000336 0.000305
0.661646 0.000244 0.000214
0.724697 0.000275 0.000214
0.784695 0.001678 0.001343
0.843565 0.005127 0.003845
0.903807 0.007935 0.006928
0.964141 0.010468 0.008789
1.000000 0.010224 0.009186
0.000000 0.097597 0.000000
0.094545 0.094850 0.000000
0.179660 0.095857 0.000000
0.259495 0.093507 0.000000
0.330388 0.088838 0.000000
0.397345 0.084535 0.000000
0.464668 0.081117 0.000000
0.531121 0.079042 0.000000
0.594903 0.077302 0.000000
0.659907 0.075837 0.000000
0.722957 0.075563 0.000000
0.782773 0.075776 0.002045
0.841398 0.075288 0.003967
0.901762 0.076265 0.006775
0.962371 0.077089 0.009216
1.000000 0.076356 0.009949
0.000000 0.179538 0.000000
0.091585 0.175601 0.000000
0.171298 0.171420 0.000000
0.248814 0.168307 0.000000
0.321599 0.163882 0.000000
0.392432 0.160403 0.000000
0.460578 0.157015 0.000000
0.526818 0.153811 0.000000
0.591241 0.150881 0.000000
0.657282 0.149111 0.000000
0.720119 0.147494 0.000000
0.779904 0.145388 0.002380
0.838254 0.143801 0.005035
0.899321 0.142855 0.007355
0.960235 0.142214 0.009216
1.000000 0.141054 0.010468
0.000000 0.249577 0.000000
0.084443 0.246799 0.000000
0.163973 0.243839 0.000000
0.240482 0.240604 0.000000
0.313237 0.236271 0.000000
0.383673 0.232456 0.000000
0.451606 0.228244 0.000000
0.518700 0.224918 0.000000
0.585290 0.222202 0.000000
0.651240 0.220005 0.000000
0.713649 0.217105 0.001099
0.773465 0.214084 0.003815
0.833097 0.211276 0.005829
0.893584 0.209293 0.007599
0.953491 0.207431 0.007874
1.000000 0.205478 0.007904
0.000000 0.313054 0.000000
0.081056 0.312505 0.000000
0.158572 0.312505 0.000000
0.234409 0.310765 0.000000
0.307897 0.307927 0.000000
0.379309 0.304479 0.000000
0.448402 0.300633 0.000000
0.516686 0.297459 0.000000
0.583917 0.294316 0.000244
0.650813 0.291844 0.001099
0.713405 0.288151 0.003388
0.774472 0.284428 0.006409
0.835508 0.281621 0.008942
0.896971 0.279179 0.010986
0.957214 0.276493 0.011994
1.000000 0.272984 0.010254
0.000000 0.377691 0.000000
0.080018 0.378454 0.000000
0.154910 0.378576 0.000000
0.228763 0.377142 0.000000
0.300542 0.374426 0.000000
0.371374 0.371405 0.000397
0.441321 0.368597 0.001404
0.510552 0.366217 0.002106
0.578210 0.363195 0.002869
0.644862 0.360266 0.002869
0.707301 0.355871 0.006226
0.769375 0.352026 0.008759
0.830716 0.348577 0.010407
0.892271 0.345678 0.012757
0.952880 0.342657 0.012909
1.000000 0.338933 0.009735
0.003143 0.442206 0.003693
0.080720 0.443000 0.003540
0.152102 0.443000 0.003510
0.224247 0.441901 0.003388
0.295323 0.440314 0.004028
0.365911 0.438270 0.004211
0.435981 0.436103 0.004364
0.504875 0.433509 0.003967
0.571679 0.429938 0.004913
0.637507 0.426490 0.005493
0.700801 0.422156 0.008057
0.763607 0.418463 0.010956
0.825406 0.414679 0.012055
0.887205 0.411383 0.012482
0.948241 0.408087 0.012360
1.000000 0.404486 0.008057
0.005585 0.505211 0.006287
0.079561 0.506920 0.006775
0.149813 0.507774 0.006806
0.221042 0.507256 0.007080
0.291478 0.505821 0.006683
0.360815 0.503105 0.006561
0.428962 0.499733 0.005737
0.496498 0.496498 0.005341
0.563226 0.493355 0.005493
0.628992 0.490089 0.006531
0.693080 0.486305 0.009461
0.756619 0.482734 0.010864
0.818845 0.479011 0.011536
0.880613 0.475410 0.010864
0.941680 0.471778 0.008637
1.000000 0.469154 0.005005
0.005951 0.560174 0.006500
0.075349 0.560388 0.006409
0.144289 0.561059 0.006714
0.213443 0.561242 0.007050
0.282597 0.561028 0.007843
0.351507 0.560296 0.007782
0.420325 0.559289 0.007172
0.488472 0.557824 0.008118
0.556207 0.556329 0.008301
0.623468 0.554681 0.008484
0.689174 0.552087 0.011231
0.753628 0.549126 0.013611
0.816770 0.545556 0.013855
0.878874 0.541863 0.011994
0.940429 0.538170 0.009339
1.000000 0.533898 0.001404
0.009857 0.620508 0.010651
0.076204 0.619867 0.010498
0.142184 0.619806 0.010620
0.209812 0.619501 0.010712
0.277440 0.619165 0.010742
0.345373 0.618677 0.010620
0.413336 0.618341 0.010590
0.480934 0.617517 0.010956
0.548425 0.616693 0.010986
0.615290 0.615473 0.011078
0.681788 0.613947 0.010468
0.745937 0.610803 0.010742
0.809171 0.607385 0.009674
0.872374 0.604456 0.007446
0.935058 0.601343 0.002441
0.996643 0.597711 0.000000
0.010986 0.679866 0.011963
0.074983 0.679500 0.011322
0.140200 0.679164 0.011261
0.206485 0.678798 0.011322
0.273350 0.678462 0.011566
0.340185 0.677974 0.011048
0.407385 0.677485 0.010376
0.474281 0.676753 0.010254
0.541100 0.675990 0.009827
0.607385 0.674800 0.009247
0.673365 0.673457 0.007782
0.738643 0.671656 0.006531
0.802701 0.669093 0.003449
0.866423 0.666621 0.000000
0.929625 0.663813 0.000000
0.991791 0.660426 0.000000
0.006989 0.738949 0.008240
0.071015 0.738582 0.007324
0.136172 0.738308 0.007294
0.202792 0.737850 0.006867
0.268833 0.737301 0.005737
0.335332 0.736629 0.005097
0.401709 0.735958 0.003998
0.467842 0.735256 0.003021
0.534173 0.734554 0.001709
0.599939 0.733516 0.000580
0.665675 0.732479 0.000000
0.731136 0.731228 0.000000
0.796475 0.730159 0.000000
0.860838 0.728237 0.000000
0.924681 0.726070 0.000000
0.988586 0.723995 0.000000
0.000000 0.791745 0.000000
0.050874 0.791867 0.000000
0.125063 0.792477 0.000000
0.194003 0.792996 0.000000
0.261967 0.793851 0.000000
0.328923 0.794369 0.000000
0.396094 0.795102 0.000000
0.463050 0.795499 0.000000
0.530114 0.796170 0.000000
0.596857 0.796475 0.000000
0.663813 0.796963 0.000000
0.730434 0.797116 0.000000
0.797269 0.797391 0.000000
0.862913 0.796597 0.000000
0.925902 0.793393 0.000000
0.986267 0.787961 0.000000
0.000000 0.857725 0.000000
0.029572 0.854887 0.000000
0.111940 0.853727 0.000000
0.185031 0.853513 0.000000
0.254490 0.854032 0.000000
0.322576 0.854429 0.000000
0.390204 0.854948 0.000000
0.457282 0.855436 0.000000
0.524407 0.856199 0.000000
0.590936 0.856321 0.000000
0.657649 0.856687 0.000000
0.723873 0.856596 0.000000
0.790188 0.856596 0.000000
0.855650 0.855772 0.000000
0.920256 0.854215 0.000000
0.982879 0.850767 0.000000
0.000000 0.918791 0.000000
0.000000 0.916411 0.000000
0.086671 0.915129 0.000000
0.169192 0.914672 0.000000
0.242893 0.914855 0.000000
0.313420 0.915099 0.000000
0.382330 0.915648 0.000000
0.450141 0.915984 0.000000
0.517601 0.916411 0.000000
0.584466 0.916594 0.000000
0.651240 0.916808 0.000000
0.717769 0.916930 0.000000
0.784543 0.917388 0.000000
0.850828 0.917327 0.000000
0.916716 0.916838 0.000000
0.981079 0.914946 0.000000
0.000000 0.981537 0.000000
0.000000 0.979644 0.000000
0.014252 0.978668 0.000000
0.139864 0.978332 0.000000
0.224216 0.978454 0.000000
0.299443 0.978698 0.000000
0.371405 0.979156 0.000000
0.441352 0.979644 0.000000
0.510399 0.980316 0.000000
0.578820 0.980987 0.000000
0.646967 0.981842 0.000000
0.714717 0.982544 0.000000
0.782803 0.983703 0.000000
0.850584 0.984649 0.000000
0.918730 0.985870 0.000000
0.987030 0.987213 0.000000
0.000336 0.000183 0.094575
0.100465 0.000031 0.100923
0.188235 0.000214 0.100069
0.267063 0.000000 0.091951
0.334539 0.000275 0.085969
0.400122 0.000153 0.083101
0.465431 0.000000 0.081270
0.530846 0.000305 0.079469
0.594385 0.000244 0.078126
0.659174 0.000824 0.077180
0.722499 0.002228 0.077058
0.781979 0.006256 0.077150
0.840330 0.008698 0.077058
0.900420 0.011109 0.077180
0.960479 0.012787 0.077424
1.000000 0.012512 0.076051
0.000000 0.099062 0.099123
0.095308 0.095308 0.095308
0.182223 0.091188 0.090974
0.259922 0.087984 0.087892
0.330053 0.085023 0.085237
0.397101 0.083009 0.082826
0.464057 0.081514 0.081575
0.529717 0.080079 0.079713
0.593530 0.078798 0.078523
0.659266 0.077852 0.077577
0.722164 0.077882 0.077668
0.781369 0.078370 0.077577
0.839292 0.077852 0.077302
0.899229 0.077760 0.077150
0.959075 0.078004 0.077058
1.000000 0.076753 0.076143
0.000000 0.181735 0.090974
0.089204 0.177890 0.089143
0.173373 0.173434 0.086885
0.251347 0.169253 0.085054
0.323888 0.165011 0.084077
0.393866 0.161471 0.082643
0.461433 0.157931 0.081544
0.527214 0.154940 0.080049
0.592798 0.152590 0.079011
0.658350 0.150912 0.078157
0.720089 0.148501 0.077729
0.778805 0.146578 0.077790
0.836942 0.144564 0.077089
0.897215 0.143740 0.077363
0.957275 0.142367 0.077028
1.000000 0.140627 0.075685
0.000000 0.252537 0.086763
0.085908 0.249454 0.085695
0.165866 0.246036 0.084565
0.242344 0.242588 0.083131
0.315496 0.238285 0.082582
0.385870 0.234257 0.081697
0.454047 0.230289 0.080751
0.521477 0.227115 0.079896
0.587823 0.224063 0.078889
0.653254 0.221317 0.077974
0.715114 0.218204 0.077363
0.774411 0.215091 0.077790
0.834562 0.212589 0.077638
0.894621 0.210544 0.077455
0.953582 0.207950 0.076173
1.000000 0.205509 0.073823
0.000000 0.313298 0.083162
0.082521 0.312444 0.083009
0.158785 0.310582 0.082704
0.232731 0.307958 0.081849
0.304417 0.304540 0.080873
0.375158 0.301244 0.079988
0.444099 0.298039 0.079591
0.512444 0.295262 0.078798
0.579278 0.292241 0.078065
0.645777 0.289677 0.077119
0.708705 0.286351 0.077302
0.770291 0.283146 0.077760
0.831907 0.280613 0.078248
0.893462 0.278294 0.078370
0.953948 0.275639 0.077852
1.000000 0.272404 0.074922
0.002655 0.377264 0.082155
0.081483 0.377050 0.082307
0.154849 0.375860 0.081941
0.227054 0.374060 0.081575
0.298497 0.371588 0.080293
0.368627 0.368750 0.079805
0.437751 0.365759 0.079011
0.506188 0.363134 0.078370
0.573510 0.360296 0.077760
0.639979 0.357549 0.076905
0.703151 0.353857 0.077638
0.765682 0.350500 0.078309
0.827298 0.347204 0.078035
0.888731 0.344274 0.077638
0.949432 0.341344 0.076600
1.000000 0.338018 0.073518
0.005493 0.442329 0.081544
0.081270 0.442634 0.082155
0.152621 0.441718 0.081514
0.223575 0.440192 0.081300
0.294133 0.438056 0.080537
0.363867 0.435645 0.079957
0.432776 0.432776 0.079133
0.500725 0.429938 0.078126
0.567834 0.427131 0.076997
0.633845 0.423896 0.076905
0.696895 0.419776 0.077607
0.759609 0.416114 0.078004
0.821530 0.412543 0.077150
0.883299 0.409308 0.076631
0.944427 0.406165 0.074495
1.000000 0.403082 0.071382
0.006348 0.504234 0.080079
0.080720 0.504997 0.080476
0.149233 0.504662 0.080354
0.219608 0.503502 0.080079
0.289097 0.501823 0.079072
0.358160 0.499489 0.078950
0.426429 0.496773 0.077790
0.493812 0.493904 0.076936
0.560418 0.490913 0.075837
0.625940 0.487709 0.076234
0.689815 0.484016 0.076631
0.753231 0.480568 0.076844
0.815763 0.477058 0.075929
0.877409 0.473457 0.074495
0.938506 0.469917 0.070985
1.000000 0.467140 0.067018
0.006531 0.561913 0.077211
0.076844 0.561700 0.077607
0.144686 0.561425 0.077516
0.213413 0.560815 0.077211
0.282109 0.560082 0.077211
0.350652 0.559106 0.076936
0.419348 0.558038 0.076905
0.487373 0.556481 0.076814
0.554742 0.554772 0.076448
0.621607 0.552972 0.076234
0.687068 0.550378 0.077150
0.751461 0.547417 0.077821
0.814511 0.543969 0.077058
0.877073 0.540642 0.075654
0.939300 0.537499 0.072999
1.000000 0.533776 0.067262
0.010773 0.620722 0.077790
0.077272 0.620294 0.077668
0.142763 0.619867 0.077668
0.209964 0.619440 0.077302
0.277440 0.619043 0.077455
0.345098 0.618311 0.077455
0.412757 0.617426 0.077058
0.479927 0.616327 0.076875
0.547021 0.615167 0.076265
0.613581 0.613672 0.075898
0.679591 0.611933 0.074800
0.743801 0.609003 0.074769
0.807401 0.606012 0.073182
0.871000 0.603418 0.071504
0.934203 0.600702 0.067720
0.996551 0.597650 0.060517
0.011475 0.679988 0.077241
0.076234 0.679896 0.077302
0.140810 0.679500 0.077028
0.207156 0.678981 0.076448
0.273503 0.678340 0.076295
0.340124 0.677485 0.075654
0.406744 0.676509 0.075196
0.473365 0.675471 0.074464
0.539879 0.674586 0.073884
0.605951 0.673335 0.072847
0.671626 0.671778 0.071687
0.736812 0.670008 0.070039
0.801022 0.667689 0.067781
0.864988 0.665370 0.064149
0.928527 0.662959 0.058106
0.991211 0.659907 0.047028
0.006439 0.738552 0.072999
0.071809 0.738338 0.072724
0.136660 0.737881 0.072419
0.202396 0.737362 0.071687
0.268711 0.736812 0.070619
0.334966 0.736172 0.070436
0.401343 0.735531 0.069734
0.467506 0.734707 0.068269
0.533471 0.733730 0.067323
0.599115 0.732479 0.065339
0.664454 0.731136 0.063630
0.729580 0.729763 0.061311
0.794644 0.728420 0.058015
0.858793 0.726436 0.051637
0.922545 0.724208 0.040925
0.986725 0.722347 0.025788
0.000000 0.792844 0.053040
0.051514 0.792874 0.053285
0.124880 0.793301 0.053834
0.194125 0.793606 0.054871
0.261662 0.794156 0.055573
0.329046 0.794553 0.056428
0.396246 0.795254 0.057282
0.463111 0.795590 0.057801
0.530022 0.796139 0.058381
0.596612 0.796292 0.058503
0.663508 0.796628 0.059144
0.730068 0.796719 0.058900
0.796933 0.797055 0.059266
0.862638 0.796323 0.056458
0.925902 0.793271 0.044007
0.986572 0.788174 0.011902
0.000000 0.858335 0.041444
0.029328 0.855711 0.031952
0.112642 0.854582 0.027741
0.185061 0.854307 0.026307
0.254765 0.854673 0.027619
0.322759 0.854948 0.027771
0.390234 0.855283 0.028168
0.457221 0.855619 0.027619
0.524254 0.856168 0.029236
0.590753 0.856199 0.027710
0.657374 0.856443 0.027253
0.723629 0.856352 0.024720
0.790005 0.856443 0.022705
0.855619 0.855741 0.016571
0.920378 0.854307 0.005768
0.983215 0.851041 0.000000
0.000000 0.919219 0.000000
0.000000 0.917021 0.000000
0.086152 0.915831 0.000000
0.169039 0.915435 0.000000
0.242954 0.915557 0.000000
0.313359 0.915709 0.000000
0.382269 0.916136 0.000000
0.450050 0.916320 0.000000
0.517418 0.916564 0.000000
0.584283 0.916594 0.000000
0.650965 0.916747 0.000000
0.717617 0.916869 0.000000
0.784360 0.917266 0.000000
0.850736 0.917266 0.000000
0.916747 0.916899 0.000000
0.981323 0.915129 0.000000
0.000000 0.981872 0.000000
0.000000 0.980102 0.000000
0.009949 0.979126 0.000000
0.138186 0.978851 0.000000
0.223087 0.978973 0.000000
0.299016 0.979217 0.000000
0.371069 0.979644 0.000000
0.441169 0.980011 0.000000
0.510124 0.980591 0.000000
0.578607 0.981201 0.000000
0.646754 0.981903 0.000000
0.714504 0.982544 0.000000
0.782467 0.983551 0.000000
0.850278 0.984466 0.000000
0.918456 0.985687 0.000000
0.986908 0.987091 0.000000
0.000702 0.000000 0.199100
0.104463 0.000092 0.195193
0.185550 0.000183 0.186526
0.261601 0.000092 0.177249
0.330602 0.000000 0.168582
0.395239 0.000214 0.162295
0.460456 0.002228 0.159091
0.525383 0.005951 0.156252
0.589502 0.005982 0.152834
0.655207 0.006500 0.151095
0.718807 0.007599 0.149416
0.778683 0.012787 0.148013
0.837522 0.014771 0.146212
0.898528 0.016602 0.145418
0.959045 0.018708 0.144198
1.000000 0.016449 0.142092
0.000000 0.097322 0.191653
0.092927 0.092775 0.185122
0.178378 0.089418 0.178470
0.255344 0.086824 0.172152
0.324529 0.085634 0.165835
0.392126 0.085939 0.162234
0.458839 0.084932 0.158999
0.524437 0.083619 0.155917
0.589654 0.082094 0.153140
0.655665 0.080995 0.151308
0.718685 0.080964 0.149599
0.778195 0.081544 0.148135
0.836851 0.080720 0.146212
0.897429 0.081300 0.145235
0.957733 0.080995 0.143862
1.000000 0.079255 0.141848
0.000000 0.178775 0.178683
0.088319 0.175082 0.175113
0.171237 0.171237 0.171237
0.247868 0.167849 0.167788
0.320012 0.164797 0.164706
0.389654 0.161959 0.161807
0.457252 0.158785 0.158755
0.523125 0.155581 0.155550
0.589685 0.153506 0.153445
0.655177 0.151278 0.151431
0.716884 0.149691 0.149477
0.775875 0.147829 0.147494
0.834806 0.146029 0.145754
0.895384 0.145174 0.144778
0.955901 0.143832 0.143404
1.000000 0.141756 0.141329
0.000000 0.249973 0.169314
0.088167 0.247105 0.167910
0.165713 0.244053 0.165866
0.240848 0.240848 0.163607
0.313115 0.237217 0.161379
0.383154 0.233524 0.159243
0.451118 0.229709 0.156588
0.519097 0.227024 0.154391
0.585260 0.223911 0.152285
0.650599 0.221256 0.150149
0.712459 0.218418 0.148257
0.771939 0.215396 0.146761
0.832670 0.213230 0.145632
0.892821 0.210849 0.144137
0.951934 0.208377 0.141939
1.000000 0.205631 0.139284
0.007691 0.311284 0.161135
0.087007 0.310399 0.160647
0.159335 0.308904 0.159548
0.232181 0.306432 0.158206
0.303349 0.303197 0.156344
0.373266 0.300175 0.154665
0.442023 0.297124 0.152926
0.510124 0.294347 0.151339
0.577050 0.291386 0.149569
0.643366 0.288914 0.148165
0.706325 0.285832 0.146944
0.768429 0.283055 0.146273
0.830350 0.280705 0.145205
0.892088 0.278538 0.144594
0.952911 0.276005 0.143099
1.000000 0.272740 0.140200
0.009339 0.376104 0.156710
0.085512 0.375891 0.156497
0.155856 0.374762 0.156008
0.227451 0.372869 0.155215
0.297917 0.370428 0.153811
0.367651 0.367681 0.152468
0.436347 0.364813 0.150668
0.504723 0.362219 0.149599
0.571984 0.359503 0.148287
0.638209 0.356634 0.146822
0.701534 0.353246 0.146029
0.764157 0.350103 0.145388
0.825956 0.347021 0.144503
0.887602 0.344152 0.143282
0.948547 0.341222 0.141360
1.000000 0.338048 0.138796
0.010651 0.441169 0.153628
0.084199 0.441505 0.153658
0.152865 0.440681 0.153262
0.223697 0.439246 0.152651
0.293736 0.437201 0.151614
0.363378 0.434882 0.150515
0.432074 0.432105 0.149294
0.499855 0.429267 0.147829
0.566766 0.426276 0.146365
0.632532 0.423163 0.145357
0.695613 0.419226 0.144900
0.758389 0.415595 0.143984
0.820371 0.412177 0.142794
0.882200 0.409064 0.141482
0.943572 0.405982 0.139528
1.000000 0.403021 0.136751
0.009033 0.503380 0.149752
0.080568 0.504356 0.150027
0.149660 0.503929 0.149844
0.219455 0.502861 0.149355
0.288884 0.501061 0.148714
0.357702 0.498848 0.147677
0.425788 0.496071 0.146273
0.493233 0.493263 0.145174
0.559716 0.490333 0.143862
0.625147 0.487160 0.143465
0.689021 0.483497 0.143008
0.752407 0.480079 0.142336
0.814878 0.476661 0.141146
0.876524 0.473121 0.139101
0.937804 0.469612 0.136385
0.999939 0.466743 0.133242
0.007568 0.561486 0.144991
0.076905 0.561212 0.145113
0.144930 0.560876 0.145113
0.213321 0.560327 0.144930
0.281987 0.559533 0.144778
0.350561 0.558495 0.144350
0.418952 0.557488 0.144167
0.486915 0.555962 0.143587
0.554162 0.554284 0.143221
0.620996 0.552453 0.142794
0.686427 0.549920 0.143160
0.750759 0.547051 0.142824
0.813779 0.543572 0.141634
0.876555 0.540398 0.140047
0.938964 0.537316 0.137881
1.000000 0.533745 0.133761
0.012726 0.620386 0.143679
0.077424 0.620081 0.143557
0.142824 0.619684 0.143496
0.209964 0.619287 0.143465
0.277836 0.618891 0.143343
0.345098 0.618189 0.143191
0.412665 0.617182 0.142580
0.479744 0.616052 0.142306
0.546807 0.614893 0.141817
0.613275 0.613397 0.141299
0.679133 0.611536 0.140322
0.743343 0.608637 0.139437
0.806912 0.605707 0.138308
0.870665 0.603174 0.136599
0.934020 0.600580 0.134096
0.996521 0.597498 0.129335
0.014710 0.679744 0.141878
0.077302 0.679774 0.141970
0.141390 0.679469 0.141756
0.207156 0.678981 0.141421
0.273594 0.678279 0.141176
0.340215 0.677424 0.140658
0.406867 0.676478 0.140200
0.473396 0.675471 0.139590
0.539879 0.674434 0.138857
0.605829 0.673091 0.138186
0.671412 0.671473 0.137270
0.736538 0.669734 0.135805
0.800687 0.667445 0.134096
0.864805 0.665217 0.131533
0.928435 0.662806 0.127779
0.991241 0.659846 0.121157
0.007111 0.738399 0.137697
0.072084 0.738216 0.137514
0.136690 0.737758 0.137331
0.202487 0.737301 0.136873
0.268772 0.736782 0.136568
0.335088 0.736202 0.135927
0.401526 0.735531 0.135500
0.467536 0.734676 0.134646
0.533471 0.733669 0.133639
0.599054 0.732418 0.132235
0.664363 0.731044 0.130831
0.729519 0.729610 0.129274
0.794491 0.728267 0.127230
0.858640 0.726284 0.123690
0.922454 0.724025 0.117647
0.986694 0.722164 0.110140
0.000000 0.793149 0.125093
0.051057 0.793210 0.125216
0.124605 0.793545 0.125612
0.193668 0.793851 0.125917
0.261601 0.794369 0.126314
0.329046 0.794705 0.126986
0.396216 0.795377 0.127443
0.463050 0.795712 0.127718
0.530114 0.796231 0.128359
0.596765 0.796384 0.128237
0.663600 0.796780 0.128695
0.730282 0.796872 0.128359
0.797116 0.797208 0.128878
0.862760 0.796384 0.127077
0.925963 0.793301 0.120058
0.986786 0.788205 0.103609
0.000000 0.858549 0.118746
0.026459 0.856016 0.114290
0.111452 0.854917 0.112367
0.184176 0.854704 0.111635
0.254185 0.855009 0.111910
0.322393 0.855253 0.112032
0.389960 0.855558 0.112215
0.457130 0.855894 0.112398
0.524254 0.856413 0.112917
0.590814 0.856443 0.112459
0.657435 0.856657 0.112093
0.723720 0.856565 0.110964
0.790127 0.856596 0.110079
0.855711 0.855894 0.106783
0.920531 0.854398 0.101045
0.983459 0.851164 0.082918
0.000000 0.919402 0.094179
0.000000 0.917266 0.087282
0.081819 0.916136 0.083223
0.166903 0.915740 0.081636
0.241611 0.915831 0.081086
0.312413 0.916045 0.080781
0.381750 0.916472 0.081056
0.449744 0.916625 0.080262
0.517113 0.916808 0.079011
0.584009 0.916808 0.077089
0.650935 0.916960 0.075105
0.717617 0.917082 0.072297
0.784421 0.917479 0.070558
0.850858 0.917449 0.065858
0.916930 0.917113 0.058137
0.981598 0.915312 0.036774
0.000000 0.982116 0.024018
0.000000 0.980377 0.008789
0.000000 0.979431 0.000061
0.133486 0.979156 0.000000
0.220645 0.979339 0.000000
0.297154 0.979553 0.000000
0.369696 0.979950 0.000000
0.440040 0.980316 0.000000
0.509422 0.980865 0.000000
0.578088 0.981445 0.000000
0.646357 0.982147 0.000000
0.714260 0.982757 0.000000
0.782315 0.983703 0.000000
0.850248 0.984619 0.000000
0.918486 0.985840 0.000000
0.987030 0.987182 0.000000
0.000031 0.000000 0.278843
0.098329 0.000061 0.274235
0.178927 0.000153 0.265568
0.255009 0.000122 0.255894
0.324895 0.000000 0.245670
0.391424 0.000092 0.237766
0.457343 0.002106 0.232578
0.522118 0.006622 0.228367
0.586358 0.009705 0.224643
0.651850 0.010742 0.222232
0.715328 0.012665 0.219821
0.775509 0.018830 0.217533
0.835111 0.021607 0.215000
0.896635 0.024475 0.213565
0.957458 0.025360 0.211826
1.000000 0.022889 0.209018
0.000000 0.092775 0.269841
0.090455 0.090181 0.263523
0.173251 0.087831 0.256626
0.249546 0.085786 0.249607
0.320256 0.084871 0.242161
0.388983 0.085298 0.236912
0.455512 0.085512 0.232181
0.520623 0.085206 0.228092
0.586419 0.084291 0.225162
0.652277 0.083162 0.222599
0.715236 0.083009 0.219883
0.775021 0.084596 0.217411
0.834623 0.084749 0.215000
0.895537 0.085420 0.213260
0.956176 0.084657 0.211307
1.000000 0.082826 0.208743
0.000000 0.174350 0.257511
0.089021 0.171481 0.252934
0.168795 0.168673 0.248112
0.244450 0.166140 0.244419
0.316320 0.163760 0.239963
0.385748 0.161593 0.235904
0.453101 0.159152 0.231968
0.519707 0.156435 0.228244
0.586114 0.154055 0.225223
0.651667 0.151827 0.222354
0.713497 0.150362 0.219333
0.772763 0.148959 0.216648
0.832639 0.147707 0.214298
0.893614 0.146883 0.212497
0.954406 0.145602 0.210605
1.000000 0.143404 0.208011
0.000000 0.246983 0.246860
0.088136 0.244358 0.244358
0.164889 0.241550 0.241550
0.238712 0.238712 0.238712
0.309819 0.235843 0.235721
0.379706 0.232486 0.232486
0.448096 0.229221 0.229221
0.515984 0.226627 0.226413
0.582177 0.223423 0.223362
0.647547 0.220645 0.220584
0.709438 0.218204 0.217960
0.769436 0.215732 0.215518
0.830716 0.214054 0.213718
0.891112 0.211978 0.211643
0.950561 0.209201 0.208804
1.000000 0.206119 0.205783
0.008728 0.308904 0.234318
0.088167 0.307988 0.233799
0.159548 0.306371 0.232700
0.230930 0.304265 0.231083
0.301427 0.301457 0.228824
0.371008 0.298741 0.226719
0.439704 0.295872 0.224369
0.507866 0.293339 0.222171
0.574701 0.290501 0.219791
0.640955 0.287999 0.217746
0.703822 0.285222 0.216007
0.766567 0.282994 0.214664
0.828733 0.280858 0.213413
0.890654 0.278904 0.211978
0.951690 0.276432 0.209995
1.000000 0.272953 0.206699
0.013092 0.374456 0.228885
0.087068 0.374121 0.228672
0.156191 0.373022 0.227878
0.226535 0.371283 0.226749
0.296605 0.368933 0.225010
0.366308 0.366339 0.223209
0.434882 0.363622 0.221286
0.503136 0.360998 0.219577
0.570153 0.358434 0.217777
0.636316 0.355749 0.215946
0.699733 0.352575 0.214633
0.762509 0.349676 0.213413
0.824460 0.346868 0.211826
0.886290 0.344213 0.210208
0.947448 0.341314 0.208133
1.000000 0.338262 0.205295
0.011688 0.439338 0.224155
0.084657 0.439673 0.224369
0.152651 0.439002 0.223880
0.222995 0.437690 0.223056
0.292821 0.435767 0.221927
0.362249 0.433600 0.220645
0.430945 0.430945 0.219089
0.498573 0.428077 0.217197
0.565209 0.425208 0.215610
0.630945 0.422126 0.213993
0.694118 0.418341 0.212802
0.756954 0.415076 0.211460
0.819089 0.411810 0.209873
0.881102 0.408881 0.208072
0.942718 0.405798 0.205905
1.000000 0.402808 0.203037
0.008453 0.502037 0.219181
