luts/FUJI_REALA_ACE.cube
TITLE "Generated for krafta web app"
LUT_3D_SIZE 9
#INPUTGAMMA sRGB
#IMAGEPROFILE sRGB
#OUTPUTGAMMA sRGB
0.000000 0.000000 0.000000
0.139773 0.013925 0.013374
0.247654 0.026691 0.026014
0.366014 0.038734 0.037736
0.494698 0.054984 0.054030
0.645139 0.071923 0.070743
0.758044 0.086008 0.084618
0.845454 0.095024 0.093050
0.927219 0.100864 0.099180
0.006298 0.106912 -0.000054
0.154920 0.129662 0.010263
0.264887 0.140621 0.025676
0.376111 0.153807 0.039026
0.507111 0.166867 0.054225
0.651157 0.182851 0.069422
0.765855 0.192530 0.079715
0.848073 0.198276 0.089440
0.958943 0.188399 0.090897
0.011692 0.194325 0.000000
0.158065 0.222862 0.003057
0.274679 0.236172 0.019230
0.392100 0.246320 0.036138
0.522065 0.260322 0.050315
0.664629 0.274410 0.066584
0.778491 0.281343 0.075616
0.870187 0.282457 0.087011
0.978554 0.275978 0.087651
0.017716 0.285893 0.000000
0.160894 0.315298 -0.000028
0.278805 0.332069 0.011994
0.401542 0.346941 0.027616
0.535721 0.357746 0.046015
0.678835 0.369076 0.059800
0.797226 0.372573 0.072504
0.901952 0.371980 0.085462
0.987814 0.371630 0.089834
0.024466 0.390865 0.000000
0.164354 0.417971 0.000000
0.281603 0.440257 -0.000017
0.404677 0.454981 0.019807
0.543579 0.469014 0.034907
0.694059 0.477825 0.055058
0.817257 0.483374 0.068342
0.929219 0.478781 0.079540
0.999118 0.480669 0.081730
0.035394 0.512865 0.000000
0.170640 0.539200 0.000000
0.290569 0.561208 0.000000
0.413651 0.581465 -0.000083
0.551008 0.592727 0.025584
0.700832 0.604997 0.031180
0.818506 0.610145 0.036180
0.919854 0.612646 0.043715
0.989754 0.633808 0.080528
0.059901 0.613429 0.000000
0.199139 0.642259 0.000000
0.328219 0.667431 0.000000
0.460134 0.691220 0.000000
0.596078 0.712602 0.007373
0.723060 0.728393 0.030550
0.834553 0.746362 0.066958
0.914474 0.751894 0.078350
0.994593 0.752950 0.069923
0.095177 0.692870 0.000000
0.257635 0.734406 0.000000
0.400043 0.766976 0.000000
0.542153 0.799327 0.000079
0.684112 0.828170 0.019647
0.804611 0.839347 0.030916
0.890062 0.843578 0.040220
0.952240 0.846043 0.060277
0.998091 0.848209 0.060671
0.176185 0.788480 0.000000
0.351452 0.836979 -0.000005
0.497584 0.869872 0.000000
0.651676 0.906518 0.009945
0.771150 0.920934 0.030963
0.871690 0.926796 0.050953
0.937941 0.925170 0.044585
0.988322 0.927066 0.051674
1.000000 0.930814 0.056688
0.005568 0.017855 0.136827
0.144620 0.031658 0.148280
0.253201 0.043303 0.157923
0.369430 0.056240 0.169167
0.501472 0.070536 0.181440
0.644551 0.087967 0.195782
0.761385 0.098585 0.204947
0.849360 0.108702 0.212690
0.931379 0.119858 0.219610
0.024600 0.132988 0.136914
0.145857 0.138519 0.140997
0.240878 0.137639 0.139817
0.348728 0.149082 0.150288
0.474012 0.163608 0.164948
0.619720 0.180813 0.182066
0.745877 0.192115 0.193834
0.840315 0.201146 0.205418
0.936660 0.201995 0.205511
0.029134 0.225568 0.124961
0.154324 0.224957 0.125322
0.251354 0.229690 0.131081
0.357974 0.237538 0.139792
0.484504 0.253407 0.152859
0.634974 0.274331 0.176960
0.768839 0.281195 0.188315
0.870671 0.288688 0.200014
0.966840 0.290465 0.201116
0.034255 0.317029 0.099379
0.159164 0.316337 0.100455
0.264633 0.322917 0.116582
0.376776 0.332603 0.131262
0.508391 0.349808 0.150670
0.657847 0.368427 0.172179
0.787315 0.377405 0.196731
0.898769 0.384726 0.200421
0.984138 0.384841 0.196823
0.040900 0.420619 0.071436
0.162138 0.420500 0.070642
0.272255 0.433997 0.089810
0.392526 0.444943 0.119315
0.530439 0.459683 0.145273
0.686766 0.474387 0.171658
0.814148 0.483100 0.187409
0.925112 0.494476 0.197133
0.994201 0.495890 0.195590
0.050711 0.542264 0.039036
0.170647 0.544200 0.039871
0.292688 0.558766 0.072046
0.415701 0.576325 0.093715
0.547534 0.590543 0.127062
0.697611 0.605455 0.150091
0.815080 0.615770 0.161466
0.920581 0.631546 0.174810
0.994909 0.641490 0.186817
0.085817 0.643246 0.020080
0.231219 0.660371 0.035842
0.359439 0.687828 0.066548
0.489919 0.713241 0.099249
0.615392 0.734423 0.133775
0.710497 0.737786 0.126474
0.822459 0.752317 0.170879
0.913358 0.758866 0.189682
0.990429 0.756991 0.189538
0.150716 0.728976 0.011207
0.312935 0.763501 0.049952
0.446902 0.795836 0.084446
0.578578 0.825200 0.114695
0.701748 0.844716 0.139766
0.807509 0.847526 0.153943
0.887852 0.850442 0.166807
0.943226 0.850899 0.179716
0.994344 0.853254 0.180007
0.247139 0.828222 0.022714
0.415013 0.869223 0.077557
0.552553 0.900721 0.110703
0.674315 0.924172 0.141646
0.766234 0.931097 0.155167
0.850123 0.930076 0.153455
0.925310 0.931966 0.157019
0.984595 0.936192 0.161097
1.000000 0.939474 0.169467
0.009930 0.031762 0.242701
0.147159 0.046695 0.256672
0.257273 0.058692 0.267009
0.373613 0.072386 0.278443
0.505463 0.087970 0.291819
0.653082 0.104152 0.305728
0.767701 0.118053 0.314946
0.857881 0.132519 0.323110
0.936952 0.146888 0.331307
0.035649 0.146008 0.237730
0.151754 0.148860 0.236911
0.250743 0.151157 0.239523
0.358905 0.162146 0.251179
0.490049 0.177893 0.269920
0.636865 0.202318 0.296349
0.761282 0.213731 0.311006
0.855807 0.221824 0.319859
0.938922 0.225063 0.319237
0.043039 0.241125 0.244294
0.165192 0.245885 0.241565
0.259145 0.253413 0.254517
0.357376 0.247673 0.247111
0.481338 0.264872 0.264631
0.626312 0.289250 0.288183
0.754429 0.296266 0.296157
0.862265 0.301925 0.307351
0.949035 0.303592 0.307367
0.051113 0.336517 0.233441
0.171840 0.334009 0.222926
0.267641 0.343215 0.236149
0.367413 0.343618 0.240534
0.497075 0.363616 0.257240
0.646434 0.382040 0.280207
0.780086 0.393396 0.303481
0.891865 0.398464 0.305075
0.976455 0.399223 0.301934
0.053118 0.443698 0.207126
0.175187 0.440331 0.200708
0.276547 0.442759 0.212867
0.385998 0.452146 0.225793
0.522059 0.469612 0.248815
0.678917 0.487133 0.278676
0.808127 0.501358 0.299805
0.912476 0.518254 0.304030
0.985728 0.512258 0.300582
0.068740 0.564971 0.170544
0.196863 0.563788 0.169719
0.307520 0.576312 0.187920
0.424093 0.594724 0.213982
0.554384 0.613905 0.255120
0.693599 0.625644 0.278005
0.814772 0.640720 0.294556
0.916099 0.652503 0.295360
0.989340 0.645892 0.297677
0.125752 0.669059 0.146869
0.269202 0.685335 0.159547
0.392687 0.712174 0.194128
0.504901 0.730715 0.218235
0.601867 0.738574 0.223089
0.724089 0.750265 0.251299
0.827890 0.761607 0.287957
0.907241 0.764655 0.300719
0.992640 0.760374 0.290068
0.206183 0.758936 0.135273
0.358423 0.792851 0.174964
0.482599 0.819673 0.205793
0.600504 0.844603 0.236164
0.703841 0.852457 0.254239
0.801157 0.854530 0.264673
0.876959 0.855550 0.272413
0.936929 0.856773 0.283890
0.995956 0.858497 0.280374
0.306022 0.859917 0.153763
0.461888 0.896919 0.200878
0.579738 0.922208 0.235682
0.669477 0.933456 0.254269
0.745749 0.934466 0.257669
0.835790 0.935501 0.255789
0.917176 0.939897 0.260230
0.979486 0.943557 0.267321
1.000000 0.947593 0.268913
0.014240 0.048114 0.365652
0.150328 0.063433 0.377805
0.260591 0.077015 0.388686
0.378917 0.090390 0.401999
0.511556 0.106964 0.415266
0.656839 0.124555 0.425154
0.769848 0.145725 0.435413
0.858391 0.164260 0.445251
0.934565 0.179838 0.455233
0.031445 0.156239 0.348448
0.154685 0.161101 0.352740
0.259388 0.167376 0.358871
0.372946 0.183312 0.376871
0.509867 0.206782 0.405517
0.657857 0.224707 0.421123
0.775672 0.241337 0.435848
0.867206 0.254098 0.444099
0.939469 0.257251 0.444899
0.058372 0.253930 0.354557
0.174937 0.266520 0.367280
0.264697 0.263411 0.358679
0.373259 0.271625 0.369170
0.506092 0.298008 0.401280
0.657850 0.311905 0.420279
0.783912 0.321581 0.432985
0.872534 0.329121 0.435606
0.946430 0.331533 0.432252
0.062067 0.353200 0.360386
0.183601 0.354206 0.349059
0.279471 0.365234 0.365412
0.377500 0.372085 0.377965
0.498861 0.383632 0.389093
0.641430 0.401176 0.405073
0.774659 0.409803 0.424945
0.881626 0.415172 0.426951
0.951689 0.416662 0.419954
0.069347 0.465134 0.351982
0.192866 0.459343 0.338513
0.289474 0.465554 0.347858
0.388319 0.473906 0.359006
0.514016 0.489031 0.372666
0.665846 0.507153 0.399425
0.796583 0.530073 0.419809
0.900230 0.532636 0.421229
0.974755 0.528524 0.416646
0.092340 0.591923 0.322182
0.225304 0.593327 0.323386
0.327224 0.601713 0.329057
0.428233 0.615971 0.352247
0.528879 0.620152 0.352366
0.684208 0.641682 0.398155
0.804554 0.658069 0.417115
0.908140 0.659313 0.420043
0.991151 0.648374 0.414484
0.173851 0.699611 0.297609
0.305685 0.713019 0.304884
0.419360 0.734086 0.334361
0.524658 0.751107 0.353634
0.616993 0.753274 0.358857
0.743873 0.766618 0.399675
0.816208 0.766835 0.414011
0.905612 0.772697 0.416538
0.997276 0.765051 0.404936
0.263133 0.791875 0.286755
0.403353 0.821188 0.322715
0.512026 0.842930 0.345592
0.606714 0.855832 0.369055
0.692658 0.858941 0.379263
0.786797 0.859421 0.387320
0.866599 0.862431 0.391883
0.930603 0.864094 0.402278
0.995997 0.864736 0.401970
0.364517 0.893783 0.309356
0.493711 0.921993 0.346006
0.580331 0.936084 0.367263
0.647108 0.938998 0.373367
0.723186 0.939833 0.369979
0.825395 0.944369 0.377020
0.906882 0.948620 0.382825
0.974333 0.952976 0.386922
0.999999 0.956095 0.392161
0.020710 0.067107 0.500226
0.154788 0.082633 0.513981
0.265813 0.096226 0.525750
0.383090 0.110913 0.537595
0.514045 0.128066 0.545709
0.656116 0.157725 0.560133
0.768087 0.181507 0.575019
0.855006 0.199879 0.585319
0.929435 0.214658 0.594380
0.032521 0.169578 0.480097
0.158843 0.178804 0.490078
0.270077 0.194021 0.507813
0.388517 0.213941 0.525129
0.520688 0.232678 0.539557
0.668801 0.254832 0.556594
0.776452 0.275420 0.570165
0.870834 0.287336 0.582790
0.946151 0.292713 0.586979
0.068599 0.274253 0.488513
0.171205 0.274179 0.480135
0.286501 0.290459 0.503109
0.402752 0.309770 0.525708
0.538917 0.324218 0.538233
0.687475 0.345023 0.556392
0.790877 0.359534 0.567749
0.876824 0.363787 0.571984
0.953265 0.365957 0.577039
0.079191 0.366646 0.482450
0.198811 0.380340 0.495936
0.291634 0.388123 0.507470
0.399387 0.399306 0.518568
0.538757 0.414640 0.535286
0.689837 0.432466 0.552498
0.787137 0.442592 0.558943
0.879306 0.444803 0.563177
0.955236 0.447577 0.564260
0.091564 0.487469 0.503555
0.210305 0.490035 0.503984
0.304577 0.496882 0.511442
0.402555 0.503336 0.514620
0.517023 0.512291 0.519586
0.661482 0.528696 0.536349
0.795972 0.548008 0.549993
0.881317 0.548350 0.554184
0.958033 0.538228 0.549845
0.135479 0.623695 0.490740
0.258677 0.632217 0.497427
0.348447 0.628815 0.487167
0.438827 0.638949 0.496697
0.540807 0.640128 0.497844
0.678265 0.658290 0.532167
0.800850 0.670013 0.545943
0.901371 0.668630 0.550234
0.988976 0.664106 0.545313
0.223039 0.734136 0.464478
0.340937 0.741516 0.465017
0.440529 0.752853 0.481682
0.532766 0.762185 0.496917
0.634502 0.769306 0.520479
0.729897 0.770834 0.534120
0.806102 0.775127 0.544674
0.905195 0.778391 0.545892
0.995709 0.771748 0.544199
0.313958 0.824476 0.451795
0.438533 0.849611 0.482276
0.519207 0.860131 0.499061
0.590983 0.863332 0.507020
0.674827 0.865458 0.512572
0.775047 0.867403 0.520507
0.854258 0.869215 0.529995
0.920078 0.871210 0.541148
0.994984 0.872605 0.541009
0.413045 0.927637 0.478125
0.496511 0.940770 0.497428
0.553489 0.943310 0.500742
0.620175 0.944812 0.501287
0.711191 0.948597 0.507660
0.814012 0.954428 0.513904
0.895365 0.959053 0.518743
0.965104 0.962668 0.524624
0.999999 0.966038 0.529079
0.028233 0.087007 0.640270
0.159714 0.102797 0.656145
0.269669 0.116367 0.664946
0.384574 0.134170 0.672783
0.513738 0.162736 0.689719
0.651397 0.194336 0.705925
0.759405 0.217816 0.719909
0.852641 0.235376 0.732875
0.936602 0.249067 0.743842
0.037517 0.186170 0.622962
0.169150 0.205180 0.638163
0.279383 0.222745 0.656932
0.395771 0.240835 0.665435
0.525966 0.263772 0.686007
0.665977 0.289356 0.707704
0.778381 0.308663 0.722477
0.875219 0.321907 0.732225
0.957420 0.328459 0.738903
0.069807 0.295830 0.641285
0.195756 0.310318 0.653489
0.305628 0.325533 0.663231
0.421787 0.340557 0.672736
0.552672 0.362184 0.689190
0.681819 0.381483 0.703074
0.790330 0.391372 0.715910
0.891699 0.398330 0.724854
0.967319 0.402197 0.729002
0.092394 0.399984 0.653600
0.217519 0.409476 0.652988
0.319265 0.419797 0.659208
0.435997 0.432372 0.667756
0.572338 0.449980 0.685440
0.689573 0.465631 0.693504
0.794320 0.476230 0.701976
0.891839 0.480961 0.710906
0.974018 0.481308 0.717043
0.110145 0.519021 0.676096
0.227193 0.518734 0.656837
0.329434 0.525741 0.653699
0.430956 0.531969 0.654818
0.568510 0.547595 0.664904
0.686804 0.563464 0.676816
0.789747 0.573437 0.688116
0.889606 0.575068 0.698448
0.974411 0.573593 0.701737
0.177976 0.653301 0.657201
0.282338 0.657856 0.656320
0.381554 0.655931 0.650722
0.477741 0.661278 0.652714
0.575733 0.666370 0.657464
0.672922 0.672453 0.666263
0.793059 0.688175 0.680247
0.887826 0.682112 0.687718
0.973413 0.684680 0.684468
0.263179 0.764527 0.632437
0.374217 0.764491 0.630903
0.456469 0.768830 0.637932
0.535148 0.773301 0.649129
0.621918 0.775792 0.657196
0.720354 0.778897 0.667715
0.796885 0.784678 0.676165
0.900780 0.784448 0.684000
0.993659 0.786411 0.683720
0.346360 0.853119 0.618251
0.437301 0.865258 0.635390
0.498933 0.868246 0.641820
0.571030 0.870702 0.647303
0.662228 0.871728 0.653518
0.763291 0.874281 0.662470
0.842451 0.877032 0.670176
0.909968 0.879289 0.680584
0.998444 0.880244 0.677681
0.407151 0.945882 0.632177
0.465934 0.948620 0.635730
0.527674 0.951005 0.638854
0.606513 0.954425 0.643811
0.699429 0.959168 0.649853
0.801918 0.964494 0.656735
0.883516 0.969014 0.661992
0.955004 0.972976 0.666215
0.999998 0.976393 0.670490
0.034681 0.104469 0.764594
0.162691 0.120523 0.778261
0.271606 0.138613 0.789443
0.384673 0.164220 0.801129
0.509932 0.196185 0.820124
0.646862 0.228943 0.844346
0.761781 0.252806 0.864288
0.859000 0.269037 0.875204
0.942729 0.282484 0.884384
0.046082 0.209141 0.758404
0.172385 0.229919 0.771616
0.282280 0.250292 0.785967
0.397313 0.275111 0.809592
0.525391 0.301146 0.833995
0.664488 0.324551 0.857321
0.782372 0.338832 0.867572
0.882771 0.349884 0.873871
0.966152 0.358491 0.877706
0.085249 0.323231 0.788139
0.208493 0.343601 0.809922
0.318169 0.359651 0.822553
0.426089 0.375969 0.833688
0.540772 0.390281 0.841877
0.679665 0.403647 0.850597
0.796430 0.414447 0.858280
0.898288 0.424575 0.863839
0.982053 0.432525 0.868056
0.116740 0.428024 0.799080
0.228194 0.436422 0.801182
0.329735 0.448001 0.810929
0.433484 0.460064 0.820572
0.550422 0.472609 0.826949
0.690316 0.485636 0.838877
0.806349 0.497171 0.845296
0.906485 0.506796 0.850891
0.990632 0.514545 0.855830
0.125460 0.542304 0.810052
0.237960 0.545620 0.802150
0.332610 0.547485 0.796638
0.432228 0.553990 0.798679
0.549815 0.566435 0.807166
0.689267 0.581370 0.816395
0.806394 0.592621 0.827767
0.906208 0.603150 0.833985
0.991864 0.608168 0.840397
0.139321 0.674404 0.816304
0.247077 0.673552 0.807622
0.347649 0.675991 0.800835
0.440690 0.677921 0.798255
0.557213 0.680396 0.788896
0.686739 0.692530 0.795117
0.796689 0.705861 0.804093
0.894782 0.714670 0.813583
0.988966 0.715784 0.821615
0.255490 0.786327 0.789225
0.331650 0.785597 0.790320
0.405615 0.782412 0.788595
0.492547 0.782089 0.787782
0.597401 0.784188 0.786867
0.707031 0.787559 0.789114
0.792525 0.794515 0.794545
0.892467 0.799799 0.806392
0.983217 0.802904 0.807381
0.342464 0.872666 0.764249
0.409086 0.873320 0.767190
0.477173 0.875193 0.769944
0.557387 0.877284 0.773858
0.651463 0.878852 0.778867
0.752439 0.882626 0.786439
0.832624 0.883383 0.794415
0.901544 0.886169 0.802637
0.996202 0.887797 0.806083
0.378045 0.953220 0.758127
0.443454 0.956260 0.762506
0.514532 0.959616 0.766711
0.595726 0.963838 0.771612
0.688546 0.968169 0.777538
0.791398 0.973913 0.784120
0.873563 0.978126 0.789210
0.944708 0.981659 0.793929
0.998853 0.985238 0.797749
0.038380 0.117026 0.851672
0.163891 0.136219 0.865700
0.271318 0.159216 0.881285
0.381971 0.191589 0.902692
0.508384 0.225520 0.926240
0.653401 0.261022 0.949352
0.767344 0.282170 0.964640
0.868366 0.298304 0.976348
0.951369 0.307272 0.981643
0.051480 0.227251 0.849880
0.177251 0.254371 0.877092
0.289024 0.280223 0.908051
0.403119 0.305324 0.935941
0.529560 0.328706 0.955161
0.674125 0.348987 0.962651
0.787923 0.362558 0.966704
0.888876 0.373383 0.972546
0.973805 0.382311 0.977535
0.097519 0.347481 0.902758
0.217915 0.367540 0.919277
0.316530 0.383530 0.931934
0.418713 0.396691 0.939135
0.540117 0.408995 0.947375
0.689230 0.424735 0.955706
0.805137 0.436886 0.961302
0.904765 0.446898 0.966531
0.988841 0.454625 0.972506
0.114466 0.445702 0.911429
0.228556 0.456465 0.915001
0.324331 0.467744 0.920995
0.424480 0.477950 0.928440
0.554163 0.491606 0.937833
0.700601 0.506938 0.947060
0.816073 0.518050 0.954360
0.915206 0.527542 0.959096
0.996917 0.535437 0.965137
0.129238 0.562121 0.922666
0.229289 0.561173 0.915099
0.319369 0.560302 0.907436
0.424886 0.571387 0.917727
0.557889 0.585961 0.926460
0.703636 0.601122 0.934466
0.819179 0.612349 0.941704
0.920489 0.621308 0.949018
1.000129 0.629248 0.954297
0.132053 0.690253 0.922964
0.228766 0.690059 0.919893
0.320169 0.690475 0.917639
0.431980 0.692071 0.910051
0.557091 0.696498 0.903739
0.698995 0.711529 0.916155
0.813314 0.723267 0.924052
0.914081 0.732952 0.930462
0.999236 0.741145 0.936482
0.170709 0.793913 0.918171
0.252250 0.794033 0.920958
0.334089 0.794864 0.921770
0.438453 0.797136 0.918490
0.560808 0.798481 0.910185
0.697197 0.801945 0.900185
0.804992 0.811552 0.904774
0.902382 0.822520 0.912244
0.996023 0.828807 0.920103
0.260889 0.883423 0.897266
0.343560 0.884252 0.897772
0.420093 0.885967 0.899373
0.512130 0.887254 0.898494
0.612394 0.888839 0.899690
0.727556 0.889080 0.898307
0.817531 0.890809 0.897714
0.897398 0.895374 0.900252
0.992462 0.900549 0.907678
0.338300 0.961624 0.873325
0.418299 0.964893 0.875045
0.496952 0.968228 0.876342
0.584192 0.971465 0.878286
0.679105 0.976329 0.882515
0.784013 0.981183 0.888162
0.865751 0.985213 0.893070
0.936383 0.988858 0.897626
0.998238 0.992588 0.902848
0.040529 0.129340 0.928764
0.163989 0.153150 0.946322
0.271406 0.183045 0.962610
0.384122 0.216803 0.986921
0.514170 0.252766 0.999971
0.662280 0.286387 1.000000
0.778842 0.306290 1.000000
0.875434 0.316524 1.000000
0.959813 0.325469 1.000000
0.058773 0.249988 0.950680
0.187632 0.280061 0.983746
0.299153 0.304080 0.999601
0.412284 0.326389 0.999996
0.535972 0.346899 0.999997
0.681184 0.366809 0.999999
0.796625 0.380705 1.000000
0.896853 0.391532 1.000000
0.982791 0.400380 1.000000
0.103902 0.367666 0.990160
0.215300 0.385549 0.998384
0.317968 0.398553 1.000011
0.423784 0.411694 0.999995
0.552587 0.426629 0.999997
0.697403 0.442634 0.999998
0.812286 0.453951 0.999999
0.912561 0.463414 1.000000
0.994250 0.471426 1.000000
0.121383 0.458806 0.983199
0.221352 0.471172 0.993025
0.322198 0.482531 0.997751
0.434384 0.494830 0.999996
0.565339 0.509124 0.999996
0.708422 0.524046 0.999997
0.822932 0.534838 0.999998
0.923531 0.543947 1.000000
0.999993 0.551741 1.000000
0.120824 0.569647 0.990012
0.226323 0.569877 0.986577
0.324306 0.576159 0.989600
0.437217 0.589160 0.998333
0.569213 0.603275 1.000010
0.713115 0.617624 0.999995
0.827941 0.628520 0.999997
0.929179 0.637765 0.999998
0.999995 0.646101 1.000000
0.122135 0.701203 0.997779
0.229156 0.702403 0.995753
0.329787 0.703722 0.992732
0.440550 0.706717 0.992267
0.564778 0.713250 0.994169
0.708754 0.727690 1.000007
0.824599 0.738882 0.999993
0.926043 0.748689 0.999995
0.999994 0.758189 0.999997
0.134350 0.805030 0.999992
0.241078 0.806932 0.999843
0.339001 0.808400 0.997747
0.444656 0.810468 0.996861
0.566229 0.812608 0.994694
0.700340 0.816440 0.995072
0.815630 0.827741 0.999716
0.916156 0.837803 0.999995
0.998802 0.847520 1.000004
0.212547 0.893631 0.992663
0.295940 0.895068 0.994853
0.375526 0.896103 0.996186
0.466861 0.897147 0.997287
0.575983 0.898883 0.997672
0.703251 0.901858 0.998219
0.809746 0.904168 0.996424
0.907329 0.911634 0.997149
0.998469 0.921891 0.999133
0.290497 0.970652 0.975231
0.378745 0.973806 0.977182
0.458782 0.976623 0.978921
0.545797 0.980361 0.982426
0.646262 0.984721 0.986319
0.757758 0.989150 0.990242
0.845175 0.992502 0.993460
0.922355 0.996167 0.996633
0.999988 0.999987 0.999984
