luts/FUJI_MONO_Yellow_Filter.cube
#Generated for krafta web app
#Black and White LUTs
TITLE "Fuji XTrans III - Mono+Ye"
#LUT size
LUT_3D_SIZE 9
#LUT data points
0.000000 0.000000 0.000000
0.011765 0.011765 0.011765
0.066667 0.066667 0.066667
0.184314 0.184314 0.184314
0.250980 0.250980 0.250980
0.443137 0.443137 0.443137
0.482353 0.482353 0.482353
0.537255 0.537255 0.537255
0.537255 0.537255 0.537255
0.007843 0.007843 0.007843
0.023529 0.023529 0.023529
0.090196 0.090196 0.090196
0.207843 0.207843 0.207843
0.329412 0.329412 0.329412
0.443137 0.443137 0.443137
0.529412 0.529412 0.529412
0.529412 0.529412 0.529412
0.600000 0.600000 0.600000
0.062745 0.062745 0.062745
0.090196 0.090196 0.090196
0.156863 0.156863 0.156863
0.270588 0.270588 0.270588
0.368627 0.368627 0.368627
0.478431 0.478431 0.478431
0.556863 0.556863 0.556863
0.596078 0.596078 0.596078
0.603922 0.603922 0.603922
0.113725 0.113725 0.113725
0.200000 0.200000 0.200000
0.250980 0.250980 0.250980
0.349020 0.349020 0.349020
0.431373 0.431373 0.431373
0.517647 0.517647 0.517647
0.592157 0.592157 0.592157
0.603922 0.603922 0.603922
0.603922 0.603922 0.603922
0.254902 0.254902 0.254902
0.258824 0.258824 0.258824
0.337255 0.337255 0.337255
0.427451 0.427451 0.427451
0.509804 0.509804 0.509804
0.576471 0.576471 0.576471
0.639216 0.639216 0.639216
0.639216 0.639216 0.639216
0.682353 0.682353 0.682353
0.176471 0.176471 0.176471
0.258824 0.258824 0.258824
0.356863 0.356863 0.356863
0.462745 0.462745 0.462745
0.596078 0.596078 0.596078
0.607843 0.607843 0.607843
0.694118 0.694118 0.694118
0.717647 0.717647 0.717647
0.721569 0.721569 0.721569
0.345098 0.345098 0.345098
0.258824 0.258824 0.258824
0.345098 0.345098 0.345098
0.513725 0.513725 0.513725
0.580392 0.580392 0.580392
0.603922 0.603922 0.603922
0.694118 0.694118 0.694118
0.725490 0.725490 0.725490
0.780392 0.780392 0.780392
0.392157 0.392157 0.392157
0.341176 0.341176 0.341176
0.501961 0.501961 0.501961
0.568627 0.568627 0.568627
0.647059 0.647059 0.647059
0.666667 0.666667 0.666667
0.694118 0.694118 0.694118
0.780392 0.780392 0.780392
0.780392 0.780392 0.780392
0.392157 0.392157 0.392157
0.341176 0.341176 0.341176
0.501961 0.501961 0.501961
0.568627 0.568627 0.568627
0.647059 0.647059 0.647059
0.678431 0.678431 0.678431
0.752941 0.752941 0.752941
0.780392 0.780392 0.780392
0.800000 0.800000 0.800000
0.003922 0.003922 0.003922
0.007843 0.007843 0.007843
0.101961 0.101961 0.101961
0.149020 0.149020 0.149020
0.337255 0.337255 0.337255
0.509804 0.509804 0.509804
0.541176 0.541176 0.541176
0.541176 0.541176 0.541176
0.631373 0.631373 0.631373
0.019608 0.019608 0.019608
0.039216 0.039216 0.039216
0.105882 0.105882 0.105882
0.211765 0.211765 0.211765
0.337255 0.337255 0.337255
0.454902 0.454902 0.454902
0.537255 0.537255 0.537255
0.592157 0.592157 0.592157
0.639216 0.639216 0.639216
0.074510 0.074510 0.074510
0.101961 0.101961 0.101961
0.168627 0.168627 0.168627
0.270588 0.270588 0.270588
0.376471 0.376471 0.376471
0.478431 0.478431 0.478431
0.560784 0.560784 0.560784
0.600000 0.600000 0.600000
0.662745 0.662745 0.662745
0.180392 0.180392 0.180392
0.215686 0.215686 0.215686
0.266667 0.266667 0.266667
0.352941 0.352941 0.352941
0.439216 0.439216 0.439216
0.529412 0.529412 0.529412
0.600000 0.600000 0.600000
0.631373 0.631373 0.631373
0.698039 0.698039 0.698039
0.258824 0.258824 0.258824
0.325490 0.325490 0.325490
0.352941 0.352941 0.352941
0.435294 0.435294 0.435294
0.509804 0.509804 0.509804
0.584314 0.584314 0.584314
0.647059 0.647059 0.647059
0.682353 0.682353 0.682353
0.721569 0.721569 0.721569
0.345098 0.345098 0.345098
0.388235 0.388235 0.388235
0.400000 0.400000 0.400000
0.466667 0.466667 0.466667
0.580392 0.580392 0.580392
0.639216 0.639216 0.639216
0.690196 0.690196 0.690196
0.752941 0.752941 0.752941
0.807843 0.807843 0.807843
0.392157 0.392157 0.392157
0.392157 0.392157 0.392157
0.501961 0.501961 0.501961
0.560784 0.560784 0.560784
0.635294 0.635294 0.635294
0.662745 0.662745 0.662745
0.717647 0.717647 0.717647
0.780392 0.780392 0.780392
0.780392 0.780392 0.780392
0.447059 0.447059 0.447059
0.392157 0.392157 0.392157
0.501961 0.501961 0.501961
0.568627 0.568627 0.568627
0.647059 0.647059 0.647059
0.678431 0.678431 0.678431
0.752941 0.752941 0.752941
0.780392 0.780392 0.780392
0.800000 0.800000 0.800000
0.447059 0.447059 0.447059
0.392157 0.392157 0.392157
0.556863 0.556863 0.556863
0.592157 0.592157 0.592157
0.647059 0.647059 0.647059
0.682353 0.682353 0.682353
0.752941 0.752941 0.752941
0.807843 0.807843 0.807843
0.839216 0.839216 0.839216
0.011765 0.011765 0.011765
0.058824 0.058824 0.058824
0.192157 0.192157 0.192157
0.243137 0.243137 0.243137
0.364706 0.364706 0.364706
0.490196 0.490196 0.490196
0.556863 0.556863 0.556863
0.603922 0.603922 0.603922
0.662745 0.662745 0.662745
0.047059 0.047059 0.047059
0.078431 0.078431 0.078431
0.152941 0.152941 0.152941
0.254902 0.254902 0.254902
0.368627 0.368627 0.368627
0.478431 0.478431 0.478431
0.556863 0.556863 0.556863
0.603922 0.603922 0.603922
0.647059 0.647059 0.647059
0.105882 0.105882 0.105882
0.137255 0.137255 0.137255
0.203922 0.203922 0.203922
0.298039 0.298039 0.298039
0.396078 0.396078 0.396078
0.501961 0.501961 0.501961
0.588235 0.588235 0.588235
0.666667 0.666667 0.666667
0.698039 0.698039 0.698039
0.215686 0.215686 0.215686
0.235294 0.235294 0.235294
0.290196 0.290196 0.290196
0.372549 0.372549 0.372549
0.458824 0.458824 0.458824
0.541176 0.541176 0.541176
0.623529 0.623529 0.623529
0.686275 0.686275 0.686275
0.721569 0.721569 0.721569
0.345098 0.345098 0.345098
0.345098 0.345098 0.345098
0.380392 0.380392 0.380392
0.450980 0.450980 0.450980
0.521569 0.521569 0.521569
0.596078 0.596078 0.596078
0.670588 0.670588 0.670588
0.725490 0.725490 0.725490
0.745098 0.745098 0.745098
0.388235 0.388235 0.388235
0.392157 0.392157 0.392157
0.462745 0.462745 0.462745
0.517647 0.517647 0.517647
0.580392 0.580392 0.580392
0.650980 0.650980 0.650980
0.709804 0.709804 0.709804
0.764706 0.764706 0.764706
0.807843 0.807843 0.807843
0.392157 0.392157 0.392157
0.517647 0.517647 0.517647
0.501961 0.501961 0.501961
0.588235 0.588235 0.588235
0.647059 0.647059 0.647059
0.678431 0.678431 0.678431
0.752941 0.752941 0.752941
0.800000 0.800000 0.800000
0.843137 0.843137 0.843137
0.447059 0.447059 0.447059
0.439216 0.439216 0.439216
0.564706 0.564706 0.564706
0.592157 0.592157 0.592157
0.647059 0.647059 0.647059
0.682353 0.682353 0.682353
0.752941 0.752941 0.752941
0.839216 0.839216 0.839216
0.843137 0.843137 0.843137
0.447059 0.447059 0.447059
0.443137 0.443137 0.443137
0.564706 0.564706 0.564706
0.592157 0.592157 0.592157
0.647059 0.647059 0.647059
0.733333 0.733333 0.733333
0.788235 0.788235 0.788235
0.839216 0.839216 0.839216
0.839216 0.839216 0.839216
0.086275 0.086275 0.086275
0.121569 0.121569 0.121569
0.196078 0.196078 0.196078
0.278431 0.278431 0.278431
0.400000 0.400000 0.400000
0.501961 0.501961 0.501961
0.584314 0.584314 0.584314
0.666667 0.666667 0.666667
0.670588 0.670588 0.670588
0.086275 0.086275 0.086275
0.133333 0.133333 0.133333
0.196078 0.196078 0.196078
0.294118 0.294118 0.294118
0.403922 0.403922 0.403922
0.501961 0.501961 0.501961
0.588235 0.588235 0.588235
0.654902 0.654902 0.654902
0.705882 0.705882 0.705882
0.145098 0.145098 0.145098
0.196078 0.196078 0.196078
0.247059 0.247059 0.247059
0.341176 0.341176 0.341176
0.431373 0.431373 0.431373
0.521569 0.521569 0.521569
0.603922 0.603922 0.603922
0.678431 0.678431 0.678431
0.705882 0.705882 0.705882
0.258824 0.258824 0.258824
0.282353 0.282353 0.282353
0.337255 0.337255 0.337255
0.403922 0.403922 0.403922
0.490196 0.490196 0.490196
0.564706 0.564706 0.564706
0.643137 0.643137 0.643137
0.705882 0.705882 0.705882
0.737255 0.737255 0.737255
0.356863 0.356863 0.356863
0.376471 0.376471 0.376471
0.415686 0.415686 0.415686
0.478431 0.478431 0.478431
0.549020 0.549020 0.549020
0.615686 0.615686 0.615686
0.686275 0.686275 0.686275
0.741176 0.741176 0.741176
0.772549 0.772549 0.772549
0.411765 0.411765 0.411765
0.462745 0.462745 0.462745
0.494118 0.494118 0.494118
0.545098 0.545098 0.545098
0.607843 0.607843 0.607843
0.674510 0.674510 0.674510
0.729412 0.729412 0.729412
0.780392 0.780392 0.780392
0.811765 0.811765 0.811765
0.462745 0.462745 0.462745
0.537255 0.537255 0.537255
0.556863 0.556863 0.556863
0.596078 0.596078 0.596078
0.658824 0.658824 0.658824
0.717647 0.717647 0.717647
0.768627 0.768627 0.768627
0.823529 0.823529 0.823529
0.850980 0.850980 0.850980
0.541176 0.541176 0.541176
0.541176 0.541176 0.541176
0.627451 0.627451 0.627451
0.627451 0.627451 0.627451
0.686275 0.686275 0.686275
0.741176 0.741176 0.741176
0.796078 0.796078 0.796078
0.843137 0.843137 0.843137
0.866667 0.866667 0.866667
0.541176 0.541176 0.541176
0.541176 0.541176 0.541176
0.619608 0.619608 0.619608
0.631373 0.631373 0.631373
0.690196 0.690196 0.690196
0.741176 0.741176 0.741176
0.796078 0.796078 0.796078
0.878431 0.878431 0.878431
0.905882 0.905882 0.905882
0.164706 0.164706 0.164706
0.196078 0.196078 0.196078
0.250980 0.250980 0.250980
0.329412 0.329412 0.329412
0.427451 0.427451 0.427451
0.521569 0.521569 0.521569
0.603922 0.603922 0.603922
0.678431 0.678431 0.678431
0.721569 0.721569 0.721569
0.145098 0.145098 0.145098
0.192157 0.192157 0.192157
0.254902 0.254902 0.254902
0.341176 0.341176 0.341176
0.435294 0.435294 0.435294
0.525490 0.525490 0.525490
0.607843 0.607843 0.607843
0.682353 0.682353 0.682353
0.713725 0.713725 0.713725
0.192157 0.192157 0.192157
0.243137 0.243137 0.243137
0.305882 0.305882 0.305882
0.380392 0.380392 0.380392
0.466667 0.466667 0.466667
0.549020 0.549020 0.549020
0.627451 0.627451 0.627451
0.698039 0.698039 0.698039
0.733333 0.733333 0.733333
0.290196 0.290196 0.290196
0.329412 0.329412 0.329412
0.376471 0.376471 0.376471
0.443137 0.443137 0.443137
0.517647 0.517647 0.517647
0.592157 0.592157 0.592157
0.666667 0.666667 0.666667
0.729412 0.729412 0.729412
0.760784 0.760784 0.760784
0.392157 0.392157 0.392157
0.415686 0.415686 0.415686
0.454902 0.454902 0.454902
0.509804 0.509804 0.509804
0.576471 0.576471 0.576471
0.643137 0.643137 0.643137
0.709804 0.709804 0.709804
0.760784 0.760784 0.760784
0.792157 0.792157 0.792157
0.482353 0.482353 0.482353
0.498039 0.498039 0.498039
0.529412 0.529412 0.529412
0.576471 0.576471 0.576471
0.635294 0.635294 0.635294
0.694118 0.694118 0.694118
0.749020 0.749020 0.749020
0.800000 0.800000 0.800000
0.827451 0.827451 0.827451
0.533333 0.533333 0.533333
0.541176 0.541176 0.541176
0.588235 0.588235 0.588235
0.631373 0.631373 0.631373
0.686275 0.686275 0.686275
0.737255 0.737255 0.737255
0.792157 0.792157 0.792157
0.839216 0.839216 0.839216
0.905882 0.905882 0.905882
0.572549 0.572549 0.572549
0.572549 0.572549 0.572549
0.623529 0.623529 0.623529
0.654902 0.654902 0.654902
0.705882 0.705882 0.705882
0.764706 0.764706 0.764706
0.811765 0.811765 0.811765
0.878431 0.878431 0.878431
0.905882 0.905882 0.905882
0.572549 0.572549 0.572549
0.572549 0.572549 0.572549
0.623529 0.623529 0.623529
0.654902 0.654902 0.654902
0.705882 0.705882 0.705882
0.764706 0.764706 0.764706
0.878431 0.878431 0.878431
0.878431 0.878431 0.878431
0.905882 0.905882 0.905882
0.235294 0.235294 0.235294
0.262745 0.262745 0.262745
0.305882 0.305882 0.305882
0.372549 0.372549 0.372549
0.454902 0.454902 0.454902
0.545098 0.545098 0.545098
0.623529 0.623529 0.623529
0.694118 0.694118 0.694118
0.737255 0.737255 0.737255
0.227451 0.227451 0.227451
0.266667 0.266667 0.266667
0.309804 0.309804 0.309804
0.384314 0.384314 0.384314
0.470588 0.470588 0.470588
0.552941 0.552941 0.552941
0.635294 0.635294 0.635294
0.705882 0.705882 0.705882
0.737255 0.737255 0.737255
0.235294 0.235294 0.235294
0.309804 0.309804 0.309804
0.356863 0.356863 0.356863
0.423529 0.423529 0.423529
0.498039 0.498039 0.498039
0.576471 0.576471 0.576471
0.654902 0.654902 0.654902
0.717647 0.717647 0.717647
0.752941 0.752941 0.752941
0.321569 0.321569 0.321569
0.380392 0.380392 0.380392
0.423529 0.423529 0.423529
0.482353 0.482353 0.482353
0.545098 0.545098 0.545098
0.619608 0.619608 0.619608
0.686275 0.686275 0.686275
0.749020 0.749020 0.749020
0.780392 0.780392 0.780392
0.419608 0.419608 0.419608
0.458824 0.458824 0.458824
0.494118 0.494118 0.494118
0.545098 0.545098 0.545098
0.603922 0.603922 0.603922
0.670588 0.670588 0.670588
0.725490 0.725490 0.725490
0.780392 0.780392 0.780392
0.811765 0.811765 0.811765
0.513725 0.513725 0.513725
0.537255 0.537255 0.537255
0.564706 0.564706 0.564706
0.607843 0.607843 0.607843
0.666667 0.666667 0.666667
0.717647 0.717647 0.717647
0.768627 0.768627 0.768627
0.819608 0.819608 0.819608
0.850980 0.850980 0.850980
0.584314 0.584314 0.584314
0.596078 0.596078 0.596078
0.619608 0.619608 0.619608
0.662745 0.662745 0.662745
0.709804 0.709804 0.709804
0.764706 0.764706 0.764706
0.807843 0.807843 0.807843
0.858824 0.858824 0.858824
0.929412 0.929412 0.929412
0.623529 0.623529 0.623529
0.631373 0.631373 0.631373
0.650980 0.650980 0.650980
0.690196 0.690196 0.690196
0.733333 0.733333 0.733333
0.784314 0.784314 0.784314
0.882353 0.882353 0.882353
0.905882 0.905882 0.905882
0.952941 0.952941 0.952941
0.623529 0.623529 0.623529
0.631373 0.631373 0.631373
0.709804 0.709804 0.709804
0.690196 0.690196 0.690196
0.792157 0.792157 0.792157
0.843137 0.843137 0.843137
0.886275 0.886275 0.886275
0.905882 0.905882 0.905882
0.952941 0.952941 0.952941
0.309804 0.313725 0.309804
0.333333 0.333333 0.333333
0.368627 0.368627 0.368627
0.423529 0.423529 0.423529
0.490196 0.490196 0.490196
0.572549 0.572549 0.572549
0.647059 0.647059 0.647059
0.709804 0.709804 0.709804
0.749020 0.749020 0.749020
0.305882 0.305882 0.305882
0.341176 0.341176 0.341176
0.376471 0.376471 0.376471
0.435294 0.435294 0.435294
0.505882 0.505882 0.505882
0.584314 0.584314 0.584314
0.658824 0.658824 0.658824
0.721569 0.721569 0.721569
0.764706 0.764706 0.764706
0.298039 0.298039 0.298039
0.372549 0.372549 0.372549
0.407843 0.407843 0.407843
0.466667 0.466667 0.466667
0.533333 0.533333 0.533333
0.607843 0.607843 0.607843
0.678431 0.678431 0.678431
0.737255 0.737255 0.737255
0.772549 0.772549 0.772549
0.349020 0.349020 0.349020
0.435294 0.435294 0.435294
0.470588 0.470588 0.470588
0.517647 0.517647 0.517647
0.584314 0.584314 0.584314
0.643137 0.643137 0.643137
0.705882 0.705882 0.705882
0.768627 0.768627 0.768627
0.796078 0.796078 0.796078
0.443137 0.443137 0.443137
0.505882 0.505882 0.505882
0.533333 0.533333 0.533333
0.580392 0.580392 0.580392
0.631373 0.631373 0.631373
0.690196 0.690196 0.690196
0.745098 0.745098 0.745098
0.800000 0.800000 0.800000
0.831373 0.831373 0.831373
0.537255 0.537255 0.537255
0.572549 0.572549 0.572549
0.600000 0.600000 0.600000
0.639216 0.639216 0.639216
0.690196 0.690196 0.690196
0.737255 0.737255 0.737255
0.792157 0.792157 0.792157
0.839216 0.839216 0.839216
0.870588 0.870588 0.870588
0.615686 0.615686 0.615686
0.635294 0.635294 0.635294
0.662745 0.662745 0.662745
0.694118 0.694118 0.694118
0.737255 0.737255 0.737255
0.784314 0.784314 0.784314
0.827451 0.827451 0.827451
0.878431 0.878431 0.878431
0.952941 0.952941 0.952941
0.647059 0.647059 0.647059
0.662745 0.662745 0.662745
0.709804 0.709804 0.709804
0.776471 0.776471 0.776471
0.792157 0.792157 0.792157
0.843137 0.843137 0.843137
0.854902 0.854902 0.854902
0.925490 0.925490 0.925490
0.964706 0.964706 0.964706
0.760784 0.760784 0.760784
0.705882 0.705882 0.705882
0.709804 0.709804 0.709804
0.780392 0.780392 0.780392
0.796078 0.796078 0.796078
0.847059 0.847059 0.847059
0.905882 0.905882 0.905882
0.925490 0.925490 0.925490
0.964706 0.964706 0.964706
0.396078 0.396078 0.396078
0.411765 0.411765 0.411765
0.439216 0.439216 0.439216
0.486275 0.486275 0.486275
0.545098 0.545098 0.545098
0.619608 0.619608 0.619608
0.678431 0.678431 0.678431
0.733333 0.733333 0.733333
0.760784 0.760784 0.760784
0.392157 0.392157 0.392157
0.423529 0.423529 0.423529
0.447059 0.447059 0.447059
0.494118 0.494118 0.494118
0.552941 0.552941 0.552941
0.619608 0.619608 0.619608
0.686275 0.686275 0.686275
0.745098 0.745098 0.745098
0.764706 0.764706 0.764706
0.368627 0.368627 0.368627
0.435294 0.435294 0.435294
0.470588 0.470588 0.470588
0.513725 0.513725 0.513725
0.576471 0.576471 0.576471
0.643137 0.643137 0.643137
0.701961 0.701961 0.701961
0.760784 0.760784 0.760784
0.784314 0.784314 0.784314
0.388235 0.388235 0.388235
0.486275 0.486275 0.486275
0.513725 0.513725 0.513725
0.556863 0.556863 0.556863
0.611765 0.611765 0.611765
0.678431 0.678431 0.678431
0.733333 0.733333 0.733333
0.788235 0.788235 0.788235
0.807843 0.807843 0.807843
0.466667 0.466667 0.466667
0.549020 0.549020 0.549020
0.572549 0.572549 0.572549
0.615686 0.615686 0.615686
0.666667 0.666667 0.666667
0.717647 0.717647 0.717647
0.768627 0.768627 0.768627
0.819608 0.819608 0.819608
0.870588 0.870588 0.870588
0.560784 0.560784 0.560784
0.615686 0.615686 0.615686
0.639216 0.639216 0.639216
0.674510 0.674510 0.674510
0.717647 0.717647 0.717647
0.764706 0.764706 0.764706
0.811765 0.811765 0.811765
0.858824 0.858824 0.858824
0.901961 0.901961 0.901961
0.650980 0.650980 0.650980
0.674510 0.674510 0.674510
0.694118 0.694118 0.694118
0.725490 0.725490 0.725490
0.768627 0.768627 0.768627
0.815686 0.815686 0.815686
0.854902 0.854902 0.854902
0.901961 0.901961 0.901961
0.956863 0.956863 0.956863
0.760784 0.760784 0.760784
0.701961 0.701961 0.701961
0.749020 0.749020 0.749020
0.776471 0.776471 0.776471
0.819608 0.819608 0.819608
0.866667 0.866667 0.866667
0.898039 0.898039 0.898039
0.945098 0.945098 0.945098
0.988235 0.988235 0.988235
0.764706 0.764706 0.764706
0.733333 0.733333 0.733333
0.745098 0.745098 0.745098
0.776471 0.776471 0.776471
0.819608 0.819608 0.819608
0.866667 0.866667 0.866667
0.901961 0.901961 0.901961
0.945098 0.945098 0.945098
0.988235 0.988235 0.988235
0.474510 0.474510 0.474510
0.486275 0.486275 0.486275
0.509804 0.509804 0.509804
0.549020 0.549020 0.549020
0.600000 0.600000 0.600000
0.658824 0.658824 0.658824
0.717647 0.717647 0.717647
0.776471 0.776471 0.776471
0.776471 0.776471 0.776471
0.478431 0.478431 0.478431
0.513725 0.513725 0.513725
0.533333 0.533333 0.533333
0.572549 0.572549 0.572549
0.615686 0.615686 0.615686
0.674510 0.674510 0.674510
0.725490 0.725490 0.725490
0.776471 0.776471 0.776471
0.776471 0.776471 0.776471
0.447059 0.447059 0.447059
0.498039 0.498039 0.498039
0.537255 0.537255 0.537255
0.576471 0.576471 0.576471
0.623529 0.623529 0.623529
0.682353 0.682353 0.682353
0.737255 0.737255 0.737255
0.784314 0.784314 0.784314
0.784314 0.784314 0.784314
0.439216 0.439216 0.439216
0.474510 0.474510 0.474510
0.560784 0.560784 0.560784
0.603922 0.603922 0.603922
0.650980 0.650980 0.650980
0.705882 0.705882 0.705882
0.756863 0.756863 0.756863
0.815686 0.815686 0.815686
0.843137 0.843137 0.843137
0.478431 0.478431 0.478431
0.509804 0.509804 0.509804
0.615686 0.615686 0.615686
0.650980 0.650980 0.650980
0.698039 0.698039 0.698039
0.745098 0.745098 0.745098
0.788235 0.788235 0.788235
0.847059 0.847059 0.847059
0.870588 0.870588 0.870588
0.584314 0.584314 0.584314
0.596078 0.596078 0.596078
0.627451 0.627451 0.627451
0.705882 0.705882 0.705882
0.745098 0.745098 0.745098
0.792157 0.792157 0.792157
0.831373 0.831373 0.831373
0.878431 0.878431 0.878431
0.909804 0.909804 0.909804
0.670588 0.670588 0.670588
0.682353 0.682353 0.682353
0.717647 0.717647 0.717647
0.756863 0.756863 0.756863
0.796078 0.796078 0.796078
0.835294 0.835294 0.835294
0.870588 0.870588 0.870588
0.917647 0.917647 0.917647
0.945098 0.945098 0.945098
0.713725 0.713725 0.713725
0.737255 0.737255 0.737255
0.752941 0.752941 0.752941
0.780392 0.780392 0.780392
0.811765 0.811765 0.811765
0.858824 0.858824 0.858824
0.905882 0.905882 0.905882
0.964706 0.964706 0.964706
0.972549 0.972549 0.972549
0.764706 0.764706 0.764706
0.737255 0.737255 0.737255
0.749020 0.749020 0.749020
0.776471 0.776471 0.776471
0.843137 0.843137 0.843137
0.890196 0.890196 0.890196
0.933333 0.933333 0.933333
0.964706 0.964706 0.964706
0.972549 0.972549 0.972549
