luts/FUJI_ASTIA.cube
TITLE "Generated for krafta web app"
LUT_3D_SIZE 5
#INPUTGAMMA sRGB
#IMAGEPROFILE sRGB
#OUTPUTGAMMA sRGB
0.000000 0.000000 0.000000
0.284433 0.034013 0.035093
0.586630 0.071127 0.071439
0.836813 0.101375 0.097380
1.000000 0.146455 0.116542
0.000423 0.231237 0.000000
0.268927 0.240256 0.015054
0.565369 0.260013 0.052934
0.829897 0.287833 0.098227
1.000000 0.297058 0.111970
0.000000 0.472814 0.000000
0.224053 0.493674 0.000000
0.542806 0.496946 0.015375
0.812423 0.509173 0.070860
1.000000 0.505595 0.116213
0.000000 0.671002 0.000000
0.190645 0.706996 0.000000
0.522035 0.725262 0.000107
0.773087 0.735839 0.031589
0.999998 0.734963 0.063744
0.000000 0.896540 0.000000
0.194219 0.930086 0.000000
0.497125 0.942337 0.000000
0.747402 0.958338 0.000000
0.999993 0.979750 0.000003
0.023924 0.058144 0.348049
0.303961 0.092546 0.378476
0.600654 0.125993 0.396107
0.835775 0.150782 0.380950
0.999998 0.163595 0.321911
0.028505 0.256472 0.291593
0.251932 0.244367 0.244941
0.556780 0.258378 0.268475
0.822698 0.294946 0.305591
0.999999 0.324294 0.314558
0.005458 0.499348 0.205148
0.254961 0.492024 0.193998
0.547396 0.497161 0.256411
0.800766 0.519332 0.297763
1.000000 0.531712 0.322379
-0.000323 0.705525 0.087746
0.211123 0.712466 0.086505
0.521128 0.733730 0.177057
0.771624 0.739687 0.242936
0.999998 0.728482 0.287238
0.039274 0.925743 0.013241
0.184386 0.927312 0.012890
0.468937 0.944790 0.057716
0.735254 0.963728 0.120450
0.999992 0.984649 0.192171
0.046464 0.128332 0.748090
0.319359 0.167860 0.783475
0.593393 0.190503 0.736832
0.808111 0.193803 0.639529
0.999987 0.207069 0.580409
0.071246 0.302618 0.632116
0.305668 0.296468 0.587328
0.592855 0.325235 0.596974
0.819156 0.339968 0.567150
0.999999 0.363938 0.582761
0.056934 0.534499 0.613231
0.286634 0.522617 0.545963
0.527183 0.517017 0.524841
0.791956 0.540428 0.536946
0.999996 0.561253 0.564258
0.109311 0.741453 0.517010
0.330166 0.734990 0.486860
0.544680 0.733436 0.487961
0.757605 0.739759 0.529189
0.999998 0.738949 0.563592
0.136264 0.950839 0.385218
0.273572 0.954942 0.379959
0.461824 0.952561 0.346172
0.724633 0.970499 0.413920
0.999910 0.986977 0.470009
0.067613 0.193176 0.999622
0.313878 0.215612 0.996090
0.569080 0.220102 0.932714
0.789638 0.231074 0.865116
0.999995 0.244529 0.811958
0.066307 0.342860 0.913900
0.275326 0.349912 0.897461
0.552716 0.369673 0.863893
0.797714 0.382965 0.837053
1.000000 0.396249 0.813456
0.118441 0.576392 0.935109
0.326988 0.572552 0.882099
0.558265 0.568558 0.825408
0.792608 0.579610 0.798952
1.000000 0.595559 0.800563
0.155689 0.766994 0.878914
0.337241 0.757306 0.836479
0.559819 0.747756 0.787446
0.743722 0.744686 0.750405
0.999994 0.769731 0.773994
0.204476 0.977210 0.732937
0.357217 0.979911 0.720731
0.547095 0.978545 0.686299
0.702275 0.967995 0.626598
0.997772 0.992058 0.720923
0.065830 0.237038 1.000000
0.292118 0.246885 1.000000
0.547942 0.261805 1.000000
0.770946 0.279120 1.000000
0.999990 0.297888 1.000000
0.021340 0.382282 1.000000
0.252684 0.397356 1.000000
0.544860 0.415614 1.000000
0.792783 0.429252 1.000000
1.000000 0.444885 1.000000
0.159047 0.637897 1.000000
0.280248 0.604705 1.000000
0.534886 0.605827 1.000000
0.795280 0.621431 1.000000
1.000000 0.635066 1.000000
0.100005 0.822094 1.000000
0.325227 0.820763 1.000000
0.573557 0.804966 1.000000
0.722011 0.787202 1.000000
0.999996 0.805916 0.999998
0.187350 0.999617 1.000000
0.372182 0.999992 1.000000
0.597371 0.999849 0.999995
0.781388 0.998031 0.999986
0.999986 0.999988 0.999983
