luts/FUJI_ACROS_Green_Filter.cube
#Generated for krafta web app
#Black and White LUTs
TITLE "Fuji XTrans III - Acros+G"
#LUT size
LUT_3D_SIZE 9
#LUT data points
0.003922 0.003922 0.003922
0.007843 0.007843 0.007843
0.027451 0.027451 0.027451
0.094118 0.094118 0.094118
0.137255 0.137255 0.137255
0.247059 0.247059 0.247059
0.270588 0.270588 0.270588
0.317647 0.317647 0.317647
0.317647 0.317647 0.317647
0.015686 0.015686 0.015686
0.031373 0.031373 0.031373
0.058824 0.058824 0.054902
0.117647 0.117647 0.117647
0.184314 0.184314 0.184314
0.250980 0.250980 0.250980
0.313725 0.313725 0.313725
0.313725 0.313725 0.313725
0.384314 0.384314 0.384314
0.098039 0.098039 0.098039
0.105882 0.105882 0.105882
0.117647 0.117647 0.117647
0.188235 0.188235 0.188235
0.239216 0.239216 0.239216
0.305882 0.305882 0.305882
0.372549 0.372549 0.372549
0.411765 0.411765 0.411765
0.411765 0.411765 0.411765
0.160784 0.160784 0.160784
0.231373 0.231373 0.231373
0.262745 0.262745 0.262745
0.309804 0.309804 0.309804
0.333333 0.333333 0.333333
0.384314 0.384314 0.384314
0.447059 0.447059 0.447059
0.415686 0.415686 0.415686
0.411765 0.411765 0.411765
0.301961 0.301961 0.301961
0.305882 0.305882 0.305882
0.376471 0.376471 0.376471
0.435294 0.435294 0.435294
0.466667 0.466667 0.466667
0.482353 0.482353 0.482353
0.525490 0.525490 0.525490
0.529412 0.529412 0.529412
0.552941 0.552941 0.552941
0.227451 0.227451 0.227451
0.305882 0.305882 0.305882
0.392157 0.392157 0.392157
0.486275 0.486275 0.486275
0.592157 0.592157 0.592157
0.545098 0.545098 0.545098
0.600000 0.600000 0.600000
0.639216 0.639216 0.639216
0.639216 0.639216 0.639216
0.427451 0.427451 0.427451
0.305882 0.305882 0.305882
0.388235 0.388235 0.388235
0.556863 0.556863 0.556863
0.592157 0.592157 0.592157
0.596078 0.596078 0.596078
0.611765 0.611765 0.611765
0.639216 0.639216 0.639216
0.690196 0.690196 0.690196
0.458824 0.458824 0.458824
0.411765 0.411765 0.411765
0.592157 0.592157 0.592157
0.623529 0.623529 0.623529
0.658824 0.658824 0.658824
0.658824 0.658824 0.658824
0.607843 0.607843 0.607843
0.690196 0.690196 0.690196
0.690196 0.690196 0.690196
0.458824 0.458824 0.458824
0.407843 0.407843 0.407843
0.592157 0.592157 0.592157
0.623529 0.623529 0.623529
0.658824 0.658824 0.658824
0.698039 0.698039 0.698039
0.733333 0.733333 0.733333
0.737255 0.737255 0.737255
0.749020 0.749020 0.749020
0.011765 0.011765 0.011765
0.015686 0.015686 0.015686
0.062745 0.062745 0.062745
0.090196 0.090196 0.090196
0.200000 0.200000 0.200000
0.286275 0.286275 0.286275
0.313725 0.313725 0.313725
0.313725 0.313725 0.313725
0.396078 0.396078 0.396078
0.039216 0.039216 0.039216
0.047059 0.047059 0.047059
0.078431 0.078431 0.078431
0.129412 0.129412 0.129412
0.196078 0.196078 0.196078
0.262745 0.262745 0.262745
0.317647 0.317647 0.317647
0.368627 0.368627 0.368627
0.407843 0.407843 0.407843
0.117647 0.117647 0.117647
0.113725 0.113725 0.113725
0.141176 0.141176 0.141176
0.192157 0.192157 0.192157
0.254902 0.254902 0.254902
0.313725 0.313725 0.313725
0.364706 0.364706 0.364706
0.392157 0.392157 0.392157
0.439216 0.439216 0.439216
0.235294 0.235294 0.235294
0.243137 0.243137 0.243137
0.270588 0.270588 0.270588
0.317647 0.317647 0.317647
0.360784 0.360784 0.360784
0.407843 0.407843 0.407843
0.450980 0.450980 0.450980
0.462745 0.462745 0.462745
0.541176 0.541176 0.541176
0.313725 0.313725 0.313725
0.392157 0.392157 0.392157
0.403922 0.403922 0.403922
0.443137 0.443137 0.443137
0.478431 0.478431 0.478431
0.509804 0.509804 0.509804
0.537255 0.537255 0.537255
0.552941 0.552941 0.552941
0.584314 0.584314 0.584314
0.427451 0.427451 0.427451
0.458824 0.458824 0.458824
0.466667 0.466667 0.466667
0.498039 0.498039 0.498039
0.592157 0.592157 0.592157
0.603922 0.603922 0.603922
0.623529 0.623529 0.623529
0.654902 0.654902 0.654902
0.690196 0.690196 0.690196
0.458824 0.458824 0.458824
0.458824 0.458824 0.458824
0.592157 0.592157 0.592157
0.615686 0.615686 0.615686
0.650980 0.650980 0.650980
0.650980 0.650980 0.650980
0.674510 0.674510 0.674510
0.690196 0.690196 0.690196
0.690196 0.690196 0.690196
0.529412 0.529412 0.529412
0.458824 0.458824 0.458824
0.592157 0.592157 0.592157
0.627451 0.627451 0.627451
0.658824 0.658824 0.658824
0.698039 0.698039 0.698039
0.733333 0.733333 0.733333
0.737255 0.737255 0.737255
0.745098 0.745098 0.745098
0.529412 0.529412 0.529412
0.466667 0.466667 0.466667
0.662745 0.662745 0.662745
0.670588 0.670588 0.670588
0.658824 0.658824 0.658824
0.698039 0.698039 0.698039
0.733333 0.733333 0.733333
0.756863 0.756863 0.756863
0.807843 0.807843 0.807843
0.047059 0.047059 0.047059
0.082353 0.082353 0.082353
0.133333 0.133333 0.133333
0.188235 0.188235 0.188235
0.243137 0.243137 0.243137
0.282353 0.282353 0.282353
0.341176 0.341176 0.341176
0.364706 0.364706 0.364706
0.411765 0.411765 0.411765
0.086275 0.086275 0.086275
0.090196 0.090196 0.090196
0.125490 0.125490 0.125490
0.176471 0.176471 0.176471
0.223529 0.223529 0.223529
0.286275 0.286275 0.286275
0.337255 0.337255 0.337255
0.368627 0.368627 0.368627
0.407843 0.407843 0.407843
0.160784 0.160784 0.160784
0.156863 0.156863 0.156863
0.188235 0.188235 0.188235
0.231373 0.231373 0.231373
0.278431 0.278431 0.278431
0.333333 0.333333 0.333333
0.388235 0.388235 0.388235
0.443137 0.443137 0.443137
0.466667 0.466667 0.466667
0.270588 0.270588 0.270588
0.274510 0.274510 0.274510
0.309804 0.309804 0.309804
0.349020 0.349020 0.349020
0.388235 0.388235 0.388235
0.427451 0.427451 0.427451
0.466667 0.466667 0.466667
0.501961 0.501961 0.501961
0.501961 0.501961 0.501961
0.427451 0.427451 0.427451
0.411765 0.411765 0.411765
0.427451 0.427451 0.427451
0.462745 0.462745 0.462745
0.501961 0.501961 0.501961
0.529412 0.529412 0.529412
0.552941 0.552941 0.552941
0.580392 0.580392 0.580392
0.568627 0.568627 0.568627
0.478431 0.478431 0.478431
0.474510 0.474510 0.474510
0.537255 0.537255 0.537255
0.564706 0.564706 0.564706
0.600000 0.600000 0.600000
0.631373 0.631373 0.631373
0.650980 0.650980 0.650980
0.662745 0.662745 0.662745
0.690196 0.690196 0.690196
0.486275 0.486275 0.486275
0.635294 0.635294 0.635294
0.592157 0.592157 0.592157
0.662745 0.662745 0.662745
0.690196 0.690196 0.690196
0.698039 0.698039 0.698039
0.733333 0.733333 0.733333
0.749020 0.749020 0.749020
0.776471 0.776471 0.776471
0.541176 0.541176 0.541176
0.529412 0.529412 0.529412
0.662745 0.662745 0.662745
0.670588 0.670588 0.670588
0.694118 0.694118 0.694118
0.698039 0.698039 0.698039
0.733333 0.733333 0.733333
0.807843 0.807843 0.807843
0.780392 0.780392 0.780392
0.541176 0.541176 0.541176
0.525490 0.525490 0.525490
0.662745 0.662745 0.662745
0.670588 0.670588 0.670588
0.694118 0.694118 0.694118
0.764706 0.764706 0.764706
0.788235 0.788235 0.788235
0.807843 0.807843 0.807843
0.807843 0.807843 0.807843
0.137255 0.137255 0.137255
0.160784 0.160784 0.160784
0.196078 0.196078 0.196078
0.235294 0.235294 0.235294
0.313725 0.313725 0.313725
0.341176 0.341176 0.341176
0.376471 0.376471 0.376471
0.439216 0.439216 0.439216
0.439216 0.439216 0.439216
0.141176 0.141176 0.141176
0.160784 0.160784 0.160784
0.200000 0.200000 0.200000
0.247059 0.247059 0.247059
0.294118 0.294118 0.294118
0.341176 0.341176 0.341176
0.380392 0.380392 0.380392
0.411765 0.411765 0.411765
0.462745 0.462745 0.462745
0.211765 0.211765 0.211765
0.223529 0.223529 0.223529
0.258824 0.258824 0.258824
0.298039 0.298039 0.298039
0.349020 0.349020 0.349020
0.384314 0.384314 0.384314
0.419608 0.419608 0.419608
0.462745 0.462745 0.462745
0.474510 0.474510 0.474510
0.325490 0.325490 0.325490
0.333333 0.333333 0.333333
0.356863 0.356863 0.356863
0.396078 0.396078 0.396078
0.439216 0.439216 0.439216
0.470588 0.470588 0.470588
0.501961 0.501961 0.501961
0.525490 0.525490 0.525490
0.537255 0.537255 0.537255
0.447059 0.447059 0.447059
0.447059 0.447059 0.447059
0.470588 0.470588 0.470588
0.501961 0.501961 0.501961
0.537255 0.537255 0.537255
0.564706 0.564706 0.564706
0.588235 0.588235 0.588235
0.603922 0.603922 0.603922
0.615686 0.615686 0.615686
0.501961 0.501961 0.501961
0.552941 0.552941 0.552941
0.572549 0.572549 0.572549
0.596078 0.596078 0.596078
0.627451 0.627451 0.627451
0.658824 0.658824 0.658824
0.682353 0.682353 0.682353
0.694118 0.694118 0.694118
0.698039 0.698039 0.698039
0.560784 0.560784 0.560784
0.647059 0.647059 0.647059
0.654902 0.654902 0.654902
0.678431 0.678431 0.678431
0.705882 0.705882 0.705882
0.737255 0.737255 0.737255
0.760784 0.760784 0.760784
0.776471 0.776471 0.776471
0.796078 0.796078 0.796078
0.647059 0.647059 0.647059
0.647059 0.647059 0.647059
0.709804 0.709804 0.709804
0.721569 0.721569 0.721569
0.752941 0.752941 0.752941
0.772549 0.772549 0.772549
0.792157 0.792157 0.792157
0.815686 0.815686 0.815686
0.831373 0.831373 0.831373
0.650980 0.650980 0.650980
0.647059 0.647059 0.647059
0.709804 0.709804 0.709804
0.721569 0.721569 0.721569
0.752941 0.752941 0.752941
0.772549 0.772549 0.772549
0.796078 0.796078 0.796078
0.874510 0.874510 0.874510
0.886275 0.886275 0.886275
0.203922 0.203922 0.203922
0.227451 0.227451 0.227451
0.258824 0.258824 0.258824
0.309804 0.309804 0.309804
0.360784 0.360784 0.360784
0.411765 0.411765 0.411765
0.447059 0.447059 0.447059
0.486275 0.486275 0.486275
0.494118 0.494118 0.494118
0.223529 0.223529 0.223529
0.254902 0.254902 0.254902
0.286275 0.286275 0.286275
0.333333 0.333333 0.333333
0.380392 0.380392 0.380392
0.423529 0.423529 0.423529
0.454902 0.454902 0.454902
0.478431 0.478431 0.478431
0.474510 0.474510 0.474510
0.290196 0.290196 0.290196
0.313725 0.313725 0.313725
0.341176 0.341176 0.341176
0.380392 0.380392 0.380392
0.423529 0.423529 0.423529
0.458824 0.458824 0.458824
0.490196 0.490196 0.490196
0.509804 0.509804 0.509804
0.525490 0.525490 0.525490
0.384314 0.384314 0.384314
0.396078 0.396078 0.396078
0.427451 0.427451 0.427451
0.458824 0.458824 0.458824
0.498039 0.498039 0.498039
0.529412 0.529412 0.529412
0.556863 0.556863 0.556863
0.572549 0.572549 0.572549
0.576471 0.576471 0.576471
0.490196 0.490196 0.490196
0.498039 0.498039 0.498039
0.517647 0.517647 0.517647
0.549020 0.549020 0.549020
0.576471 0.576471 0.576471
0.607843 0.607843 0.607843
0.639216 0.639216 0.639216
0.654902 0.654902 0.654902
0.666667 0.666667 0.666667
0.580392 0.580392 0.580392
0.588235 0.588235 0.588235
0.603922 0.603922 0.603922
0.631373 0.631373 0.631373
0.662745 0.662745 0.662745
0.690196 0.690196 0.690196
0.709804 0.709804 0.709804
0.729412 0.729412 0.729412
0.741176 0.741176 0.741176
0.643137 0.643137 0.643137
0.635294 0.635294 0.635294
0.682353 0.682353 0.682353
0.701961 0.701961 0.701961
0.729412 0.729412 0.729412
0.760784 0.760784 0.760784
0.780392 0.780392 0.780392
0.807843 0.807843 0.807843
0.839216 0.839216 0.839216
0.682353 0.682353 0.682353
0.678431 0.678431 0.678431
0.725490 0.725490 0.725490
0.737255 0.737255 0.737255
0.768627 0.768627 0.768627
0.796078 0.796078 0.796078
0.819608 0.819608 0.819608
0.878431 0.878431 0.878431
0.890196 0.890196 0.890196
0.686275 0.686275 0.686275
0.678431 0.678431 0.678431
0.725490 0.725490 0.725490
0.737255 0.737255 0.737255
0.768627 0.768627 0.768627
0.796078 0.796078 0.796078
0.874510 0.874510 0.874510
0.878431 0.878431 0.878431
0.890196 0.890196 0.890196
0.266667 0.266667 0.266667
0.286275 0.286275 0.286275
0.321569 0.321569 0.321569
0.368627 0.368627 0.368627
0.423529 0.423529 0.423529
0.474510 0.474510 0.474510
0.521569 0.521569 0.521569
0.560784 0.560784 0.560784
0.603922 0.603922 0.603922
0.290196 0.290196 0.290196
0.333333 0.333333 0.333333
0.360784 0.360784 0.360784
0.400000 0.400000 0.400000
0.447059 0.447059 0.447059
0.490196 0.490196 0.490196
0.529412 0.529412 0.529412
0.564706 0.564706 0.564706
0.580392 0.580392 0.580392
0.360784 0.360784 0.360784
0.403922 0.403922 0.403922
0.419608 0.419608 0.419608
0.454902 0.454902 0.454902
0.498039 0.498039 0.498039
0.529412 0.529412 0.529412
0.560784 0.560784 0.560784
0.584314 0.584314 0.584314
0.592157 0.592157 0.592157
0.447059 0.447059 0.447059
0.474510 0.474510 0.474510
0.490196 0.490196 0.490196
0.521569 0.521569 0.521569
0.552941 0.552941 0.552941
0.588235 0.588235 0.588235
0.615686 0.615686 0.615686
0.639216 0.639216 0.639216
0.647059 0.647059 0.647059
0.537255 0.537255 0.537255
0.549020 0.549020 0.549020
0.564706 0.564706 0.564706
0.592157 0.592157 0.592157
0.623529 0.623529 0.623529
0.654902 0.654902 0.654902
0.682353 0.682353 0.682353
0.701961 0.701961 0.701961
0.713725 0.713725 0.713725
0.623529 0.623529 0.623529
0.631373 0.631373 0.631373
0.647059 0.647059 0.647059
0.670588 0.670588 0.670588
0.694118 0.694118 0.694118
0.721569 0.721569 0.721569
0.745098 0.745098 0.745098
0.768627 0.768627 0.768627
0.784314 0.784314 0.784314
0.698039 0.698039 0.698039
0.701961 0.701961 0.701961
0.713725 0.713725 0.713725
0.737255 0.737255 0.737255
0.756863 0.756863 0.756863
0.784314 0.784314 0.784314
0.807843 0.807843 0.807843
0.835294 0.835294 0.835294
0.882353 0.882353 0.882353
0.741176 0.741176 0.741176
0.741176 0.741176 0.741176
0.749020 0.749020 0.749020
0.768627 0.768627 0.768627
0.796078 0.796078 0.796078
0.819608 0.819608 0.819608
0.886275 0.886275 0.886275
0.901961 0.901961 0.901961
0.941176 0.941176 0.941176
0.741176 0.741176 0.741176
0.741176 0.741176 0.741176
0.815686 0.815686 0.815686
0.772549 0.772549 0.772549
0.858824 0.858824 0.858824
0.886275 0.886275 0.886275
0.890196 0.890196 0.890196
0.901961 0.901961 0.901961
0.941176 0.941176 0.941176
0.337255 0.337255 0.337255
0.352941 0.352941 0.352941
0.380392 0.380392 0.380392
0.427451 0.427451 0.427451
0.478431 0.478431 0.478431
0.537255 0.537255 0.537255
0.584314 0.584314 0.584314
0.623529 0.623529 0.623529
0.654902 0.654902 0.654902
0.356863 0.356863 0.356863
0.403922 0.403922 0.403922
0.427451 0.427451 0.427451
0.470588 0.470588 0.470588
0.517647 0.517647 0.517647
0.564706 0.564706 0.564706
0.603922 0.603922 0.603922
0.635294 0.635294 0.635294
0.654902 0.654902 0.654902
0.431373 0.431373 0.431373
0.482353 0.482353 0.482353
0.494118 0.494118 0.494118
0.525490 0.525490 0.525490
0.556863 0.556863 0.556863
0.592157 0.592157 0.592157
0.623529 0.623529 0.623529
0.654902 0.654902 0.654902
0.666667 0.666667 0.666667
0.505882 0.505882 0.505882
0.541176 0.541176 0.541176
0.556863 0.556863 0.556863
0.584314 0.584314 0.584314
0.615686 0.615686 0.615686
0.643137 0.643137 0.643137
0.674510 0.674510 0.674510
0.698039 0.698039 0.698039
0.709804 0.709804 0.709804
0.588235 0.588235 0.588235
0.603922 0.603922 0.603922
0.619608 0.619608 0.619608
0.643137 0.643137 0.643137
0.670588 0.670588 0.670588
0.698039 0.698039 0.698039
0.721569 0.721569 0.721569
0.749020 0.749020 0.749020
0.764706 0.764706 0.764706
0.666667 0.666667 0.666667
0.678431 0.678431 0.678431
0.690196 0.690196 0.690196
0.709804 0.709804 0.709804
0.729412 0.729412 0.729412
0.756863 0.756863 0.756863
0.780392 0.780392 0.780392
0.807843 0.807843 0.807843
0.819608 0.819608 0.819608
0.733333 0.733333 0.733333
0.737255 0.737255 0.737255
0.749020 0.749020 0.749020
0.768627 0.768627 0.768627
0.792157 0.792157 0.792157
0.815686 0.815686 0.815686
0.839216 0.839216 0.839216
0.866667 0.866667 0.866667
0.917647 0.917647 0.917647
0.764706 0.764706 0.764706
0.772549 0.772549 0.772549
0.815686 0.815686 0.815686
0.858824 0.858824 0.858824
0.862745 0.862745 0.862745
0.890196 0.890196 0.890196
0.870588 0.870588 0.870588
0.925490 0.925490 0.925490
0.956863 0.956863 0.956863
0.862745 0.862745 0.862745
0.823529 0.823529 0.823529
0.819608 0.819608 0.819608
0.858824 0.858824 0.858824
0.862745 0.862745 0.862745
0.890196 0.890196 0.890196
0.917647 0.917647 0.917647
0.925490 0.925490 0.925490
0.956863 0.956863 0.956863
0.403922 0.403922 0.403922
0.419608 0.419608 0.419608
0.450980 0.450980 0.450980
0.490196 0.490196 0.490196
0.537255 0.537255 0.537255
0.596078 0.596078 0.596078
0.639216 0.639216 0.639216
0.686275 0.686275 0.686275
0.678431 0.678431 0.678431
0.419608 0.419608 0.419608
0.474510 0.474510 0.474510
0.501961 0.501961 0.501961
0.541176 0.541176 0.541176
0.584314 0.584314 0.584314
0.631373 0.631373 0.631373
0.670588 0.670588 0.670588
0.701961 0.701961 0.701961
0.686275 0.686275 0.686275
0.505882 0.505882 0.505882
0.552941 0.552941 0.552941
0.564706 0.564706 0.564706
0.592157 0.592157 0.592157
0.627451 0.627451 0.627451
0.662745 0.662745 0.662745
0.690196 0.690196 0.690196
0.717647 0.717647 0.717647
0.717647 0.717647 0.717647
0.572549 0.572549 0.572549
0.611765 0.611765 0.611765
0.619608 0.619608 0.619608
0.643137 0.643137 0.643137
0.674510 0.674510 0.674510
0.701961 0.701961 0.701961
0.725490 0.725490 0.725490
0.752941 0.752941 0.752941
0.733333 0.733333 0.733333
0.643137 0.643137 0.643137
0.666667 0.666667 0.666667
0.678431 0.678431 0.678431
0.698039 0.698039 0.698039
0.721569 0.721569 0.721569
0.745098 0.745098 0.745098
0.768627 0.768627 0.768627
0.792157 0.792157 0.792157
0.835294 0.835294 0.835294
0.709804 0.709804 0.709804
0.721569 0.721569 0.721569
0.729412 0.729412 0.729412
0.749020 0.749020 0.749020
0.772549 0.772549 0.772549
0.796078 0.796078 0.796078
0.819608 0.819608 0.819608
0.847059 0.847059 0.847059
0.870588 0.870588 0.870588
0.772549 0.772549 0.772549
0.780392 0.780392 0.780392
0.792157 0.792157 0.792157
0.811765 0.811765 0.811765
0.827451 0.827451 0.827451
0.847059 0.847059 0.847059
0.870588 0.870588 0.870588
0.894118 0.894118 0.894118
0.933333 0.933333 0.933333
0.862745 0.862745 0.862745
0.811765 0.811765 0.811765
0.850980 0.850980 0.850980
0.858824 0.858824 0.858824
0.886275 0.886275 0.886275
0.913725 0.913725 0.913725
0.929412 0.929412 0.929412
0.949020 0.949020 0.949020
0.988235 0.988235 0.988235
0.862745 0.862745 0.862745
0.839216 0.839216 0.839216
0.850980 0.850980 0.850980
0.862745 0.862745 0.862745
0.886275 0.886275 0.886275
0.913725 0.913725 0.913725
0.925490 0.925490 0.925490
0.949020 0.949020 0.949020
0.988235 0.988235 0.988235
0.470588 0.470588 0.470588
0.482353 0.482353 0.482353
0.505882 0.505882 0.505882
0.541176 0.541176 0.541176
0.584314 0.584314 0.584314
0.631373 0.631373 0.631373
0.678431 0.678431 0.678431
0.745098 0.745098 0.745098
0.745098 0.745098 0.745098
0.478431 0.478431 0.478431
0.505882 0.505882 0.505882
0.533333 0.533333 0.533333
0.568627 0.568627 0.568627
0.611765 0.611765 0.611765
0.654902 0.654902 0.654902
0.701961 0.701961 0.701961
0.756863 0.756863 0.756863
0.756863 0.756863 0.756863
0.552941 0.552941 0.552941
0.564706 0.564706 0.564706
0.623529 0.623529 0.623529
0.650980 0.650980 0.650980
0.682353 0.682353 0.682353
0.705882 0.705882 0.705882
0.737255 0.737255 0.737255
0.776471 0.776471 0.776471
0.776471 0.776471 0.776471
0.631373 0.631373 0.631373
0.654902 0.654902 0.654902
0.701961 0.701961 0.701961
0.721569 0.721569 0.721569
0.741176 0.741176 0.741176
0.764706 0.764706 0.764706
0.788235 0.788235 0.788235
0.803922 0.803922 0.803922
0.807843 0.807843 0.807843
0.690196 0.690196 0.690196
0.709804 0.709804 0.709804
0.745098 0.745098 0.745098
0.764706 0.764706 0.764706
0.784314 0.784314 0.784314
0.807843 0.807843 0.807843
0.827451 0.827451 0.827451
0.847059 0.847059 0.847059
0.835294 0.835294 0.835294
0.756863 0.756863 0.756863
0.772549 0.772549 0.772549
0.796078 0.796078 0.796078
0.811765 0.811765 0.811765
0.831373 0.831373 0.831373
0.854902 0.854902 0.854902
0.870588 0.870588 0.870588
0.894118 0.894118 0.894118
0.890196 0.890196 0.890196
0.819608 0.819608 0.819608
0.835294 0.835294 0.835294
0.843137 0.843137 0.843137
0.858824 0.858824 0.858824
0.878431 0.878431 0.878431
0.901961 0.901961 0.901961
0.917647 0.917647 0.917647
0.945098 0.945098 0.945098
0.952941 0.952941 0.952941
0.850980 0.850980 0.850980
0.862745 0.862745 0.862745
0.874510 0.874510 0.874510
0.886275 0.886275 0.886275
0.882353 0.882353 0.882353
0.929412 0.929412 0.929412
0.952941 0.952941 0.952941
0.988235 0.988235 0.988235
0.992157 0.992157 0.992157
0.862745 0.862745 0.862745
0.862745 0.862745 0.862745
0.850980 0.850980 0.850980
0.862745 0.862745 0.862745
0.905882 0.905882 0.905882
0.941176 0.941176 0.941176
0.956863 0.956863 0.956863
0.988235 0.988235 0.988235
0.992157 0.992157 0.992157
