luts/FUJI_MONO.cube
#Generated for krafta web app
#Black and White LUTs
TITLE "Fuji XTrans III - Mono"
#LUT size
LUT_3D_SIZE 5
#LUT data points
0.000000 0.000000 0.000000
0.031373 0.031373 0.027451
0.172549 0.172549 0.172549
0.337255 0.337255 0.337255
0.388235 0.388235 0.388235
0.074510 0.074510 0.074510
0.129412 0.129412 0.129412
0.286275 0.286275 0.286275
0.443137 0.443137 0.443137
0.478431 0.478431 0.478431
0.274510 0.274510 0.274510
0.349020 0.349020 0.349020
0.478431 0.478431 0.478431
0.572549 0.572549 0.572549
0.600000 0.600000 0.600000
0.380392 0.380392 0.380392
0.356863 0.356863 0.356863
0.568627 0.568627 0.568627
0.647059 0.647059 0.647059
0.733333 0.733333 0.733333
0.407843 0.407843 0.407843
0.525490 0.525490 0.525490
0.631373 0.631373 0.631373
0.729412 0.729412 0.729412
0.768627 0.768627 0.768627
0.043137 0.043137 0.043137
0.168627 0.168627 0.168627
0.294118 0.294118 0.294118
0.415686 0.415686 0.415686
0.501961 0.501961 0.501961
0.141176 0.141176 0.141176
0.207843 0.207843 0.207843
0.333333 0.333333 0.333333
0.466667 0.466667 0.466667
0.549020 0.549020 0.549020
0.376471 0.376471 0.376471
0.396078 0.396078 0.396078
0.501961 0.501961 0.501961
0.603922 0.603922 0.603922
0.639216 0.639216 0.639216
0.435294 0.435294 0.435294
0.525490 0.525490 0.525490
0.650980 0.650980 0.650980
0.729412 0.729412 0.729412
0.800000 0.800000 0.800000
0.490196 0.490196 0.490196
0.588235 0.588235 0.588235
0.654902 0.654902 0.654902
0.776471 0.776471 0.776471
0.811765 0.811765 0.811765
0.231373 0.231373 0.231373
0.290196 0.290196 0.290196
0.388235 0.388235 0.388235
0.498039 0.498039 0.498039
0.572549 0.572549 0.572549
0.282353 0.282353 0.282353
0.349020 0.349020 0.349020
0.439216 0.439216 0.439216
0.545098 0.545098 0.545098
0.607843 0.607843 0.607843
0.458824 0.458824 0.458824
0.498039 0.498039 0.498039
0.576471 0.576471 0.576471
0.658824 0.658824 0.658824
0.717647 0.717647 0.717647
0.592157 0.592157 0.592157
0.623529 0.623529 0.623529
0.701961 0.701961 0.701961
0.776471 0.776471 0.776471
0.862745 0.862745 0.862745
0.627451 0.627451 0.627451
0.666667 0.666667 0.666667
0.721569 0.721569 0.721569
0.858824 0.858824 0.858824
0.882353 0.882353 0.882353
0.372549 0.372549 0.372549
0.423529 0.423529 0.423529
0.513725 0.513725 0.513725
0.592157 0.592157 0.592157
0.658824 0.658824 0.658824
0.431373 0.431373 0.431373
0.501961 0.501961 0.501961
0.560784 0.560784 0.560784
0.639216 0.639216 0.639216
0.694118 0.694118 0.694118
0.556863 0.556863 0.556863
0.603922 0.603922 0.603922
0.662745 0.662745 0.662745
0.729412 0.729412 0.729412
0.780392 0.780392 0.780392
0.690196 0.690196 0.690196
0.713725 0.713725 0.713725
0.768627 0.768627 0.768627
0.827451 0.827451 0.827451
0.921569 0.921569 0.921569
0.823529 0.823529 0.823529
0.768627 0.768627 0.768627
0.831373 0.831373 0.831373
0.901961 0.901961 0.901961
0.949020 0.949020 0.949020
0.509804 0.509804 0.509804
0.541176 0.541176 0.541176
0.619608 0.619608 0.619608
0.701961 0.701961 0.701961
0.749020 0.749020 0.749020
0.560784 0.560784 0.560784
0.635294 0.635294 0.635294
0.686275 0.686275 0.686275
0.741176 0.741176 0.741176
0.764706 0.764706 0.764706
0.647059 0.647059 0.647059
0.725490 0.725490 0.725490
0.760784 0.760784 0.760784
0.807843 0.807843 0.807843
0.843137 0.843137 0.843137
0.776471 0.776471 0.776471
0.803922 0.803922 0.803922
0.847059 0.847059 0.847059
0.894118 0.894118 0.894118
0.945098 0.945098 0.945098
0.827451 0.827451 0.827451
0.815686 0.815686 0.815686
0.882353 0.882353 0.882353
0.941176 0.941176 0.941176
0.972549 0.972549 0.972549
