luts/Fujifilm_Superia_400.cube
# Generated for krafta web app
# https://www.facebook.com/krafta.visio
# Preset: FUJ - Superia 400
# Color profile : sRGB Color Space Profile
LUT_3D_SIZE 16
DOMAIN_MIN 0.0 0.0 0.0
DOMAIN_MAX 1.0 1.0 1.0
0.000000 0.000000 0.000000
0.099336 0.001770 0.001343
0.200870 0.002319 0.003113
0.283391 0.004150 0.003906
0.352178 0.005554 0.005921
0.418097 0.007233 0.006897
0.480446 0.008728 0.008148
0.545922 0.011872 0.011139
0.608789 0.017853 0.017792
0.672114 0.026001 0.025513
0.733425 0.037476 0.037507
0.791501 0.050446 0.050111
0.848325 0.063966 0.062348
0.906798 0.076265 0.075288
0.965393 0.089204 0.089052
1.000000 0.101106 0.100252
0.003693 0.107607 0.003845
0.104402 0.104646 0.004334
0.192935 0.106569 0.004150
0.274601 0.103548 0.004211
0.345068 0.098695 0.004608
0.411414 0.094514 0.005707
0.478126 0.092103 0.007965
0.543877 0.092287 0.014130
0.606317 0.092958 0.021118
0.670283 0.095979 0.029053
0.731380 0.100130 0.040192
0.789303 0.104891 0.053376
0.845762 0.110719 0.065522
0.904387 0.118135 0.077607
0.963317 0.126467 0.090211
1.000000 0.134737 0.102510
0.000000 0.193973 0.000000
0.102327 0.188907 0.000000
0.184146 0.184298 0.000793
0.263096 0.180087 0.001312
0.335637 0.174350 0.003662
0.406256 0.170840 0.007172
0.473854 0.167544 0.013123
0.539178 0.165133 0.018708
0.602258 0.163455 0.026612
0.667414 0.163821 0.036439
0.728298 0.164340 0.047181
0.786099 0.165286 0.058778
0.842130 0.167300 0.069123
0.901549 0.170932 0.080720
0.960845 0.175753 0.093385
1.000000 0.181338 0.105928
0.001434 0.264317 0.001801
0.097169 0.260868 0.002869
0.176455 0.257450 0.004822
0.253971 0.254093 0.007507
0.327001 0.248814 0.011658
0.396918 0.244083 0.016754
0.463844 0.239475 0.022827
0.530114 0.236179 0.030152
0.595727 0.234195 0.037476
0.660670 0.232853 0.046723
0.721035 0.231022 0.055909
0.778622 0.229587 0.065675
0.836210 0.229038 0.075166
0.894835 0.230137 0.085237
0.952819 0.231662 0.096223
1.000000 0.234745 0.107546
0.019409 0.326696 0.019684
0.099763 0.326299 0.020233
0.172946 0.326574 0.022461
0.248142 0.324956 0.024567
0.322087 0.322026 0.029114
0.393286 0.318181 0.034546
0.461494 0.313573 0.040772
0.528954 0.310094 0.046662
0.595361 0.307042 0.052766
0.660945 0.304753 0.059571
0.721462 0.301457 0.068635
0.780606 0.298741 0.077516
0.839658 0.297307 0.086854
0.899321 0.297154 0.097108
0.957580 0.297154 0.107698
1.000000 0.296666 0.116213
0.042115 0.391028 0.041779
0.106630 0.392096 0.043488
0.173556 0.392523 0.044709
0.244053 0.391119 0.048005
0.314794 0.388220 0.050294
0.385260 0.385107 0.053620
0.454627 0.382238 0.058320
0.523064 0.379492 0.063111
0.589685 0.376165 0.068086
0.654780 0.373236 0.073091
0.714992 0.368597 0.080812
0.775174 0.365118 0.088472
0.834470 0.362463 0.097078
0.894072 0.361120 0.106325
0.952667 0.359960 0.115328
1.000000 0.358679 0.123415
0.063203 0.455116 0.063142
0.115419 0.456306 0.064851
0.175937 0.456428 0.065522
0.242466 0.455390 0.067536
0.311284 0.453681 0.069215
0.380316 0.451942 0.072297
0.449714 0.449836 0.075868
0.517998 0.447242 0.078553
0.583337 0.443122 0.082155
0.647120 0.438941 0.087221
0.708186 0.434241 0.093477
0.769100 0.430549 0.100374
0.828794 0.427283 0.107790
0.888609 0.424964 0.115450
0.947448 0.423102 0.124117
1.000000 0.421332 0.132387
0.080110 0.517510 0.079988
0.124788 0.519677 0.081331
0.179995 0.520897 0.082521
0.243534 0.520592 0.083986
0.309880 0.519097 0.086336
0.376654 0.516258 0.087404
0.443061 0.512596 0.088960
0.509178 0.509239 0.092073
0.574792 0.505943 0.094667
0.638270 0.501854 0.100038
0.700252 0.497536 0.105653
0.761593 0.493812 0.112032
0.821683 0.490242 0.118196
0.881224 0.487190 0.125154
0.940063 0.484504 0.131991
1.000000 0.483680 0.141421
0.093111 0.569390 0.092531
0.129488 0.569604 0.092653
0.179843 0.570611 0.094148
0.239078 0.571008 0.095460
0.302678 0.571069 0.097627
0.367956 0.570489 0.099702
0.434394 0.569726 0.102022
0.500786 0.568505 0.105745
0.567224 0.567346 0.109590
0.633265 0.565942 0.113344
0.696925 0.562951 0.119356
0.759365 0.559808 0.125612
0.820188 0.556176 0.131685
0.879942 0.552850 0.138827
0.939086 0.549859 0.145418
0.997040 0.546777 0.152590
0.109651 0.628077 0.109834
0.140810 0.627375 0.109651
0.185672 0.627314 0.110719
0.240604 0.627131 0.111482
0.300664 0.626947 0.112764
0.363745 0.626642 0.115175
0.428565 0.626551 0.117830
0.493629 0.626032 0.120394
0.559258 0.625544 0.123903
0.624567 0.624659 0.127718
0.689631 0.623468 0.131350
0.751217 0.619989 0.136690
0.812009 0.616358 0.142123
0.872862 0.613672 0.148989
0.933135 0.611231 0.156252
0.993469 0.609583 0.164736
0.126436 0.685512 0.126009
0.152407 0.685115 0.125826
0.193179 0.684749 0.127077
0.244358 0.684474 0.127565
0.301732 0.684230 0.128878
0.362280 0.683833 0.130220
0.424903 0.683558 0.132784
0.488472 0.683040 0.134798
0.552605 0.682521 0.137697
0.616571 0.681605 0.141024
0.680415 0.680507 0.144625
0.743740 0.679011 0.148257
0.805295 0.676295 0.153719
0.866972 0.674403 0.160403
0.928618 0.672877 0.168765
0.989471 0.671534 0.177829
0.141909 0.742580 0.142275
0.165072 0.742184 0.142519
0.201663 0.741848 0.142855
0.249943 0.741482 0.143465
0.303899 0.741085 0.144106
0.362341 0.740658 0.145449
0.422980 0.740169 0.147280
0.484810 0.739712 0.149752
0.547570 0.739284 0.152621
0.610529 0.738674 0.155306
0.673884 0.738003 0.158694
0.737118 0.737331 0.162966
0.800534 0.736751 0.167544
0.862852 0.735470 0.173983
0.924773 0.734432 0.182681
0.986847 0.733974 0.192782
0.154940 0.796506 0.154757
0.175875 0.796628 0.154940
0.210117 0.797086 0.156649
0.255711 0.797452 0.157412
0.308171 0.798062 0.159792
0.364599 0.798520 0.161746
0.424231 0.799069 0.164645
0.485420 0.799435 0.167636
0.547753 0.800015 0.171572
0.610590 0.800351 0.175418
0.674098 0.800839 0.180423
0.737636 0.801114 0.185397
0.801450 0.801602 0.191287
0.864561 0.801266 0.196323
0.925689 0.799466 0.203281
0.984924 0.796567 0.210422
0.180087 0.860410 0.180240
0.195529 0.858366 0.177615
0.224247 0.857542 0.176791
0.265782 0.857420 0.177310
0.315709 0.857786 0.179141
0.370001 0.858122 0.181399
0.427741 0.858549 0.184360
0.487465 0.858946 0.187411
0.548455 0.859617 0.191562
0.610193 0.859831 0.195346
0.672602 0.860227 0.200504
0.735073 0.860380 0.205264
0.797818 0.860624 0.211307
0.860166 0.860319 0.216220
0.921965 0.859556 0.221439
0.982513 0.857939 0.228794
0.203799 0.920836 0.203952
0.216587 0.919127 0.201053
0.242313 0.918212 0.200046
0.280003 0.917906 0.200351
0.326299 0.918059 0.201450
0.378332 0.918273 0.203830
0.434028 0.918730 0.207401
0.491920 0.919066 0.210452
0.551507 0.919493 0.214847
0.611994 0.919738 0.219059
0.673274 0.920043 0.224002
0.734951 0.920348 0.229892
0.797208 0.920928 0.236973
0.859312 0.921233 0.243565
0.921202 0.921324 0.251133
0.981964 0.920439 0.256443
0.235599 0.982605 0.236027
0.245792 0.981262 0.232517
0.267552 0.980591 0.231144
0.301366 0.980377 0.231754
0.344366 0.980499 0.233463
0.393194 0.980743 0.236210
0.446387 0.981140 0.239689
0.502403 0.981567 0.244053
0.560449 0.982208 0.249027
0.619928 0.982849 0.255283
0.680385 0.983642 0.262730
0.741451 0.984436 0.271000
0.803311 0.985565 0.281102
0.865202 0.986633 0.292271
0.927337 0.987976 0.305852
0.989441 0.989563 0.321355
0.000366 0.000275 0.100130
0.109926 0.000000 0.109651
0.202853 0.000000 0.109804
0.283391 0.000061 0.100801
0.350195 0.000397 0.097017
0.414618 0.006409 0.095064
0.478767 0.014557 0.095064
0.543023 0.022492 0.095979
0.605127 0.031373 0.097719
0.668849 0.041169 0.100587
0.730373 0.051759 0.104585
0.787930 0.062593 0.109865
0.844144 0.072877 0.114687
0.902464 0.083528 0.121370
0.960693 0.095216 0.129122
1.000000 0.106203 0.135775
0.000000 0.109834 0.109712
0.105440 0.105440 0.105440
0.196017 0.101534 0.101228
0.274907 0.098878 0.098604
0.344640 0.096956 0.096559
0.411048 0.096040 0.095766
0.477333 0.096345 0.097078
0.541985 0.097993 0.098024
0.604395 0.099825 0.099611
0.669337 0.102846 0.102937
0.730220 0.107393 0.106722
0.787411 0.112093 0.110933
0.842985 0.117037 0.116060
0.901061 0.123140 0.122499
0.959106 0.130556 0.129335
1.000000 0.137819 0.137484
0.000000 0.196994 0.103182
0.101900 0.192050 0.101045
0.186984 0.187137 0.099062
0.266026 0.181949 0.098390
0.338323 0.177371 0.098604
0.407904 0.174197 0.098512
0.474769 0.171054 0.100069
0.539391 0.169131 0.101045
0.604150 0.167971 0.103212
0.668544 0.168276 0.105837
0.727993 0.168460 0.109071
0.784573 0.168856 0.113710
0.840299 0.170687 0.118227
0.898772 0.174014 0.124361
0.957031 0.177981 0.131319
1.000000 0.182589 0.139071
0.009644 0.267979 0.103151
0.101778 0.264378 0.102022
0.180148 0.260380 0.101167
0.256474 0.256779 0.100771
0.329503 0.251865 0.101503
0.399420 0.247288 0.102358
0.466682 0.243107 0.102907
0.533349 0.240269 0.104677
0.598810 0.237888 0.106508
0.662959 0.236057 0.109407
0.722683 0.233982 0.112642
0.779660 0.232425 0.117037
0.837888 0.232273 0.122530
0.895933 0.233066 0.127779
0.952697 0.234195 0.133639
1.000000 0.235904 0.140719
0.033021 0.327092 0.104311
0.103853 0.326177 0.104616
0.174319 0.324254 0.104585
0.246647 0.321355 0.104341
0.317693 0.317754 0.104829
0.387732 0.314244 0.105440
0.455909 0.310704 0.106722
0.523430 0.307805 0.109102
0.589319 0.304875 0.111238
0.654658 0.302922 0.113405
0.715633 0.299992 0.117952
0.775265 0.297917 0.122103
0.835111 0.297032 0.127504
0.894926 0.296788 0.133791
0.953491 0.296849 0.140444
1.000000 0.296788 0.146273
0.053223 0.390417 0.109957
0.110414 0.390326 0.110201
0.174350 0.389014 0.110750
0.242771 0.387213 0.111452
0.312535 0.384619 0.111696
0.381689 0.381781 0.112886
0.449866 0.378668 0.113527
0.517357 0.375860 0.115511
0.583642 0.372900 0.117281
0.648615 0.370092 0.120089
0.709834 0.366430 0.124147
0.770504 0.363684 0.128939
0.830137 0.361456 0.133455
0.889647 0.359930 0.139071
0.948425 0.358709 0.145235
1.000000 0.357977 0.151644
0.069001 0.455360 0.117830
0.119295 0.455634 0.118593
0.177340 0.454810 0.119234
0.242344 0.453223 0.119478
0.309850 0.451026 0.119875
0.377874 0.448524 0.121004
0.445777 0.445686 0.121645
0.512627 0.442847 0.123384
0.578454 0.439551 0.124605
0.642451 0.436011 0.127443
0.703395 0.431617 0.130953
0.764096 0.428046 0.135225
0.823941 0.425025 0.139498
0.883696 0.422705 0.144808
0.942748 0.420966 0.150607
1.000000 0.419867 0.157168
0.083833 0.516228 0.124910
0.126223 0.517327 0.126040
0.179446 0.516991 0.126284
0.241672 0.515923 0.126925
0.307103 0.514092 0.127077
0.373297 0.511711 0.128420
0.439887 0.508843 0.129030
0.505852 0.505943 0.130617
0.571252 0.502892 0.132265
0.634455 0.498878 0.135225
0.696193 0.494789 0.138643
0.757443 0.491279 0.142519
0.817807 0.488014 0.146975
0.877287 0.484932 0.151644
0.936309 0.482521 0.156619
0.997284 0.482185 0.164187
0.095583 0.571496 0.132052
0.131868 0.571344 0.132082
0.180819 0.571038 0.132723
0.239322 0.570581 0.133120
0.302190 0.569879 0.134463
0.367041 0.569055 0.135500
0.433265 0.568231 0.137484
0.499336 0.566888 0.139620
0.565362 0.565423 0.141665
0.630976 0.563836 0.144503
0.694362 0.560876 0.149020
0.756588 0.557824 0.153750
0.817350 0.554376 0.158236
0.877684 0.551476 0.163943
0.937682 0.549096 0.169467
0.996765 0.546960 0.175631
0.111421 0.628351 0.142763
0.142702 0.627832 0.142763
0.186893 0.627436 0.143038
0.241398 0.627039 0.143313
0.301366 0.626764 0.144900
0.363745 0.626154 0.146090
0.427985 0.625422 0.147646
0.492470 0.624567 0.149386
0.557549 0.623682 0.151949
0.622492 0.622461 0.154604
0.686793 0.621118 0.157565
0.748623 0.617762 0.161685
0.809781 0.614679 0.165988
0.871183 0.612451 0.171969
0.932189 0.610712 0.177859
0.993317 0.609613 0.186160
0.127962 0.685634 0.155062
0.155154 0.685573 0.155093
0.194980 0.685206 0.155245
0.245487 0.684657 0.156008
0.302190 0.684108 0.156741
0.362493 0.683253 0.157168
0.424353 0.682368 0.158785
0.487343 0.681483 0.160220
0.551110 0.680812 0.162844
0.614893 0.679774 0.165194
0.678279 0.678462 0.167788
0.741512 0.676936 0.170840
0.803769 0.675013 0.175387
0.865873 0.673548 0.181521
0.927703 0.672328 0.188815
0.988952 0.671199 0.196841
0.143099 0.742123 0.166659
0.166506 0.741848 0.167269
0.202884 0.741421 0.167086
0.250156 0.741085 0.167330
0.304387 0.740688 0.168002
0.362615 0.740261 0.169162
0.422919 0.739834 0.170840
0.484688 0.739284 0.172488
0.547143 0.738674 0.174929
0.609979 0.737850 0.177249
0.673030 0.737026 0.179751
0.736080 0.736141 0.183413
0.799161 0.735439 0.186557
0.861326 0.734157 0.192569
0.923156 0.733089 0.199893
0.985382 0.732845 0.208835
0.156558 0.797238 0.177432
0.177768 0.797299 0.177890
0.211429 0.797635 0.178958
0.256413 0.797848 0.179873
0.308415 0.798306 0.181369
0.365179 0.798611 0.183139
0.424659 0.799191 0.185824
0.485603 0.799496 0.188632
0.547845 0.799954 0.191836
0.610559 0.800168 0.195224
0.673915 0.800595 0.199313
0.737362 0.800870 0.204105
0.801175 0.801328 0.209140
0.864286 0.801053 0.214115
0.925597 0.799435 0.220432
0.985077 0.796780 0.227207
0.181369 0.860838 0.199588
0.197116 0.858915 0.197238
0.225620 0.858122 0.196170
0.267063 0.857908 0.196902
0.316655 0.858244 0.198550
0.370855 0.858457 0.200259
0.428199 0.858732 0.202945
0.487678 0.859068 0.205203
0.548638 0.859556 0.209293
0.610193 0.859709 0.212619
0.672480 0.860044 0.217197
0.735012 0.860166 0.221439
0.797787 0.860472 0.226871
0.860166 0.860258 0.231937
0.921996 0.859617 0.236973
0.982696 0.858152 0.244022
0.205295 0.921111 0.220890
0.217807 0.919524 0.218448
0.243320 0.918669 0.217258
0.280919 0.918395 0.217288
0.327337 0.918517 0.218845
0.378882 0.918700 0.221042
0.434638 0.919066 0.223545
0.492256 0.919280 0.226688
0.551720 0.919585 0.229953
0.612024 0.919707 0.233829
0.673243 0.920012 0.238468
0.734890 0.920287 0.243809
0.797116 0.920867 0.250278
0.859281 0.921172 0.256992
0.921172 0.921355 0.264073
0.982086 0.920562 0.269505
0.236606 0.982818 0.250095
0.246769 0.981567 0.247196
0.268437 0.980896 0.245823
0.302190 0.980713 0.246006
0.344915 0.980865 0.247715
0.393835 0.981079 0.250248
0.446906 0.981476 0.253391
0.502831 0.981842 0.257511
0.560754 0.982361 0.262455
0.620142 0.982971 0.268284
0.680537 0.983703 0.274998
0.741482 0.984405 0.282444
0.803250 0.985412 0.291905
0.865080 0.986450 0.302464
0.927214 0.987854 0.315435
0.989319 0.989441 0.330632
0.000031 0.000153 0.213657
0.114351 0.000000 0.209293
0.198672 0.000061 0.199527
0.276707 0.000000 0.188785
0.345220 0.000122 0.179141
0.408209 0.014282 0.173312
0.472297 0.030152 0.171084
0.536095 0.042603 0.170077
0.598901 0.048920 0.168612
0.663783 0.056794 0.168948
0.725765 0.064607 0.169833
0.783749 0.075807 0.171115
0.840452 0.083894 0.172946
0.899901 0.094240 0.176547
0.958770 0.104433 0.180453
1.000000 0.113558 0.184146
0.000000 0.107027 0.206577
0.102937 0.102449 0.198520
0.191165 0.099306 0.191196
0.269200 0.098238 0.183658
0.337621 0.099306 0.177493
0.404639 0.102296 0.174594
0.470497 0.104524 0.172610
0.535271 0.105745 0.170871
0.599420 0.107576 0.169711
0.664607 0.110414 0.170138
0.725795 0.114321 0.170748
0.783383 0.118837 0.172213
0.839780 0.123415 0.173770
0.898680 0.129976 0.177005
0.957183 0.136873 0.181064
1.000000 0.143435 0.184787
0.000000 0.192966 0.192996
0.101717 0.188540 0.188693
0.184360 0.184360 0.184360
0.261234 0.180972 0.180697
0.333227 0.178347 0.178470
0.402350 0.176364 0.175998
0.469368 0.174166 0.173831
0.534203 0.172213 0.171786
0.600000 0.171908 0.171359
0.664454 0.171572 0.171756
0.723995 0.172427 0.172000
0.780728 0.173281 0.173068
0.837613 0.174746 0.174716
0.896361 0.178256 0.177829
0.955169 0.181949 0.181552
1.000000 0.186343 0.185824
0.021210 0.264897 0.183932
0.106813 0.261326 0.182376
0.180453 0.258000 0.180545
0.254551 0.254765 0.178561
0.326238 0.250919 0.176883
0.395789 0.247288 0.175692
0.462867 0.243503 0.173648
0.530236 0.241428 0.173098
0.595361 0.239170 0.172641
0.659571 0.237430 0.172732
0.719203 0.235996 0.172763
0.776394 0.234623 0.174319
0.835294 0.234775 0.176669
0.893553 0.235416 0.179202
0.950591 0.236118 0.182284
1.000000 0.237858 0.185672
0.049104 0.324620 0.177768
0.110536 0.323766 0.177310
0.176761 0.322087 0.176333
0.246220 0.319554 0.175479
0.316258 0.316167 0.174197
0.385351 0.312963 0.173617
0.453193 0.309911 0.172732
0.520439 0.307286 0.172702
0.586236 0.304875 0.172763
0.651453 0.302861 0.173434
0.712520 0.300450 0.174777
0.772854 0.299016 0.176791
0.833066 0.298283 0.179324
0.893126 0.298070 0.183230
0.952026 0.298497 0.187045
1.000000 0.298283 0.190524
0.063508 0.388983 0.176852
0.115755 0.388952 0.177127
0.176577 0.387762 0.176547
0.243748 0.385718 0.176425
0.312047 0.383246 0.175937
0.380621 0.380499 0.175235
0.448219 0.377539 0.174594
0.515343 0.374884 0.175113
0.581659 0.372290 0.175143
0.646296 0.369574 0.175753
0.707759 0.366339 0.177523
0.768490 0.363928 0.179904
0.828428 0.361761 0.182803
0.888151 0.360540 0.185885
0.947112 0.359564 0.189517
1.000000 0.358984 0.193515
0.076905 0.453864 0.178683
0.122347 0.454444 0.179355
0.178744 0.453620 0.179019
0.243015 0.452125 0.178653
0.309819 0.450019 0.178775
0.377539 0.447578 0.178592
0.444862 0.444862 0.178134
0.511467 0.442023 0.178470
0.576989 0.438788 0.178531
0.640742 0.435309 0.179599
0.701717 0.431189 0.181369
0.762478 0.427741 0.183810
0.822416 0.424903 0.186130
0.882261 0.422858 0.188907
0.941588 0.421271 0.192905
1.000000 0.420417 0.197513
0.087861 0.515190 0.180026
0.127810 0.516472 0.180972
0.180819 0.516197 0.181125
0.242557 0.515099 0.180972
0.307286 0.513237 0.181216
0.373144 0.510826 0.181186
0.439246 0.508080 0.180819
0.505089 0.505241 0.181308
0.570306 0.502159 0.181369
0.633478 0.498329 0.183474
0.695155 0.494362 0.185183
0.756313 0.490974 0.187808
0.816617 0.487800 0.190524
0.876158 0.484932 0.193118
0.935485 0.482734 0.196628
0.996582 0.482368 0.202487
0.097963 0.570947 0.181827
0.133791 0.570733 0.181735
0.182223 0.570459 0.182193
0.239963 0.569940 0.182650
0.302525 0.569329 0.183078
0.367285 0.568414 0.184176
0.432959 0.567620 0.185397
0.499031 0.566308 0.186191
0.564782 0.564813 0.187991
0.630274 0.563256 0.189853
0.693477 0.560388 0.192996
0.755673 0.557458 0.196017
0.816373 0.554101 0.199008
0.876951 0.551446 0.202457
0.937072 0.549310 0.207034
0.996460 0.547265 0.211643
0.114931 0.627893 0.188205
0.144808 0.627588 0.188449
0.188327 0.627161 0.188693
0.242527 0.626856 0.189059
0.302220 0.626642 0.189853
0.364477 0.626001 0.190524
0.428077 0.625238 0.191745
0.492561 0.624262 0.192782
0.557458 0.623377 0.194797
0.622095 0.622187 0.196506
0.686213 0.620600 0.198123
0.747921 0.617365 0.201419
0.809171 0.614466 0.204349
0.870634 0.612421 0.208591
0.931853 0.610834 0.213626
0.993072 0.609888 0.219791
0.130953 0.685389 0.196445
0.157168 0.685451 0.196811
0.196719 0.685145 0.196567
0.247013 0.684627 0.196658
0.303105 0.684016 0.197543
0.363012 0.683192 0.197848
0.424781 0.682338 0.198764
0.487739 0.681453 0.200443
0.551324 0.680659 0.201938
0.614649 0.679530 0.203555
0.678004 0.678126 0.205264
0.741146 0.676600 0.207614
0.803311 0.674830 0.211124
0.865568 0.673457 0.215732
0.927428 0.672358 0.221714
0.988769 0.671443 0.228061
0.145815 0.741909 0.204440
0.168826 0.741695 0.204471
0.204471 0.741207 0.204715
0.251255 0.740963 0.204623
0.305425 0.740597 0.205356
0.362982 0.740230 0.206363
0.423682 0.739742 0.207431
0.485023 0.739193 0.208896
0.547448 0.738521 0.210239
0.610101 0.737697 0.212192
0.672999 0.736904 0.214359
0.735988 0.736019 0.216648
0.798917 0.735317 0.219791
0.861051 0.734066 0.224216
0.922942 0.732998 0.229953
0.985199 0.732845 0.237430
0.158877 0.797421 0.212497
0.179721 0.797482 0.212467
0.212955 0.797696 0.212985
0.257511 0.798001 0.214237
0.309728 0.798367 0.215305
0.366064 0.798642 0.217105
0.425238 0.799222 0.218845
0.486061 0.799496 0.221225
0.548180 0.799985 0.224186
0.610803 0.800229 0.227237
0.674037 0.800656 0.230991
0.737514 0.800900 0.234531
0.801297 0.801419 0.239261
0.864256 0.801114 0.243290
0.925505 0.799435 0.248722
0.985077 0.796902 0.253910
0.183230 0.860929 0.230137
0.198245 0.859098 0.228092
0.227176 0.858305 0.227451
0.268162 0.858152 0.227756
0.317296 0.858427 0.228977
0.371344 0.858610 0.230747
0.428809 0.858885 0.232639
0.488258 0.859220 0.235355
0.549004 0.859709 0.238529
0.610559 0.859831 0.241581
0.672816 0.860166 0.245274
0.735195 0.860288 0.249119
0.797879 0.860594 0.253758
0.860227 0.860349 0.258427
0.922026 0.859678 0.262242
0.982757 0.858305 0.268498
0.206485 0.921172 0.248173
0.218906 0.919646 0.245548
0.244266 0.918822 0.244480
0.281651 0.918578 0.244572
0.327977 0.918669 0.246067
0.379736 0.918853 0.247807
0.435065 0.919249 0.250278
0.492775 0.919432 0.252598
0.552056 0.919677 0.255650
0.612329 0.919829 0.259434
0.673518 0.920134 0.263401
0.735134 0.920409 0.268284
0.797330 0.920989 0.274205
0.859434 0.921294 0.280339
0.921324 0.921447 0.286717
0.982238 0.920714 0.291051
0.237522 0.982940 0.273289
0.247288 0.981720 0.270390
0.269108 0.981048 0.269322
0.302708 0.980865 0.269444
0.345525 0.981048 0.271275
0.394324 0.981262 0.273503
0.447272 0.981628 0.276280
0.503105 0.981994 0.279850
0.561059 0.982513 0.284459
0.620417 0.983093 0.289830
0.680812 0.983795 0.296178
0.741756 0.984497 0.303166
0.803433 0.985504 0.312016
0.865202 0.986572 0.321752
0.927306 0.987915 0.333989
0.989410 0.989532 0.348455
0.000092 0.000000 0.294957
0.106508 0.000183 0.289525
0.189425 0.000000 0.279423
0.267735 0.000092 0.268162
0.337957 0.001434 0.256779
0.403510 0.016083 0.247929
0.468391 0.030701 0.242863
0.531945 0.044678 0.239475
0.594934 0.056275 0.237217
0.659541 0.065370 0.236576
0.721370 0.074556 0.235935
0.779782 0.084871 0.235508
0.837461 0.093935 0.235355
0.897459 0.103395 0.236942
0.956634 0.113252 0.239017
1.000000 0.121279 0.240513
0.000000 0.102449 0.285344
0.099977 0.099977 0.277714
0.184024 0.098268 0.269474
0.261540 0.097383 0.261601
0.332403 0.098604 0.253361
0.400763 0.102174 0.247837
0.466499 0.105318 0.243503
0.530449 0.108736 0.240146
0.595453 0.112245 0.238560
0.660426 0.115633 0.237858
0.721523 0.119783 0.236728
0.779385 0.125612 0.235874
0.836973 0.130282 0.235660
0.896208 0.136782 0.237095
0.955108 0.143221 0.238926
1.000000 0.149660 0.241093
0.005646 0.186954 0.271824
0.103761 0.183932 0.266239
0.181582 0.181216 0.261051
0.257206 0.179019 0.256992
0.328710 0.177432 0.252201
0.397681 0.176394 0.248295
0.464393 0.175235 0.244755
0.529931 0.174411 0.242100
0.595575 0.174166 0.240024
0.660151 0.174014 0.238437
0.719783 0.175174 0.237125
0.776883 0.176638 0.235935
0.834775 0.179110 0.236088
0.894041 0.182498 0.237125
0.953094 0.186496 0.239231
1.000000 0.190463 0.241093
0.026917 0.261143 0.260838
0.107790 0.258091 0.257969
0.180179 0.254856 0.254917
0.252140 0.252140 0.252140
0.322545 0.249180 0.249149
0.391516 0.246189 0.246220
0.459113 0.243503 0.243687
0.526299 0.241794 0.241489
0.591516 0.239567 0.239353
0.655695 0.238163 0.238010
0.715450 0.237003 0.236912
0.773281 0.236423 0.236301
0.832792 0.237247 0.236942
0.891356 0.238132 0.237980
0.948669 0.238956 0.238437
1.000000 0.240360 0.240024
0.051270 0.321752 0.248081
0.112703 0.320867 0.247868
0.176883 0.319036 0.246952
0.245274 0.316838 0.245121
0.314000 0.314153 0.243168
0.382727 0.311437 0.241611
0.450324 0.308782 0.239841
0.517601 0.306706 0.238743
0.583307 0.304265 0.237339
0.648402 0.302586 0.236942
0.709377 0.300633 0.236423
0.770443 0.299870 0.237522
0.830991 0.299565 0.238804
0.891234 0.299809 0.240696
0.950408 0.300328 0.242649
1.000000 0.300267 0.244022
0.068116 0.387091 0.245090
0.119142 0.386725 0.244968
0.177554 0.385718 0.244450
0.243168 0.383856 0.243259
0.310857 0.381445 0.242039
0.378851 0.378973 0.240696
0.446204 0.376257 0.239658
0.513298 0.373754 0.238865
0.579309 0.371344 0.238132
0.643946 0.368994 0.237675
0.705440 0.366155 0.238315
0.766384 0.364202 0.239109
0.826413 0.362554 0.240299
0.886442 0.361456 0.241794
0.945617 0.360784 0.243809
1.000000 0.360388 0.246036
0.079866 0.451698 0.243473
0.124941 0.452155 0.243870
0.179446 0.451545 0.243687
0.243168 0.450202 0.242924
0.309209 0.448188 0.242283
0.376318 0.446082 0.241642
0.443580 0.443488 0.240909
0.509789 0.440650 0.240055
0.575006 0.437537 0.239384
0.638758 0.434363 0.239353
0.699702 0.430640 0.239597
0.760616 0.427741 0.240635
0.820706 0.425177 0.241825
0.880705 0.423407 0.243290
0.940337 0.421942 0.245457
0.999969 0.421302 0.248051
0.089296 0.513573 0.241947
