luts/Fujifilm_XPro.cube
# Generated for krafta web app
# https://www.facebook.com/krafta.visio
# Preset: FUJ - XPro
# Color profile : sRGB Color Space Profile
LUT_3D_SIZE 6
DOMAIN_MIN 0.0 0.0 0.0
DOMAIN_MAX 1.0 1.0 1.0
0.000000 0.000000 0.000000
0.297978 0.000031 0.000031
0.496345 0.000366 0.000214
0.689021 0.000275 0.000397
0.862455 0.007660 0.006561
1.000000 0.016052 0.014466
0.000000 0.271153 0.000000
0.258061 0.258152 0.000000
0.474250 0.240787 0.000000
0.674098 0.228885 0.000000
0.848203 0.216556 0.009583
1.000000 0.208438 0.012940
0.005676 0.460578 0.005585
0.234867 0.460090 0.006500
0.451698 0.451850 0.006958
0.653773 0.438025 0.008820
0.837003 0.421363 0.018616
1.000000 0.406989 0.013611
0.016175 0.630304 0.016693
0.214481 0.628901 0.016480
0.419715 0.627100 0.016999
0.622766 0.622889 0.017090
0.814237 0.611505 0.015290
0.997925 0.598627 0.000000
0.000000 0.795346 0.000000
0.196536 0.796201 0.000000
0.397803 0.797360 0.000000
0.597803 0.797543 0.000000
0.796994 0.797147 0.000000
0.985931 0.787686 0.000000
0.000000 0.981659 0.000000
0.141695 0.978943 0.000000
0.371893 0.979553 0.000000
0.578820 0.980987 0.000000
0.782437 0.983368 0.000000
0.986816 0.986999 0.000000
0.000427 0.000031 0.313237
0.278874 0.000183 0.280064
0.482338 0.005219 0.246921
0.675105 0.016205 0.232273
0.850858 0.033600 0.222263
1.000000 0.035218 0.213596
0.000336 0.267002 0.266850
0.255344 0.255344 0.255344
0.469093 0.241947 0.241947
0.668574 0.229953 0.229770
0.844663 0.220584 0.220310
1.000000 0.209537 0.209140
0.018311 0.456489 0.234592
0.232883 0.454139 0.233127
0.444648 0.444800 0.227420
0.644862 0.432166 0.220615
0.828458 0.417639 0.214908
1.000000 0.404974 0.205570
0.024842 0.629023 0.216617
0.215824 0.627802 0.216159
0.418647 0.624811 0.214755
0.619501 0.619593 0.212284
0.810544 0.608759 0.207309
0.997498 0.598199 0.197574
0.000000 0.796445 0.196353
0.196078 0.796536 0.196384
0.397711 0.797452 0.197208
0.597620 0.797452 0.197086
0.796933 0.797086 0.196170
0.986572 0.787808 0.176730
0.000000 0.982452 0.137942
0.125887 0.980011 0.127382
0.367620 0.980529 0.125002
0.577050 0.981720 0.121035
0.781735 0.983673 0.113832
0.987030 0.987243 0.100313
0.000885 0.000000 0.510185
0.249577 0.000153 0.490150
0.463050 0.007538 0.462989
0.662837 0.014557 0.444465
0.842100 0.045350 0.426001
1.000000 0.060700 0.413855
0.025025 0.251316 0.484504
0.243412 0.243351 0.471412
0.456489 0.234562 0.456519
0.655421 0.225040 0.439460
0.835447 0.223545 0.423743
1.000000 0.213993 0.409064
0.015076 0.446509 0.446540
0.227817 0.444831 0.444862
0.436927 0.436927 0.436927
0.635248 0.426978 0.426917
0.820951 0.416938 0.416785
1.000000 0.404913 0.404669
0.045258 0.624628 0.419928
0.220493 0.623682 0.419806
0.418189 0.620935 0.418280
0.615930 0.615991 0.414374
0.807126 0.606592 0.406714
0.996643 0.596857 0.395972
0.000000 0.796201 0.395636
0.192660 0.796536 0.396033
0.396674 0.797330 0.396826
0.596918 0.797147 0.396399
0.797238 0.797330 0.396460
0.987396 0.786984 0.378851
0.000000 0.983948 0.358068
0.038605 0.981781 0.352239
0.350530 0.982025 0.350988
0.570336 0.983276 0.350530
0.779568 0.984894 0.348211
0.988067 0.988251 0.345464
0.008240 0.006287 0.676295
0.229343 0.011658 0.668910
0.440009 0.021698 0.655726
0.640131 0.026307 0.640162
0.830655 0.039490 0.624567
1.000000 0.043915 0.608911
0.050446 0.236881 0.669886
0.232547 0.232578 0.661158
0.437201 0.227848 0.650050
0.636133 0.221775 0.636133
0.825437 0.218753 0.620966
1.000000 0.207675 0.604273
0.056519 0.431098 0.639765
0.228763 0.430732 0.638270
0.426764 0.426703 0.631373
0.623072 0.420325 0.623011
0.812497 0.412512 0.611658
1.000000 0.402350 0.601556
0.049500 0.617273 0.617243
0.219089 0.616754 0.616693
0.416358 0.615045 0.615045
0.609888 0.609918 0.609888
0.803067 0.603510 0.603449
0.996185 0.594446 0.594324
0.000000 0.795895 0.595453
0.188388 0.796201 0.595758
0.394354 0.796658 0.596033
0.595605 0.796506 0.595636
0.795193 0.795315 0.594110
0.988586 0.785702 0.579919
0.000000 0.985657 0.568200
0.000000 0.983978 0.563287
0.330663 0.984375 0.562890
0.562799 0.985382 0.562921
0.777005 0.986481 0.561151
0.989746 0.989868 0.560937
0.022614 0.021546 0.835691
0.215640 0.024598 0.833097
0.416632 0.029480 0.826566
0.616175 0.033631 0.819730
0.811490 0.029541 0.811429
1.000000 0.012604 0.802304
0.057404 0.222782 0.833768
0.220951 0.220859 0.829770
0.417762 0.219059 0.824918
0.615198 0.216129 0.817716
0.808682 0.209964 0.808621
0.998657 0.197879 0.798703
0.079500 0.417334 0.818204
0.225010 0.416724 0.817044
0.413703 0.413672 0.813413
0.607538 0.408484 0.807736
0.802365 0.403021 0.802335
0.996460 0.394141 0.796262
0.039826 0.604913 0.804746
0.211612 0.605005 0.804654
0.404822 0.603540 0.803159
0.601007 0.601007 0.800778
0.797665 0.597223 0.797635
0.993927 0.589471 0.792355
0.000000 0.794247 0.794217
0.179263 0.794400 0.794400
0.390417 0.794919 0.794888
0.593591 0.795285 0.795224
0.791257 0.791379 0.791287
0.990509 0.784390 0.784298
0.000000 0.986969 0.780087
0.000000 0.985718 0.777707
0.324926 0.986603 0.777310
0.555474 0.987701 0.775692
0.773495 0.988952 0.773556
0.992248 0.992370 0.775082
0.008118 0.006744 1.000000
0.202243 0.005615 1.000000
0.400336 0.000244 1.000000
0.598322 0.000000 0.998108
0.796048 0.000000 0.996185
0.993622 0.000000 0.994263
0.012879 0.203250 1.000000
0.202518 0.202029 1.000000
0.399115 0.198367 0.998962
0.596796 0.193027 0.996490
0.793545 0.182193 0.993408
0.990539 0.163088 0.990478
0.000000 0.397650 0.998627
0.195041 0.397436 0.998535
0.395361 0.395270 0.997436
0.594079 0.391028 0.995666
0.791897 0.383215 0.993103
0.991241 0.373938 0.991150
0.000000 0.592401 0.995911
0.168276 0.592126 0.995911
0.384619 0.591058 0.995880
0.587762 0.587793 0.994659
0.789120 0.582666 0.992889
0.991577 0.577417 0.991547
0.000000 0.789242 0.993133
0.101869 0.789029 0.993194
0.363836 0.788754 0.993500
0.578149 0.787991 0.993927
0.785977 0.786007 0.993896
0.993286 0.783322 0.993286
0.000000 0.992584 0.992554
0.000000 0.992218 0.992187
0.314000 0.992493 0.992432
0.553063 0.993042 0.993011
0.774075 0.994415 0.994354
0.997955 0.997955 0.997955
