luts/FUJI_ACROS_Red_Filter.cube
#Generated for krafta web app
#Black and White LUTs
TITLE "Fuji XTrans III - Acros+R"
#LUT size
LUT_3D_SIZE 25
#LUT data points
0.003922 0.003922 0.003922
0.007843 0.007843 0.007843
0.019608 0.019608 0.019608
0.031373 0.031373 0.031373
0.058824 0.058824 0.058824
0.086275 0.086275 0.086275
0.113725 0.113725 0.113725
0.164706 0.164706 0.164706
0.203922 0.203922 0.203922
0.254902 0.254902 0.254902
0.313725 0.313725 0.313725
0.333333 0.333333 0.333333
0.333333 0.333333 0.333333
0.435294 0.435294 0.435294
0.521569 0.521569 0.521569
0.545098 0.545098 0.545098
0.576471 0.576471 0.576471
0.588235 0.588235 0.588235
0.588235 0.588235 0.588235
0.588235 0.588235 0.588235
0.615686 0.615686 0.615686
0.654902 0.654902 0.654902
0.654902 0.654902 0.654902
0.654902 0.654902 0.654902
0.654902 0.654902 0.654902
0.003922 0.003922 0.003922
0.011765 0.011765 0.011765
0.023529 0.023529 0.023529
0.039216 0.039216 0.039216
0.062745 0.062745 0.062745
0.086275 0.086275 0.086275
0.117647 0.117647 0.117647
0.168627 0.168627 0.168627
0.207843 0.207843 0.207843
0.262745 0.262745 0.262745
0.301961 0.301961 0.301961
0.352941 0.352941 0.352941
0.384314 0.384314 0.384314
0.470588 0.470588 0.470588
0.521569 0.521569 0.521569
0.545098 0.545098 0.545098
0.572549 0.572549 0.572549
0.588235 0.588235 0.588235
0.588235 0.588235 0.588235
0.611765 0.611765 0.611765
0.635294 0.635294 0.635294
0.650980 0.650980 0.650980
0.647059 0.647059 0.647059
0.647059 0.647059 0.647059
0.650980 0.650980 0.650980
0.007843 0.007843 0.007843
0.011765 0.011765 0.011765
0.023529 0.023529 0.023529
0.039216 0.039216 0.039216
0.066667 0.066667 0.066667
0.094118 0.094118 0.094118
0.121569 0.121569 0.121569
0.176471 0.176471 0.176471
0.223529 0.223529 0.223529
0.266667 0.266667 0.266667
0.309804 0.309804 0.309804
0.356863 0.356863 0.356863
0.407843 0.407843 0.407843
0.478431 0.478431 0.478431
0.517647 0.517647 0.517647
0.545098 0.545098 0.545098
0.572549 0.572549 0.572549
0.592157 0.592157 0.592157
0.603922 0.603922 0.603922
0.631373 0.631373 0.631373
0.647059 0.647059 0.647059
0.647059 0.647059 0.647059
0.647059 0.647059 0.647059
0.654902 0.654902 0.654902
0.670588 0.670588 0.670588
0.007843 0.007843 0.007843
0.011765 0.011765 0.011765
0.023529 0.023529 0.023529
0.039216 0.039216 0.039216
0.074510 0.074510 0.074510
0.105882 0.105882 0.105882
0.133333 0.133333 0.133333
0.176471 0.176471 0.176471
0.235294 0.235294 0.235294
0.274510 0.274510 0.274510
0.317647 0.317647 0.317647
0.372549 0.372549 0.372549
0.407843 0.407843 0.407843
0.466667 0.466667 0.466667
0.517647 0.517647 0.517647
0.545098 0.545098 0.545098
0.572549 0.572549 0.572549
0.603922 0.603922 0.603922
0.639216 0.639216 0.639216
0.643137 0.643137 0.643137
0.647059 0.647059 0.647059
0.647059 0.647059 0.647059
0.647059 0.647059 0.647059
0.678431 0.678431 0.678431
0.709804 0.709804 0.709804
0.011765 0.011765 0.011765
0.015686 0.015686 0.015686
0.031373 0.031373 0.031373
0.050980 0.050980 0.050980
0.082353 0.082353 0.082353
0.121569 0.121569 0.121569
0.141176 0.141176 0.141176
0.200000 0.200000 0.200000
0.250980 0.250980 0.250980
0.290196 0.290196 0.290196
0.333333 0.333333 0.333333
0.384314 0.384314 0.384314
0.427451 0.427451 0.427451
0.478431 0.478431 0.478431
0.521569 0.521569 0.521569
0.552941 0.552941 0.552941
0.580392 0.580392 0.580392
0.611765 0.611765 0.611765
0.643137 0.643137 0.643137
0.647059 0.647059 0.647059
0.647059 0.647059 0.647059
0.650980 0.650980 0.650980
0.674510 0.674510 0.674510
0.705882 0.705882 0.705882
0.721569 0.721569 0.721569
0.023529 0.023529 0.023529
0.031373 0.031373 0.031373
0.043137 0.043137 0.043137
0.058824 0.058824 0.058824
0.098039 0.098039 0.098039
0.125490 0.125490 0.125490
0.156863 0.156863 0.156863
0.215686 0.215686 0.215686
0.258824 0.258824 0.258824
0.301961 0.301961 0.301961
0.345098 0.345098 0.345098
0.392157 0.392157 0.392157
0.435294 0.435294 0.435294
0.482353 0.482353 0.482353
0.525490 0.525490 0.525490
0.564706 0.564706 0.564706
0.592157 0.592157 0.592157
0.619608 0.619608 0.619608
0.654902 0.654902 0.654902
0.666667 0.666667 0.666667
0.666667 0.666667 0.666667
0.670588 0.670588 0.670588
0.709804 0.709804 0.709804
0.721569 0.721569 0.721569
0.721569 0.721569 0.721569
0.047059 0.047059 0.047059
0.058824 0.058824 0.058824
0.070588 0.070588 0.070588
0.086275 0.086275 0.086275
0.098039 0.098039 0.098039
0.121569 0.121569 0.121569
0.160784 0.160784 0.160784
0.231373 0.231373 0.231373
0.282353 0.282353 0.282353
0.321569 0.321569 0.321569
0.360784 0.360784 0.360784
0.411765 0.411765 0.411765
0.443137 0.443137 0.443137
0.482353 0.482353 0.482353
0.537255 0.537255 0.537255
0.572549 0.572549 0.572549
0.596078 0.596078 0.596078
0.635294 0.635294 0.635294
0.670588 0.670588 0.670588
0.705882 0.705882 0.705882
0.721569 0.721569 0.721569
0.713725 0.713725 0.713725
0.721569 0.721569 0.721569
0.721569 0.721569 0.721569
0.721569 0.721569 0.721569
0.070588 0.070588 0.070588
0.082353 0.082353 0.082353
0.105882 0.105882 0.105882
0.125490 0.125490 0.125490
0.133333 0.133333 0.133333
0.156863 0.156863 0.156863
0.192157 0.192157 0.192157
0.258824 0.258824 0.258824
0.298039 0.298039 0.298039
0.325490 0.325490 0.325490
0.376471 0.376471 0.376471
0.427451 0.427451 0.427451
0.466667 0.466667 0.466667
0.509804 0.509804 0.509804
0.541176 0.541176 0.541176
0.580392 0.580392 0.580392
0.607843 0.607843 0.607843
0.635294 0.635294 0.635294
0.678431 0.678431 0.678431
0.705882 0.705882 0.705882
0.721569 0.721569 0.721569
0.721569 0.721569 0.721569
0.721569 0.721569 0.721569
0.721569 0.721569 0.721569
0.721569 0.721569 0.721569
0.090196 0.090196 0.090196
0.121569 0.121569 0.121569
0.149020 0.149020 0.149020
0.152941 0.152941 0.152941
0.172549 0.172549 0.172549
0.196078 0.196078 0.196078
0.223529 0.223529 0.223529
0.278431 0.278431 0.278431
0.325490 0.325490 0.325490
0.345098 0.345098 0.345098
0.396078 0.396078 0.396078
0.443137 0.443137 0.443137
0.482353 0.482353 0.482353
0.521569 0.521569 0.521569
0.556863 0.556863 0.556863
0.592157 0.592157 0.592157
0.619608 0.619608 0.619608
0.654902 0.654902 0.654902
0.678431 0.678431 0.678431
0.698039 0.698039 0.698039
0.713725 0.713725 0.713725
0.721569 0.721569 0.721569
0.721569 0.721569 0.721569
0.721569 0.721569 0.721569
0.721569 0.721569 0.721569
0.090196 0.090196 0.090196
0.145098 0.145098 0.145098
0.188235 0.188235 0.188235
0.188235 0.188235 0.188235
0.203922 0.203922 0.203922
0.223529 0.223529 0.223529
0.250980 0.250980 0.250980
0.313725 0.313725 0.313725
0.349020 0.349020 0.349020
0.372549 0.372549 0.372549
0.427451 0.427451 0.427451
0.462745 0.462745 0.462745
0.494118 0.494118 0.494118
0.541176 0.541176 0.541176
0.572549 0.572549 0.572549
0.603922 0.603922 0.603922
0.639216 0.639216 0.639216
0.658824 0.658824 0.658824
0.686275 0.686275 0.686275
0.686275 0.686275 0.686275
0.698039 0.698039 0.698039
0.721569 0.721569 0.721569
0.721569 0.721569 0.721569
0.721569 0.721569 0.721569
0.721569 0.721569 0.721569
0.121569 0.121569 0.121569
0.192157 0.192157 0.192157
0.223529 0.223529 0.223529
0.215686 0.215686 0.215686
0.239216 0.239216 0.239216
0.258824 0.258824 0.258824
0.266667 0.266667 0.266667
0.333333 0.333333 0.333333
0.372549 0.372549 0.372549
0.396078 0.396078 0.396078
0.439216 0.439216 0.439216
0.490196 0.490196 0.490196
0.513725 0.513725 0.513725
0.545098 0.545098 0.545098
0.588235 0.588235 0.588235
0.619608 0.619608 0.619608
0.647059 0.647059 0.647059
0.674510 0.674510 0.674510
0.694118 0.694118 0.694118
0.690196 0.690196 0.690196
0.698039 0.698039 0.698039
0.701961 0.701961 0.701961
0.729412 0.729412 0.729412
0.749020 0.749020 0.749020
0.768627 0.768627 0.768627
0.168627 0.168627 0.168627
0.215686 0.215686 0.215686
0.235294 0.235294 0.235294
0.235294 0.235294 0.235294
0.254902 0.254902 0.254902
0.282353 0.282353 0.282353
0.298039 0.298039 0.298039
0.349020 0.349020 0.349020
0.396078 0.396078 0.396078
0.419608 0.419608 0.419608
0.458824 0.458824 0.458824
0.501961 0.501961 0.501961
0.537255 0.537255 0.537255
0.564706 0.564706 0.564706
0.600000 0.600000 0.600000
0.631373 0.631373 0.631373
0.658824 0.658824 0.658824
0.682353 0.682353 0.682353
0.705882 0.705882 0.705882
0.705882 0.705882 0.705882
0.705882 0.705882 0.705882
0.705882 0.705882 0.705882
0.737255 0.737255 0.737255
0.768627 0.768627 0.768627
0.792157 0.792157 0.792157
0.231373 0.231373 0.231373
0.235294 0.235294 0.235294
0.235294 0.235294 0.235294
0.235294 0.235294 0.235294
0.258824 0.258824 0.258824
0.290196 0.290196 0.290196
0.329412 0.329412 0.329412
0.364706 0.364706 0.364706
0.411765 0.411765 0.411765
0.435294 0.435294 0.435294
0.478431 0.478431 0.478431
0.517647 0.517647 0.517647
0.549020 0.549020 0.549020
0.584314 0.584314 0.584314
0.611765 0.611765 0.611765
0.647059 0.647059 0.647059
0.670588 0.670588 0.670588
0.698039 0.698039 0.698039
0.717647 0.717647 0.717647
0.717647 0.717647 0.717647
0.717647 0.717647 0.717647
0.717647 0.717647 0.717647
0.752941 0.752941 0.752941
0.768627 0.768627 0.768627
0.768627 0.768627 0.768627
0.180392 0.180392 0.180392
0.215686 0.215686 0.215686
0.235294 0.235294 0.235294
0.235294 0.235294 0.235294
0.266667 0.266667 0.266667
0.305882 0.305882 0.305882
0.329412 0.329412 0.329412
0.376471 0.376471 0.376471
0.419608 0.419608 0.419608
0.458824 0.458824 0.458824
0.478431 0.478431 0.478431
0.529412 0.529412 0.529412
0.576471 0.576471 0.576471
0.592157 0.592157 0.592157
0.627451 0.627451 0.627451
0.658824 0.658824 0.658824
0.690196 0.690196 0.690196
0.709804 0.709804 0.709804
0.729412 0.729412 0.729412
0.729412 0.729412 0.729412
0.729412 0.729412 0.729412
0.729412 0.729412 0.729412
0.760784 0.760784 0.760784
0.788235 0.788235 0.788235
0.803922 0.803922 0.803922
0.145098 0.145098 0.145098
0.207843 0.207843 0.207843
0.235294 0.235294 0.235294
0.235294 0.235294 0.235294
0.301961 0.301961 0.301961
0.333333 0.333333 0.333333
0.329412 0.329412 0.329412
0.396078 0.396078 0.396078
0.435294 0.435294 0.435294
0.466667 0.466667 0.466667
0.482353 0.482353 0.482353
0.521569 0.521569 0.521569
0.607843 0.607843 0.607843
0.607843 0.607843 0.607843
0.639216 0.639216 0.639216
0.674510 0.674510 0.674510
0.698039 0.698039 0.698039
0.717647 0.717647 0.717647
0.745098 0.745098 0.745098
0.737255 0.737255 0.737255
0.741176 0.741176 0.741176
0.760784 0.760784 0.760784
0.780392 0.780392 0.780392
0.796078 0.796078 0.796078
0.815686 0.815686 0.815686
0.145098 0.145098 0.145098
0.207843 0.207843 0.207843
0.235294 0.235294 0.235294
0.239216 0.239216 0.239216
0.349020 0.349020 0.349020
0.376471 0.376471 0.376471
0.337255 0.337255 0.337255
0.407843 0.407843 0.407843
0.466667 0.466667 0.466667
0.466667 0.466667 0.466667
0.470588 0.470588 0.470588
0.517647 0.517647 0.517647
0.635294 0.635294 0.635294
0.639216 0.639216 0.639216
0.650980 0.650980 0.650980
0.670588 0.670588 0.670588
0.701961 0.701961 0.701961
0.741176 0.741176 0.741176
0.768627 0.768627 0.768627
0.745098 0.745098 0.745098
0.752941 0.752941 0.752941
0.792157 0.792157 0.792157
0.792157 0.792157 0.792157
0.796078 0.796078 0.796078
0.796078 0.796078 0.796078
0.254902 0.254902 0.254902
0.235294 0.235294 0.235294
0.235294 0.235294 0.235294
0.239216 0.239216 0.239216
0.352941 0.352941 0.352941
0.380392 0.380392 0.380392
0.337255 0.337255 0.337255
0.396078 0.396078 0.396078
0.435294 0.435294 0.435294
0.466667 0.466667 0.466667
0.490196 0.490196 0.490196
0.541176 0.541176 0.541176
0.639216 0.639216 0.639216
0.639216 0.639216 0.639216
0.666667 0.666667 0.666667
0.701961 0.701961 0.701961
0.713725 0.713725 0.713725
0.733333 0.733333 0.733333
0.768627 0.768627 0.768627
0.760784 0.760784 0.760784
0.772549 0.772549 0.772549
0.792157 0.792157 0.792157
0.792157 0.792157 0.792157
0.811765 0.811765 0.811765
0.847059 0.847059 0.847059
0.298039 0.298039 0.298039
0.262745 0.262745 0.262745
0.235294 0.235294 0.235294
0.235294 0.235294 0.235294
0.305882 0.305882 0.305882
0.360784 0.360784 0.360784
0.329412 0.329412 0.329412
0.368627 0.368627 0.368627
0.431373 0.431373 0.431373
0.482353 0.482353 0.482353
0.509804 0.509804 0.509804
0.568627 0.568627 0.568627
0.627451 0.627451 0.627451
0.635294 0.635294 0.635294
0.662745 0.662745 0.662745
0.694118 0.694118 0.694118
0.713725 0.713725 0.713725
0.733333 0.733333 0.733333
0.768627 0.768627 0.768627
0.776471 0.776471 0.776471
0.784314 0.784314 0.784314
0.792157 0.792157 0.792157
0.815686 0.815686 0.815686
0.835294 0.835294 0.835294
0.862745 0.862745 0.862745
0.298039 0.298039 0.298039
0.254902 0.254902 0.254902
0.235294 0.235294 0.235294
0.235294 0.235294 0.235294
0.274510 0.274510 0.274510
0.313725 0.313725 0.313725
0.329412 0.329412 0.329412
0.368627 0.368627 0.368627
0.447059 0.447059 0.447059
0.521569 0.521569 0.521569
0.529412 0.529412 0.529412
0.560784 0.560784 0.560784
0.607843 0.607843 0.607843
0.627451 0.627451 0.627451
0.639216 0.639216 0.639216
0.639216 0.639216 0.639216
0.690196 0.690196 0.690196
0.733333 0.733333 0.733333
0.772549 0.772549 0.772549
0.784314 0.784314 0.784314
0.792157 0.792157 0.792157
0.792157 0.792157 0.792157
0.843137 0.843137 0.843137
0.862745 0.862745 0.862745
0.862745 0.862745 0.862745
0.298039 0.298039 0.298039
0.254902 0.254902 0.254902
0.235294 0.235294 0.235294
0.235294 0.235294 0.235294
0.372549 0.372549 0.372549
0.423529 0.423529 0.423529
0.435294 0.435294 0.435294
0.454902 0.454902 0.454902
0.490196 0.490196 0.490196
0.529412 0.529412 0.529412
0.529412 0.529412 0.529412
0.552941 0.552941 0.552941
0.607843 0.607843 0.607843
0.631373 0.631373 0.631373
0.639216 0.639216 0.639216
0.643137 0.643137 0.643137
0.690196 0.690196 0.690196
0.733333 0.733333 0.733333
0.768627 0.768627 0.768627
0.784314 0.784314 0.784314
0.807843 0.807843 0.807843
0.843137 0.843137 0.843137
0.858824 0.858824 0.858824
0.862745 0.862745 0.862745
0.862745 0.862745 0.862745
0.325490 0.325490 0.325490
0.305882 0.305882 0.305882
0.282353 0.282353 0.282353
0.258824 0.258824 0.258824
0.384314 0.384314 0.384314
0.474510 0.474510 0.474510
0.474510 0.474510 0.474510
0.490196 0.490196 0.490196
0.509804 0.509804 0.509804
0.541176 0.541176 0.541176
0.541176 0.541176 0.541176
0.576471 0.576471 0.576471
0.639216 0.639216 0.639216
0.635294 0.635294 0.635294
0.650980 0.650980 0.650980
0.666667 0.666667 0.666667
0.701961 0.701961 0.701961
0.733333 0.733333 0.733333
0.768627 0.768627 0.768627
0.780392 0.780392 0.780392
0.819608 0.819608 0.819608
0.862745 0.862745 0.862745
0.862745 0.862745 0.862745
0.862745 0.862745 0.862745
0.862745 0.862745 0.862745
0.364706 0.364706 0.364706
0.364706 0.364706 0.364706
0.341176 0.341176 0.341176
0.305882 0.305882 0.305882
0.423529 0.423529 0.423529
0.474510 0.474510 0.474510
0.474510 0.474510 0.474510
0.490196 0.490196 0.490196
0.525490 0.525490 0.525490
0.572549 0.572549 0.572549
0.576471 0.576471 0.576471
0.619608 0.619608 0.619608
0.678431 0.678431 0.678431
0.654902 0.654902 0.654902
0.670588 0.670588 0.670588
0.705882 0.705882 0.705882
0.713725 0.713725 0.713725
0.733333 0.733333 0.733333
0.768627 0.768627 0.768627
0.768627 0.768627 0.768627
0.800000 0.800000 0.800000
0.862745 0.862745 0.862745
0.862745 0.862745 0.862745
0.862745 0.862745 0.862745
0.862745 0.862745 0.862745
0.364706 0.364706 0.364706
0.364706 0.364706 0.364706
0.349020 0.349020 0.349020
0.309804 0.309804 0.309804
0.423529 0.423529 0.423529
0.474510 0.474510 0.474510
0.474510 0.474510 0.474510
0.490196 0.490196 0.490196
0.517647 0.517647 0.517647
0.572549 0.572549 0.572549
0.576471 0.576471 0.576471
0.619608 0.619608 0.619608
0.678431 0.678431 0.678431
0.674510 0.674510 0.674510
0.686275 0.686275 0.686275
0.705882 0.705882 0.705882
0.725490 0.725490 0.725490
0.752941 0.752941 0.752941
0.796078 0.796078 0.796078
0.811765 0.811765 0.811765
0.839216 0.839216 0.839216
0.862745 0.862745 0.862745
0.862745 0.862745 0.862745
0.862745 0.862745 0.862745
0.862745 0.862745 0.862745
0.364706 0.364706 0.364706
0.364706 0.364706 0.364706
0.349020 0.349020 0.349020
0.309804 0.309804 0.309804
0.423529 0.423529 0.423529
0.474510 0.474510 0.474510
0.474510 0.474510 0.474510
0.490196 0.490196 0.490196
0.525490 0.525490 0.525490
0.576471 0.576471 0.576471
0.576471 0.576471 0.576471
0.619608 0.619608 0.619608
0.678431 0.678431 0.678431
0.678431 0.678431 0.678431
0.690196 0.690196 0.690196
0.709804 0.709804 0.709804
0.745098 0.745098 0.745098
0.776471 0.776471 0.776471
0.811765 0.811765 0.811765
0.835294 0.835294 0.835294
0.850980 0.850980 0.850980
0.858824 0.858824 0.858824
0.862745 0.862745 0.862745
0.866667 0.866667 0.866667
0.866667 0.866667 0.866667
0.364706 0.364706 0.364706
0.364706 0.364706 0.364706
0.349020 0.349020 0.349020
0.309804 0.309804 0.309804
0.423529 0.423529 0.423529
0.474510 0.474510 0.474510
0.474510 0.474510 0.474510
0.490196 0.490196 0.490196
0.525490 0.525490 0.525490
0.572549 0.572549 0.572549
0.576471 0.576471 0.576471
0.619608 0.619608 0.619608
0.678431 0.678431 0.678431
0.674510 0.674510 0.674510
0.686275 0.686275 0.686275
0.705882 0.705882 0.705882
0.780392 0.780392 0.780392
0.807843 0.807843 0.807843
0.807843 0.807843 0.807843
0.835294 0.835294 0.835294
0.847059 0.847059 0.847059
0.847059 0.847059 0.847059
0.858824 0.858824 0.858824
0.866667 0.866667 0.866667
0.874510 0.874510 0.874510
0.003922 0.003922 0.003922
0.007843 0.007843 0.007843
0.015686 0.015686 0.015686
0.031373 0.031373 0.031373
0.058824 0.058824 0.058824
0.086275 0.086275 0.086275
0.113725 0.113725 0.113725
0.156863 0.156863 0.156863
0.211765 0.211765 0.211765
0.254902 0.254902 0.254902
0.301961 0.301961 0.301961
0.345098 0.345098 0.345098
0.388235 0.388235 0.388235
0.450980 0.450980 0.450980
0.517647 0.517647 0.517647
0.545098 0.545098 0.545098
0.576471 0.576471 0.576471
0.603922 0.603922 0.603922
0.627451 0.627451 0.627451
0.627451 0.627451 0.627451
0.635294 0.635294 0.635294
0.654902 0.654902 0.654902
0.654902 0.654902 0.654902
0.654902 0.654902 0.654902
0.654902 0.654902 0.654902
0.007843 0.007843 0.007843
0.011765 0.011765 0.011765
0.019608 0.019608 0.019608
0.035294 0.035294 0.035294
0.058824 0.058824 0.058824
0.086275 0.086275 0.086275
0.113725 0.113725 0.113725
0.164706 0.164706 0.164706
0.215686 0.215686 0.215686
0.262745 0.262745 0.262745
0.305882 0.305882 0.305882
0.364706 0.364706 0.364706
0.400000 0.400000 0.400000
0.470588 0.470588 0.470588
0.517647 0.517647 0.517647
0.545098 0.545098 0.545098
0.576471 0.576471 0.576471
0.603922 0.603922 0.603922
0.635294 0.635294 0.635294
0.643137 0.643137 0.643137
0.647059 0.647059 0.647059
0.654902 0.654902 0.654902
0.654902 0.654902 0.654902
0.662745 0.662745 0.662745
0.682353 0.682353 0.682353
0.007843 0.007843 0.007843
0.015686 0.015686 0.015686
0.027451 0.027451 0.027451
0.039216 0.039216 0.039216
0.066667 0.066667 0.066667
0.090196 0.090196 0.090196
0.117647 0.117647 0.117647
0.168627 0.168627 0.168627
0.211765 0.211765 0.211765
0.262745 0.262745 0.262745
0.313725 0.313725 0.313725
0.360784 0.360784 0.360784
0.411765 0.411765 0.411765
0.462745 0.462745 0.462745
0.517647 0.517647 0.517647
0.549020 0.549020 0.549020
0.576471 0.576471 0.576471
0.607843 0.607843 0.607843
0.635294 0.635294 0.635294
0.647059 0.647059 0.647059
0.650980 0.650980 0.650980
0.650980 0.650980 0.650980
0.658824 0.658824 0.658824
0.670588 0.670588 0.670588
0.701961 0.701961 0.701961
0.007843 0.007843 0.007843
0.019608 0.019608 0.019608
0.031373 0.031373 0.031373
0.043137 0.043137 0.043137
0.070588 0.070588 0.070588
0.094118 0.094118 0.094118
0.133333 0.133333 0.133333
0.180392 0.180392 0.180392
0.219608 0.219608 0.219608
0.274510 0.274510 0.274510
0.317647 0.317647 0.317647
0.372549 0.372549 0.372549
0.411765 0.411765 0.411765
0.470588 0.470588 0.470588
0.509804 0.509804 0.509804
0.549020 0.549020 0.549020
0.576471 0.576471 0.576471
0.615686 0.615686 0.615686
0.650980 0.650980 0.650980
0.650980 0.650980 0.650980
0.650980 0.650980 0.650980
0.650980 0.650980 0.650980
0.682353 0.682353 0.682353
0.701961 0.701961 0.701961
0.713725 0.713725 0.713725
0.011765 0.011765 0.011765
0.023529 0.023529 0.023529
0.039216 0.039216 0.039216
0.050980 0.050980 0.050980
0.078431 0.078431 0.078431
0.109804 0.109804 0.109804
0.137255 0.137255 0.137255
0.192157 0.192157 0.192157
0.235294 0.235294 0.235294
0.286275 0.286275 0.286275
0.333333 0.333333 0.333333
0.384314 0.384314 0.384314
0.423529 0.423529 0.423529
0.466667 0.466667 0.466667
0.513725 0.513725 0.513725
0.552941 0.552941 0.552941
0.580392 0.580392 0.580392
0.623529 0.623529 0.623529
0.650980 0.650980 0.650980
0.650980 0.650980 0.650980
0.658824 0.658824 0.658824
0.670588 0.670588 0.670588
0.701961 0.701961 0.701961
0.713725 0.713725 0.713725
0.721569 0.721569 0.721569
0.023529 0.023529 0.023529
0.039216 0.039216 0.039216
0.050980 0.050980 0.050980
0.066667 0.066667 0.066667
0.094118 0.094118 0.094118
0.121569 0.121569 0.121569
0.149020 0.149020 0.149020
0.207843 0.207843 0.207843
0.258824 0.258824 0.258824
0.301961 0.301961 0.301961
0.337255 0.337255 0.337255
0.392157 0.392157 0.392157
0.435294 0.435294 0.435294
0.474510 0.474510 0.474510
0.517647 0.517647 0.517647
0.560784 0.560784 0.560784
0.592157 0.592157 0.592157
0.627451 0.627451 0.627451
0.654902 0.654902 0.654902
0.666667 0.666667 0.666667
0.682353 0.682353 0.682353
0.694118 0.694118 0.694118
0.717647 0.717647 0.717647
0.721569 0.721569 0.721569
0.721569 0.721569 0.721569
0.043137 0.043137 0.043137
0.054902 0.054902 0.054902
0.074510 0.074510 0.074510
0.082353 0.082353 0.082353
0.105882 0.105882 0.105882
0.133333 0.133333 0.133333
0.164706 0.164706 0.164706
0.219608 0.219608 0.219608
0.274510 0.274510 0.274510
0.309804 0.309804 0.309804
0.352941 0.352941 0.352941
0.407843 0.407843 0.407843
0.439216 0.439216 0.439216
0.490196 0.490196 0.490196
0.525490 0.525490 0.525490
0.568627 0.568627 0.568627
0.596078 0.596078 0.596078
0.639216 0.639216 0.639216
0.666667 0.666667 0.666667
0.698039 0.698039 0.698039
0.713725 0.713725 0.713725
0.717647 0.717647 0.717647
0.717647 0.717647 0.717647
0.721569 0.721569 0.721569
0.721569 0.721569 0.721569
0.066667 0.066667 0.066667
0.082353 0.082353 0.082353
0.101961 0.101961 0.101961
0.113725 0.113725 0.113725
0.137255 0.137255 0.137255
0.152941 0.152941 0.152941
0.196078 0.196078 0.196078
0.235294 0.235294 0.235294
0.282353 0.282353 0.282353
0.321569 0.321569 0.321569
0.364706 0.364706 0.364706
0.419608 0.419608 0.419608
0.454902 0.454902 0.454902
0.494118 0.494118 0.494118
0.545098 0.545098 0.545098
0.580392 0.580392 0.580392
0.607843 0.607843 0.607843
0.639216 0.639216 0.639216
0.670588 0.670588 0.670588
0.705882 0.705882 0.705882
0.721569 0.721569 0.721569
0.721569 0.721569 0.721569
0.721569 0.721569 0.721569
0.721569 0.721569 0.721569
0.721569 0.721569 0.721569
0.098039 0.098039 0.098039
0.117647 0.117647 0.117647
0.133333 0.133333 0.133333
0.152941 0.152941 0.152941
0.172549 0.172549 0.172549
0.196078 0.196078 0.196078
0.223529 0.223529 0.223529
0.262745 0.262745 0.262745
0.309804 0.309804 0.309804
0.341176 0.341176 0.341176
0.396078 0.396078 0.396078
0.439216 0.439216 0.439216
0.474510 0.474510 0.474510
0.521569 0.521569 0.521569
0.556863 0.556863 0.556863
0.588235 0.588235 0.588235
0.619608 0.619608 0.619608
0.647059 0.647059 0.647059
0.678431 0.678431 0.678431
0.705882 0.705882 0.705882
0.721569 0.721569 0.721569
0.721569 0.721569 0.721569
0.721569 0.721569 0.721569
0.729412 0.729412 0.729412
0.741176 0.741176 0.741176
0.125490 0.125490 0.125490
0.145098 0.145098 0.145098
0.172549 0.172549 0.172549
0.188235 0.188235 0.188235
0.196078 0.196078 0.196078
0.219608 0.219608 0.219608
0.247059 0.247059 0.247059
0.298039 0.298039 0.298039
0.341176 0.341176 0.341176
0.372549 0.372549 0.372549
0.411765 0.411765 0.411765
0.458824 0.458824 0.458824
0.490196 0.490196 0.490196
0.525490 0.525490 0.525490
0.572549 0.572549 0.572549
0.600000 0.600000 0.600000
0.631373 0.631373 0.631373
0.658824 0.658824 0.658824
0.686275 0.686275 0.686275
0.713725 0.713725 0.713725
0.721569 0.721569 0.721569
0.721569 0.721569 0.721569
0.721569 0.721569 0.721569
0.745098 0.745098 0.745098
0.776471 0.776471 0.776471
0.133333 0.133333 0.133333
0.180392 0.180392 0.180392
0.203922 0.203922 0.203922
0.211765 0.211765 0.211765
0.227451 0.227451 0.227451
0.250980 0.250980 0.250980
0.270588 0.270588 0.270588
0.313725 0.313725 0.313725
0.372549 0.372549 0.372549
