luts/FUJI_REALA_ACE.cube
TITLE "Generated for krafta web app"
LUT_3D_SIZE 5
#INPUTGAMMA sRGB
#IMAGEPROFILE sRGB
#OUTPUTGAMMA sRGB
0.000000 0.000000 0.000000
0.247654 0.026691 0.026014
0.494698 0.054984 0.054030
0.758044 0.086008 0.084618
0.927219 0.100864 0.099180
0.011692 0.194325 0.000000
0.274679 0.236172 0.019230
0.522065 0.260322 0.050315
0.778491 0.281343 0.075616
0.978554 0.275978 0.087651
0.024466 0.390865 0.000000
0.281603 0.440257 -0.000017
0.543579 0.469014 0.034907
0.817257 0.483374 0.068342
0.999118 0.480669 0.081730
0.059901 0.613429 0.000000
0.328219 0.667431 0.000000
0.596078 0.712602 0.007373
0.834553 0.746362 0.066958
0.994593 0.752950 0.069923
0.176185 0.788480 0.000000
0.497584 0.869872 0.000000
0.771150 0.920934 0.030963
0.937941 0.925170 0.044585
1.000000 0.930814 0.056688
0.009930 0.031762 0.242701
0.257273 0.058692 0.267009
0.505463 0.087970 0.291819
0.767701 0.118053 0.314946
0.936952 0.146888 0.331307
0.043039 0.241125 0.244294
0.259145 0.253413 0.254517
0.481338 0.264872 0.264631
0.754429 0.296266 0.296157
0.949035 0.303592 0.307367
0.053118 0.443698 0.207126
0.276547 0.442759 0.212867
0.522059 0.469612 0.248815
0.808127 0.501358 0.299805
0.985728 0.512258 0.300582
0.125752 0.669059 0.146869
0.392687 0.712174 0.194128
0.601867 0.738574 0.223089
0.827890 0.761607 0.287957
0.992640 0.760374 0.290068
0.306022 0.859917 0.153763
0.579738 0.922208 0.235682
0.745749 0.934466 0.257669
0.917176 0.939897 0.260230
1.000000 0.947593 0.268913
0.020710 0.067107 0.500226
0.265813 0.096226 0.525750
0.514045 0.128066 0.545709
0.768087 0.181507 0.575019
0.929435 0.214658 0.594380
0.068599 0.274253 0.488513
0.286501 0.290459 0.503109
0.538917 0.324218 0.538233
0.790877 0.359534 0.567749
0.953265 0.365957 0.577039
0.091564 0.487469 0.503555
0.304577 0.496882 0.511442
0.517023 0.512291 0.519586
0.795972 0.548008 0.549993
0.958033 0.538228 0.549845
0.223039 0.734136 0.464478
0.440529 0.752853 0.481682
0.634502 0.769306 0.520479
0.806102 0.775127 0.544674
0.995709 0.771748 0.544199
0.413045 0.927637 0.478125
0.553489 0.943310 0.500742
0.711191 0.948597 0.507660
0.895365 0.959053 0.518743
0.999999 0.966038 0.529079
0.034681 0.104469 0.764594
0.271606 0.138613 0.789443
0.509932 0.196185 0.820124
0.761781 0.252806 0.864288
0.942729 0.282484 0.884384
0.085249 0.323231 0.788139
0.318169 0.359651 0.822553
0.540772 0.390281 0.841877
0.796430 0.414447 0.858280
0.982053 0.432525 0.868056
0.125460 0.542304 0.810052
0.332610 0.547485 0.796638
0.549815 0.566435 0.807166
0.806394 0.592621 0.827767
0.991864 0.608168 0.840397
0.255490 0.786327 0.789225
0.405615 0.782412 0.788595
0.597401 0.784188 0.786867
0.792525 0.794515 0.794545
0.983217 0.802904 0.807381
0.378045 0.953220 0.758127
0.514532 0.959616 0.766711
0.688546 0.968169 0.777538
0.873563 0.978126 0.789210
0.998853 0.985238 0.797749
0.040529 0.129340 0.928764
0.271406 0.183045 0.962610
0.514170 0.252766 0.999971
0.778842 0.306290 1.000000
0.959813 0.325469 1.000000
0.103902 0.367666 0.990160
0.317968 0.398553 1.000011
0.552587 0.426629 0.999997
0.812286 0.453951 0.999999
0.994250 0.471426 1.000000
0.120824 0.569647 0.990012
0.324306 0.576159 0.989600
0.569213 0.603275 1.000010
0.827941 0.628520 0.999997
0.999995 0.646101 1.000000
0.134350 0.805030 0.999992
0.339001 0.808400 0.997747
0.566229 0.812608 0.994694
0.815630 0.827741 0.999716
0.998802 0.847520 1.000004
0.290497 0.970652 0.975231
0.458782 0.976623 0.978921
0.646262 0.984721 0.986319
0.845175 0.992502 0.993460
0.999988 0.999987 0.999984
