luts/FUJI_ACROS_Green_Filter.cube
#Generated for krafta web app
#Black and White LUTs
TITLE "Fuji XTrans III - Acros+G"
#LUT size
LUT_3D_SIZE 5
#LUT data points
0.003922 0.003922 0.003922
0.027451 0.027451 0.027451
0.137255 0.137255 0.137255
0.270588 0.270588 0.270588
0.317647 0.317647 0.317647
0.098039 0.098039 0.098039
0.117647 0.117647 0.117647
0.239216 0.239216 0.239216
0.372549 0.372549 0.372549
0.411765 0.411765 0.411765
0.301961 0.301961 0.301961
0.376471 0.376471 0.376471
0.466667 0.466667 0.466667
0.525490 0.525490 0.525490
0.552941 0.552941 0.552941
0.427451 0.427451 0.427451
0.388235 0.388235 0.388235
0.592157 0.592157 0.592157
0.611765 0.611765 0.611765
0.690196 0.690196 0.690196
0.458824 0.458824 0.458824
0.592157 0.592157 0.592157
0.658824 0.658824 0.658824
0.733333 0.733333 0.733333
0.749020 0.749020 0.749020
0.047059 0.047059 0.047059
0.133333 0.133333 0.133333
0.243137 0.243137 0.243137
0.341176 0.341176 0.341176
0.411765 0.411765 0.411765
0.160784 0.160784 0.160784
0.188235 0.188235 0.188235
0.278431 0.278431 0.278431
0.388235 0.388235 0.388235
0.466667 0.466667 0.466667
0.427451 0.427451 0.427451
0.427451 0.427451 0.427451
0.501961 0.501961 0.501961
0.552941 0.552941 0.552941
0.568627 0.568627 0.568627
0.486275 0.486275 0.486275
0.592157 0.592157 0.592157
0.690196 0.690196 0.690196
0.733333 0.733333 0.733333
0.776471 0.776471 0.776471
0.541176 0.541176 0.541176
0.662745 0.662745 0.662745
0.694118 0.694118 0.694118
0.788235 0.788235 0.788235
0.807843 0.807843 0.807843
0.203922 0.203922 0.203922
0.258824 0.258824 0.258824
0.360784 0.360784 0.360784
0.447059 0.447059 0.447059
0.494118 0.494118 0.494118
0.290196 0.290196 0.290196
0.341176 0.341176 0.341176
0.423529 0.423529 0.423529
0.490196 0.490196 0.490196
0.525490 0.525490 0.525490
0.490196 0.490196 0.490196
0.517647 0.517647 0.517647
0.576471 0.576471 0.576471
0.639216 0.639216 0.639216
0.666667 0.666667 0.666667
0.643137 0.643137 0.643137
0.682353 0.682353 0.682353
0.729412 0.729412 0.729412
0.780392 0.780392 0.780392
0.839216 0.839216 0.839216
0.686275 0.686275 0.686275
0.725490 0.725490 0.725490
0.768627 0.768627 0.768627
0.874510 0.874510 0.874510
0.890196 0.890196 0.890196
0.337255 0.337255 0.337255
0.380392 0.380392 0.380392
0.478431 0.478431 0.478431
0.584314 0.584314 0.584314
0.654902 0.654902 0.654902
0.431373 0.431373 0.431373
0.494118 0.494118 0.494118
0.556863 0.556863 0.556863
0.623529 0.623529 0.623529
0.666667 0.666667 0.666667
0.588235 0.588235 0.588235
0.619608 0.619608 0.619608
0.670588 0.670588 0.670588
0.721569 0.721569 0.721569
0.764706 0.764706 0.764706
0.733333 0.733333 0.733333
0.749020 0.749020 0.749020
0.792157 0.792157 0.792157
0.839216 0.839216 0.839216
0.917647 0.917647 0.917647
0.862745 0.862745 0.862745
0.819608 0.819608 0.819608
0.862745 0.862745 0.862745
0.917647 0.917647 0.917647
0.956863 0.956863 0.956863
0.470588 0.470588 0.470588
0.505882 0.505882 0.505882
0.584314 0.584314 0.584314
0.678431 0.678431 0.678431
0.745098 0.745098 0.745098
0.552941 0.552941 0.552941
0.623529 0.623529 0.623529
0.682353 0.682353 0.682353
0.737255 0.737255 0.737255
0.776471 0.776471 0.776471
0.690196 0.690196 0.690196
0.745098 0.745098 0.745098
0.784314 0.784314 0.784314
0.827451 0.827451 0.827451
0.835294 0.835294 0.835294
0.819608 0.819608 0.819608
0.843137 0.843137 0.843137
0.878431 0.878431 0.878431
0.917647 0.917647 0.917647
0.952941 0.952941 0.952941
0.862745 0.862745 0.862745
0.850980 0.850980 0.850980
0.905882 0.905882 0.905882
0.956863 0.956863 0.956863
0.992157 0.992157 0.992157
