luts/FUJI_PRO_NEG_Std.cube
TITLE "Generated for krafta web app"
LUT_3D_SIZE 25
#INPUTGAMMA sRGB
#IMAGEPROFILE sRGB
#OUTPUTGAMMA sRGB
0.000000 0.000000 0.000000
0.047246 0.008178 0.010971
0.096206 0.016737 0.022455
0.144311 0.025944 0.034307
0.185669 0.034095 0.044253
0.227485 0.041935 0.053704
0.270878 0.049981 0.063703
0.320629 0.059699 0.075471
0.378285 0.071680 0.089313
0.439429 0.084634 0.104681
0.492083 0.095165 0.116639
0.523829 0.101999 0.124464
0.542607 0.106078 0.129044
0.558387 0.109524 0.132867
0.581300 0.114506 0.138376
0.615879 0.121911 0.146659
0.652330 0.129639 0.155437
0.685446 0.137153 0.163465
0.718054 0.144754 0.171542
0.755186 0.152666 0.180551
0.790508 0.160354 0.189089
0.820548 0.167283 0.196297
0.852445 0.174434 0.204106
0.883972 0.181108 0.211729
0.913692 0.188337 0.218892
0.001327 0.041757 0.001179
0.049253 0.048572 0.007220
0.095890 0.055367 0.018835
0.146435 0.063425 0.031634
0.189827 0.070318 0.042457
0.230287 0.077024 0.052482
0.273121 0.085455 0.062097
0.323787 0.095391 0.073561
0.384415 0.106861 0.088793
0.448608 0.119594 0.104941
0.501243 0.129170 0.117227
0.535323 0.136399 0.125131
0.555183 0.140562 0.129812
0.572064 0.144085 0.133824
0.595555 0.149039 0.139362
0.629087 0.156220 0.147277
0.663589 0.163691 0.155575
0.699991 0.171438 0.164510
0.734762 0.178974 0.173138
0.766775 0.186253 0.181038
0.801995 0.193978 0.189091
0.834939 0.201168 0.197086
0.866805 0.207065 0.204725
0.900528 0.211983 0.211937
0.930265 0.211653 0.216440
0.002684 0.082380 0.001291
0.049174 0.089730 0.003768
0.098773 0.095611 0.016045
0.146156 0.101351 0.028341
0.191049 0.107590 0.039888
0.229458 0.113045 0.049725
0.271625 0.120197 0.060076
0.321576 0.132053 0.071840
0.385367 0.144689 0.087267
0.453561 0.156418 0.103169
0.505068 0.166125 0.116616
0.538793 0.172589 0.124766
0.559633 0.176783 0.129413
0.577822 0.180572 0.133257
0.602650 0.186185 0.138126
0.638790 0.194094 0.145577
0.677246 0.201009 0.155363
0.712680 0.207946 0.164921
0.747259 0.214806 0.174458
0.778296 0.220785 0.182477
0.818375 0.228048 0.191245
0.854401 0.234301 0.198102
0.883051 0.239736 0.205179
0.920505 0.233979 0.208192
0.948484 0.237958 0.215876
0.003272 0.119072 0.000761
0.048024 0.126092 0.001981
0.098745 0.132044 0.012007
0.147932 0.136540 0.025894
0.192156 0.141382 0.037416
0.230610 0.145550 0.047305
0.271699 0.151671 0.057767
0.317293 0.160612 0.069024
0.386066 0.174711 0.085609
0.449528 0.186952 0.099589
0.502244 0.196104 0.113198
0.532400 0.201531 0.121272
0.552854 0.205229 0.126720
0.571365 0.208688 0.131504
0.598505 0.214883 0.136897
0.636578 0.224822 0.144106
0.671069 0.233403 0.153185
0.710674 0.240000 0.162378
0.749859 0.247014 0.172057
0.786409 0.251570 0.181036
0.823484 0.257466 0.191221
0.861675 0.262810 0.197371
0.901069 0.260995 0.202178
0.934362 0.257289 0.207039
0.964432 0.263973 0.214185
0.004387 0.151907 0.000458
0.047533 0.159082 0.001130
0.097542 0.166164 0.008004
0.146828 0.170465 0.022523
0.192562 0.174341 0.034769
0.235218 0.178689 0.045629
0.277250 0.183821 0.056423
0.323397 0.190228 0.068139
0.384462 0.201104 0.083310
0.441418 0.213575 0.095875
0.499637 0.223335 0.110899
0.530577 0.228476 0.118733
0.550242 0.232106 0.123963
0.567457 0.235246 0.128616
0.593709 0.240144 0.135070
0.629680 0.248931 0.143561
0.660092 0.259677 0.151013
0.700877 0.267664 0.159917
0.741622 0.273127 0.168154
0.782218 0.277102 0.176859
0.822243 0.283530 0.187578
0.853876 0.289667 0.196141
0.910505 0.277605 0.199213
0.945812 0.282095 0.205479
0.972970 0.289528 0.212192
0.005522 0.184449 -0.000009
0.047342 0.191594 0.000488
0.096645 0.199573 0.004549
0.145592 0.204992 0.017781
0.190441 0.208360 0.031198
0.234809 0.211945 0.042710
0.279400 0.216348 0.054038
0.330252 0.222532 0.067319
0.385417 0.230522 0.081284
0.442793 0.241162 0.095257
0.495458 0.249385 0.108009
0.531857 0.255202 0.117193
0.550638 0.258870 0.121856
0.565363 0.262094 0.125477
0.589804 0.266846 0.131597
0.626504 0.274220 0.140673
0.660261 0.282893 0.148685
0.697598 0.293222 0.157950
0.734976 0.297496 0.166062
0.776970 0.301333 0.172894
0.818316 0.308296 0.184233
0.860286 0.311201 0.194458
0.910821 0.301395 0.197483
0.951667 0.307334 0.203284
0.981704 0.314992 0.210632
0.006396 0.216979 -0.000004
0.046982 0.224025 -0.000045
0.095882 0.232540 0.001852
0.144391 0.238841 0.012129
0.189541 0.242965 0.025786
0.232762 0.246332 0.037773
0.277685 0.249089 0.050202
0.330583 0.254121 0.064307
0.393468 0.262161 0.080708
0.454111 0.271827 0.096243
0.493657 0.277229 0.104923
0.531556 0.283494 0.114620
0.549797 0.286847 0.119126
0.563512 0.289300 0.122453
0.586935 0.293770 0.128248
0.623928 0.300521 0.137398
0.660161 0.307381 0.146091
0.698810 0.317320 0.155288
0.739169 0.322405 0.164799
0.780139 0.326753 0.172388
0.818106 0.334010 0.182923
0.880594 0.326851 0.192426
0.921465 0.326240 0.195276
0.958675 0.333401 0.201954
0.991272 0.341370 0.210410
0.007314 0.250125 0.000000
0.046351 0.256694 -0.000074
0.094033 0.264846 0.001181
0.142319 0.271994 0.007727
0.187845 0.277157 0.018175
0.231651 0.281386 0.030560
0.276881 0.284376 0.045429
0.331804 0.287620 0.061702
0.394774 0.293959 0.077824
0.458617 0.302474 0.094342
0.505203 0.309552 0.105914
0.534324 0.314113 0.112952
0.550249 0.316471 0.116771
0.563641 0.318637 0.119955
0.586585 0.322241 0.125516
0.622823 0.328289 0.134377
0.656861 0.334626 0.142668
0.692503 0.340543 0.151097
0.748519 0.344523 0.163499
0.784199 0.352320 0.172198
0.823482 0.358658 0.182214
0.879154 0.347282 0.191541
0.931090 0.352771 0.195880
0.971599 0.360776 0.202803
0.997949 0.369171 0.211877
0.008055 0.282912 0.000000
0.043834 0.289184 -0.000026
0.089590 0.297294 0.000369
0.138088 0.304909 0.004210
0.184440 0.310663 0.013581
0.229736 0.314730 0.026692
0.276377 0.319024 0.040430
0.330894 0.322387 0.058024
0.397556 0.326940 0.075472
0.458352 0.334005 0.090846
0.509353 0.341296 0.103992
0.539068 0.345504 0.111338
0.558493 0.348377 0.116175
0.575534 0.350946 0.120411
0.596235 0.354004 0.125296
0.624584 0.358277 0.131848
0.657447 0.363100 0.139777
0.692128 0.366239 0.147852
0.747683 0.371737 0.161475
0.786226 0.378839 0.170044
0.833710 0.377441 0.180204
0.887720 0.372967 0.191942
0.935411 0.379975 0.201410
0.982901 0.388605 0.204748
1.000188 0.397295 0.213978
0.007281 0.314993 0.000000
0.039769 0.320957 -0.000003
0.083905 0.329160 -0.000165
0.133083 0.336844 0.002586
0.179715 0.343944 0.008375
0.226291 0.349060 0.020526
0.274386 0.353258 0.036547
0.329257 0.357469 0.053638
0.396150 0.362097 0.072089
0.458830 0.367213 0.087759
0.509175 0.373053 0.100504
0.540387 0.377084 0.108324
0.558117 0.379427 0.112534
0.572972 0.381420 0.115920
0.595282 0.384326 0.120794
0.628892 0.389069 0.128181
0.665135 0.393852 0.137132
0.708853 0.396931 0.148813
0.741051 0.399665 0.157052
0.776796 0.405615 0.164352
0.833930 0.397334 0.175485
0.895733 0.398604 0.191236
0.942661 0.407288 0.203362
0.984001 0.415628 0.205592
0.999995 0.423555 0.212754
0.005587 0.346382 0.000000
0.033743 0.351895 0.000000
0.076905 0.360210 -0.000123
0.126197 0.368910 0.000993
0.173810 0.376367 0.006303
0.221061 0.382592 0.014695
0.270291 0.387651 0.029572
0.326580 0.392277 0.048604
0.392501 0.397430 0.067148
0.458444 0.402113 0.084542
0.509409 0.406548 0.097130
0.539057 0.409532 0.104011
0.556117 0.411216 0.107788
0.570560 0.412813 0.110883
0.592976 0.415303 0.115925
0.626538 0.419630 0.123465
0.661383 0.424006 0.131302
0.707277 0.426077 0.143289
0.745623 0.429011 0.153047
0.776010 0.433619 0.159181
0.836029 0.419940 0.171580
0.893652 0.423573 0.187917
0.951936 0.432780 0.201233
0.989096 0.441051 0.203062
0.999996 0.449162 0.210773
0.002086 0.385934 0.000000
0.024048 0.391359 0.000000
0.066426 0.399668 -0.000034
0.115909 0.408580 0.000070
0.164649 0.416749 0.003589
0.212346 0.424492 0.009773
0.261734 0.431616 0.018131
0.319704 0.436419 0.038129
0.388580 0.441586 0.060664
0.453556 0.445787 0.077790
0.504524 0.448405 0.090011
0.534564 0.450173 0.096866
0.552728 0.451508 0.100971
0.568420 0.452838 0.104496
0.590944 0.454765 0.109614
0.624720 0.458353 0.117435
0.661198 0.462627 0.126036
0.700860 0.464911 0.135219
0.751133 0.468136 0.149496
0.792808 0.474491 0.160928
0.864048 0.459355 0.178469
0.913779 0.461414 0.191511
0.957056 0.465710 0.197635
0.992397 0.473175 0.200939
0.999998 0.481847 0.208839
-0.000104 0.427412 0.000000
0.015332 0.432776 0.000000
0.053128 0.441684 0.000001
0.102257 0.450978 -0.000205
0.151848 0.459560 0.001312
0.200568 0.467559 0.006211
0.250781 0.475795 0.012677
0.310429 0.482542 0.025669
0.381524 0.489329 0.046839
0.445633 0.492506 0.068721
0.496822 0.494978 0.080967
0.528547 0.496410 0.088313
0.548194 0.497186 0.093090
0.565310 0.497868 0.097367
0.590257 0.499425 0.103637
0.627399 0.502901 0.113094
0.666613 0.507590 0.123270
0.709915 0.511491 0.134650
0.758015 0.513537 0.146106
0.800733 0.518837 0.156382
0.865995 0.506683 0.171870
0.913120 0.505003 0.182670
0.956237 0.507681 0.195082
0.989010 0.510793 0.199434
0.999993 0.516677 0.205398
-0.000004 0.452416 0.000000
0.011360 0.458159 0.000000
0.044485 0.467645 0.000000
0.092953 0.477243 -0.000078
0.142579 0.486150 0.000338
0.192263 0.494464 0.003617
0.243626 0.502787 0.010099
0.303370 0.511079 0.019532
0.376477 0.517873 0.039325
0.440323 0.521558 0.061135
0.492662 0.524121 0.074842
0.525186 0.525638 0.083158
0.545147 0.526555 0.088025
0.562558 0.527291 0.092220
0.589039 0.528965 0.099153
0.629015 0.532180 0.109885
0.669407 0.535947 0.120063
0.713155 0.539816 0.130755
0.761961 0.541995 0.142390
0.803638 0.546764 0.151742
0.862733 0.537305 0.165075
0.908141 0.535196 0.174172
0.948265 0.539064 0.190088
0.981027 0.541577 0.196660
1.000139 0.544197 0.201542
0.000000 0.476489 0.000000
0.007208 0.482800 0.000000
0.036261 0.492634 0.000000
0.083415 0.502770 -0.000001
0.133460 0.512132 -0.000221
0.184509 0.520766 0.001422
0.237841 0.529248 0.007345
0.297806 0.538820 0.014699
0.371439 0.545397 0.033001
0.436616 0.549794 0.054474
0.489698 0.552265 0.069740
0.524549 0.554161 0.079465
0.545322 0.555327 0.084534
0.563297 0.556374 0.088618
0.590854 0.558133 0.095591
0.632732 0.561012 0.106670
0.674670 0.563913 0.117063
0.717563 0.567068 0.125932
0.763160 0.569021 0.135821
0.803966 0.573145 0.144949
0.857714 0.566304 0.156473
0.901493 0.563962 0.164159
0.939878 0.570502 0.182597
0.974160 0.575309 0.192104
0.999569 0.576684 0.197960
0.000000 0.504386 0.000000
0.002452 0.511346 0.000000
0.027704 0.521322 0.000000
0.072623 0.532256 0.000001
0.124990 0.541983 -0.000064
0.177906 0.551133 0.000051
0.233782 0.560144 0.004095
0.295069 0.569578 0.011115
0.364742 0.578898 0.020923
0.433751 0.581835 0.048932
0.488905 0.584298 0.066623
0.528272 0.587494 0.076875
0.551426 0.589133 0.082807
0.571180 0.590431 0.087788
0.600085 0.592525 0.094845
0.642193 0.595494 0.104975
0.683551 0.597748 0.114675
0.725153 0.599548 0.122382
0.763443 0.600693 0.128652
0.800760 0.604001 0.136497
0.849586 0.599714 0.146751
0.892546 0.597891 0.153835
0.929261 0.608555 0.177066
0.969156 0.614734 0.186898
0.996661 0.616527 0.194934
0.000000 0.534368 0.000000
0.001214 0.541703 0.000000
0.019463 0.552415 0.000000
0.062054 0.563474 0.000000
0.120486 0.573820 0.000003
0.178125 0.584108 -0.000212
0.233127 0.593336 0.001240
0.292601 0.602422 0.006054
0.362183 0.612088 0.014383
0.431423 0.617046 0.038489
0.494827 0.619654 0.062557
0.536130 0.623270 0.074227
0.559788 0.625113 0.080994
0.579608 0.626674 0.086621
0.608224 0.629199 0.094289
0.648287 0.632288 0.103308
0.685268 0.633473 0.109073
0.723164 0.635007 0.116233
0.759715 0.637651 0.124104
0.795956 0.641005 0.132318
0.839893 0.640764 0.143072
0.882124 0.642405 0.153938
0.918109 0.654110 0.176166
0.963577 0.657576 0.182287
0.991678 0.656288 0.189549
0.000000 0.563554 0.000000
0.000435 0.571807 0.000000
0.012657 0.583117 0.000000
0.059264 0.596515 0.000000
0.122571 0.608204 0.000000
0.180161 0.618138 -0.000028
0.234521 0.626688 0.000051
0.295031 0.635602 0.002426
0.363781 0.644976 0.010433
0.436299 0.654239 0.029237
0.502602 0.658174 0.056895
0.544778 0.661314 0.073510
0.567469 0.663033 0.079906
0.585533 0.664325 0.083637
0.611624 0.666228 0.089561
0.648824 0.668434 0.097394
0.684542 0.670219 0.104148
0.719258 0.674726 0.115071
0.753692 0.678731 0.124737
0.789675 0.683684 0.135163
0.828980 0.687530 0.146682
0.872219 0.690731 0.157544
0.909514 0.700489 0.174865
0.962047 0.695905 0.174157
0.990232 0.693950 0.181749
0.000000 0.591526 0.000000
-0.000209 0.601241 0.000000
0.012112 0.615022 0.000000
0.066846 0.629392 0.000000
0.130875 0.641203 0.000000
0.187828 0.650852 -0.000001
0.241257 0.659475 -0.000037
0.298830 0.668094 0.000282
0.367260 0.677084 0.007304
0.448992 0.688751 0.028922
0.511510 0.696699 0.047393
0.551547 0.698462 0.065705
0.572571 0.700260 0.071208
0.589046 0.702131 0.073694
0.610818 0.704308 0.081972
0.643830 0.708008 0.098014
0.684273 0.713982 0.113453
0.721440 0.720100 0.127713
0.747045 0.722138 0.128850
0.785287 0.726133 0.139148
0.824008 0.730165 0.149185
0.866807 0.732298 0.158494
0.905166 0.737354 0.170883
0.952498 0.732025 0.175538
0.988015 0.731903 0.174750
0.000000 0.621797 0.000000
-0.000560 0.632992 0.000000
0.012788 0.646383 0.000000
0.075523 0.661894 0.000000
0.140600 0.674766 0.000000
0.195720 0.683802 0.000000
0.248202 0.691149 0.000003
0.307771 0.699378 -0.000507
0.386732 0.710808 0.009770
0.467629 0.722272 0.029667
0.522029 0.729444 0.044759
0.554173 0.733275 0.055106
0.572783 0.735568 0.060140
0.588369 0.737515 0.064128
0.609713 0.740045 0.072605
0.640997 0.743714 0.085673
0.676746 0.748289 0.095850
0.717068 0.753850 0.110662
0.748194 0.756196 0.114298
0.789441 0.761869 0.138601
0.825467 0.765782 0.149586
0.863984 0.768872 0.158178
0.901296 0.771153 0.167438
0.948145 0.767839 0.170353
0.986417 0.768023 0.168276
0.000000 0.654342 0.000000
-0.000736 0.667135 0.000000
0.018071 0.682794 0.000000
0.091106 0.698184 0.000000
0.152652 0.710678 0.000000
0.207685 0.718927 0.000000
0.262275 0.726103 -0.000129
0.330133 0.736717 0.000869
0.407859 0.748921 0.015368
0.478655 0.759213 0.034801
0.527339 0.765304 0.046631
0.555738 0.768951 0.053777
0.572956 0.770710 0.057560
0.587789 0.771948 0.060624
0.609317 0.774010 0.065890
0.641600 0.777216 0.074055
0.676247 0.780608 0.082028
0.713996 0.784567 0.092272
0.750240 0.788562 0.101340
0.790996 0.793653 0.122255
0.829780 0.797824 0.130372
0.867999 0.801294 0.147771
0.906219 0.804485 0.158329
0.941213 0.805263 0.169440
0.983014 0.806350 0.163989
0.000000 0.685925 0.000000
0.000625 0.700298 0.000000
0.029553 0.716851 0.000000
0.104282 0.732537 0.000000
0.167014 0.744687 0.000000
0.224635 0.754120 0.000000
0.283745 0.763450 -0.000204
0.348429 0.774118 0.001679
0.417541 0.784912 0.017480
0.481253 0.793814 0.030371
0.527200 0.799235 0.039660
0.553827 0.801736 0.043067
0.570535 0.803382 0.046053
0.585268 0.804919 0.049128
0.606191 0.807441 0.054120
0.638931 0.811251 0.062857
0.677231 0.814651 0.073464
0.716089 0.818559 0.084462
0.753618 0.822166 0.093836
0.793890 0.826331 0.106363
0.833585 0.830772 0.116445
0.873450 0.835442 0.128430
0.912247 0.840329 0.139401
0.945539 0.843959 0.151546
0.980899 0.848619 0.155975
0.000000 0.720414 0.000000
0.002678 0.736498 0.000000
0.050234 0.751933 0.000000
0.125432 0.767116 0.000000
0.191886 0.780284 0.000000
0.250357 0.790890 0.000000
0.303278 0.799836 -0.000269
0.361261 0.809308 0.002847
0.421089 0.815366 0.011234
0.478478 0.820525 0.017340
0.524638 0.825393 0.024205
0.555612 0.828733 0.031424
0.573676 0.830712 0.035918
0.589067 0.832432 0.039970
0.611897 0.835144 0.046631
0.648403 0.839593 0.058147
0.690191 0.844581 0.071738
0.730784 0.849808 0.085209
0.764525 0.853848 0.092851
0.799095 0.858045 0.100776
0.835164 0.862713 0.109761
0.875373 0.868401 0.120057
0.914575 0.874200 0.129680
0.948717 0.879297 0.138971
0.980978 0.884601 0.148578
0.000000 0.758886 0.000000
0.014663 0.774587 0.000000
0.084867 0.789783 0.000000
0.159266 0.805142 0.000000
0.218918 0.816677 0.000000
0.270947 0.825379 0.000000
0.322432 0.833223 -0.000013
0.365282 0.836149 0.000146
0.416396 0.839532 0.000769
0.475800 0.845762 0.007378
0.526504 0.851820 0.018156
0.558305 0.855281 0.024164
0.578017 0.857453 0.029406
0.595057 0.859340 0.034607
0.618331 0.861862 0.041129
0.651810 0.865615 0.050151
0.687360 0.870071 0.060030
0.722710 0.874952 0.069673
0.756490 0.879278 0.076932
0.792324 0.884239 0.086241
0.832241 0.890721 0.099414
0.873610 0.897268 0.111404
0.913893 0.903720 0.121886
0.949568 0.909511 0.130616
0.981426 0.914702 0.140108
0.000732 0.798204 0.000000
0.058280 0.813505 0.000000
0.121506 0.827819 0.000000
0.186960 0.840604 -0.000002
0.242440 0.849620 0.000000
0.287548 0.855992 0.000000
0.330737 0.861062 0.000000
0.369869 0.863177 0.000076
0.419630 0.866502 0.000435
0.481057 0.873709 0.007902
0.528709 0.877904 0.014685
0.560745 0.881975 0.020560
0.579875 0.884438 0.024814
0.596044 0.886511 0.028687
0.616210 0.888436 0.032671
0.644787 0.891002 0.037920
0.678863 0.895567 0.047034
0.715578 0.901238 0.058595
0.751846 0.906638 0.068250
0.788697 0.912174 0.077365
0.827897 0.918399 0.088384
0.869368 0.925083 0.099652
0.911132 0.932208 0.111657
0.947748 0.938544 0.122782
0.981649 0.944720 0.132295
0.018310 0.015553 0.053259
0.062837 0.022415 0.060385
0.107425 0.029558 0.068870
0.158310 0.039002 0.081189
0.199168 0.046182 0.089337
0.239672 0.053417 0.097685
0.282611 0.061114 0.106843
0.331123 0.070403 0.117740
0.389385 0.081843 0.130712
0.449639 0.094065 0.144264
0.501335 0.104037 0.155368
0.533767 0.110812 0.163254
0.553358 0.114742 0.167934
0.570315 0.118088 0.171940
0.593341 0.122863 0.177286
0.626552 0.129908 0.184966
0.661373 0.137239 0.193197
0.693422 0.144479 0.200820
0.728810 0.151982 0.209331
0.765229 0.159382 0.217898
0.799287 0.166756 0.225836
0.828253 0.172977 0.232354
0.859667 0.179636 0.239494
0.891065 0.185605 0.246454
0.917791 0.192134 0.252005
0.014353 0.049936 0.049372
0.046465 0.049305 0.044828
0.087414 0.053758 0.053929
0.138225 0.062197 0.066578
0.182891 0.069692 0.076356
0.228634 0.077250 0.086008
0.275323 0.085473 0.096826
0.324755 0.094612 0.108343
0.384462 0.106435 0.122970
0.447148 0.119122 0.138452
0.500375 0.129098 0.150398
0.535359 0.135551 0.158321
0.554982 0.139614 0.162947
0.571319 0.143222 0.166914
0.594996 0.148321 0.172851
0.628923 0.155758 0.181642
0.661510 0.163362 0.190287
0.694958 0.171102 0.199243
0.731323 0.178586 0.207855
0.775876 0.185422 0.215534
0.810369 0.193226 0.223427
0.841188 0.199977 0.230261
0.873217 0.206526 0.237718
0.903322 0.210769 0.244089
0.929516 0.218671 0.250520
0.015741 0.090834 0.044793
0.051749 0.090625 0.043202
0.098295 0.094360 0.054850
0.140192 0.097883 0.064399
0.180023 0.103074 0.073351
0.218580 0.110109 0.081239
0.260876 0.119162 0.090649
0.319669 0.129838 0.103362
0.385628 0.141467 0.119601
0.450555 0.153740 0.135763
0.502346 0.163926 0.148456
0.532692 0.169854 0.156188
0.553909 0.174083 0.161071
0.573092 0.177946 0.165298
0.597895 0.183023 0.171076
0.632663 0.190025 0.179796
0.670315 0.197191 0.189855
0.706751 0.204322 0.199626
0.741483 0.211477 0.208924
0.777480 0.218083 0.217297
0.818879 0.226135 0.224183
0.856421 0.229585 0.229443
0.886818 0.232100 0.235011
0.915505 0.237262 0.241745
0.941916 0.244308 0.247541
0.015828 0.126665 0.039793
0.050908 0.127188 0.037672
0.100841 0.131315 0.051025
0.148255 0.134540 0.063756
0.186546 0.137484 0.072786
0.222922 0.141161 0.081225
0.261028 0.147833 0.090038
0.304515 0.158392 0.098346
0.376716 0.170961 0.113747
0.441788 0.182752 0.130571
0.497853 0.193444 0.143794
0.532435 0.200342 0.152242
0.552875 0.204302 0.157515
0.570023 0.207603 0.162023
0.594721 0.212817 0.167801
0.631351 0.220380 0.176333
0.669671 0.227086 0.186643
0.707068 0.234333 0.196380
0.744978 0.242079 0.206052
0.781780 0.247993 0.214523
0.819920 0.255050 0.222979
0.863184 0.251149 0.226462
0.896333 0.257034 0.231659
0.925437 0.263387 0.238573
0.953253 0.270887 0.245600
0.016477 0.159530 0.036018
0.050679 0.159886 0.033321
0.099462 0.165117 0.045106
0.148435 0.168878 0.059614
0.193847 0.171710 0.071938
0.236024 0.175235 0.082219
0.274461 0.178073 0.091373
0.312544 0.185593 0.100876
0.366966 0.198440 0.110256
0.425903 0.208327 0.123517
0.491231 0.220004 0.139916
0.526396 0.227259 0.148166
0.549154 0.231696 0.153749
0.569002 0.235468 0.158705
0.594565 0.240527 0.164796
0.629483 0.247294 0.173175
0.666550 0.253883 0.182823
0.704894 0.261344 0.192495
0.741561 0.267933 0.201247
0.781247 0.273177 0.210289
0.822721 0.276695 0.219901
0.861766 0.275075 0.226024
0.900146 0.281900 0.229519
0.932860 0.288698 0.236081
0.962455 0.296229 0.243602
0.017035 0.191734 0.032244
0.050431 0.192528 0.029119
0.098638 0.198044 0.039653
0.147391 0.202831 0.053638
0.192294 0.206079 0.066313
0.235999 0.208672 0.078458
0.280049 0.212050 0.090550
0.331192 0.215604 0.104021
0.376676 0.226850 0.114380
0.426974 0.237136 0.121525
0.483060 0.246597 0.135522
0.512684 0.252240 0.142484
0.536369 0.256820 0.148335
0.559333 0.261281 0.154094
0.587929 0.266744 0.161086
0.625473 0.273724 0.170047
0.663382 0.280647 0.179165
0.703154 0.288092 0.189213
0.740564 0.293867 0.198036
0.779814 0.297778 0.206790
0.828735 0.294371 0.216057
0.867112 0.298964 0.225045
0.906488 0.306952 0.228508
0.941755 0.314318 0.234683
0.972644 0.322238 0.242495
0.017254 0.224261 0.027939
0.049822 0.225211 0.024525
0.097286 0.230907 0.034513
0.146496 0.235940 0.047325
0.192050 0.239973 0.059115
0.235204 0.242986 0.072849
0.280098 0.245485 0.087646
0.333296 0.249844 0.102110
0.393000 0.255286 0.117893
0.444635 0.268472 0.126702
0.483246 0.275753 0.133068
0.511025 0.279983 0.139860
0.529305 0.283425 0.144325
0.545939 0.286662 0.148398
0.573828 0.291922 0.155167
0.616568 0.299783 0.165391
0.655748 0.306744 0.174686
0.697544 0.314531 0.185114
0.740035 0.320056 0.195186
0.785995 0.324680 0.205411
0.838113 0.318374 0.215032
0.879268 0.324955 0.224140
0.919894 0.333115 0.227304
0.953588 0.340894 0.234579
0.984700 0.348986 0.242724
0.017479 0.256960 0.023567
0.048872 0.258082 0.019949
0.094187 0.264085 0.027991
0.143651 0.269383 0.041235
0.191080 0.273213 0.055264
0.235124 0.277545 0.067026
0.279461 0.280617 0.081904
0.331746 0.283333 0.098876
0.394255 0.287788 0.115242
0.454529 0.296779 0.131668
0.502860 0.308178 0.137753
0.525913 0.312487 0.141801
0.540171 0.314747 0.144918
0.552885 0.316624 0.148002
0.574018 0.320224 0.153012
0.607747 0.326415 0.160870
0.642641 0.332916 0.168902
0.682714 0.339672 0.178531
0.732387 0.342493 0.188961
0.789496 0.349988 0.202785
0.848230 0.344414 0.214791
0.889926 0.351068 0.223831
0.931775 0.359802 0.228252
0.967162 0.368239 0.235416
0.994550 0.376465 0.243743
0.016170 0.289302 0.019610
0.046604 0.289914 0.015417
0.090401 0.296444 0.022397
0.139806 0.303232 0.034512
0.188058 0.308080 0.049062
0.233109 0.312090 0.062941
0.278559 0.316514 0.075058
0.330358 0.318679 0.093837
0.393759 0.321997 0.112477
0.456449 0.326192 0.128804
0.506430 0.335442 0.141819
0.534770 0.343199 0.143101
0.554007 0.347032 0.146426
0.571143 0.349813 0.150395
0.591687 0.352768 0.155006
0.616844 0.356322 0.160491
0.641860 0.360686 0.165735
0.674973 0.364548 0.173644
0.728378 0.368757 0.186124
0.782825 0.369979 0.197164
0.844922 0.368316 0.210789
0.892256 0.376558 0.223791
0.935127 0.386218 0.233338
0.978562 0.395806 0.236609
0.999243 0.403531 0.243759
0.013418 0.321133 0.014338
0.042900 0.321721 0.011065
0.085397 0.327937 0.016933
0.135915 0.335112 0.029717
0.184442 0.341085 0.043245
0.230458 0.345704 0.056915
0.276303 0.349877 0.070750
0.328599 0.354854 0.084648
0.391374 0.356736 0.108841
0.456033 0.360776 0.126034
0.506891 0.364513 0.138897
0.537098 0.369486 0.146962
0.555115 0.374192 0.148374
0.570483 0.378699 0.148159
0.592849 0.382866 0.150715
0.624214 0.386615 0.157338
0.654867 0.390759 0.165362
0.694265 0.394909 0.175945
0.723937 0.396636 0.181885
0.770572 0.392283 0.189846
0.833405 0.392175 0.204493
0.895195 0.402681 0.222137
0.941960 0.413016 0.233395
0.983605 0.422246 0.235803
0.999896 0.430315 0.244048
0.009950 0.352463 0.009617
0.037831 0.353160 0.008032
0.078770 0.359485 0.012628
0.130312 0.367138 0.024042
0.180348 0.374245 0.038047
0.226843 0.379592 0.051157
0.273793 0.383660 0.064610
0.326459 0.387819 0.080126
