luts/FUJI_MONO_Yellow_Filter.cube
#Generated for krafta web app
#Black and White LUTs
TITLE "Fuji XTrans III - Mono+Ye"
#LUT size
LUT_3D_SIZE 25
#LUT data points
0.000000 0.000000 0.000000
0.003922 0.003922 0.003922
0.007843 0.007843 0.007843
0.011765 0.011765 0.011765
0.023529 0.023529 0.023529
0.043137 0.043137 0.043137
0.066667 0.066667 0.066667
0.105882 0.105882 0.105882
0.152941 0.152941 0.152941
0.184314 0.184314 0.184314
0.223529 0.223529 0.223529
0.250980 0.250980 0.250980
0.250980 0.250980 0.250980
0.349020 0.349020 0.349020
0.419608 0.419608 0.419608
0.443137 0.443137 0.443137
0.466667 0.466667 0.466667
0.482353 0.482353 0.482353
0.482353 0.482353 0.482353
0.482353 0.482353 0.482353
0.501961 0.501961 0.501961
0.537255 0.537255 0.537255
0.537255 0.537255 0.537255
0.537255 0.537255 0.537255
0.537255 0.537255 0.537255
0.000000 0.000000 0.000000
0.003922 0.003922 0.003922
0.007843 0.007843 0.007843
0.011765 0.011765 0.011765
0.027451 0.027451 0.027451
0.047059 0.047059 0.047059
0.070588 0.070588 0.070588
0.117647 0.117647 0.117647
0.156863 0.156863 0.156863
0.192157 0.192157 0.192157
0.235294 0.235294 0.235294
0.274510 0.274510 0.274510
0.301961 0.301961 0.301961
0.380392 0.380392 0.380392
0.427451 0.427451 0.427451
0.443137 0.443137 0.443137
0.474510 0.474510 0.474510
0.482353 0.482353 0.482353
0.482353 0.482353 0.482353
0.505882 0.505882 0.505882
0.517647 0.517647 0.517647
0.533333 0.533333 0.533333
0.533333 0.533333 0.533333
0.533333 0.533333 0.533333
0.533333 0.533333 0.533333
0.003922 0.003922 0.003922
0.007843 0.007843 0.007843
0.011765 0.011765 0.011765
0.019608 0.019608 0.019608
0.031373 0.031373 0.031373
0.050980 0.050980 0.050980
0.078431 0.078431 0.078431
0.125490 0.125490 0.125490
0.164706 0.164706 0.164706
0.196078 0.196078 0.196078
0.243137 0.243137 0.243137
0.286275 0.286275 0.286275
0.325490 0.325490 0.325490
0.388235 0.388235 0.388235
0.419608 0.419608 0.419608
0.443137 0.443137 0.443137
0.474510 0.474510 0.474510
0.486275 0.486275 0.486275
0.498039 0.498039 0.498039
0.517647 0.517647 0.517647
0.529412 0.529412 0.529412
0.529412 0.529412 0.529412
0.529412 0.529412 0.529412
0.537255 0.537255 0.537255
0.552941 0.552941 0.552941
0.007843 0.007843 0.007843
0.011765 0.011765 0.011765
0.015686 0.015686 0.015686
0.023529 0.023529 0.023529
0.050980 0.050980 0.050980
0.070588 0.070588 0.070588
0.090196 0.090196 0.090196
0.133333 0.133333 0.133333
0.176471 0.176471 0.176471
0.207843 0.207843 0.207843
0.247059 0.247059 0.247059
0.286275 0.286275 0.286275
0.329412 0.329412 0.329412
0.388235 0.388235 0.388235
0.427451 0.427451 0.427451
0.443137 0.443137 0.443137
0.474510 0.474510 0.474510
0.494118 0.494118 0.494118
0.529412 0.529412 0.529412
0.529412 0.529412 0.529412
0.529412 0.529412 0.529412
0.529412 0.529412 0.529412
0.529412 0.529412 0.529412
0.552941 0.552941 0.552941
0.600000 0.600000 0.600000
0.015686 0.015686 0.015686
0.019608 0.019608 0.019608
0.027451 0.027451 0.027451
0.039216 0.039216 0.039216
0.070588 0.070588 0.070588
0.094118 0.094118 0.094118
0.117647 0.117647 0.117647
0.160784 0.160784 0.160784
0.192157 0.192157 0.192157
0.227451 0.227451 0.227451
0.266667 0.266667 0.266667
0.305882 0.305882 0.305882
0.341176 0.341176 0.341176
0.380392 0.380392 0.380392
0.427451 0.427451 0.427451
0.458824 0.458824 0.458824
0.482353 0.482353 0.482353
0.509804 0.509804 0.509804
0.529412 0.529412 0.529412
0.529412 0.529412 0.529412
0.529412 0.529412 0.529412
0.529412 0.529412 0.529412
0.564706 0.564706 0.564706
0.588235 0.588235 0.588235
0.603922 0.603922 0.603922
0.031373 0.031373 0.031373
0.039216 0.039216 0.039216
0.047059 0.047059 0.047059
0.058824 0.058824 0.058824
0.086275 0.086275 0.086275
0.109804 0.109804 0.109804
0.137255 0.137255 0.137255
0.172549 0.172549 0.172549
0.211765 0.211765 0.211765
0.243137 0.243137 0.243137
0.286275 0.286275 0.286275
0.321569 0.321569 0.321569
0.356863 0.356863 0.356863
0.392157 0.392157 0.392157
0.435294 0.435294 0.435294
0.470588 0.470588 0.470588
0.490196 0.490196 0.490196
0.517647 0.517647 0.517647
0.541176 0.541176 0.541176
0.549020 0.549020 0.549020
0.549020 0.549020 0.549020
0.549020 0.549020 0.549020
0.588235 0.588235 0.588235
0.603922 0.603922 0.603922
0.603922 0.603922 0.603922
0.062745 0.062745 0.062745
0.062745 0.062745 0.062745
0.070588 0.070588 0.070588
0.090196 0.090196 0.090196
0.094118 0.094118 0.094118
0.113725 0.113725 0.113725
0.156863 0.156863 0.156863
0.188235 0.188235 0.188235
0.235294 0.235294 0.235294
0.270588 0.270588 0.270588
0.305882 0.305882 0.305882
0.337255 0.337255 0.337255
0.368627 0.368627 0.368627
0.403922 0.403922 0.403922
0.439216 0.439216 0.439216
0.478431 0.478431 0.478431
0.505882 0.505882 0.505882
0.533333 0.533333 0.533333
0.556863 0.556863 0.556863
0.588235 0.588235 0.588235
0.596078 0.596078 0.596078
0.596078 0.596078 0.596078
0.603922 0.603922 0.603922
0.603922 0.603922 0.603922
0.603922 0.603922 0.603922
0.098039 0.098039 0.098039
0.098039 0.098039 0.098039
0.105882 0.105882 0.105882
0.117647 0.117647 0.117647
0.137255 0.137255 0.137255
0.156863 0.156863 0.156863
0.184314 0.184314 0.184314
0.243137 0.243137 0.243137
0.270588 0.270588 0.270588
0.286275 0.286275 0.286275
0.325490 0.325490 0.325490
0.364706 0.364706 0.364706
0.392157 0.392157 0.392157
0.423529 0.423529 0.423529
0.462745 0.462745 0.462745
0.490196 0.490196 0.490196
0.513725 0.513725 0.513725
0.537255 0.537255 0.537255
0.560784 0.560784 0.560784
0.592157 0.592157 0.592157
0.603922 0.603922 0.603922
0.603922 0.603922 0.603922
0.603922 0.603922 0.603922
0.603922 0.603922 0.603922
0.603922 0.603922 0.603922
0.113725 0.113725 0.113725
0.133333 0.133333 0.133333
0.156863 0.156863 0.156863
0.168627 0.168627 0.168627
0.180392 0.180392 0.180392
0.196078 0.196078 0.196078
0.227451 0.227451 0.227451
0.270588 0.270588 0.270588
0.298039 0.298039 0.298039
0.317647 0.317647 0.317647
0.356863 0.356863 0.356863
0.392157 0.392157 0.392157
0.411765 0.411765 0.411765
0.443137 0.443137 0.443137
0.482353 0.482353 0.482353
0.505882 0.505882 0.505882
0.529412 0.529412 0.529412
0.556863 0.556863 0.556863
0.572549 0.572549 0.572549
0.592157 0.592157 0.592157
0.603922 0.603922 0.603922
0.603922 0.603922 0.603922
0.603922 0.603922 0.603922
0.603922 0.603922 0.603922
0.603922 0.603922 0.603922
0.113725 0.113725 0.113725
0.160784 0.160784 0.160784
0.200000 0.200000 0.200000
0.200000 0.200000 0.200000
0.215686 0.215686 0.215686
0.231373 0.231373 0.231373
0.250980 0.250980 0.250980
0.298039 0.298039 0.298039
0.337255 0.337255 0.337255
0.349020 0.349020 0.349020
0.380392 0.380392 0.380392
0.407843 0.407843 0.407843
0.431373 0.431373 0.431373
0.466667 0.466667 0.466667
0.490196 0.490196 0.490196
0.517647 0.517647 0.517647
0.545098 0.545098 0.545098
0.568627 0.568627 0.568627
0.592157 0.592157 0.592157
0.592157 0.592157 0.592157
0.596078 0.596078 0.596078
0.603922 0.603922 0.603922
0.603922 0.603922 0.603922
0.603922 0.603922 0.603922
0.603922 0.603922 0.603922
0.149020 0.149020 0.149020
0.207843 0.207843 0.207843
0.235294 0.235294 0.235294
0.235294 0.235294 0.235294
0.254902 0.254902 0.254902
0.258824 0.258824 0.262745
0.278431 0.278431 0.278431
0.321569 0.321569 0.321569
0.364706 0.364706 0.364706
0.380392 0.380392 0.380392
0.407843 0.407843 0.407843
0.443137 0.443137 0.443137
0.454902 0.454902 0.454902
0.478431 0.478431 0.478431
0.509804 0.509804 0.509804
0.533333 0.533333 0.533333
0.560784 0.560784 0.560784
0.588235 0.588235 0.588235
0.600000 0.600000 0.600000
0.600000 0.600000 0.600000
0.603922 0.603922 0.603922
0.607843 0.607843 0.607843
0.631373 0.631373 0.631373
0.650980 0.650980 0.650980
0.662745 0.662745 0.662745
0.200000 0.200000 0.200000
0.243137 0.243137 0.243137
0.258824 0.258824 0.258824
0.258824 0.258824 0.258824
0.274510 0.274510 0.274510
0.290196 0.290196 0.290196
0.313725 0.313725 0.313725
0.360784 0.360784 0.360784
0.384314 0.384314 0.384314
0.407843 0.407843 0.407843
0.435294 0.435294 0.435294
0.458824 0.458824 0.458824
0.482353 0.482353 0.482353
0.513725 0.513725 0.513725
0.533333 0.533333 0.533333
0.552941 0.552941 0.552941
0.572549 0.572549 0.572549
0.600000 0.600000 0.600000
0.619608 0.619608 0.619608
0.619608 0.619608 0.619608
0.615686 0.615686 0.615686
0.619608 0.619608 0.619608
0.647059 0.647059 0.647059
0.674510 0.674510 0.674510
0.694118 0.694118 0.694118
0.254902 0.254902 0.254902
0.258824 0.258824 0.258824
0.258824 0.258824 0.258824
0.258824 0.258824 0.258824
0.274510 0.274510 0.274510
0.301961 0.301961 0.301961
0.337255 0.337255 0.337255
0.376471 0.376471 0.376471
0.403922 0.403922 0.403922
0.427451 0.427451 0.427451
0.454902 0.454902 0.454902
0.482353 0.482353 0.482353
0.509804 0.509804 0.509804
0.533333 0.533333 0.533333
0.556863 0.556863 0.556863
0.576471 0.576471 0.576471
0.592157 0.592157 0.592157
0.615686 0.615686 0.615686
0.639216 0.639216 0.639216
0.639216 0.639216 0.639216
0.639216 0.639216 0.639216
0.639216 0.639216 0.639216
0.670588 0.670588 0.670588
0.682353 0.682353 0.682353
0.682353 0.682353 0.682353
0.211765 0.211765 0.211765
0.239216 0.239216 0.239216
0.258824 0.258824 0.258824
0.258824 0.258824 0.258824
0.298039 0.298039 0.298039
0.321569 0.321569 0.321569
0.345098 0.345098 0.345098
0.384314 0.384314 0.384314
0.411765 0.411765 0.411765
0.447059 0.447059 0.447059
0.462745 0.462745 0.462745
0.486275 0.486275 0.486275
0.533333 0.533333 0.533333
0.549020 0.549020 0.549020
0.568627 0.568627 0.568627
0.600000 0.600000 0.600000
0.611765 0.611765 0.611765
0.635294 0.635294 0.635294
0.650980 0.650980 0.650980
0.650980 0.650980 0.650980
0.650980 0.650980 0.650980
0.654902 0.654902 0.654902
0.682353 0.682353 0.682353
0.701961 0.701961 0.701961
0.713725 0.713725 0.713725
0.176471 0.176471 0.176471
0.235294 0.235294 0.235294
0.258824 0.258824 0.258824
0.258824 0.258824 0.258824
0.321569 0.321569 0.321569
0.356863 0.356863 0.356863
0.349020 0.349020 0.349020
0.392157 0.392157 0.392157
0.435294 0.435294 0.435294
0.458824 0.458824 0.458824
0.462745 0.462745 0.462745
0.494118 0.494118 0.494118
0.564706 0.564706 0.564706
0.568627 0.568627 0.568627
0.584314 0.584314 0.584314
0.607843 0.607843 0.607843
0.631373 0.631373 0.631373
0.658824 0.658824 0.658824
0.674510 0.674510 0.674510
0.662745 0.662745 0.662745
0.666667 0.666667 0.666667
0.682353 0.682353 0.682353
0.698039 0.698039 0.698039
0.717647 0.717647 0.717647
0.729412 0.729412 0.729412
0.176471 0.176471 0.176471
0.223529 0.223529 0.223529
0.258824 0.258824 0.258824
0.258824 0.258824 0.258824
0.376471 0.376471 0.376471
0.411765 0.411765 0.411765
0.356863 0.356863 0.356863
0.411765 0.411765 0.411765
0.458824 0.458824 0.458824
0.462745 0.462745 0.462745
0.462745 0.462745 0.462745
0.498039 0.498039 0.498039
0.596078 0.596078 0.596078
0.600000 0.600000 0.600000
0.603922 0.603922 0.603922
0.607843 0.607843 0.607843
0.650980 0.650980 0.650980
0.678431 0.678431 0.678431
0.694118 0.694118 0.694118
0.670588 0.670588 0.670588
0.682353 0.682353 0.682353
0.717647 0.717647 0.717647
0.717647 0.717647 0.717647
0.717647 0.717647 0.717647
0.721569 0.721569 0.721569
0.278431 0.278431 0.278431
0.266667 0.266667 0.266667
0.258824 0.258824 0.258824
0.258824 0.258824 0.258824
0.380392 0.380392 0.380392
0.411765 0.411765 0.411765
0.356863 0.356863 0.356863
0.392157 0.392157 0.392157
0.431373 0.431373 0.431373
0.458824 0.458824 0.458824
0.482353 0.482353 0.482353
0.537255 0.537255 0.537255
0.596078 0.596078 0.596078
0.600000 0.600000 0.600000
0.619608 0.619608 0.619608
0.643137 0.643137 0.643137
0.658824 0.658824 0.658824
0.678431 0.678431 0.678431
0.694118 0.694118 0.694118
0.686275 0.686275 0.686275
0.701961 0.701961 0.701961
0.717647 0.717647 0.717647
0.721569 0.721569 0.721569
0.737255 0.737255 0.737255
0.764706 0.764706 0.764706
0.345098 0.345098 0.345098
0.286275 0.286275 0.286275
0.258824 0.258824 0.258824
0.258824 0.258824 0.258824
0.341176 0.341176 0.341176
0.384314 0.384314 0.384314
0.349020 0.349020 0.349020
0.384314 0.384314 0.384314
0.431373 0.431373 0.431373
0.482353 0.482353 0.482353
0.501961 0.501961 0.501961
0.541176 0.541176 0.541176
0.592157 0.592157 0.592157
0.596078 0.596078 0.596078
0.615686 0.615686 0.615686
0.643137 0.643137 0.643137
0.658824 0.658824 0.658824
0.678431 0.678431 0.678431
0.694118 0.694118 0.694118
0.701961 0.701961 0.701961
0.713725 0.713725 0.713725
0.721569 0.721569 0.721569
0.733333 0.733333 0.733333
0.756863 0.756863 0.756863
0.780392 0.780392 0.780392
0.345098 0.345098 0.345098
0.298039 0.298039 0.298039
0.258824 0.258824 0.258824
0.258824 0.258824 0.258824
0.298039 0.298039 0.298039
0.337255 0.337255 0.337255
0.345098 0.345098 0.345098
0.376471 0.376471 0.376471
0.447059 0.447059 0.447059
0.513725 0.513725 0.513725
0.517647 0.517647 0.517647
0.537255 0.537255 0.537255
0.580392 0.580392 0.580392
0.592157 0.592157 0.592157
0.600000 0.600000 0.600000
0.603922 0.603922 0.603922
0.639216 0.639216 0.639216
0.678431 0.678431 0.678431
0.694118 0.694118 0.694118
0.713725 0.713725 0.713725
0.717647 0.717647 0.717647
0.725490 0.725490 0.725490
0.760784 0.760784 0.760784
0.780392 0.780392 0.780392
0.780392 0.780392 0.780392
0.345098 0.345098 0.345098
0.286275 0.286275 0.286275
0.258824 0.258824 0.258824
0.258824 0.258824 0.258824
0.396078 0.396078 0.396078
0.447059 0.447059 0.447059
0.450980 0.450980 0.450980
0.466667 0.466667 0.466667
0.490196 0.490196 0.490196
0.517647 0.517647 0.517647
0.517647 0.517647 0.517647
0.545098 0.545098 0.545098
0.580392 0.580392 0.580392
0.596078 0.596078 0.596078
0.600000 0.600000 0.600000
0.600000 0.600000 0.600000
0.639216 0.639216 0.639216
0.674510 0.674510 0.674510
0.694118 0.694118 0.694118
0.713725 0.713725 0.713725
0.737255 0.737255 0.737255
0.760784 0.760784 0.760784
0.776471 0.776471 0.776471
0.780392 0.780392 0.780392
0.780392 0.780392 0.780392
0.360784 0.360784 0.360784
0.329412 0.329412 0.329412
0.305882 0.305882 0.305882
0.294118 0.294118 0.294118
0.407843 0.407843 0.407843
0.501961 0.501961 0.501961
0.501961 0.501961 0.501961
0.509804 0.509804 0.509804
0.521569 0.521569 0.521569
0.541176 0.541176 0.541176
0.541176 0.541176 0.541176
0.560784 0.560784 0.560784
0.603922 0.603922 0.603922
0.600000 0.600000 0.600000
0.607843 0.607843 0.607843
0.619608 0.619608 0.619608
0.650980 0.650980 0.650980
0.674510 0.674510 0.674510
0.694118 0.694118 0.694118
0.705882 0.705882 0.705882
0.733333 0.733333 0.733333
0.780392 0.780392 0.780392
0.780392 0.780392 0.780392
0.780392 0.780392 0.780392
0.780392 0.780392 0.780392
0.392157 0.392157 0.392157
0.392157 0.392157 0.392157
0.372549 0.372549 0.372549
0.341176 0.341176 0.341176
0.450980 0.450980 0.450980
0.501961 0.501961 0.501961
0.501961 0.501961 0.501961
0.509804 0.509804 0.509804
0.537255 0.537255 0.537255
0.568627 0.568627 0.568627
0.568627 0.568627 0.568627
0.600000 0.600000 0.600000
0.647059 0.647059 0.647059
0.611765 0.611765 0.611765
0.619608 0.619608 0.619608
0.666667 0.666667 0.666667
0.666667 0.666667 0.666667
0.674510 0.674510 0.674510
0.694118 0.694118 0.694118
0.698039 0.698039 0.698039
0.733333 0.733333 0.733333
0.780392 0.780392 0.780392
0.780392 0.780392 0.780392
0.780392 0.780392 0.780392
0.780392 0.780392 0.780392
0.392157 0.392157 0.392157
0.392157 0.392157 0.392157
0.372549 0.372549 0.372549
0.341176 0.341176 0.341176
0.450980 0.450980 0.450980
0.501961 0.501961 0.501961
0.501961 0.501961 0.501961
0.509804 0.509804 0.509804
0.537255 0.537255 0.537255
0.568627 0.568627 0.568627
0.568627 0.568627 0.568627
0.600000 0.600000 0.600000
0.647059 0.647059 0.647059
0.635294 0.635294 0.635294
0.647059 0.647059 0.647059
0.674510 0.674510 0.674510
0.682353 0.682353 0.682353
0.705882 0.705882 0.705882
0.733333 0.733333 0.733333
0.749020 0.749020 0.749020
0.760784 0.760784 0.760784
0.780392 0.780392 0.780392
0.780392 0.780392 0.780392
0.780392 0.780392 0.780392
0.780392 0.780392 0.780392
0.392157 0.392157 0.392157
0.392157 0.392157 0.392157
0.372549 0.372549 0.372549
0.337255 0.337255 0.337255
0.450980 0.450980 0.450980
0.501961 0.501961 0.501961
0.501961 0.501961 0.501961
0.509804 0.509804 0.509804
0.529412 0.529412 0.529412
0.568627 0.568627 0.568627
0.568627 0.568627 0.568627
0.592157 0.592157 0.592157
0.647059 0.647059 0.647059
0.647059 0.647059 0.647059
0.662745 0.662745 0.662745
0.678431 0.678431 0.678431
0.701961 0.701961 0.701961
0.733333 0.733333 0.733333
0.752941 0.752941 0.752941
0.776471 0.776471 0.776471
0.780392 0.780392 0.780392
0.780392 0.780392 0.780392
0.780392 0.780392 0.780392
0.784314 0.784314 0.784314
0.788235 0.788235 0.788235
0.392157 0.392157 0.392157
0.392157 0.392157 0.392157
0.372549 0.372549 0.372549
0.341176 0.341176 0.341176
0.431373 0.431373 0.431373
0.501961 0.501961 0.501961
0.501961 0.501961 0.501961
0.509804 0.509804 0.509804
0.537255 0.537255 0.537255
0.568627 0.568627 0.568627
0.568627 0.568627 0.568627
0.600000 0.600000 0.600000
0.647059 0.647059 0.647059
0.650980 0.650980 0.650980
0.658824 0.658824 0.658824
0.678431 0.678431 0.678431
0.725490 0.725490 0.725490
0.752941 0.752941 0.752941
0.752941 0.752941 0.752941
0.776471 0.776471 0.776471
0.780392 0.780392 0.780392
0.780392 0.780392 0.780392
0.780392 0.780392 0.780392
0.788235 0.788235 0.788235
0.800000 0.800000 0.800000
0.000000 0.000000 0.000000
0.003922 0.003922 0.003922
0.007843 0.007843 0.007843
0.011765 0.011765 0.011765
0.027451 0.027451 0.027451
0.047059 0.047059 0.047059
0.074510 0.074510 0.074510
0.109804 0.109804 0.109804
0.152941 0.152941 0.152941
0.184314 0.184314 0.184314
0.223529 0.223529 0.223529
0.270588 0.270588 0.270588
0.309804 0.309804 0.309804
0.364706 0.364706 0.364706
0.423529 0.423529 0.423529
0.450980 0.450980 0.450980
0.474510 0.474510 0.474510
0.494118 0.494118 0.494118
0.513725 0.513725 0.513725
0.513725 0.513725 0.513725
0.521569 0.521569 0.521569
0.537255 0.537255 0.537255
0.537255 0.537255 0.537255
0.537255 0.537255 0.537255
0.537255 0.537255 0.537255
0.003922 0.003922 0.003922
0.003922 0.003922 0.003922
0.007843 0.007843 0.007843
0.015686 0.015686 0.015686
0.027451 0.027451 0.027451
0.047059 0.047059 0.047059
0.082353 0.082353 0.082353
0.117647 0.117647 0.117647
0.156863 0.156863 0.156863
0.192157 0.192157 0.192157
0.231373 0.231373 0.231373
0.290196 0.290196 0.290196
0.321569 0.321569 0.321569
0.372549 0.372549 0.372549
0.423529 0.423529 0.423529
0.450980 0.450980 0.450980
0.478431 0.478431 0.478431
0.501961 0.501961 0.501961
0.521569 0.521569 0.521569
0.525490 0.525490 0.525490
0.533333 0.533333 0.533333
0.537255 0.537255 0.537255
0.537255 0.537255 0.537255
0.545098 0.545098 0.545098
0.564706 0.564706 0.564706
0.007843 0.007843 0.007843
0.007843 0.007843 0.007843
0.015686 0.015686 0.015686
0.019608 0.019608 0.019608
0.039216 0.039216 0.039216
0.054902 0.054902 0.054902
0.082353 0.082353 0.082353
0.117647 0.117647 0.117647
0.156863 0.156863 0.156863
0.200000 0.200000 0.200000
0.250980 0.250980 0.250980
0.286275 0.286275 0.286275
0.329412 0.329412 0.329412
0.384314 0.384314 0.384314
0.423529 0.423529 0.423529
0.447059 0.447059 0.447059
0.478431 0.478431 0.478431
0.501961 0.501961 0.501961
0.525490 0.525490 0.525490
0.533333 0.533333 0.533333
0.537255 0.537255 0.537255
0.537255 0.537255 0.537255
0.541176 0.541176 0.541176
0.564706 0.564706 0.564706
0.584314 0.584314 0.584314
0.011765 0.011765 0.011765
0.015686 0.015686 0.015686
0.019608 0.019608 0.019608
0.027451 0.027451 0.027451
0.047059 0.047059 0.047059
0.070588 0.070588 0.070588
0.094118 0.094118 0.094118
0.137255 0.137255 0.137255
0.172549 0.172549 0.172549
0.211765 0.211765 0.211765
0.250980 0.250980 0.250980
0.298039 0.298039 0.298039
0.337255 0.337255 0.337255
0.384314 0.384314 0.384314
0.423529 0.423529 0.423529
0.447059 0.447059 0.447059
0.474510 0.474510 0.474510
0.501961 0.501961 0.501961
0.533333 0.533333 0.533333
0.537255 0.537255 0.537255
0.537255 0.537255 0.537255
0.533333 0.533333 0.533333
0.556863 0.556863 0.556863
0.580392 0.580392 0.580392
0.600000 0.600000 0.600000
0.019608 0.019608 0.019608
0.027451 0.027451 0.027451
0.035294 0.035294 0.035294
0.043137 0.043137 0.043137
0.066667 0.066667 0.066667
0.090196 0.090196 0.090196
0.109804 0.109804 0.109804
0.152941 0.152941 0.152941
0.192157 0.192157 0.192157
0.231373 0.231373 0.231373
0.262745 0.262745 0.262745
0.309804 0.309804 0.309804
0.345098 0.345098 0.345098
0.392157 0.392157 0.392157
0.427451 0.427451 0.427451
0.458824 0.458824 0.458824
0.482353 0.482353 0.482353
0.513725 0.513725 0.513725
0.533333 0.533333 0.533333
0.537255 0.537255 0.537255
0.541176 0.541176 0.541176
0.560784 0.560784 0.560784
0.584314 0.584314 0.584314
0.596078 0.596078 0.596078
0.600000 0.600000 0.600000
0.035294 0.035294 0.035294
0.043137 0.043137 0.043137
0.054902 0.054902 0.054902
0.066667 0.066667 0.066667
0.082353 0.082353 0.082353
0.109804 0.109804 0.109804
0.137255 0.137255 0.137255
0.176471 0.176471 0.176471
0.215686 0.215686 0.215686
0.247059 0.247059 0.247059
0.290196 0.290196 0.290196
0.325490 0.325490 0.325490
0.360784 0.360784 0.360784
0.392157 0.392157 0.392157
0.431373 0.431373 0.431373
0.466667 0.466667 0.466667
0.494118 0.494118 0.494118
0.517647 0.517647 0.517647
0.541176 0.541176 0.541176
0.549020 0.549020 0.549020
0.568627 0.568627 0.568627
0.588235 0.588235 0.588235
0.596078 0.596078 0.596078
0.603922 0.603922 0.603922
0.603922 0.603922 0.603922
0.058824 0.058824 0.058824
0.066667 0.066667 0.066667
0.078431 0.078431 0.078431
0.094118 0.094118 0.094118
0.105882 0.105882 0.105882
0.121569 0.121569 0.121569
0.160784 0.160784 0.160784
0.196078 0.196078 0.196078
0.231373 0.231373 0.231373
0.270588 0.270588 0.270588
0.305882 0.305882 0.305882
0.341176 0.341176 0.341176
0.376471 0.376471 0.376471
0.403922 0.403922 0.403922
0.443137 0.443137 0.443137
0.478431 0.478431 0.478431
0.501961 0.501961 0.501961
0.533333 0.533333 0.533333
0.552941 0.552941 0.552941
0.580392 0.580392 0.580392
0.596078 0.596078 0.596078
0.600000 0.600000 0.600000
0.600000 0.600000 0.600000
0.603922 0.603922 0.603922
0.603922 0.603922 0.603922
0.098039 0.098039 0.098039
0.105882 0.105882 0.105882
0.109804 0.109804 0.109804
0.129412 0.129412 0.129412
0.149020 0.149020 0.149020
0.160784 0.160784 0.160784
0.196078 0.196078 0.196078
0.235294 0.235294 0.235294
0.270588 0.270588 0.270588
0.294118 0.294118 0.294118
0.329412 0.329412 0.329412
0.364706 0.364706 0.364706
0.392157 0.392157 0.392157
0.423529 0.423529 0.423529
0.462745 0.462745 0.462745
0.494118 0.494118 0.494118
0.517647 0.517647 0.517647
0.545098 0.545098 0.545098
0.564706 0.564706 0.564706
0.592157 0.592157 0.592157
0.603922 0.603922 0.603922
0.603922 0.603922 0.603922
0.603922 0.603922 0.603922
0.603922 0.603922 0.603922
0.603922 0.603922 0.603922
0.121569 0.121569 0.121569
0.145098 0.145098 0.145098
0.149020 0.149020 0.149020
0.172549 0.172549 0.172549
0.184314 0.184314 0.184314
0.200000 0.200000 0.200000
0.235294 0.235294 0.235294
0.266667 0.266667 0.266667
0.301961 0.301961 0.301961
0.325490 0.325490 0.325490
0.356863 0.356863 0.356863
0.384314 0.384314 0.384314
0.419608 0.419608 0.419608
0.447059 0.447059 0.447059
0.482353 0.482353 0.482353
0.509804 0.509804 0.509804
0.533333 0.533333 0.533333
0.552941 0.552941 0.552941
0.576471 0.576471 0.576471
0.600000 0.600000 0.600000
0.607843 0.607843 0.607843
0.603922 0.603922 0.603922
0.603922 0.603922 0.603922
0.611765 0.611765 0.611765
0.627451 0.627451 0.627451
0.156863 0.156863 0.156863
0.168627 0.168627 0.168627
0.192157 0.192157 0.192157
0.207843 0.207843 0.207843
0.219608 0.219608 0.219608
0.243137 0.243137 0.243137
0.262745 0.262745 0.262745
0.298039 0.298039 0.298039
0.333333 0.333333 0.333333
0.352941 0.352941 0.352941
0.384314 0.384314 0.384314
0.407843 0.407843 0.407843
0.435294 0.435294 0.435294
0.466667 0.466667 0.466667
0.501961 0.501961 0.501961
0.525490 0.525490 0.525490
0.552941 0.552941 0.552941
0.568627 0.568627 0.568627
0.592157 0.592157 0.592157
0.611765 0.611765 0.611765
0.611765 0.611765 0.611765
0.603922 0.603922 0.603922
0.603922 0.603922 0.603922
0.619608 0.619608 0.619608
0.658824 0.658824 0.658824
0.172549 0.172549 0.172549
0.211765 0.211765 0.211765
0.231373 0.231373 0.231373
0.239216 0.239216 0.239216
0.254902 0.254902 0.254902
0.274510 0.274510 0.274510
0.290196 0.290196 0.290196
0.325490 0.325490 0.325490
0.356863 0.356863 0.356863
