luts/FUJI_ETERNA_Bleach_Bypass.cube
TITLE "Generated for krafta web app"
LUT_3D_SIZE 5
#INPUTGAMMA sRGB
#IMAGEPROFILE sRGB
#OUTPUTGAMMA sRGB
0.000000 0.000000 0.000000
0.133912 0.036730 0.038803
0.328748 0.089589 0.098078
0.515960 0.136693 0.152131
0.600046 0.154756 0.173048
0.063286 0.145073 0.064998
0.210206 0.194775 0.121169
0.402104 0.245868 0.178968
0.588397 0.291401 0.231191
0.695010 0.317792 0.261295
0.156427 0.356189 0.161083
0.296932 0.407531 0.214524
0.509527 0.473033 0.291405
0.705380 0.521811 0.351208
0.813598 0.541122 0.380991
0.230377 0.560525 0.239977
0.291807 0.575659 0.262118
0.501186 0.654551 0.352371
0.806915 0.775981 0.478704
0.903129 0.797918 0.507558
0.227964 0.645503 0.258421
0.273724 0.659077 0.279168
0.670999 0.843112 0.457708
0.933877 0.928680 0.553408
0.984656 0.935214 0.568246
0.059712 0.052751 0.121427
0.191157 0.086572 0.157652
0.388471 0.139759 0.216634
0.555688 0.177838 0.254676
0.631516 0.205023 0.276460
0.122617 0.198347 0.193214
0.209676 0.207915 0.205036
0.381216 0.253377 0.244400
0.625679 0.338758 0.326280
0.739901 0.372689 0.357785
0.215517 0.411904 0.291148
0.298932 0.410289 0.294651
0.510716 0.480065 0.366369
0.716576 0.539446 0.435793
0.823121 0.566693 0.464604
0.302369 0.617354 0.357952
0.364031 0.629730 0.374723
0.592648 0.723796 0.483606
0.827607 0.795459 0.561494
0.913022 0.807154 0.577601
0.306366 0.704672 0.370327
0.400397 0.745766 0.417959
0.809151 0.920009 0.587900
0.928241 0.937480 0.625964
0.986497 0.946873 0.642877
0.156817 0.137250 0.319515
0.289701 0.173520 0.361491
0.453216 0.211951 0.397847
0.606396 0.275152 0.446495
0.681651 0.306949 0.472615
0.214478 0.287782 0.382658
0.319082 0.313386 0.405626
0.511445 0.375995 0.464983
0.670870 0.416125 0.506599
0.764183 0.439903 0.534555
0.317618 0.504832 0.500389
0.397986 0.506018 0.506059
0.526911 0.524522 0.523758
0.742426 0.597091 0.592605
0.838581 0.617420 0.614378
0.439924 0.728741 0.573048
0.532044 0.753233 0.605843
0.710150 0.795507 0.662766
0.826868 0.809778 0.700603
0.926144 0.826597 0.720131
0.502899 0.844536 0.608977
0.686074 0.920354 0.691469
0.807523 0.941451 0.737014
0.929296 0.959485 0.770607
0.992457 0.969523 0.789012
0.248909 0.216212 0.510000
0.349771 0.240965 0.534315
0.504845 0.319260 0.589913
0.674682 0.397340 0.658650
0.757807 0.421696 0.681411
0.324730 0.404180 0.601561
0.432318 0.438659 0.639685
0.578499 0.475671 0.676196
0.732659 0.507216 0.708944
0.812093 0.521154 0.725513
0.417840 0.610154 0.713055
0.504626 0.616450 0.713076
0.636402 0.638096 0.738153
0.793856 0.672050 0.771620
0.880962 0.688498 0.792809
0.536907 0.815260 0.779458
0.602633 0.818114 0.795465
0.717548 0.821981 0.810605
0.833321 0.831338 0.831686
0.943133 0.862136 0.864860
0.617014 0.933254 0.816250
0.685822 0.944925 0.842370
0.806685 0.961702 0.876122
0.931079 0.980248 0.910034
0.995891 0.988634 0.927195
0.273807 0.243951 0.584772
0.375217 0.292347 0.622807
0.555032 0.398591 0.709901
0.724694 0.459468 0.766591
0.803285 0.475111 0.784384
0.379400 0.465348 0.712273
0.469677 0.490719 0.740003
0.621936 0.529474 0.780631
0.777178 0.558622 0.812565
0.858078 0.574154 0.831244
0.466807 0.664348 0.815550
0.534211 0.666741 0.820144
0.686236 0.694061 0.849684
0.846661 0.724648 0.885197
0.932418 0.741935 0.904211
0.544895 0.852893 0.910994
0.618780 0.857773 0.920098
0.748745 0.868485 0.930283
0.889249 0.888087 0.947136
0.978507 0.906882 0.967167
0.627949 0.965649 0.930001
0.695319 0.971912 0.946841
0.814240 0.982505 0.967410
0.933267 0.993161 0.987846
0.999992 0.999990 0.999989
