luts/FUJI_PRO_NEG_Hi.cube
TITLE "Generated for krafta web app"
LUT_3D_SIZE 5
#INPUTGAMMA sRGB
#IMAGEPROFILE sRGB
#OUTPUTGAMMA sRGB
0.000000 0.000000 0.000000
0.237675 0.047056 0.051468
0.502744 0.101699 0.108021
0.739263 0.158509 0.161770
0.937771 0.188905 0.194213
0.010850 0.205855 0.000000
0.256612 0.222707 0.025637
0.517604 0.257707 0.085085
0.773702 0.306541 0.145731
0.981402 0.332619 0.181021
0.018585 0.446666 0.000000
0.260360 0.465319 -0.000096
0.535801 0.479037 0.046627
0.795800 0.505178 0.115631
0.999990 0.521703 0.168615
0.023636 0.669025 0.000000
0.185270 0.671390 0.000000
0.407285 0.673665 0.004736
0.754084 0.716991 0.054807
0.999994 0.739577 0.104473
0.016104 0.831675 0.000000
0.087257 0.835330 0.000000
0.470720 0.898805 0.000000
0.550036 0.895446 0.000000
0.797943 0.912011 0.000003
0.055575 0.069898 0.266023
0.281370 0.110303 0.302299
0.544185 0.163834 0.354650
0.755163 0.193632 0.372380
0.935074 0.215149 0.371182
0.074107 0.243483 0.241201
0.238471 0.231369 0.226912
0.509939 0.261295 0.271438
0.755546 0.316246 0.334896
0.950351 0.358252 0.356511
0.063721 0.481927 0.202713
0.256039 0.462947 0.192638
0.527598 0.483978 0.261654
0.784187 0.510387 0.315132
0.996160 0.551156 0.349395
0.079776 0.692927 0.127599
0.233507 0.687765 0.100310
0.484929 0.707880 0.157228
0.764983 0.726447 0.244095
0.999994 0.742531 0.302659
0.037483 0.856764 0.001966
0.249735 0.889274 0.024566
0.493312 0.922782 0.089263
0.525988 0.903963 0.041847
0.810426 0.925192 0.105258
0.119975 0.157742 0.596023
0.341304 0.202229 0.635848
0.570924 0.232315 0.645207
0.755586 0.235526 0.615401
0.939150 0.251315 0.611813
0.149122 0.300407 0.531146
0.312119 0.303392 0.526704
0.558411 0.339680 0.569917
0.761067 0.359704 0.581011
0.956352 0.395487 0.613002
0.158798 0.528507 0.538935
0.327922 0.508796 0.504895
0.509849 0.503776 0.508980
0.765801 0.545808 0.547542
0.964286 0.580802 0.590281
0.173988 0.732022 0.457385
0.353665 0.727216 0.451510
0.572370 0.734503 0.487006
0.768855 0.739685 0.526115
0.999995 0.756941 0.578124
0.190903 0.918099 0.336563
0.379283 0.946803 0.407403
0.489172 0.940468 0.374382
0.576988 0.928649 0.330913
0.863741 0.949789 0.404489
0.177692 0.238736 0.881181
0.363887 0.257620 0.881785
0.558878 0.258993 0.854348
0.755711 0.272704 0.843329
0.952169 0.290377 0.845964
0.170342 0.355586 0.809367
0.323243 0.362468 0.804471
0.555843 0.388654 0.815388
0.774528 0.407751 0.829545
0.991553 0.427414 0.847899
0.251613 0.587525 0.839395
0.423425 0.577237 0.810898
0.580295 0.574257 0.787940
0.785050 0.591379 0.799604
0.996652 0.617098 0.830168
0.233411 0.776641 0.782482
0.388709 0.766690 0.771944
0.585173 0.754379 0.755472
0.752397 0.752383 0.752503
0.985270 0.790403 0.795595
0.288639 0.968129 0.694326
0.414327 0.969898 0.694098
0.553379 0.965848 0.672695
0.689651 0.961568 0.656394
0.945787 0.976921 0.710412
0.193212 0.281182 1.000000
0.360664 0.287191 0.999998
0.562939 0.301765 0.999995
0.769703 0.326147 1.000000
0.988071 0.351975 1.000000
0.152521 0.396818 0.997384
0.336606 0.416182 0.999995
0.575001 0.439749 0.999998
0.799333 0.461834 1.000000
0.999998 0.486403 1.000000
0.360682 0.654588 1.000000
0.411674 0.618355 1.000044
0.577034 0.618101 0.999994
0.815597 0.643066 1.000000
1.000000 0.666565 1.000000
0.264188 0.853656 1.000000
0.474004 0.850927 1.000000
0.665857 0.824933 0.999999
0.780223 0.805588 1.000008
1.000014 0.829207 0.999999
0.301297 0.999994 0.999987
0.450339 0.999929 0.999724
0.641631 0.999211 0.998249
0.816395 0.997697 0.997524
0.999987 0.999988 0.999983
