luts/Fujifilm_Color_100.cube
# Generated for krafta web app
# https://www.facebook.com/krafta.visio
# Preset: FUJ - Color 100
# Color profile : sRGB Color Space Profile
LUT_3D_SIZE 6
DOMAIN_MIN 0.0 0.0 0.0
DOMAIN_MAX 1.0 1.0 1.0
0.000000 0.000000 0.000000
0.268040 0.004211 0.004273
0.467659 0.008545 0.008667
0.661006 0.025513 0.024781
0.840543 0.061219 0.060975
1.000000 0.098573 0.097841
0.002289 0.254002 0.002960
0.245945 0.245884 0.007691
0.454261 0.233951 0.022553
0.651423 0.228946 0.044312
0.830350 0.226810 0.072847
1.000000 0.233188 0.105409
0.059968 0.446815 0.060548
0.237339 0.447028 0.063447
0.442420 0.442420 0.072480
0.639826 0.433631 0.084413
0.823362 0.424048 0.104891
1.000000 0.419654 0.130312
0.107149 0.623865 0.108003
0.238041 0.623102 0.109529
0.425544 0.622431 0.114839
0.620600 0.620783 0.124788
0.808865 0.613764 0.139651
0.991821 0.608331 0.163058
0.152712 0.794797 0.152865
0.253880 0.795743 0.156039
0.422980 0.797391 0.162600
0.609125 0.798764 0.173617
0.799985 0.800107 0.189181
0.983642 0.795438 0.208835
0.233188 0.981720 0.233433
0.299504 0.979492 0.229038
0.445075 0.980285 0.237186
0.618952 0.982086 0.253147
0.802579 0.984894 0.278904
0.989014 0.989136 0.319280
0.000214 0.000244 0.276646
0.256046 0.000000 0.256321
0.457435 0.027497 0.236790
0.650080 0.062531 0.232303
0.831113 0.090455 0.232334
1.000000 0.117983 0.238224
0.022461 0.251041 0.250828
0.244114 0.244114 0.244114
0.449805 0.237766 0.237705
0.646723 0.234043 0.233921
0.827085 0.234318 0.234287
1.000000 0.238834 0.238407
0.076234 0.443763 0.238315
0.238132 0.442573 0.238315
0.437232 0.437263 0.236820
0.632746 0.429999 0.236210
0.816526 0.422522 0.239506
0.998047 0.419928 0.246464
0.116426 0.622858 0.241245
0.241276 0.622217 0.241886
0.425299 0.620783 0.243107
0.618189 0.618250 0.246403
0.805783 0.612116 0.251560
0.991028 0.608942 0.262943
0.159213 0.795743 0.256168
0.257450 0.796078 0.257725
0.424567 0.797513 0.261875
0.609735 0.798642 0.268742
0.800015 0.800107 0.278843
0.983825 0.795895 0.289860
0.235660 0.982208 0.304753
0.301061 0.980194 0.301183
0.446326 0.980957 0.307256
0.619806 0.982544 0.319432
0.803006 0.985046 0.339757
0.989105 0.989258 0.373144
0.000732 0.000000 0.473091
0.235050 0.006989 0.460060
0.443061 0.033631 0.443030
0.641321 0.062928 0.432563
0.824430 0.100191 0.423407
1.000000 0.134890 0.421515
0.049805 0.240696 0.458228
0.236179 0.236240 0.449470
0.440589 0.233158 0.440772
0.637079 0.232090 0.431037
0.819944 0.239445 0.423682
0.998840 0.246799 0.419928
0.077943 0.436561 0.436683
0.235843 0.435981 0.435920
0.431678 0.431678 0.431678
0.625269 0.427070 0.426947
0.810330 0.423926 0.423743
0.995026 0.422919 0.422644
0.130098 0.619562 0.425727
0.248600 0.619135 0.426368
0.426734 0.617884 0.426703
0.615625 0.615656 0.426581
0.802609 0.611414 0.426429
0.989502 0.609918 0.428992
0.171176 0.795499 0.424475
0.264714 0.796017 0.425452
0.428382 0.797330 0.428656
0.611292 0.798398 0.432532
0.800229 0.800290 0.439582
0.983551 0.796475 0.440955
0.232273 0.983032 0.444282
0.297032 0.981292 0.440894
0.444190 0.981842 0.444282
0.619440 0.983551 0.452430
0.803220 0.985870 0.465126
0.989960 0.990082 0.487190
0.016480 0.016144 0.648768
0.222141 0.024567 0.643641
0.426978 0.047852 0.634791
0.624903 0.071229 0.624994
0.815885 0.100649 0.616022
0.999573 0.132326 0.608728
0.066011 0.231571 0.645502
0.229496 0.229496 0.639277
0.427192 0.229129 0.631739
0.623011 0.230594 0.623133
0.812528 0.237217 0.614313
0.994842 0.244144 0.606226
0.098634 0.425635 0.626001
0.237522 0.425971 0.625208
0.424659 0.424689 0.620966
0.616175 0.422736 0.616236
0.803983 0.421759 0.610285
0.992157 0.422492 0.607599
0.135988 0.614252 0.614160
0.249912 0.614099 0.614038
0.426947 0.613642 0.613703
0.611353 0.611444 0.611414
0.799557 0.609491 0.609400
0.989319 0.608087 0.607935
0.174960 0.795590 0.607050
0.266209 0.796048 0.607538
0.427893 0.797116 0.608881
0.610681 0.798215 0.610712
0.798978 0.799100 0.613275
0.985077 0.795987 0.610376
0.199130 0.984680 0.609705
0.268498 0.983368 0.605859
0.429664 0.984009 0.608026
0.612879 0.985504 0.612909
0.801022 0.987396 0.619898
0.991485 0.991608 0.634058
0.037201 0.037171 0.818479
0.214908 0.043671 0.816617
0.411627 0.059541 0.812039
0.608820 0.079500 0.807675
0.802670 0.102327 0.802579
0.993317 0.128420 0.798032
0.074037 0.223148 0.817563
0.222843 0.222873 0.814633
0.414130 0.224704 0.811368
0.608881 0.228580 0.806668
0.800931 0.233799 0.800992
0.990143 0.240848 0.795590
0.111086 0.416480 0.807095
0.235325 0.416449 0.806394
0.415778 0.415869 0.803952
0.605829 0.415015 0.800351
0.797421 0.416175 0.797452
0.988739 0.418067 0.795285
0.139315 0.606500 0.799405
0.248325 0.606806 0.799435
0.418799 0.606073 0.798520
0.605310 0.605310 0.797421
0.796292 0.605341 0.796323
0.988342 0.604303 0.795132
0.173220 0.795407 0.795438
0.264714 0.795773 0.795712
0.426734 0.796658 0.796689
0.609430 0.797879 0.797818
0.796292 0.796414 0.796323
0.988190 0.794034 0.793942
0.200229 0.986114 0.796628
0.270390 0.985168 0.794705
0.425177 0.986236 0.794980
0.603357 0.987884 0.794553
0.795712 0.989868 0.795743
0.993774 0.993896 0.803983
0.043580 0.042267 0.995880
0.210208 0.046723 0.995392
0.403235 0.057130 0.994018
0.599359 0.076081 0.992615
0.795468 0.100435 0.991485
0.990478 0.130312 0.990478
0.057923 0.212741 0.995727
0.213626 0.213138 0.994995
0.403693 0.214572 0.993164
0.598688 0.218112 0.991333
0.793271 0.223789 0.989075
0.987152 0.232212 0.987121
0.061463 0.403296 0.993225
0.215061 0.403815 0.993194
0.404273 0.404273 0.992401
0.598749 0.405219 0.991119
0.793362 0.406073 0.989258
0.988067 0.410071 0.988098
0.084749 0.599542 0.991882
0.218265 0.598932 0.991913
0.400519 0.596796 0.991943
0.596521 0.596490 0.991119
0.792874 0.596429 0.989990
0.989380 0.598383 0.989380
0.144259 0.797086 0.991119
0.245029 0.796841 0.991180
0.412696 0.796323 0.991516
0.598199 0.794858 0.992065
0.792905 0.792966 0.992340
0.992370 0.794217 0.992401
0.212589 0.992767 0.992767
0.282231 0.992493 0.992493
0.429725 0.992828 0.992828
0.605341 0.993500 0.993469
0.794858 0.994934 0.994873
0.998230 0.998230 0.998230
