luts/Fujifilm_Fortia_50.cube
# Generated for krafta web app
# https://www.facebook.com/krafta.visio
# Preset: FUJ - Fortia 50
# Color profile : sRGB Color Space Profile
LUT_3D_SIZE 6
DOMAIN_MIN 0.0 0.0 0.0
DOMAIN_MAX 1.0 1.0 1.0
0.000000 0.000000 0.000000
0.273808 0.000244 0.000122
0.480385 0.000000 0.000214
0.682063 0.000305 0.000092
0.865446 0.000153 0.000305
1.000000 0.000427 0.000641
0.000000 0.253880 0.000000
0.243656 0.243961 0.000000
0.463722 0.230625 0.000000
0.671443 0.218906 0.000000
0.855772 0.202029 0.000000
1.000000 0.181949 0.000000
0.000000 0.452155 0.000000
0.217472 0.451179 0.000000
0.443702 0.443915 0.000000
0.654170 0.432471 0.000000
0.845884 0.415717 0.000000
1.000000 0.397375 0.000000
0.000000 0.634760 0.000000
0.181521 0.633539 0.000000
0.412421 0.631220 0.000000
0.626368 0.626551 0.000000
0.827024 0.614557 0.000000
1.000000 0.597803 0.000000
0.000000 0.806577 0.000000
0.111635 0.807645 0.000000
0.377081 0.809079 0.000000
0.596307 0.809293 0.000000
0.808194 0.808438 0.000000
1.000000 0.793362 0.000000
0.000000 0.993835 0.000000
0.000000 0.990539 0.000000
0.297551 0.990814 0.000000
0.549493 0.991547 0.000000
0.773648 0.992309 0.000000
0.992340 0.992554 0.000000
0.000000 0.000153 0.286748
0.262028 0.000000 0.263432
0.471473 0.000031 0.236179
0.673335 0.000000 0.218723
0.858305 0.000092 0.201907
1.000000 0.000549 0.179660
0.000000 0.251072 0.250980
0.241215 0.241215 0.241215
0.460517 0.228580 0.228367
0.668666 0.213657 0.213413
0.854337 0.197818 0.197757
1.000000 0.173556 0.173526
0.000000 0.450019 0.213016
0.210269 0.447761 0.210788
0.439399 0.439490 0.203250
0.648676 0.427283 0.194949
0.840665 0.411505 0.182437
1.000000 0.393469 0.154818
0.000000 0.634363 0.177279
0.174716 0.633265 0.175784
0.410101 0.630060 0.170901
0.624475 0.624537 0.162020
0.825193 0.612299 0.144228
1.000000 0.596429 0.104250
0.000000 0.808499 0.101564
0.097627 0.808652 0.099702
0.374365 0.809751 0.092958
0.595392 0.809598 0.074861
0.808499 0.808621 0.032258
1.000000 0.793210 0.000000
0.000000 0.994965 0.000000
0.000000 0.991974 0.000000
0.284520 0.992157 0.000000
0.544701 0.992523 0.000000
0.771664 0.992737 0.000000
0.992493 0.992767 0.000000
0.000824 0.000000 0.493629
0.240024 0.000092 0.479347
0.457984 0.000153 0.459205
0.665095 0.000000 0.442420
0.852201 0.000122 0.422309
1.000000 0.000153 0.405005
0.000000 0.235813 0.474372
0.228672 0.228733 0.464881
0.453071 0.217899 0.453101
0.660060 0.205753 0.436927
0.847715 0.197543 0.419501
1.000000 0.175906 0.401068
0.000000 0.442664 0.442664
0.200687 0.440803 0.440681
0.432410 0.432410 0.432410
0.640650 0.422797 0.422705
0.834836 0.410742 0.410681
1.000000 0.392187 0.392096
0.000000 0.631708 0.410803
0.167178 0.630701 0.409735
0.406622 0.627619 0.406775
0.622156 0.622217 0.400763
0.822904 0.610010 0.391119
1.000000 0.594202 0.371191
0.000000 0.809567 0.368658
0.048737 0.809934 0.368536
0.367407 0.810788 0.367864
0.593103 0.810178 0.363775
0.808865 0.809018 0.356695
1.000000 0.791318 0.318120
0.000000 0.997192 0.260014
0.000000 0.994507 0.249302
0.238437 0.994293 0.239841
0.529717 0.994629 0.221683
0.766140 0.994263 0.179690
0.993469 0.993683 0.042237
0.000549 0.000000 0.674983
0.222599 0.000000 0.669673
0.438483 0.000061 0.659663
0.646082 0.000000 0.647395
0.843687 0.000000 0.631617
1.000000 0.000000 0.612757
0.000000 0.222263 0.669703
0.218112 0.218021 0.663478
0.435248 0.210513 0.655055
0.644099 0.198215 0.644007
0.841032 0.187808 0.628168
1.000000 0.163790 0.608911
0.000000 0.427161 0.646204
0.198489 0.425849 0.644923
0.421149 0.421149 0.639338
0.632136 0.413825 0.632044
0.829374 0.405768 0.618952
1.000000 0.391211 0.604913
0.000000 0.625360 0.625391
0.163058 0.624659 0.624659
0.403998 0.622522 0.622492
0.616297 0.616388 0.616358
0.817380 0.609247 0.609247
1.000000 0.595270 0.595209
0.000000 0.810422 0.594171
0.018769 0.810697 0.594324
0.364782 0.810910 0.594202
0.592432 0.810147 0.592615
0.807401 0.807523 0.587762
1.000000 0.789822 0.563806
0.000000 0.998962 0.536522
0.000000 0.996857 0.530327
0.204410 0.996735 0.527184
0.520348 0.996735 0.520653
0.762173 0.995605 0.505760
0.994446 0.994629 0.477333
0.000824 0.000000 0.844541
0.208316 0.000000 0.842649
0.416754 0.000000 0.837919
0.622034 0.000000 0.832731
0.824643 0.000000 0.826139
1.000000 0.000000 0.816190
0.000000 0.209781 0.842985
0.207492 0.207279 0.840146
0.416510 0.202090 0.836545
0.621912 0.192782 0.831174
0.824338 0.175021 0.824155
1.000000 0.142580 0.812619
0.000000 0.413123 0.831479
0.198154 0.412299 0.830594
0.408667 0.408667 0.827817
0.614282 0.402136 0.823392
0.818906 0.393011 0.818814
1.000000 0.378302 0.809110
0.000000 0.609918 0.820096
0.159274 0.609827 0.819974
0.393713 0.608606 0.818753
0.605982 0.606043 0.816648
0.813230 0.600427 0.813199
1.000000 0.590387 0.803372
0.000000 0.808255 0.808194
0.000000 0.808438 0.808377
0.362737 0.808865 0.808865
0.591699 0.808438 0.808408
0.802823 0.802945 0.802853
1.000000 0.792538 0.792508
0.000000 0.999969 0.775753
0.000000 0.998322 0.772824
0.207370 0.998474 0.772030
0.522759 0.998047 0.769863
0.763546 0.996796 0.763668
0.995392 0.995544 0.750637
0.001831 0.000000 1.000000
0.190005 0.000000 1.000000
0.397589 0.000000 1.000000
0.600427 0.000000 1.000000
0.802457 0.000000 1.000000
1.000000 0.000000 1.000000
0.000000 0.192325 1.000000
0.190890 0.190188 1.000000
0.398016 0.182864 1.000000
0.600580 0.167819 1.000000
0.801999 0.137118 1.000000
1.000000 0.064149 1.000000
0.000000 0.396674 1.000000
0.179294 0.396002 1.000000
0.392340 0.392126 1.000000
0.596796 0.384222 1.000000
0.799588 0.369604 1.000000
1.000000 0.348974 1.000000
0.000000 0.594568 1.000000
0.134524 0.594842 1.000000
0.383124 0.595727 1.000000
0.590784 0.590784 1.000000
0.796078 0.582208 1.000000
1.000000 0.571374 1.000000
0.000000 0.791897 1.000000
0.000000 0.791958 1.000000
0.336614 0.792477 1.000000
0.577234 0.793729 1.000000
0.793362 0.793423 1.000000
1.000000 0.786618 1.000000
0.000000 0.998016 0.997955
0.000000 0.997559 0.997498
0.132479 0.997467 0.997375
0.506981 0.997253 0.997192
0.760555 0.997253 0.997192
0.997375 0.997375 0.997375
