luts/FUJI_ACROS_Green_Filter.cube
#Generated for krafta web app
#Black and White LUTs
TITLE "Fuji XTrans III - Acros+G"
#LUT size
LUT_3D_SIZE 25
#LUT data points
0.003922 0.003922 0.003922
0.007843 0.007843 0.007843
0.007843 0.007843 0.007843
0.007843 0.007843 0.007843
0.015686 0.015686 0.015686
0.019608 0.019608 0.019608
0.027451 0.027451 0.027451
0.050980 0.050980 0.050980
0.074510 0.074510 0.074510
0.094118 0.094118 0.094118
0.125490 0.125490 0.125490
0.137255 0.137255 0.137255
0.137255 0.137255 0.137255
0.192157 0.192157 0.192157
0.239216 0.239216 0.239216
0.247059 0.247059 0.247059
0.262745 0.262745 0.262745
0.270588 0.270588 0.270588
0.270588 0.270588 0.270588
0.270588 0.270588 0.270588
0.290196 0.290196 0.290196
0.317647 0.317647 0.317647
0.317647 0.317647 0.317647
0.317647 0.317647 0.317647
0.317647 0.317647 0.317647
0.007843 0.007843 0.007843
0.007843 0.007843 0.007843
0.011765 0.011765 0.011765
0.011765 0.011765 0.011765
0.019608 0.019608 0.019608
0.027451 0.027451 0.027451
0.035294 0.035294 0.035294
0.054902 0.054902 0.054902
0.082353 0.082353 0.082353
0.101961 0.101961 0.101961
0.121569 0.121569 0.121569
0.141176 0.141176 0.141176
0.168627 0.168627 0.164706
0.207843 0.207843 0.207843
0.239216 0.239216 0.239216
0.247059 0.247059 0.247059
0.262745 0.262745 0.262745
0.270588 0.270588 0.270588
0.270588 0.270588 0.270588
0.286275 0.286275 0.286275
0.305882 0.305882 0.305882
0.313725 0.313725 0.313725
0.313725 0.313725 0.313725
0.313725 0.313725 0.313725
0.313725 0.313725 0.313725
0.011765 0.011765 0.011765
0.011765 0.011765 0.011765
0.015686 0.015686 0.015686
0.023529 0.023529 0.023529
0.027451 0.027451 0.027451
0.035294 0.035294 0.035294
0.047059 0.047059 0.047059
0.062745 0.062745 0.062745
0.090196 0.090196 0.090196
0.109804 0.109804 0.109804
0.129412 0.129412 0.129412
0.156863 0.156863 0.156863
0.180392 0.180392 0.180392
0.211765 0.211765 0.211765
0.239216 0.239216 0.239216
0.247059 0.247059 0.247059
0.262745 0.262745 0.262745
0.274510 0.274510 0.274510
0.286275 0.286275 0.286275
0.305882 0.305882 0.305882
0.313725 0.313725 0.313725
0.313725 0.313725 0.313725
0.313725 0.313725 0.313725
0.325490 0.325490 0.325490
0.337255 0.337255 0.337255
0.015686 0.015686 0.015686
0.019608 0.019608 0.019608
0.023529 0.023529 0.023529
0.031373 0.031373 0.031373
0.039216 0.039216 0.039216
0.043137 0.043137 0.043137
0.058824 0.058824 0.054902
0.078431 0.078431 0.078431
0.098039 0.098039 0.098039
0.117647 0.117647 0.117647
0.141176 0.141176 0.141176
0.160784 0.160784 0.160784
0.184314 0.184314 0.184314
0.211765 0.211765 0.211765
0.239216 0.239216 0.239216
0.250980 0.250980 0.250980
0.262745 0.262745 0.262745
0.286275 0.286275 0.286275
0.313725 0.313725 0.313725
0.309804 0.309804 0.309804
0.313725 0.313725 0.313725
0.313725 0.313725 0.313725
0.313725 0.313725 0.313725
0.337255 0.337255 0.337255
0.384314 0.384314 0.384314
0.035294 0.035294 0.035294
0.035294 0.035294 0.035294
0.039216 0.039216 0.039216
0.050980 0.050980 0.050980
0.058824 0.058824 0.058824
0.066667 0.066667 0.066667
0.082353 0.082353 0.082353
0.098039 0.098039 0.098039
0.117647 0.117647 0.117647
0.137255 0.137255 0.137255
0.156863 0.156863 0.156863
0.180392 0.180392 0.180392
0.200000 0.200000 0.200000
0.219608 0.219608 0.219608
0.250980 0.250980 0.250980
0.262745 0.262745 0.262745
0.282353 0.282353 0.282353
0.298039 0.298039 0.298039
0.313725 0.313725 0.313725
0.313725 0.313725 0.313725
0.313725 0.313725 0.313725
0.313725 0.313725 0.313725
0.360784 0.360784 0.360784
0.392157 0.392157 0.392157
0.407843 0.407843 0.407843
0.062745 0.062745 0.062745
0.062745 0.062745 0.062745
0.066667 0.066667 0.066667
0.082353 0.082353 0.082353
0.078431 0.078431 0.078431
0.086275 0.086275 0.086275
0.098039 0.098039 0.098039
0.121569 0.121569 0.121569
0.141176 0.141176 0.141176
0.160784 0.160784 0.160784
0.184314 0.184314 0.184314
0.200000 0.200000 0.200000
0.219608 0.219608 0.219608
0.239216 0.239216 0.239216
0.262745 0.262745 0.262745
0.286275 0.286275 0.286275
0.301961 0.301961 0.301961
0.317647 0.317647 0.317647
0.333333 0.333333 0.333333
0.341176 0.341176 0.341176
0.345098 0.345098 0.345098
0.345098 0.345098 0.345098
0.388235 0.388235 0.388235
0.411765 0.411765 0.411765
0.411765 0.411765 0.411765
0.098039 0.098039 0.098039
0.098039 0.098039 0.098039
0.098039 0.098039 0.098039
0.105882 0.105882 0.105882
0.094118 0.094118 0.094118
0.101961 0.101961 0.101961
0.117647 0.117647 0.117647
0.149020 0.149020 0.149020
0.168627 0.168627 0.168627
0.188235 0.188235 0.188235
0.211765 0.211765 0.211765
0.223529 0.223529 0.223529
0.239216 0.239216 0.239216
0.258824 0.258824 0.258824
0.278431 0.278431 0.278431
0.305882 0.305882 0.305882
0.325490 0.325490 0.325490
0.345098 0.345098 0.345098
0.372549 0.372549 0.372549
0.392157 0.392157 0.392157
0.403922 0.403922 0.403922
0.411765 0.411765 0.411765
0.411765 0.411765 0.411765
0.411765 0.411765 0.411765
0.411765 0.411765 0.411765
0.145098 0.145098 0.145098
0.141176 0.141176 0.141176
0.137255 0.137255 0.137255
0.149020 0.149020 0.149020
0.145098 0.145098 0.145098
0.160784 0.160784 0.160784
0.176471 0.176471 0.176471
0.196078 0.196078 0.196078
0.207843 0.207843 0.207843
0.211765 0.211765 0.211765
0.243137 0.243137 0.243137
0.258824 0.258824 0.258824
0.266667 0.266667 0.266667
0.286275 0.286275 0.286275
0.317647 0.317647 0.317647
0.337255 0.337255 0.337255
0.356863 0.356863 0.356863
0.364706 0.364706 0.364706
0.372549 0.372549 0.372549
0.400000 0.400000 0.400000
0.411765 0.411765 0.411765
0.411765 0.411765 0.411765
0.411765 0.411765 0.411765
0.411765 0.411765 0.411765
0.411765 0.411765 0.411765
0.160784 0.160784 0.160784
0.172549 0.172549 0.172549
0.176471 0.176471 0.176471
0.192157 0.192157 0.192157
0.192157 0.192157 0.192157
0.203922 0.203922 0.203922
0.211765 0.211765 0.211765
0.247059 0.247059 0.247059
0.266667 0.266667 0.266667
0.262745 0.262745 0.262745
0.278431 0.278431 0.278431
0.290196 0.290196 0.290196
0.305882 0.305882 0.305882
0.321569 0.321569 0.321569
0.341176 0.341176 0.341176
0.364706 0.364706 0.364706
0.384314 0.384314 0.384314
0.392157 0.392157 0.392157
0.403922 0.403922 0.403922
0.419608 0.419608 0.419608
0.419608 0.419608 0.419608
0.411765 0.411765 0.411765
0.411765 0.411765 0.411765
0.411765 0.411765 0.411765
0.411765 0.411765 0.411765
0.160784 0.160784 0.160784
0.207843 0.207843 0.207843
0.231373 0.231373 0.231373
0.231373 0.231373 0.231373
0.235294 0.235294 0.235294
0.247059 0.247059 0.247059
0.262745 0.262745 0.262745
0.298039 0.298039 0.298039
0.309804 0.309804 0.309804
0.309804 0.309804 0.309804
0.325490 0.325490 0.325490
0.329412 0.329412 0.329412
0.333333 0.333333 0.333333
0.349020 0.349020 0.349020
0.364706 0.364706 0.364706
0.384314 0.384314 0.384314
0.415686 0.415686 0.415686
0.427451 0.427451 0.427451
0.447059 0.447059 0.447059
0.443137 0.443137 0.443137
0.435294 0.435294 0.435294
0.415686 0.415686 0.415686
0.411765 0.411765 0.411765
0.411765 0.411765 0.411765
0.411765 0.411765 0.411765
0.200000 0.200000 0.200000
0.250980 0.250980 0.250980
0.282353 0.282353 0.282353
0.274510 0.274510 0.274510
0.278431 0.278431 0.278431
0.290196 0.290196 0.290196
0.301961 0.301961 0.301961
0.333333 0.333333 0.333333
0.352941 0.352941 0.352941
0.349020 0.349020 0.349020
0.368627 0.368627 0.368627
0.384314 0.384314 0.384314
0.372549 0.372549 0.372549
0.384314 0.384314 0.384314
0.396078 0.396078 0.396078
0.407843 0.407843 0.407843
0.439216 0.439216 0.439216
0.450980 0.450980 0.450980
0.470588 0.470588 0.470588
0.470588 0.470588 0.470588
0.462745 0.462745 0.462745
0.450980 0.450980 0.450980
0.474510 0.474510 0.474510
0.478431 0.478431 0.478431
0.509804 0.509804 0.509804
0.258824 0.258824 0.258824
0.286275 0.286275 0.286275
0.305882 0.305882 0.305882
0.305882 0.305882 0.305882
0.305882 0.305882 0.305882
0.317647 0.317647 0.317647
0.341176 0.341176 0.341176
0.368627 0.368627 0.368627
0.384314 0.384314 0.384314
0.400000 0.400000 0.400000
0.407843 0.407843 0.407843
0.419608 0.419608 0.419608
0.427451 0.427451 0.427451
0.419608 0.419608 0.419608
0.439216 0.439216 0.439216
0.447059 0.447059 0.447059
0.458824 0.458824 0.458824
0.482353 0.482353 0.482353
0.498039 0.498039 0.498039
0.498039 0.498039 0.498039
0.498039 0.498039 0.498039
0.494118 0.494118 0.494118
0.513725 0.513725 0.513725
0.533333 0.533333 0.533333
0.549020 0.549020 0.549020
0.301961 0.301961 0.301961
0.301961 0.301961 0.301961
0.305882 0.305882 0.305882
0.305882 0.305882 0.305882
0.305882 0.305882 0.305882
0.333333 0.333333 0.333333
0.376471 0.376471 0.376471
0.411765 0.411765 0.411765
0.427451 0.427451 0.427451
0.435294 0.435294 0.435294
0.443137 0.443137 0.443137
0.450980 0.450980 0.450980
0.466667 0.466667 0.466667
0.470588 0.470588 0.470588
0.474510 0.474510 0.474510
0.482353 0.482353 0.482353
0.494118 0.494118 0.494118
0.505882 0.505882 0.505882
0.525490 0.525490 0.525490
0.529412 0.529412 0.529412
0.529412 0.529412 0.529412
0.529412 0.529412 0.529412
0.545098 0.545098 0.545098
0.552941 0.552941 0.552941
0.552941 0.552941 0.552941
0.258824 0.258824 0.258824
0.282353 0.282353 0.282353
0.305882 0.305882 0.305882
0.305882 0.305882 0.305882
0.333333 0.333333 0.333333
0.368627 0.368627 0.368627
0.388235 0.388235 0.388235
0.411765 0.411765 0.411765
0.443137 0.443137 0.443137
0.466667 0.466667 0.466667
0.454902 0.454902 0.454902
0.462745 0.462745 0.462745
0.501961 0.501961 0.501961
0.509804 0.509804 0.509804
0.517647 0.517647 0.517647
0.517647 0.517647 0.517647
0.529412 0.529412 0.529412
0.529412 0.529412 0.529412
0.545098 0.545098 0.545098
0.549020 0.549020 0.549020
0.545098 0.545098 0.545098
0.545098 0.545098 0.545098
0.564706 0.564706 0.564706
0.584314 0.584314 0.584314
0.588235 0.588235 0.588235
0.227451 0.227451 0.227451
0.278431 0.278431 0.278431
0.305882 0.305882 0.305882
0.305882 0.305882 0.305882
0.396078 0.396078 0.396078
0.411765 0.411765 0.411765
0.392157 0.392157 0.392157
0.431373 0.431373 0.431373
0.458824 0.458824 0.458824
0.482353 0.482353 0.482353
0.470588 0.470588 0.470588
0.494118 0.494118 0.494118
0.545098 0.545098 0.545098
0.545098 0.545098 0.545098
0.549020 0.549020 0.549020
0.541176 0.541176 0.541176
0.556863 0.556863 0.556863
0.572549 0.572549 0.572549
0.580392 0.580392 0.580392
0.564706 0.564706 0.564706
0.564706 0.564706 0.564706
0.592157 0.592157 0.592157
0.603922 0.603922 0.603922
0.615686 0.615686 0.615686
0.623529 0.623529 0.623529
0.227451 0.227451 0.227451
0.282353 0.282353 0.282353
0.305882 0.305882 0.305882
0.305882 0.305882 0.305882
0.450980 0.450980 0.450980
0.474510 0.474510 0.474510
0.392157 0.392157 0.392157
0.454902 0.454902 0.454902
0.482353 0.482353 0.482353
0.486275 0.486275 0.486275
0.486275 0.486275 0.486275
0.513725 0.513725 0.513725
0.592157 0.592157 0.592157
0.592157 0.592157 0.592157
0.572549 0.572549 0.572549
0.545098 0.545098 0.545098
0.584314 0.584314 0.584314
0.607843 0.607843 0.607843
0.600000 0.600000 0.600000
0.572549 0.572549 0.572549
0.580392 0.580392 0.580392
0.639216 0.639216 0.639216
0.635294 0.635294 0.635294
0.639216 0.639216 0.639216
0.639216 0.639216 0.639216
0.372549 0.372549 0.372549
0.317647 0.317647 0.317647
0.305882 0.305882 0.305882
0.305882 0.305882 0.305882
0.427451 0.427451 0.427451
0.474510 0.474510 0.474510
0.403922 0.403922 0.403922
0.423529 0.423529 0.423529
0.462745 0.462745 0.462745
0.482353 0.482353 0.482353
0.513725 0.513725 0.513725
0.560784 0.560784 0.560784
0.592157 0.592157 0.592157
0.596078 0.596078 0.596078
0.592157 0.592157 0.592157
0.584314 0.584314 0.584314
0.600000 0.600000 0.600000
0.611765 0.611765 0.611765
0.603922 0.603922 0.603922
0.600000 0.600000 0.600000
0.603922 0.603922 0.603922
0.639216 0.639216 0.639216
0.639216 0.639216 0.639216
0.650980 0.650980 0.650980
0.670588 0.670588 0.670588
0.427451 0.427451 0.427451
0.341176 0.341176 0.341176
0.305882 0.305882 0.305882
0.305882 0.305882 0.305882
0.423529 0.423529 0.423529
0.447059 0.447059 0.447059
0.396078 0.396078 0.396078
0.407843 0.407843 0.407843
0.458824 0.458824 0.458824
0.501961 0.501961 0.501961
0.537255 0.537255 0.537255
0.572549 0.572549 0.572549
0.596078 0.596078 0.596078
0.596078 0.596078 0.596078
0.600000 0.600000 0.600000
0.607843 0.607843 0.607843
0.607843 0.607843 0.607843
0.611765 0.611765 0.611765
0.607843 0.607843 0.607843
0.615686 0.615686 0.615686
0.627451 0.627451 0.627451
0.639216 0.639216 0.639216
0.654902 0.654902 0.654902
0.666667 0.666667 0.666667
0.690196 0.690196 0.690196
0.427451 0.427451 0.427451
0.341176 0.341176 0.341176
0.305882 0.305882 0.305882
0.305882 0.305882 0.305882
0.360784 0.360784 0.360784
0.384314 0.384314 0.384314
0.388235 0.388235 0.388235
0.407843 0.407843 0.407843
0.474510 0.474510 0.474510
0.556863 0.556863 0.556863
0.556863 0.556863 0.556863
0.572549 0.572549 0.572549
0.592157 0.592157 0.592157
0.596078 0.596078 0.596078
0.596078 0.596078 0.596078
0.596078 0.596078 0.596078
0.607843 0.607843 0.607843
0.611765 0.611765 0.611765
0.611765 0.611765 0.611765
0.631373 0.631373 0.631373
0.639216 0.639216 0.639216
0.639216 0.639216 0.639216
0.674510 0.674510 0.674510
0.690196 0.690196 0.690196
0.690196 0.690196 0.690196
0.427451 0.427451 0.427451
0.356863 0.356863 0.356863
0.305882 0.305882 0.305882
0.305882 0.305882 0.305882
0.458824 0.458824 0.458824
0.525490 0.525490 0.525490
0.525490 0.525490 0.525490
0.533333 0.533333 0.533333
0.545098 0.545098 0.545098
0.556863 0.556863 0.556863
0.556863 0.556863 0.556863
0.572549 0.572549 0.572549
0.592157 0.592157 0.592157
0.596078 0.596078 0.596078
0.596078 0.596078 0.596078
0.596078 0.596078 0.596078
0.607843 0.607843 0.607843
0.611765 0.611765 0.611765
0.607843 0.607843 0.607843
0.627451 0.627451 0.627451
0.654902 0.654902 0.654902
0.678431 0.678431 0.678431
0.686275 0.686275 0.686275
0.690196 0.690196 0.690196
0.690196 0.690196 0.690196
0.443137 0.443137 0.443137
0.392157 0.392157 0.392157
0.364706 0.364706 0.364706
0.337255 0.337255 0.337255
0.482353 0.482353 0.482353
0.592157 0.592157 0.592157
0.592157 0.592157 0.592157
0.596078 0.596078 0.596078
0.588235 0.588235 0.588235
0.584314 0.584314 0.584314
0.576471 0.576471 0.576471
0.592157 0.592157 0.592157
0.611765 0.611765 0.611765
0.603922 0.603922 0.603922
0.603922 0.603922 0.603922
0.623529 0.623529 0.623529
0.615686 0.615686 0.615686
0.611765 0.611765 0.611765
0.607843 0.607843 0.607843
0.623529 0.623529 0.623529
0.654902 0.654902 0.654902
0.690196 0.690196 0.690196
0.690196 0.690196 0.690196
0.690196 0.690196 0.690196
0.690196 0.690196 0.690196
0.458824 0.458824 0.458824
0.458824 0.458824 0.458824
0.439216 0.439216 0.439216
0.411765 0.411765 0.411765
0.537255 0.537255 0.537255
0.592157 0.592157 0.592157
0.592157 0.592157 0.592157
0.596078 0.596078 0.596078
0.603922 0.603922 0.603922
0.623529 0.623529 0.623529
0.627451 0.627451 0.627451
0.639216 0.639216 0.639216
0.658824 0.658824 0.658824
0.611765 0.611765 0.611765
0.619608 0.619608 0.619608
0.658824 0.658824 0.658824
0.623529 0.623529 0.623529
0.611765 0.611765 0.611765
0.607843 0.607843 0.607843
0.607843 0.607843 0.607843
0.631373 0.631373 0.631373
0.690196 0.690196 0.690196
0.690196 0.690196 0.690196
0.690196 0.690196 0.690196
0.690196 0.690196 0.690196
0.458824 0.458824 0.458824
0.458824 0.458824 0.458824
0.443137 0.443137 0.443137
0.411765 0.411765 0.411765
0.513725 0.513725 0.513725
0.592157 0.592157 0.592157
0.592157 0.592157 0.592157
0.596078 0.596078 0.596078
0.607843 0.607843 0.607843
0.623529 0.623529 0.623529
0.627451 0.627451 0.627451
0.639216 0.639216 0.639216
0.658824 0.658824 0.658824
0.647059 0.647059 0.647059
0.658824 0.658824 0.658824
0.686275 0.686275 0.686275
0.666667 0.666667 0.666667
0.662745 0.662745 0.662745
0.701961 0.701961 0.701961
0.698039 0.698039 0.698039
0.698039 0.698039 0.698039
0.690196 0.690196 0.690196
0.690196 0.690196 0.690196
0.690196 0.690196 0.690196
0.690196 0.690196 0.690196
0.458824 0.458824 0.458824
0.458824 0.458824 0.458824
0.443137 0.443137 0.443137
0.411765 0.411765 0.411765
0.513725 0.513725 0.513725
0.592157 0.592157 0.592157
0.592157 0.592157 0.592157
0.596078 0.596078 0.596078
0.607843 0.607843 0.607843
0.623529 0.623529 0.623529
0.627451 0.627451 0.627451
0.635294 0.635294 0.635294
0.658824 0.658824 0.658824
0.662745 0.662745 0.662745
0.682353 0.682353 0.682353
0.698039 0.698039 0.698039
0.694118 0.694118 0.694118
0.713725 0.713725 0.713725
0.733333 0.733333 0.733333
0.741176 0.741176 0.741176
0.733333 0.733333 0.733333
0.709804 0.709804 0.709804
0.698039 0.698039 0.698039
0.698039 0.698039 0.698039
0.709804 0.709804 0.709804
0.458824 0.458824 0.458824
0.458824 0.458824 0.458824
0.443137 0.443137 0.443137
0.407843 0.407843 0.407843
0.537255 0.537255 0.537255
0.592157 0.592157 0.592157
0.592157 0.592157 0.592157
0.596078 0.596078 0.596078
0.607843 0.607843 0.607843
0.623529 0.623529 0.623529
0.627451 0.627451 0.627451
0.635294 0.635294 0.635294
0.658824 0.658824 0.658824
0.678431 0.678431 0.678431
0.694118 0.694118 0.694118
0.698039 0.698039 0.698039
0.721569 0.721569 0.721569
0.733333 0.733333 0.733333
0.733333 0.733333 0.733333
0.741176 0.741176 0.741176
0.745098 0.745098 0.745098
0.737255 0.737255 0.737255
0.709804 0.709804 0.709804
0.709804 0.709804 0.709804
0.749020 0.749020 0.749020
0.007843 0.007843 0.007843
0.007843 0.007843 0.007843
0.011765 0.011765 0.011765
0.011765 0.011765 0.011765
0.023529 0.023529 0.023529
0.031373 0.031373 0.031373
0.039216 0.039216 0.039216
0.062745 0.062745 0.062745
0.078431 0.078431 0.078431
0.094118 0.094118 0.094118
0.125490 0.125490 0.125490
0.152941 0.152941 0.152941
0.168627 0.168627 0.168627
0.215686 0.215686 0.215686
0.239216 0.239216 0.239216
0.254902 0.254902 0.254902
0.270588 0.270588 0.270588
0.286275 0.286275 0.286275
0.298039 0.298039 0.298039
0.301961 0.301961 0.301961
0.309804 0.309804 0.309804
0.317647 0.317647 0.317647
0.317647 0.317647 0.317647
0.317647 0.317647 0.317647
0.317647 0.317647 0.317647
0.011765 0.011765 0.011765
0.011765 0.011765 0.011765
0.015686 0.015686 0.015686
0.019608 0.019608 0.019608
0.023529 0.023529 0.023529
0.035294 0.035294 0.035294
0.043137 0.043137 0.043137
0.062745 0.062745 0.062745
0.082353 0.082353 0.082353
0.101961 0.101961 0.101961
0.129412 0.129412 0.129412
0.164706 0.164706 0.164706
0.188235 0.188235 0.188235
0.211765 0.211765 0.211765
0.239216 0.239216 0.239216
0.254902 0.254902 0.254902
0.270588 0.270588 0.270588
0.286275 0.286275 0.286275
0.298039 0.298039 0.298039
0.309804 0.309804 0.309804
0.309804 0.309804 0.309804
0.313725 0.313725 0.313725
0.313725 0.313725 0.313725
0.321569 0.321569 0.321569
0.333333 0.333333 0.333333
0.015686 0.015686 0.015686
0.019608 0.019608 0.019608
0.023529 0.023529 0.023529
0.027451 0.027451 0.027451
0.035294 0.035294 0.035294
0.043137 0.043137 0.043137
0.054902 0.054902 0.054902
0.074510 0.074510 0.074510
0.094118 0.094118 0.094118
0.113725 0.113725 0.113725
0.137255 0.137255 0.137255
0.168627 0.168627 0.168627
0.188235 0.188235 0.188235
0.219608 0.219608 0.219608
0.239216 0.239216 0.239216
0.254902 0.254902 0.254902
0.270588 0.270588 0.270588
0.282353 0.282353 0.282353
0.305882 0.305882 0.305882
0.309804 0.309804 0.309804
0.313725 0.313725 0.313725
0.313725 0.313725 0.313725
0.321569 0.321569 0.321569
0.341176 0.341176 0.341176
0.360784 0.360784 0.360784
0.023529 0.023529 0.023529
0.027451 0.027451 0.027451
0.031373 0.031373 0.031373
0.039216 0.039216 0.039216
0.047059 0.047059 0.047059
0.058824 0.058824 0.058824
0.062745 0.062745 0.062745
0.086275 0.086275 0.086275
0.109804 0.109804 0.109804
0.125490 0.125490 0.125490
0.149020 0.149020 0.149020
0.172549 0.172549 0.172549
0.188235 0.188235 0.188235
0.219608 0.219608 0.219608
0.239216 0.239216 0.239216
0.254902 0.254902 0.254902
0.270588 0.270588 0.270588
0.294118 0.294118 0.294118
0.313725 0.313725 0.313725
0.313725 0.313725 0.313725
0.313725 0.313725 0.313725
0.317647 0.317647 0.317647
0.341176 0.341176 0.341176
0.360784 0.360784 0.360784
0.376471 0.376471 0.376471
0.043137 0.043137 0.043137
0.043137 0.043137 0.043137
0.047059 0.047059 0.047059
0.058824 0.058824 0.058824
0.066667 0.066667 0.066667
0.074510 0.074510 0.074510
0.082353 0.082353 0.082353
0.101961 0.101961 0.101961
0.125490 0.125490 0.125490
0.141176 0.141176 0.141176
0.164706 0.164706 0.164706
0.188235 0.188235 0.188235
0.200000 0.200000 0.200000
0.223529 0.223529 0.223529
0.250980 0.250980 0.250980
0.270588 0.270588 0.270588
0.282353 0.282353 0.282353
0.301961 0.301961 0.301961
0.317647 0.317647 0.317647
0.317647 0.317647 0.317647
0.329412 0.329412 0.329412
0.345098 0.345098 0.345098
0.368627 0.368627 0.368627
0.392157 0.392157 0.392157
0.392157 0.392157 0.392157
0.066667 0.066667 0.066667
0.070588 0.070588 0.070588
0.074510 0.074510 0.074510
0.082353 0.082353 0.082353
0.082353 0.082353 0.082353
0.090196 0.090196 0.090196
0.105882 0.105882 0.105882
0.117647 0.117647 0.117647
0.141176 0.141176 0.141176
0.164706 0.164706 0.164706
0.184314 0.184314 0.184314
0.200000 0.200000 0.200000
0.219608 0.219608 0.219608
0.243137 0.243137 0.243137
0.262745 0.262745 0.262745
0.286275 0.286275 0.286275
0.301961 0.301961 0.301961
0.321569 0.321569 0.321569
0.337255 0.337255 0.337255
0.341176 0.341176 0.341176
0.360784 0.360784 0.360784
0.368627 0.368627 0.368627
0.392157 0.392157 0.392157
0.403922 0.403922 0.403922
0.400000 0.400000 0.400000
0.098039 0.098039 0.098039
0.101961 0.101961 0.101961
0.098039 0.098039 0.098039
0.101961 0.101961 0.101961
0.105882 0.105882 0.105882
0.113725 0.113725 0.113725
0.129412 0.129412 0.129412
0.145098 0.145098 0.145098
0.164706 0.164706 0.164706
0.184314 0.184314 0.184314
0.207843 0.207843 0.207843
0.223529 0.223529 0.223529
0.243137 0.243137 0.243137
0.262745 0.262745 0.262745
0.286275 0.286275 0.286275
0.305882 0.305882 0.305882
0.325490 0.325490 0.325490
0.345098 0.345098 0.345098
0.360784 0.360784 0.360784
0.384314 0.384314 0.384314
0.403922 0.403922 0.403922
0.400000 0.400000 0.400000
0.400000 0.400000 0.400000
0.400000 0.400000 0.400000
0.403922 0.403922 0.403922
0.141176 0.141176 0.141176
0.141176 0.141176 0.141176
0.137255 0.137255 0.137255
0.141176 0.141176 0.141176
0.149020 0.149020 0.149020
0.164706 0.164706 0.164706
0.168627 0.168627 0.168627
0.200000 0.200000 0.200000
0.215686 0.215686 0.215686
0.219608 0.219608 0.219608
0.235294 0.235294 0.235294
0.254902 0.254902 0.254902
0.274510 0.274510 0.274510
0.294118 0.294118 0.294118
0.317647 0.317647 0.317647
0.341176 0.341176 0.341176
0.352941 0.352941 0.352941
0.372549 0.372549 0.372549
0.380392 0.380392 0.380392
0.400000 0.400000 0.400000
0.407843 0.407843 0.407843
0.407843 0.407843 0.407843
0.407843 0.407843 0.407843
0.407843 0.407843 0.407843
0.407843 0.407843 0.407843
0.172549 0.172549 0.172549
0.180392 0.180392 0.180392
0.188235 0.188235 0.188235
0.188235 0.188235 0.188235
0.203922 0.203922 0.203922
0.215686 0.215686 0.215686
0.227451 0.227451 0.227451
0.247059 0.247059 0.247059
0.258824 0.258824 0.258824
0.270588 0.270588 0.270588
0.286275 0.286275 0.286275
0.301961 0.301961 0.301961
0.313725 0.313725 0.313725
0.333333 0.333333 0.333333
0.349020 0.349020 0.345098
0.372549 0.372549 0.372549
0.380392 0.380392 0.380392
0.403922 0.403922 0.403922
0.415686 0.415686 0.415686
0.427451 0.427451 0.427451
0.423529 0.423529 0.423529
0.415686 0.415686 0.415686
0.411765 0.411765 0.411765
0.423529 0.423529 0.423529
0.439216 0.439216 0.439216
0.203922 0.203922 0.203922
0.211765 0.211765 0.211765
0.227451 0.227451 0.227451
0.243137 0.243137 0.243137
0.243137 0.243137 0.243137
0.254902 0.254902 0.254902
0.270588 0.270588 0.270588
0.282353 0.282353 0.282353
0.301961 0.301961 0.301961
0.309804 0.309804 0.309804
0.329412 0.329412 0.329412
0.333333 0.333333 0.333333
0.345098 0.345098 0.345098
0.364706 0.364706 0.364706
0.380392 0.380392 0.380392
0.400000 0.400000 0.400000
0.415686 0.415686 0.415686
0.431373 0.431373 0.431373
0.447059 0.447059 0.447059
0.458824 0.458824 0.458824
0.443137 0.443137 0.443137
0.415686 0.415686 0.415686
0.415686 0.415686 0.415686
0.443137 0.443137 0.443137
0.490196 0.490196 0.490196
0.219608 0.219608 0.219608
0.247059 0.247059 0.247059
0.274510 0.274510 0.274510
0.278431 0.278431 0.278431
0.286275 0.286275 0.286275
0.294118 0.294118 0.294118
0.301961 0.301961 0.301961
0.321569 0.321569 0.321569
0.352941 0.352941 0.352941
