luts/FUJI_ACROS.cube
#Generated for krafta web app
#Black and White LUTs
TITLE "Fuji XTrans III - Acros"
#LUT size
LUT_3D_SIZE 5
#LUT data points
0.003922 0.003922 0.003922
0.047059 0.047059 0.047059
0.172549 0.172549 0.172549
0.356863 0.356863 0.356863
0.415686 0.415686 0.415686
0.086275 0.086275 0.086275
0.125490 0.125490 0.125490
0.286275 0.286275 0.286275
0.450980 0.450980 0.450980
0.501961 0.501961 0.501961
0.266667 0.266667 0.266667
0.345098 0.345098 0.345098
0.478431 0.478431 0.478431
0.584314 0.584314 0.584314
0.623529 0.623529 0.623529
0.384314 0.384314 0.384314
0.352941 0.352941 0.352941
0.584314 0.584314 0.584314
0.662745 0.662745 0.662745
0.752941 0.752941 0.752941
0.411765 0.411765 0.411765
0.541176 0.541176 0.541176
0.647059 0.647059 0.647059
0.749020 0.749020 0.749020
0.788235 0.788235 0.788235
0.043137 0.043137 0.043137
0.164706 0.164706 0.164706
0.301961 0.301961 0.301961
0.462745 0.462745 0.462745
0.549020 0.549020 0.549020
0.137255 0.137255 0.137255
0.184314 0.184314 0.184314
0.337255 0.337255 0.337255
0.486275 0.486275 0.486275
0.588235 0.588235 0.588235
0.376471 0.376471 0.376471
0.396078 0.396078 0.396078
0.505882 0.505882 0.505882
0.615686 0.615686 0.615686
0.670588 0.670588 0.670588
0.435294 0.435294 0.435294
0.541176 0.541176 0.541176
0.662745 0.662745 0.662745
0.749020 0.749020 0.749020
0.827451 0.827451 0.827451
0.494118 0.494118 0.494118
0.603922 0.603922 0.603922
0.666667 0.666667 0.666667
0.792157 0.792157 0.792157
0.835294 0.835294 0.835294
0.219608 0.219608 0.219608
0.286275 0.286275 0.286275
0.407843 0.407843 0.407843
0.541176 0.541176 0.541176
0.631373 0.631373 0.631373
0.262745 0.262745 0.262745
0.341176 0.341176 0.341176
0.447059 0.447059 0.447059
0.568627 0.568627 0.568627
0.654902 0.654902 0.654902
0.450980 0.450980 0.450980
0.494118 0.494118 0.494118
0.580392 0.580392 0.580392
0.678431 0.678431 0.678431
0.741176 0.741176 0.741176
0.592157 0.592157 0.592157
0.635294 0.635294 0.635294
0.705882 0.705882 0.705882
0.784314 0.784314 0.784314
0.890196 0.890196 0.890196
0.635294 0.635294 0.635294
0.678431 0.678431 0.678431
0.733333 0.733333 0.733333
0.882353 0.882353 0.882353
0.905882 0.905882 0.905882
0.376471 0.376471 0.376471
0.427451 0.427451 0.427451
0.533333 0.533333 0.533333
0.647059 0.647059 0.647059
0.725490 0.725490 0.725490
0.423529 0.423529 0.423529
0.498039 0.498039 0.498039
0.572549 0.572549 0.572549
0.670588 0.670588 0.670588
0.733333 0.733333 0.733333
0.552941 0.552941 0.552941
0.603922 0.603922 0.603922
0.670588 0.670588 0.670588
0.741176 0.741176 0.741176
0.807843 0.807843 0.807843
0.694118 0.694118 0.694118
0.717647 0.717647 0.717647
0.772549 0.772549 0.772549
0.839216 0.839216 0.839216
0.941176 0.941176 0.941176
0.827451 0.827451 0.827451
0.776471 0.776471 0.776471
0.835294 0.835294 0.835294
0.913725 0.913725 0.913725
0.968627 0.968627 0.968627
0.537255 0.537255 0.537255
0.572549 0.572549 0.572549
0.650980 0.650980 0.650980
0.745098 0.745098 0.745098
0.803922 0.803922 0.803922
0.568627 0.568627 0.568627
0.650980 0.650980 0.650980
0.709804 0.709804 0.709804
0.780392 0.780392 0.780392
0.811765 0.811765 0.811765
0.654902 0.654902 0.654902
0.733333 0.733333 0.733333
0.780392 0.780392 0.780392
0.835294 0.835294 0.835294
0.862745 0.862745 0.862745
0.792157 0.792157 0.792157
0.823529 0.823529 0.823529
0.866667 0.866667 0.866667
0.917647 0.917647 0.917647
0.960784 0.960784 0.960784
0.827451 0.827451 0.827451
0.815686 0.815686 0.815686
0.886275 0.886275 0.886275
0.952941 0.952941 0.952941
0.996078 0.996078 0.996078
