luts/FUJI_PROVIA.cube
TITLE "Generated for krafta web app"
LUT_3D_SIZE 5
#INPUTGAMMA sRGB
#IMAGEPROFILE sRGB
#OUTPUTGAMMA sRGB
0.000000 0.000000 0.000000
0.282856 0.044055 0.042644
0.552341 0.089044 0.082608
0.811287 0.134644 0.120054
0.998267 0.174592 0.155005
0.000000 0.226398 0.000000
0.263811 0.238747 0.013567
0.547427 0.264353 0.050359
0.839310 0.303957 0.101525
1.000000 0.325925 0.130848
0.000000 0.459554 0.000000
0.198515 0.473896 0.000001
0.517072 0.478691 0.025915
0.818748 0.496883 0.063194
1.000000 0.498002 0.102366
0.000000 0.685323 0.000000
0.090512 0.689426 0.000000
0.356126 0.697525 0.000024
0.724148 0.717810 0.028419
0.999996 0.729935 0.038454
0.000000 0.872971 0.000000
0.009566 0.890130 0.000000
0.592575 0.972313 0.000000
0.830408 0.969255 0.000564
0.762885 0.915730 0.000000
0.084891 0.078779 0.296326
0.357651 0.124258 0.334710
0.618726 0.168051 0.366361
0.856112 0.198602 0.382213
0.999992 0.198097 0.358303
0.031994 0.262967 0.265437
0.253824 0.248908 0.242013
0.560158 0.270722 0.272706
0.827925 0.315787 0.317607
0.999996 0.363343 0.342832
-0.000150 0.493560 0.221884
0.207373 0.472341 0.194162
0.514683 0.484396 0.250859
0.818482 0.504194 0.291082
1.000000 0.538006 0.318891
0.000000 0.714771 0.132177
0.126330 0.709798 0.061823
0.460868 0.729232 0.120401
0.749474 0.730465 0.205044
0.999998 0.730980 0.263652
0.000000 0.913661 0.000000
0.322258 0.974333 0.148377
0.581327 0.980744 0.187782
0.816291 0.978062 0.194393
0.782641 0.928985 0.012249
0.174191 0.170506 0.621379
0.441984 0.221629 0.663116
0.669665 0.244836 0.663621
0.852902 0.225395 0.614744
0.999992 0.224859 0.594824
0.135358 0.315018 0.550607
0.353166 0.310893 0.535101
0.621541 0.337062 0.559234
0.834065 0.348667 0.559889
0.999999 0.389170 0.591695
0.074137 0.532849 0.558019
0.289790 0.510241 0.513195
0.510692 0.506221 0.505743
0.805674 0.535316 0.527143
0.999992 0.577448 0.569562
0.021060 0.755453 0.454303
0.255159 0.746509 0.419183
0.538669 0.749325 0.487217
0.760305 0.740054 0.507246
0.999999 0.743812 0.541154
0.028725 0.970343 0.331671
0.322653 0.987294 0.451201
0.561454 0.988024 0.460487
0.797587 0.987194 0.468433
0.856267 0.952891 0.291654
0.261451 0.264546 0.923762
0.478287 0.284585 0.927295
0.659018 0.259670 0.882749
0.865744 0.253471 0.851477
1.000000 0.258005 0.837136
0.181226 0.376514 0.838229
0.388426 0.381388 0.828060
0.614266 0.394153 0.827222
0.862416 0.401712 0.830401
1.000000 0.406426 0.835990
0.181661 0.586291 0.886616
0.399801 0.571751 0.839410
0.594168 0.572956 0.802856
0.831502 0.580466 0.801432
1.000000 0.598300 0.819798
0.100711 0.796048 0.812115
0.313164 0.776993 0.797226
0.540500 0.759711 0.775163
0.752613 0.751430 0.757334
0.999993 0.787256 0.790193
0.094777 0.994557 0.713973
0.305500 0.994259 0.723449
0.543507 0.995141 0.730435
0.779339 0.993928 0.736598
0.943773 0.978911 0.668841
0.296010 0.316038 1.000000
0.475895 0.302058 1.000000
0.673979 0.291485 1.000000
0.893541 0.306832 1.000000
1.000000 0.320044 1.000000
0.203866 0.431917 0.999998
0.413607 0.441639 0.999999
0.660200 0.449277 1.000000
0.909057 0.458054 1.000000
1.000000 0.467168 1.000000
0.287430 0.641597 1.000000
0.401787 0.622737 0.999999
0.633153 0.626838 0.999998
0.884555 0.636547 1.000000
1.000000 0.645732 1.000000
0.185282 0.854955 1.000000
0.400000 0.838855 1.000000
0.630849 0.818357 1.000000
0.797067 0.813265 0.999992
1.000000 0.820084 0.999997
0.123878 0.999999 0.999994
0.320908 0.999997 0.999989
0.545263 0.999995 0.999984
0.768484 0.999363 0.999677
0.999984 0.999988 0.999981
