luts/Fujifilm_Color_100.cube
# Generated for krafta web app
# https://www.facebook.com/krafta.visio
# Preset: FUJ - Color 100
# Color profile : sRGB Color Space Profile
LUT_3D_SIZE 16
DOMAIN_MIN 0.0 0.0 0.0
DOMAIN_MAX 1.0 1.0 1.0
0.000000 0.000000 0.000000
0.092958 0.001343 0.001190
0.187503 0.002319 0.003204
0.268040 0.004211 0.004273
0.337469 0.005890 0.005737
0.403967 0.007691 0.007599
0.467659 0.008545 0.008667
0.533379 0.012421 0.011109
0.597070 0.017975 0.017578
0.661006 0.025513 0.024781
0.723323 0.036530 0.035004
0.782467 0.048615 0.048463
0.840543 0.061219 0.060975
0.899840 0.074281 0.073182
0.959289 0.086915 0.086366
1.000000 0.098573 0.097841
0.003784 0.099519 0.003388
0.097322 0.097688 0.004700
0.182193 0.099550 0.004639
0.261357 0.097902 0.004944
0.331975 0.094087 0.005432
0.398657 0.090944 0.006165
0.465705 0.089448 0.008606
0.531762 0.089479 0.014282
0.595056 0.090913 0.019959
0.659388 0.094057 0.028199
0.721614 0.098360 0.038941
0.780667 0.102998 0.051148
0.838407 0.108705 0.062806
0.897826 0.116243 0.074342
0.957549 0.124147 0.087831
1.000000 0.132815 0.099916
0.001587 0.183078 0.000305
0.096590 0.179416 0.001556
0.175937 0.176028 0.002197
0.252811 0.172702 0.003174
0.324712 0.168338 0.004791
0.394690 0.165560 0.007965
0.462318 0.162997 0.013092
0.527855 0.161196 0.018769
0.591699 0.159976 0.025727
0.656977 0.160678 0.034424
0.718929 0.161563 0.045289
0.777859 0.162966 0.055818
0.835355 0.165072 0.066865
0.895445 0.168826 0.078981
0.955413 0.173800 0.090547
1.000000 0.179477 0.103029
0.002289 0.254002 0.002960
0.093263 0.251102 0.004608
0.169833 0.248661 0.005615
0.245945 0.245884 0.007691
0.317845 0.241672 0.011902
0.387304 0.237827 0.016693
0.454261 0.233951 0.022553
0.520500 0.231510 0.028748
0.586175 0.229923 0.035645
0.651423 0.228946 0.044312
0.712825 0.227970 0.053315
0.771756 0.226902 0.063691
0.830350 0.226810 0.072847
0.889830 0.228122 0.083467
0.948760 0.229923 0.094148
1.000000 0.233188 0.105409
0.018555 0.317510 0.018860
0.095155 0.317235 0.020325
0.167666 0.317418 0.021027
0.241154 0.316106 0.024048
0.313787 0.313817 0.027863
0.384283 0.310643 0.032532
0.452094 0.306859 0.038392
0.519341 0.303960 0.044709
0.585687 0.301488 0.050477
0.651453 0.299809 0.058289
0.712886 0.297276 0.065705
0.772885 0.295079 0.074342
0.832853 0.294102 0.084443
0.893217 0.294194 0.093843
0.952392 0.294652 0.104829
1.000000 0.294865 0.113588
0.039185 0.382361 0.039887
0.102754 0.383154 0.041138
0.168826 0.383429 0.042298
0.238254 0.382300 0.045136
0.307805 0.380163 0.047791
0.377569 0.377600 0.051362
0.446448 0.375250 0.055573
0.514366 0.372900 0.060487
0.580774 0.370214 0.065919
0.646265 0.367803 0.071107
0.707301 0.364141 0.078004
0.768154 0.361364 0.085725
0.828275 0.359289 0.094179
0.888640 0.358251 0.103609
0.948119 0.357580 0.112734
1.000000 0.356878 0.121401
0.059968 0.446815 0.060548
0.111940 0.447700 0.061646
0.171267 0.447852 0.062470
0.237339 0.447028 0.063447
0.305364 0.445624 0.065980
0.373602 0.444068 0.069215
0.442420 0.442420 0.072480
0.510124 0.440436 0.075471
0.575525 0.436896 0.079622
0.639826 0.433631 0.084413
0.701503 0.429725 0.091218
0.762936 0.426673 0.098054
0.823362 0.424048 0.104891
0.883818 0.422217 0.113252
0.943664 0.420844 0.121859
1.000000 0.419654 0.130312
0.077760 0.509667 0.076905
0.121248 0.511528 0.078706
0.175509 0.512413 0.080385
0.238865 0.512139 0.081117
0.304570 0.510918 0.082582
0.370642 0.508690 0.084565
0.436866 0.505638 0.086641
0.502892 0.503014 0.089784
0.568566 0.500359 0.092470
0.632349 0.496986 0.097200
0.694697 0.493294 0.103090
0.756558 0.490211 0.108888
0.817319 0.487221 0.115785
0.877623 0.484810 0.122194
0.937316 0.482734 0.130434
0.998322 0.482338 0.139498
0.090852 0.564233 0.090974
0.127413 0.564538 0.090547
0.177371 0.565240 0.092439
0.236149 0.565545 0.093446
0.299138 0.565545 0.095583
0.364111 0.565087 0.097169
0.430091 0.564416 0.099825
0.496162 0.563317 0.102907
0.562310 0.562371 0.106966
0.628016 0.561181 0.110780
0.691676 0.558526 0.116304
0.754330 0.555779 0.122774
0.815763 0.552850 0.129335
0.876249 0.550164 0.136080
0.936248 0.547814 0.143404
0.995239 0.545525 0.150942
0.107149 0.623865 0.108003
0.138705 0.623285 0.107454
0.182925 0.623285 0.108309
0.238041 0.623102 0.109529
0.298528 0.622827 0.110536
0.361089 0.622583 0.112154
0.425544 0.622431 0.114839
0.490303 0.621942 0.117739
0.555535 0.621515 0.121096
0.620600 0.620783 0.124788
0.685573 0.619715 0.128634
0.747524 0.616754 0.134554
0.808865 0.613764 0.139651
0.870268 0.611566 0.146883
0.931212 0.609735 0.154330
0.991821 0.608331 0.163058
0.123323 0.682338 0.124178
0.150576 0.682002 0.124300
0.191379 0.681697 0.124788
0.242344 0.681422 0.125307
0.299687 0.681270 0.126589
0.360235 0.680873 0.128481
0.422644 0.680629 0.130404
0.486030 0.680171 0.132815
0.549981 0.679713 0.135897
0.614008 0.678920 0.139193
0.677821 0.677943 0.142947
0.741268 0.676722 0.146395
0.803220 0.674464 0.151980
0.865141 0.672847 0.158541
0.926879 0.671504 0.167117
0.987945 0.670314 0.175662
0.140230 0.740475 0.140597
0.163668 0.740139 0.140597
0.200748 0.739895 0.140566
0.248417 0.739590 0.141787
0.302617 0.739193 0.142397
0.360937 0.738735 0.144289
0.421485 0.738308 0.145846
0.483345 0.737850 0.147982
0.546014 0.737453 0.150607
0.609003 0.736843 0.153475
0.672236 0.736233 0.157198
0.735439 0.735592 0.161044
0.798795 0.735042 0.165682
0.861204 0.733913 0.172091
0.923308 0.733028 0.180270
0.985412 0.732784 0.191104
0.152712 0.794797 0.152865
0.174411 0.794858 0.153567
0.208438 0.795377 0.154635
0.253880 0.795743 0.156039
0.306737 0.796353 0.157443
0.363287 0.796811 0.159792
0.422980 0.797391 0.162600
0.484108 0.797787 0.165927
0.546441 0.798367 0.169497
0.609125 0.798764 0.173617
0.672633 0.799313 0.178134
0.736172 0.799588 0.183139
0.799985 0.800107 0.189181
0.863005 0.799832 0.194705
0.924254 0.798123 0.201266
0.983642 0.795438 0.208835
0.177829 0.858915 0.178103
0.193423 0.856901 0.174990
0.222385 0.856046 0.174716
0.264317 0.855894 0.175113
0.314000 0.856291 0.176822
0.368688 0.856657 0.179019
0.426398 0.857084 0.181735
0.486122 0.857542 0.185061
0.547265 0.858183 0.189273
0.608881 0.858457 0.193362
0.671290 0.858885 0.198215
0.733822 0.859068 0.202884
0.796628 0.859312 0.208988
0.858915 0.859068 0.214389
0.920745 0.858305 0.219638
0.981415 0.856840 0.226566
0.201389 0.919646 0.201816
0.214603 0.917906 0.198917
0.240177 0.916960 0.197574
0.277897 0.916686 0.197635
0.324804 0.916838 0.199191
0.376867 0.917082 0.201785
0.432807 0.917571 0.204746
0.490700 0.917906 0.207858
0.550347 0.918334 0.212497
0.610864 0.918608 0.216526
0.672175 0.918975 0.221958
0.733913 0.919310 0.227390
0.796139 0.919951 0.234531
0.858305 0.920256 0.241550
0.920226 0.920378 0.248997
0.981109 0.919524 0.254307
0.233188 0.981720 0.233433
0.243503 0.980377 0.230014
0.265537 0.979706 0.229038
0.299504 0.979492 0.229038
0.342687 0.979614 0.231266
0.391669 0.979889 0.233707
0.445075 0.980285 0.237186
0.501183 0.980743 0.241550
0.559350 0.981415 0.246738
0.618952 0.982086 0.253147
0.679500 0.982910 0.260472
0.740658 0.983734 0.268803
0.802579 0.984894 0.278904
0.864530 0.986053 0.290257
0.926757 0.987457 0.303532
0.989014 0.989136 0.319280
0.000031 0.000275 0.093629
0.100587 0.000916 0.100862
0.189242 0.000153 0.101381
0.268254 0.000000 0.095003
0.336095 0.000000 0.091951
0.401099 0.006348 0.091035
0.465949 0.014130 0.091524
0.530907 0.021607 0.093111
0.593988 0.029267 0.095094
0.658076 0.039612 0.098421
0.720699 0.049073 0.102174
0.779477 0.060731 0.106996
0.837034 0.070436 0.112520
0.896239 0.081117 0.119295
0.955383 0.092866 0.126711
1.000000 0.103426 0.134218
0.000000 0.101289 0.101259
0.098146 0.098146 0.098146
0.184726 0.095094 0.094972
0.262058 0.093721 0.093202
0.331731 0.092561 0.092195
0.398383 0.092164 0.092226
0.464973 0.093233 0.093202
0.529961 0.094636 0.095155
0.593225 0.097200 0.096559
0.658259 0.100618 0.099916
0.720455 0.104433 0.104280
0.778897 0.109346 0.108949
0.835996 0.114290 0.113832
0.895079 0.120638 0.119753
0.954009 0.128023 0.127169
1.000000 0.135744 0.135409
0.000000 0.185428 0.097108
0.095583 0.181796 0.095552
0.178073 0.177951 0.094270
0.254948 0.174136 0.093904
0.326757 0.170504 0.094087
0.395880 0.168215 0.094697
0.462806 0.165988 0.095857
0.527977 0.164706 0.097566
0.592859 0.164126 0.100130
0.657710 0.164706 0.102876
0.718624 0.165103 0.106966
0.776516 0.166415 0.111208
0.833707 0.168063 0.116121
0.893126 0.171969 0.121950
0.952239 0.175998 0.129152
1.000000 0.180697 0.137362
0.009918 0.256748 0.097871
0.096834 0.253941 0.097078
0.172793 0.250950 0.096376
0.247745 0.247990 0.096345
0.319707 0.243992 0.097169
0.389197 0.240238 0.098421
0.456275 0.236973 0.100008
0.522972 0.234806 0.101534
0.588464 0.233005 0.104005
0.653040 0.231846 0.106874
0.714046 0.230411 0.110384
0.772335 0.229435 0.114595
0.831510 0.229892 0.119448
0.890593 0.230777 0.125978
0.948638 0.232029 0.131899
1.000000 0.234684 0.138979
0.029755 0.317723 0.100252
0.100343 0.316930 0.099855
0.168948 0.315373 0.100404
0.239872 0.313237 0.100343
0.310338 0.310430 0.101289
0.379767 0.307530 0.102449
0.447517 0.304631 0.104036
0.514794 0.302342 0.106142
0.580713 0.300023 0.108644
0.646326 0.298497 0.110628
0.708034 0.296361 0.115175
0.768551 0.294743 0.119295
0.829068 0.294011 0.125429
0.889586 0.294194 0.131807
0.949004 0.294682 0.138155
1.000000 0.295109 0.144381
0.049165 0.381842 0.105989
0.106600 0.381689 0.106935
0.169436 0.380743 0.107393
0.237217 0.379126 0.107424
0.306188 0.377142 0.107881
0.374823 0.374945 0.109285
0.442664 0.372320 0.110872
0.509819 0.369970 0.113039
0.576043 0.367559 0.115084
0.641138 0.365393 0.117342
0.703059 0.362524 0.121675
0.764370 0.360204 0.126192
0.824735 0.358404 0.131258
0.885008 0.357458 0.136843
0.944610 0.356725 0.143008
1.000000 0.356512 0.149966
0.066072 0.446876 0.114443
0.115206 0.447242 0.114839
0.172488 0.446509 0.115297
0.237278 0.445197 0.115785
0.304234 0.443458 0.116609
0.371679 0.441444 0.117952
0.439155 0.439124 0.118807
0.505852 0.436835 0.120912
0.571527 0.434180 0.122225
0.636011 0.431250 0.125399
0.697536 0.427558 0.128542
0.758816 0.424689 0.133425
0.819425 0.422156 0.137423
0.879911 0.420447 0.143130
0.939757 0.419196 0.148836
0.999512 0.418677 0.155703
0.080537 0.508690 0.121889
0.122835 0.509514 0.122713
0.176211 0.509270 0.123110
0.237766 0.508385 0.123720
0.302403 0.507012 0.124147
0.368444 0.504936 0.125216
0.434394 0.502708 0.126406
0.500328 0.500359 0.128115
0.565667 0.497902 0.129824
0.629358 0.494575 0.132448
0.691371 0.491096 0.136355
0.753079 0.488228 0.140627
0.814115 0.485542 0.145083
0.874388 0.483009 0.150088
0.934203 0.481239 0.154940
0.995392 0.480934 0.162600
0.093233 0.565972 0.128908
0.129061 0.565881 0.129641
0.178317 0.565637 0.130282
0.236240 0.565179 0.131106
0.299016 0.564569 0.132235
0.363470 0.563867 0.133089
0.429236 0.563134 0.135317
0.495094 0.562036 0.136995
0.560754 0.560754 0.139406
0.626062 0.559442 0.142641
0.689570 0.556847 0.146578
0.752071 0.554253 0.151553
0.813443 0.551385 0.155886
0.874388 0.549096 0.161105
0.935058 0.547295 0.167453
0.994995 0.545678 0.174228
0.109224 0.624018 0.140139
0.140505 0.623621 0.140383
0.184909 0.623255 0.140810
0.239048 0.622919 0.141695
0.298863 0.622644 0.142336
0.361120 0.622126 0.143862
0.424964 0.621576 0.145357
0.489296 0.620813 0.147433
0.554223 0.619928 0.149630
0.618921 0.618952 0.152773
0.683223 0.617792 0.155550
0.745388 0.615015 0.159731
0.807095 0.612421 0.164340
0.868864 0.610651 0.170199
0.930358 0.609308 0.176516
0.991638 0.608392 0.184512
0.125551 0.682399 0.152712
0.152590 0.682368 0.152590
0.192782 0.682033 0.152834
0.243656 0.681605 0.153262
0.300175 0.681117 0.154726
0.360418 0.680354 0.155398
0.422248 0.679622 0.156527
0.485298 0.678859 0.158907
0.549004 0.678279 0.161105
0.612634 0.677363 0.163424
0.676143 0.676295 0.166018
0.739528 0.675013 0.169070
0.801785 0.673304 0.174044
0.864012 0.671992 0.179904
0.926024 0.670893 0.186709
0.987457 0.669947 0.194797
0.141054 0.740108 0.165011
0.165408 0.739834 0.165072
0.201144 0.739559 0.165103
0.248875 0.739132 0.165927
0.302892 0.738796 0.166567
0.361212 0.738338 0.167483
0.421546 0.737942 0.169192
0.483223 0.737423 0.170962
0.545647 0.736843 0.173007
0.608362 0.736080 0.175235
0.671321 0.735256 0.178592
0.734310 0.734463 0.181582
0.797391 0.733761 0.184970
0.859586 0.732601 0.190890
0.921599 0.731716 0.197787
0.984009 0.731624 0.206973
0.154757 0.795529 0.175662
0.175814 0.795560 0.176150
0.209537 0.795865 0.177096
0.255100 0.796139 0.178012
0.307134 0.796567 0.179690
0.363806 0.796902 0.181308
0.423346 0.797452 0.183780
0.484230 0.797848 0.186526
0.546441 0.798337 0.189487
0.609155 0.798550 0.193423
0.672541 0.799039 0.197299
0.735897 0.799313 0.202029
0.799710 0.799832 0.207126
0.862760 0.799619 0.212314
0.924163 0.798093 0.218509
0.983795 0.795621 0.225193
0.178836 0.859373 0.197696
0.194919 0.857450 0.194827
0.223758 0.856626 0.194308
0.265446 0.856474 0.194919
0.314977 0.856748 0.196414
0.369482 0.856992 0.198550
0.426947 0.857328 0.200412
0.486427 0.857633 0.203525
0.547417 0.858152 0.206912
0.608881 0.858335 0.210788
0.671199 0.858701 0.215061
0.733730 0.858885 0.219364
0.796506 0.859220 0.224765
0.858854 0.859068 0.229892
0.920775 0.858396 0.234806
0.981537 0.857084 0.241947
0.202762 0.919890 0.218814
0.215824 0.918273 0.215854
0.241367 0.917449 0.214633
0.278965 0.917205 0.215183
0.325597 0.917327 0.216678
0.377508 0.917510 0.218570
0.433356 0.917876 0.221439
0.491096 0.918120 0.224247
0.550561 0.918425 0.227909
0.610895 0.918578 0.231907
0.672145 0.918944 0.236576
0.733852 0.919249 0.241917
0.796109 0.919829 0.248356
0.858305 0.920195 0.255009
0.920287 0.920409 0.261997
0.981231 0.919677 0.267063
0.233951 0.981933 0.247532
0.244572 0.980682 0.244785
0.266270 0.980011 0.243412
0.300481 0.979797 0.243931
0.343206 0.979980 0.245548
0.392279 0.980224 0.247776
0.445563 0.980621 0.251194
0.501579 0.981018 0.255253
0.559655 0.981567 0.259953
0.619074 0.982208 0.265721
0.679652 0.982940 0.272465
0.740688 0.983703 0.280339
0.802426 0.984771 0.289982
0.864378 0.985901 0.300542
0.926665 0.987335 0.313481
0.988891 0.989014 0.328954
0.000000 0.000061 0.197513
0.105318 0.000000 0.194278
0.186130 0.000000 0.186770
0.262974 0.000000 0.179019
0.331823 0.000366 0.171603
0.396094 0.012970 0.166842
0.460578 0.028016 0.166079
0.525139 0.039277 0.165530
0.588739 0.045869 0.164675
0.653834 0.053559 0.165286
0.716640 0.062409 0.166323
0.775784 0.072297 0.168276
0.833860 0.080690 0.170321
0.893950 0.091218 0.173678
0.953613 0.100954 0.178225
1.000000 0.110384 0.182498
0.000000 0.099275 0.192325
0.096284 0.095857 0.186221
0.180911 0.093568 0.181033
0.257176 0.093233 0.175479
0.325994 0.094636 0.170321
0.393011 0.097780 0.168338
0.459205 0.100130 0.167361
0.524376 0.101839 0.166415
0.589105 0.104616 0.165652
0.654353 0.107576 0.166476
0.716701 0.111788 0.167391
0.775479 0.116243 0.169131
0.833219 0.120760 0.171054
0.892973 0.127474 0.174136
0.952361 0.133852 0.178683
1.000000 0.141024 0.182773
0.000000 0.182406 0.182376
0.095857 0.178866 0.179049
0.175937 0.175937 0.175937
0.251164 0.173373 0.173129
0.322362 0.171603 0.171450
0.391302 0.169986 0.170169
0.458167 0.168826 0.168856
0.523491 0.167575 0.167422
0.589349 0.167697 0.167453
0.654139 0.168215 0.167849
0.715084 0.169162 0.168582
0.773220 0.170291 0.169863
0.831296 0.172396 0.172152
0.891020 0.175631 0.175204
0.950622 0.179599 0.179141
1.000000 0.184146 0.183688
0.018067 0.254185 0.175875
0.101381 0.251499 0.174594
0.173404 0.248844 0.173251
0.246220 0.246250 0.172000
0.317052 0.243229 0.170748
0.386023 0.240238 0.169894
0.452918 0.237675 0.169131
0.520256 0.235996 0.168734
0.585534 0.234470 0.168765
0.650141 0.233249 0.168978
0.710964 0.232486 0.169772
0.769558 0.231540 0.171328
0.829343 0.231937 0.174075
0.888518 0.233158 0.176730
0.946715 0.234348 0.180179
1.000000 0.236515 0.184329
0.044800 0.315587 0.171847
0.106355 0.314946 0.171450
0.170687 0.313695 0.170932
0.239933 0.311559 0.170260
0.309178 0.308965 0.169619
0.377661 0.306401 0.169192
0.445197 0.304051 0.168856
0.512200 0.302068 0.168887
0.578180 0.300053 0.169467
0.643549 0.298711 0.170199
0.705379 0.296788 0.171420
0.766323 0.295750 0.173922
0.827237 0.295262 0.176944
0.887938 0.295598 0.180392
0.947692 0.296239 0.184512
1.000000 0.296605 0.188510
0.059693 0.380560 0.171969
0.111879 0.380499 0.172152
0.171725 0.379614 0.172030
0.237949 0.377935 0.171969
0.305760 0.375982 0.171603
0.373877 0.373877 0.171145
0.441169 0.371374 0.171206
0.508171 0.369268 0.171908
0.574212 0.367224 0.172244
0.639155 0.365118 0.173007
0.701137 0.362493 0.174868
0.762600 0.360479 0.177523
0.823209 0.358892 0.180026
0.883635 0.357977 0.183505
0.943481 0.357610 0.187594
1.000000 0.357519 0.191714
0.072938 0.445655 0.174258
0.119081 0.446082 0.174502
0.174685 0.445441 0.174746
0.238193 0.444190 0.174960
0.304448 0.442481 0.174594
0.371527 0.440620 0.174777
0.438300 0.438453 0.175082
0.504845 0.436103 0.175143
0.570306 0.433478 0.175814
0.634516 0.430762 0.176791
0.696040 0.427314 0.178958
0.757443 0.424567 0.181125
0.818051 0.422217 0.183780
0.878660 0.420600 0.187045
0.938720 0.419623 0.191257
0.998871 0.419226 0.196017
0.084169 0.507805 0.176761
0.124941 0.508782 0.177127
0.177401 0.508537 0.177676
0.238376 0.507652 0.177432
0.302647 0.506157 0.178073
0.368170 0.504204 0.177859
0.433967 0.501946 0.177798
0.499702 0.499763 0.178470
0.564874 0.497292 0.179049
0.628382 0.494087 0.180880
0.690394 0.490791 0.182956
0.752193 0.487922 0.185519
0.813107 0.485359 0.188449
0.873350 0.483101 0.191592
0.933440 0.481392 0.195102
0.994751 0.481086 0.200656
0.096254 0.565454 0.178958
0.130983 0.565301 0.179385
0.179477 0.565057 0.179690
0.237125 0.564599 0.180148
0.299351 0.563989 0.180728
0.363714 0.563256 0.181247
0.428962 0.562585 0.182620
0.494697 0.561456 0.183749
0.560113 0.560296 0.185489
0.625422 0.558953 0.187594
0.688838 0.556420 0.190494
0.751278 0.553948 0.193484
0.812589 0.551202 0.196902
0.873716 0.549065 0.200320
0.934569 0.547478 0.204868
0.994690 0.546014 0.210269
0.111910 0.623621 0.186069
0.142306 0.623377 0.185946
0.186191 0.623041 0.186252
0.239872 0.622736 0.186557
0.299443 0.622522 0.187594
0.361578 0.621973 0.188144
0.425208 0.621271 0.189242
0.489448 0.620508 0.190707
0.554070 0.619684 0.192355
0.618616 0.618708 0.194034
0.682643 0.617365 0.196262
0.744778 0.614649 0.199405
0.806455 0.612299 0.202609
0.868376 0.610651 0.206729
0.930022 0.609400 0.211826
0.991424 0.608576 0.217929
0.128359 0.682155 0.194400
0.154818 0.682216 0.194217
0.194553 0.681941 0.194522
0.244877 0.681544 0.194919
0.301366 0.680934 0.195193
0.360906 0.680293 0.196262
0.422614 0.679561 0.197116
0.485542 0.678859 0.198062
0.549157 0.678096 0.199863
0.612482 0.677150 0.201755
0.675837 0.675990 0.203922
0.739101 0.674739 0.205936
0.801419 0.673121 0.209476
0.863737 0.671901 0.214359
0.925780 0.670954 0.219913
0.987274 0.670130 0.226169
0.143923 0.739864 0.203037
0.166903 0.739712 0.202670
0.202670 0.739345 0.203189
0.250004 0.739010 0.203403
0.303960 0.738674 0.204105
0.361791 0.738338 0.204440
0.422065 0.737911 0.205753
0.483528 0.737331 0.207126
0.545861 0.736690 0.208713
0.608484 0.735958 0.210391
0.671351 0.735103 0.212650
0.734188 0.734310 0.215244
0.797177 0.733639 0.217960
0.859373 0.732509 0.222599
0.921416 0.731594 0.228000
0.983795 0.731594 0.235721
0.156313 0.795712 0.210513
0.177737 0.795712 0.210849
0.211276 0.796017 0.211429
0.255863 0.796262 0.212100
0.308019 0.796658 0.213474
0.364508 0.796963 0.215274
0.423743 0.797513 0.217136
0.484535 0.797848 0.219425
0.546838 0.798337 0.222538
0.609369 0.798642 0.225193
0.672694 0.799100 0.228702
0.736049 0.799405 0.232731
0.799771 0.799954 0.237522
0.862760 0.799649 0.241123
0.924132 0.798123 0.246677
0.983856 0.795712 0.251652
0.180728 0.859434 0.228428
0.196139 0.857603 0.226017
0.225376 0.856840 0.225437
0.266484 0.856657 0.225559
0.315892 0.856931 0.227146
0.369940 0.857145 0.228824
0.427405 0.857481 0.230625
0.486885 0.857816 0.232944
0.547753 0.858305 0.236362
0.609247 0.858488 0.239506
0.671443 0.858824 0.243351
0.733944 0.858946 0.247196
0.796628 0.859312 0.251865
0.859007 0.859098 0.256565
0.920806 0.858457 0.260227
0.981659 0.857206 0.266484
0.204074 0.919982 0.246006
0.216678 0.918425 0.243290
0.241855 0.917632 0.242222
0.279850 0.917357 0.242679
0.326207 0.917479 0.243687
0.378027 0.917693 0.245701
0.433692 0.918090 0.248051
0.491493 0.918303 0.250645
0.550805 0.918547 0.253788
0.611170 0.918730 0.257176
0.672419 0.919036 0.261265
0.734096 0.919371 0.266209
0.796323 0.919951 0.272038
0.858396 0.920317 0.278141
0.920378 0.920531 0.284398
0.981353 0.919799 0.289067
0.234745 0.982055 0.270909
0.244907 0.980835 0.268040
0.266758 0.980163 0.267124
0.300694 0.979980 0.267185
0.343786 0.980194 0.268864
0.392645 0.980407 0.271000
0.445838 0.980804 0.273960
0.501884 0.981170 0.277653
0.559930 0.981720 0.282170
0.619409 0.982361 0.287449
0.679896 0.983093 0.293919
0.740932 0.983825 0.300877
0.802670 0.984894 0.309728
0.864561 0.985992 0.319829
0.926787 0.987396 0.331853
0.988983 0.989105 0.346563
0.000214 0.000244 0.276646
0.099550 0.000061 0.272648
0.179416 0.000061 0.264927
0.256046 0.000000 0.256321
0.326116 0.001831 0.247227
0.392126 0.014374 0.240482
0.457435 0.027497 0.236790
0.521660 0.041138 0.234134
0.585229 0.053468 0.232578
0.650080 0.062531 0.232303
0.712886 0.071534 0.232151
0.772274 0.081605 0.232029
0.831113 0.090455 0.232334
0.891814 0.100038 0.234043
0.951751 0.109682 0.236332
1.000000 0.117983 0.238224
0.000000 0.095918 0.269413
0.093904 0.094148 0.263676
0.175418 0.092744 0.257389
0.251255 0.092592 0.251194
0.321721 0.093965 0.244663
0.389929 0.097414 0.240482
0.455818 0.101167 0.237308
0.520348 0.105074 0.234897
0.585595 0.108736 0.233829
0.650782 0.112276 0.233555
0.712886 0.116762 0.232670
0.771908 0.121981 0.232486
0.830686 0.127321 0.232853
0.890745 0.133669 0.234318
0.950469 0.139803 0.236454
1.000000 0.147036 0.238499
0.004456 0.177676 0.259098
0.097719 0.175448 0.254856
0.173434 0.173434 0.250889
0.247776 0.171847 0.247898
0.318608 0.170901 0.243992
0.387366 0.170321 0.240970
0.453986 0.170138 0.238560
0.519829 0.169680 0.236393
0.585565 0.170047 0.235325
0.650538 0.170474 0.233982
0.711452 0.171725 0.233158
0.769863 0.173495 0.232670
0.828824 0.176333 0.233310
0.888914 0.179782 0.234531
0.948791 0.183841 0.236728
1.000000 0.188296 0.239231
0.022461 0.251041 0.250828
0.101869 0.248692 0.248875
0.173098 0.246159 0.246342
0.244114 0.244114 0.244114
0.313909 0.241825 0.241825
0.382300 0.239750 0.239872
0.449805 0.237766 0.237705
0.516899 0.236545 0.236393
0.582177 0.235019 0.235111
0.646723 0.234043 0.233921
0.707820 0.233433 0.233310
0.766751 0.233402 0.232975
0.827085 0.234318 0.234287
0.886534 0.235630 0.235416
0.945037 0.236912 0.236637
1.000000 0.238834 0.238407
0.046967 0.313359 0.241245
0.107942 0.312505 0.240909
0.171878 0.311162 0.240208
0.238956 0.309422 0.239139
0.307164 0.307347 0.237613
0.375372 0.305241 0.236423
0.442695 0.303075 0.235416
0.509819 0.301518 0.234348
0.575555 0.299809 0.233371
0.640864 0.298375 0.233371
0.702693 0.297093 0.233402
0.764248 0.296757 0.234653
0.825376 0.296574 0.235935
0.886229 0.297215 0.237858
0.946227 0.297948 0.240116
1.000000 0.298344 0.242161
0.063447 0.378943 0.239170
0.114839 0.378668 0.239048
0.173098 0.377722 0.238804
0.238102 0.376287 0.238071
0.304814 0.374426 0.237003
0.372473 0.372503 0.236179
0.439521 0.370184 0.235264
0.506188 0.368353 0.234958
0.572137 0.366461 0.234531
0.637110 0.364630 0.234440
0.699153 0.362463 0.235203
0.760708 0.360845 0.236240
0.821439 0.359564 0.237430
0.882109 0.358953 0.239353
0.942168 0.358526 0.241581
1.000000 0.358709 0.244236
0.076234 0.443763 0.238315
0.121401 0.444190 0.238865
0.175357 0.443671 0.238651
0.238132 0.442573 0.238315
0.303929 0.441016 0.237919
0.370459 0.439338 0.237369
0.437232 0.437263 0.236820
0.503319 0.434943 0.236515
0.568688 0.432471 0.235935
0.632746 0.429999 0.236210
0.694362 0.426886 0.236667
0.755703 0.424567 0.237919
0.816526 0.422522 0.239506
0.877287 0.421057 0.241154
0.937591 0.420233 0.243473
0.998047 0.419928 0.246464
0.087007 0.506401 0.238010
