luts/FUJI_NOSTALGIC_NEG.cube
TITLE "Generated for krafta web app"
LUT_3D_SIZE 25
#INPUTGAMMA sRGB
#IMAGEPROFILE sRGB
#OUTPUTGAMMA sRGB
0.000000 0.000000 0.000000
0.051055 0.006561 0.001085
0.104884 0.013760 0.001105
0.155529 0.021219 0.001437
0.197140 0.027120 0.000773
0.236952 0.033059 0.000086
0.281406 0.038837 -0.000010
0.336011 0.045639 0.000000
0.400254 0.054609 0.000000
0.465166 0.064380 0.000000
0.519398 0.072816 0.000000
0.554658 0.077379 0.000000
0.578019 0.079960 0.000000
0.597640 0.082626 0.000000
0.624628 0.086586 0.000000
0.665515 0.092696 0.000000
0.706091 0.098576 0.000000
0.743968 0.104092 0.000000
0.777883 0.109629 0.000000
0.812435 0.114094 0.000000
0.841060 0.118242 0.000000
0.867929 0.122253 0.000000
0.892673 0.125953 0.000000
0.916614 0.129198 0.000000
0.941467 0.131734 0.000000
0.001137 0.036252 0.001193
0.048673 0.045319 0.002262
0.101392 0.051496 0.002116
0.154396 0.057869 0.001845
0.196390 0.062316 0.000780
0.237026 0.067268 0.000084
0.279706 0.072975 -0.000010
0.333962 0.079474 0.000000
0.402808 0.089429 0.000000
0.470334 0.098736 0.000000
0.524435 0.106438 0.000000
0.560507 0.111291 0.000000
0.583641 0.113928 0.000000
0.605726 0.116820 0.000000
0.635204 0.120900 0.000000
0.673444 0.126444 0.000000
0.716133 0.132614 0.000000
0.752841 0.138500 0.000000
0.786071 0.143800 0.000000
0.822772 0.148106 0.000000
0.852457 0.152139 0.000000
0.879793 0.156175 0.000000
0.905324 0.160121 0.000000
0.930432 0.163097 0.000000
0.957157 0.163857 0.000000
0.000933 0.071541 0.001427
0.041155 0.081168 0.002628
0.099205 0.088824 0.003037
0.151036 0.094399 0.002125
0.195123 0.098621 0.000872
0.234616 0.102454 0.000085
0.278253 0.107612 -0.000012
0.328601 0.115463 0.000000
0.397599 0.125473 0.000000
0.468178 0.134678 0.000000
0.523794 0.141804 0.000000
0.560484 0.146810 0.000000
0.583593 0.149890 0.000000
0.604309 0.152418 0.000000
0.633477 0.156179 0.000000
0.678387 0.163064 0.000000
0.721957 0.169057 0.000000
0.759957 0.174039 0.000000
0.792462 0.178138 0.000000
0.827817 0.183291 0.000000
0.859053 0.187077 0.000000
0.887178 0.190338 0.000000
0.914144 0.193630 0.000000
0.942338 0.194896 0.000000
0.972315 0.190664 -0.000001
0.000029 0.104174 0.001084
0.033037 0.113215 0.001848
0.092512 0.121107 0.002873
0.147405 0.127006 0.002034
0.193966 0.131696 0.000728
0.233394 0.134829 0.000045
0.276281 0.139503 -0.000054
0.323260 0.145436 -0.000009
0.391430 0.155877 0.000000
0.461916 0.165708 0.000000
0.517308 0.171952 0.000000
0.553634 0.176417 0.000000
0.578041 0.179665 0.000000
0.597897 0.182454 0.000000
0.625458 0.186698 0.000000
0.669689 0.194248 0.000000
0.713444 0.200686 0.000000
0.754156 0.206455 0.000000
0.790485 0.210881 0.000000
0.828929 0.214516 0.000000
0.856624 0.218063 0.000000
0.883839 0.221939 0.000000
0.915448 0.223071 0.000000
0.951763 0.219811 0.000000
0.986767 0.214026 0.000000
-0.000013 0.133302 0.000881
0.026563 0.142192 0.000793
0.085243 0.151158 0.002557
0.141080 0.157824 0.002716
0.189834 0.162730 0.001927
0.233197 0.166970 0.001016
0.276530 0.170637 0.000343
0.325520 0.175381 0.000025
0.388495 0.183632 -0.000010
0.452131 0.192683 0.000000
0.514920 0.200173 0.000000
0.549131 0.204017 0.000000
0.573107 0.207341 0.000000
0.594267 0.210262 0.000000
0.622649 0.214511 0.000000
0.661190 0.221084 0.000000
0.702667 0.227603 0.000000
0.741600 0.233485 0.000000
0.782564 0.238132 0.000000
0.824206 0.240893 0.000000
0.851946 0.243532 0.000000
0.876998 0.248188 0.000000
0.912118 0.246295 0.000000
0.955797 0.238811 0.000000
0.989286 0.239521 0.000000
0.000000 0.161601 0.000290
0.020973 0.170312 0.000072
0.078446 0.180110 0.001149
0.134555 0.188360 0.001681
0.183158 0.193087 0.002787
0.229268 0.197544 0.003056
0.274770 0.201538 0.001456
0.328921 0.206398 0.000302
0.391565 0.212556 0.000006
0.451985 0.219944 -0.000001
0.513536 0.227200 0.000000
0.547113 0.231293 0.000000
0.569334 0.234347 0.000000
0.589905 0.237185 0.000000
0.617930 0.241145 0.000000
0.656527 0.246865 0.000000
0.700439 0.254028 0.000000
0.737378 0.258495 0.000000
0.777360 0.262821 0.000000
0.818877 0.265775 0.000000
0.848728 0.268703 0.000000
0.877915 0.270269 0.000000
0.915422 0.266966 0.000000
0.958708 0.261660 0.000000
0.991917 0.263499 0.000000
0.000000 0.189737 -0.000037
0.015733 0.198221 -0.000016
0.071899 0.208416 -0.000157
0.127960 0.217251 -0.000018
0.177188 0.222962 0.001060
0.222607 0.227288 0.003036
0.270025 0.231348 0.003143
0.326203 0.236263 0.001658
0.394805 0.242567 0.000213
0.460903 0.249846 -0.000012
0.511334 0.255226 0.000000
0.545090 0.259141 0.000000
0.566060 0.261772 0.000000
0.584789 0.263982 0.000000
0.610540 0.267300 0.000000
0.649373 0.272312 0.000000
0.699839 0.280409 0.000000
0.739210 0.284147 0.000000
0.778804 0.288237 0.000000
0.817376 0.290625 0.000000
0.848231 0.295106 0.000000
0.887280 0.291147 0.000000
0.928841 0.286350 0.000000
0.965323 0.286948 0.000000
0.993236 0.289427 0.000000
0.000000 0.218732 0.000000
0.011544 0.226727 0.000000
0.065024 0.236468 0.000002
0.120750 0.245409 -0.000061
0.170582 0.251766 0.000377
0.216462 0.257425 0.000729
0.264615 0.262172 0.004577
0.323796 0.267726 0.004763
0.392260 0.272971 0.001140
0.461404 0.279656 -0.000068
0.515059 0.285703 -0.000001
0.547135 0.289251 0.000000
0.566393 0.291106 0.000000
0.584650 0.293194 0.000000
0.610080 0.296056 0.000000
0.647830 0.300421 0.000000
0.691294 0.305905 0.000000
0.734614 0.310309 0.000000
0.778654 0.313040 0.000000
0.817054 0.316971 0.000000
0.846760 0.322666 0.000000
0.893097 0.316096 0.000000
0.939627 0.310661 0.000000
0.972330 0.313954 0.000000
0.995517 0.316969 0.000000
0.000000 0.247826 0.000000
0.008193 0.255591 0.000000
0.056657 0.265335 0.000000
0.112225 0.274599 -0.000123
0.163002 0.281889 0.001283
0.210166 0.287290 0.003044
0.259199 0.293122 0.004335
0.318490 0.298636 0.007874
0.390509 0.304663 0.003701
0.457727 0.310650 0.000212
0.514178 0.316413 -0.000040
0.548438 0.319908 -0.000004
0.570434 0.322365 0.000000
0.589286 0.324399 0.000001
0.614444 0.327006 0.000000
0.649759 0.330341 0.000000
0.681877 0.333073 0.000000
0.726059 0.337326 0.000000
0.766465 0.337028 0.000000
0.811438 0.343514 0.000000
0.848214 0.348895 0.000000
0.896891 0.342774 0.000000
0.944876 0.338238 0.000000
0.978564 0.341989 0.000000
0.996905 0.345403 -0.000002
0.000000 0.276746 0.000000
0.005058 0.284214 0.000000
0.048275 0.294004 0.000000
0.103536 0.303232 0.000009
0.153768 0.311671 -0.000514
0.202911 0.318357 0.004810
0.252623 0.324936 0.007301
0.312252 0.330743 0.009752
0.385163 0.337436 0.007373
0.454489 0.343367 0.002332
0.509529 0.347555 0.000209
0.544526 0.350508 -0.000011
0.566846 0.352680 0.000001
0.585715 0.354595 -0.000004
0.611348 0.357085 0.000000
0.650074 0.360663 0.000000
0.687876 0.364028 0.000000
0.723466 0.363625 0.000000
0.755939 0.363332 0.000000
0.793092 0.368407 0.000000
0.853049 0.368787 0.000000
0.902710 0.366093 0.000000
0.942202 0.366379 0.000000
0.974859 0.370618 0.000000
0.995656 0.373039 0.000000
0.000000 0.305545 0.000000
0.003511 0.312466 0.000000
0.039721 0.322350 0.000000
0.093698 0.332411 0.000000
0.144613 0.340973 -0.000172
0.193639 0.348428 0.001996
0.243806 0.356922 0.003776
0.304191 0.363785 0.007225
0.377999 0.369914 0.009541
0.449936 0.376811 0.005449
0.505841 0.380931 0.001757
0.539654 0.383016 0.000110
0.561566 0.384313 -0.000011
0.581169 0.385926 -0.000051
0.607779 0.388109 0.000001
0.645828 0.391224 0.000000
0.685931 0.394728 0.000000
0.724546 0.393160 0.000000
0.765447 0.394858 0.000000
0.799206 0.399671 0.000000
0.854902 0.394203 0.000001
0.902293 0.392057 -0.000012
0.940132 0.395524 -0.000014
0.970540 0.400166 0.000001
0.988853 0.400372 0.000000
0.000000 0.343867 0.000000
0.001377 0.350662 0.000000
0.027772 0.360513 0.000000
0.079842 0.370792 0.000000
0.130623 0.379928 0.000010
0.179333 0.388283 -0.000186
0.230187 0.396983 0.000409
0.291950 0.406271 0.003810
0.368112 0.413246 0.010792
0.440205 0.418959 0.007745
0.496850 0.423249 0.003425
0.532279 0.425711 0.001373
0.554985 0.426843 0.000568
0.574883 0.427810 0.000085
0.602160 0.429166 -0.000222
0.642947 0.432126 -0.000098
0.686044 0.436584 -0.000055
0.732893 0.437301 -0.000047
0.775646 0.439589 -0.000101
0.816512 0.445219 -0.000110
0.874485 0.433582 -0.000187
0.913640 0.431955 0.000019
0.941094 0.437499 -0.000153
0.967263 0.440696 -0.000557
0.988689 0.437710 0.000000
0.000000 0.384108 0.000000
-0.000114 0.390800 0.000000
0.016977 0.401422 0.000000
0.063555 0.412697 0.000000
0.113996 0.421897 0.000000
0.163753 0.430127 -0.000012
0.214837 0.439007 -0.000088
0.278408 0.448103 0.003949
0.354961 0.458371 0.007240
0.427159 0.464393 0.010787
0.484828 0.468894 0.005887
0.521655 0.471588 0.004052
0.546074 0.473331 0.003708
0.568455 0.475428 0.003330
0.598907 0.478358 0.002715
0.640924 0.481761 0.001416
0.685810 0.485376 0.000781
0.734114 0.488306 0.000657
0.776208 0.491710 0.001443
0.817936 0.497177 0.001575
0.866302 0.486814 0.001942
0.899230 0.488390 0.006452
0.924453 0.493676 0.009849
0.950460 0.491226 0.007468
0.973210 0.481708 0.000003
0.000000 0.404070 0.000000
-0.000568 0.411184 0.000000
0.011970 0.422162 0.000000
0.055808 0.433442 0.000000
0.105427 0.443202 0.000000
0.155649 0.451607 -0.000002
0.207427 0.460359 -0.000035
0.269915 0.470558 0.001113
0.348453 0.480343 0.008358
0.420384 0.487517 0.008300
0.479384 0.491889 0.007177
0.516708 0.494933 0.006037
0.541430 0.497146 0.005385
0.564264 0.499444 0.005253
0.595589 0.502715 0.005040
0.639837 0.507048 0.003831
0.687951 0.512712 0.004081
0.734793 0.517144 0.004861
0.776279 0.521121 0.006337
0.815039 0.526175 0.007437
0.860002 0.517036 0.007318
0.890604 0.519627 0.011625
0.915794 0.524053 0.014136
0.943974 0.519426 0.009745
0.969864 0.508764 0.000358
0.000000 0.422805 0.000000
-0.000606 0.430449 0.000000
0.008207 0.441455 0.000000
0.048823 0.452913 0.000000
0.098015 0.462952 0.000000
0.148043 0.471597 0.000001
0.201184 0.480499 0.000005
0.263470 0.491292 -0.000121
0.341586 0.501472 0.006566
0.415314 0.509023 0.009506
0.475111 0.513755 0.009359
0.514222 0.517595 0.008245
0.539943 0.520272 0.007593
0.563772 0.523131 0.007668
0.596272 0.527085 0.007863
0.641847 0.532355 0.007338
0.691130 0.539371 0.008174
0.734801 0.544678 0.010025
0.773894 0.548325 0.011829
0.810529 0.552774 0.013323
0.853583 0.545168 0.012988
0.883692 0.548621 0.016614
0.909747 0.552083 0.017727
0.939924 0.545777 0.011476
0.968799 0.535645 0.000867
0.000000 0.447842 0.000000
-0.000363 0.456157 0.000000
0.004751 0.467302 0.000000
0.039912 0.478934 0.000000
0.089113 0.488956 0.000000
0.139664 0.498175 0.000000
0.193865 0.507436 0.000000
0.256838 0.518203 -0.000022
0.332317 0.529734 0.001791
0.408426 0.537743 0.009642
0.471202 0.543390 0.010561
0.513622 0.547908 0.011292
0.540784 0.551363 0.011005
0.565615 0.555115 0.011569
0.598930 0.560273 0.012488
0.644146 0.566504 0.013041
0.691525 0.574107 0.014395
0.730857 0.580118 0.017268
0.767263 0.583582 0.019458
0.803255 0.587451 0.020906
0.844784 0.582439 0.020381
0.876201 0.586497 0.022437
0.904363 0.588027 0.021525
0.936364 0.579842 0.013637
0.968436 0.571337 0.001720
0.000000 0.475344 0.000000
-0.000225 0.484107 0.000000
0.002312 0.495746 0.000000
0.030760 0.507604 0.000000
0.081296 0.517954 0.000000
0.134527 0.527773 0.000000
0.188443 0.537173 0.000000
0.250620 0.547406 0.000000
0.324419 0.559051 -0.000373
0.400766 0.569320 0.001289
0.469323 0.576369 0.007460
0.513236 0.580814 0.013751
0.539978 0.584799 0.014917
0.563935 0.588944 0.016113
0.595534 0.594521 0.017376
0.637827 0.601214 0.018670
0.682133 0.608978 0.021529
0.721292 0.616102 0.024514
0.759400 0.621322 0.027141
0.796376 0.625175 0.028610
0.836981 0.622910 0.027274
0.869728 0.625927 0.026827
0.899351 0.625921 0.024647
0.932227 0.618029 0.016972
0.967169 0.609489 0.003238
0.000000 0.502731 0.000000
-0.000108 0.511986 0.000000
0.000106 0.524021 0.000000
0.024371 0.537456 0.000000
0.078325 0.548762 0.000000
0.131797 0.558084 0.000000
0.185372 0.566807 0.000000
0.245973 0.576455 0.000000
0.320270 0.587698 0.000013
0.400750 0.600178 0.000118
0.468189 0.610606 0.005261
0.509235 0.616209 0.011470
0.534629 0.619847 0.015792
0.557245 0.623458 0.018592
0.587514 0.628742 0.021546
0.629724 0.636634 0.024979
0.674757 0.645161 0.030672
0.716116 0.652198 0.032791
0.754636 0.657901 0.033337
0.792026 0.662313 0.034556
0.830155 0.662185 0.032643
0.863207 0.663232 0.030699
0.893164 0.663982 0.029274
0.925680 0.660379 0.023312
0.963172 0.650295 0.005950
0.000000 0.530009 0.000000
-0.000039 0.540190 0.000000
-0.001478 0.553833 0.000000
0.024237 0.567849 0.000000
0.079283 0.578898 0.000000
0.131663 0.587176 0.000000
0.183028 0.595430 0.000000
0.243533 0.604657 0.000000
0.322705 0.617174 -0.000008
0.402505 0.632140 0.000049
0.463637 0.643873 0.000354
0.503565 0.650425 0.001911
0.528002 0.653873 0.005198
0.548486 0.656613 0.012610
0.577235 0.661100 0.022788
0.624501 0.671080 0.028584
0.673256 0.681318 0.035718
0.713250 0.687088 0.035369
0.752769 0.692308 0.036672
0.790024 0.696880 0.037304
0.825169 0.700355 0.036154
0.857799 0.701883 0.034188
0.887973 0.701618 0.033002
0.919663 0.698412 0.027457
0.956972 0.690624 0.008547
0.000000 0.558468 0.000000
0.000002 0.570693 0.000000
-0.002398 0.584265 0.000000
0.024051 0.597907 0.000000
0.077684 0.609031 0.000000
0.129852 0.616615 0.000000
0.182880 0.624645 0.000000
0.248632 0.634345 0.000000
0.327269 0.648921 0.000066
0.402513 0.662907 0.000400
0.460457 0.673333 0.001491
0.496956 0.680081 0.001636
0.519936 0.684082 0.001845
0.540415 0.687137 0.003515
0.568296 0.691000 0.005499
0.609149 0.696875 0.004973
0.656989 0.705478 0.009442
0.698917 0.711266 0.009593
0.745149 0.719738 0.027780
0.786098 0.725716 0.029575
0.823380 0.731126 0.028923
0.854992 0.735561 0.030989
0.883427 0.738107 0.034362
0.913965 0.737254 0.030891
0.949450 0.732075 0.011764
0.000000 0.586652 0.000000
0.000002 0.599750 0.000000
-0.002657 0.615291 0.000000
0.027162 0.629774 0.000000
0.081316 0.639780 0.000000
0.134648 0.645821 0.000000
0.191081 0.653862 0.000000
0.253443 0.665381 -0.000001
0.326842 0.678637 0.000500
0.396292 0.692229 0.001887
0.453972 0.703123 0.002384
0.489007 0.708489 0.001950
0.511186 0.711341 0.001150
0.530419 0.713754 0.000394
0.556716 0.717156 -0.000380
0.596627 0.722887 -0.000304
0.643657 0.730313 0.000259
0.686834 0.736286 0.001077
0.731386 0.744390 0.010106
0.774385 0.751670 0.010678
0.813665 0.758074 0.009846
0.848546 0.763687 0.012881
0.879149 0.769001 0.023203
0.908896 0.772630 0.029943
0.941356 0.771679 0.012905
0.000000 0.612515 0.000000
-0.000014 0.626505 0.000000
-0.002732 0.641988 0.000000
0.032130 0.655810 0.000000
0.091473 0.665112 0.000000
0.139406 0.671048 0.000000
0.187388 0.678932 0.000000
0.250419 0.688610 0.000000
0.319377 0.703812 -0.000020
0.385580 0.715903 -0.000076
0.439386 0.725088 -0.000097
0.471487 0.730197 -0.000080
0.491951 0.733280 -0.000050
0.510488 0.735784 -0.000024
0.537693 0.739635 0.000000
0.583194 0.747369 0.000006
0.631184 0.755407 0.000182
0.675599 0.762361 0.000799
0.719860 0.770054 0.003364
0.762628 0.777108 0.005716
0.802749 0.784079 0.007129
0.838991 0.790292 0.007873
0.871186 0.795735 0.009895
0.901510 0.800980 0.012425
0.931931 0.806415 0.011779
0.000000 0.639601 0.000000
-0.000265 0.654893 0.000000
0.002028 0.668530 0.000000
0.045649 0.680439 0.000000
0.093612 0.688132 0.000000
0.138069 0.693628 0.000000
0.192549 0.700618 0.000000
0.249401 0.712836 0.000000
0.308711 0.724686 0.000000
0.371771 0.734927 0.000000
0.422593 0.744970 0.000000
0.459187 0.751939 0.000000
0.484991 0.756374 0.000000
0.506525 0.759839 0.000000
0.535663 0.764572 -0.000019
0.579739 0.772597 0.000147
0.629670 0.781692 0.003179
0.671901 0.787742 0.003919
0.710279 0.792784 0.003242
0.750358 0.799005 0.004001
0.789705 0.806071 0.005072
0.826620 0.813012 0.005521
0.859463 0.819117 0.005882
0.889682 0.824618 0.006743
0.919892 0.830420 0.008497
0.000000 0.669027 0.000000
-0.000461 0.682051 0.000000
0.006669 0.693376 0.000000
0.043581 0.702743 0.000000
0.099239 0.708708 0.000000
0.145239 0.715350 0.000000
0.191655 0.724644 0.000000
0.236958 0.730910 0.000000
0.293188 0.742352 0.000000
0.353953 0.756789 0.000000
0.415902 0.768646 0.000000
0.455016 0.775792 0.000000
0.479769 0.780147 0.000000
0.499294 0.782809 0.000000
0.525251 0.785993 0.000000
0.565305 0.791455 -0.000002
0.609028 0.797279 -0.000044
0.650915 0.803180 -0.000056
0.692385 0.809589 -0.000049
0.735053 0.816962 0.000002
0.774770 0.824090 0.000664
0.812318 0.831049 0.001026
0.846151 0.837499 0.001092
0.877323 0.843563 0.001459
0.908004 0.849622 0.002749
0.000000 0.696639 -0.000002
-0.000836 0.710160 0.000000
0.013968 0.721866 0.000000
0.061526 0.729725 -0.000001
0.107300 0.732829 0.000000
0.147644 0.738694 0.000000
0.186097 0.745985 0.000000
0.228484 0.754380 0.000000
0.278672 0.767847 0.000000
0.351347 0.781549 0.000000
0.410756 0.792039 0.000000
0.446022 0.798070 0.000000
0.468667 0.801310 0.000000
0.485997 0.802749 0.000000
0.509164 0.804228 0.000027
0.547464 0.807998 0.000043
0.592890 0.814519 0.000000
0.634938 0.820377 0.000056
0.675915 0.826612 0.000062
0.717119 0.833345 0.000000
0.756361 0.840242 0.000000
0.794727 0.847438 0.000000
0.829588 0.854260 0.000000
0.861678 0.860871 0.000275
0.893825 0.867622 0.000001
0.004992 0.016649 0.057053
0.054909 0.021726 0.047042
0.104901 0.027663 0.039217
0.158506 0.035035 0.033399
0.200647 0.040102 0.027910
0.241799 0.045443 0.023209
0.285421 0.051122 0.018538
0.338226 0.057413 0.012850
0.402541 0.066070 0.009879
0.468194 0.075231 0.007216
0.522360 0.082751 0.004803
0.558670 0.087368 0.003218
0.582672 0.090130 0.002337
0.602569 0.092719 0.001981
0.629342 0.096409 0.001740
0.669543 0.102101 0.001379
0.708656 0.107553 0.001278
0.745767 0.113561 0.001314
0.780587 0.118904 0.001270
0.817765 0.122739 0.000721
0.845943 0.126504 0.000504
0.872537 0.130059 0.000323
0.898083 0.133415 0.000156
0.922823 0.136538 0.000029
0.947857 0.139174 -0.000091
0.007549 0.048370 0.056420
0.049790 0.049184 0.047226
0.095835 0.053185 0.041945
0.147951 0.060631 0.037404
0.189630 0.066191 0.033166
0.235038 0.071621 0.027816
0.283362 0.078270 0.023018
0.337374 0.084785 0.017375
0.401821 0.094184 0.015289
0.468640 0.103722 0.012761
0.523931 0.112000 0.011136
0.561034 0.116747 0.008575
0.585527 0.119245 0.005916
0.605361 0.122063 0.004897
0.631484 0.126257 0.004240
0.670055 0.132601 0.003548
0.708883 0.138856 0.003238
0.745992 0.145058 0.003132
0.782300 0.151204 0.002928
0.824655 0.154046 0.001652
0.853829 0.157498 0.001316
0.881924 0.160212 0.000850
0.908822 0.162789 0.000397
0.933843 0.165209 0.000183
0.958815 0.166157 0.000033
0.003366 0.083843 0.052499
0.047975 0.085485 0.045521
0.100042 0.089909 0.044141
0.146503 0.093643 0.040235
0.186627 0.098004 0.036800
0.225223 0.103478 0.033827
0.265197 0.109575 0.029231
0.328309 0.119304 0.022819
0.396002 0.128271 0.018146
0.464432 0.137283 0.015279
0.521369 0.144803 0.012927
0.556790 0.149824 0.011929
0.580819 0.153391 0.011316
0.601472 0.156183 0.009931
0.629448 0.159907 0.008052
0.669550 0.165528 0.007025
0.711806 0.171406 0.006040
0.750556 0.176840 0.005394
0.788257 0.182062 0.004338
0.823729 0.187420 0.003595
0.852986 0.191176 0.002680
0.884154 0.192022 0.001655
0.914915 0.191269 0.000776
0.942319 0.191027 0.000262
0.965375 0.192394 0.000162
0.001083 0.115603 0.047825
0.040215 0.117787 0.041074
0.097175 0.123544 0.042857
0.150131 0.127651 0.041105
0.191769 0.130973 0.038401
0.229077 0.134155 0.035618
0.264738 0.138401 0.033271
0.313549 0.147068 0.028382
0.383361 0.157252 0.021062
0.453654 0.166451 0.017849
0.514187 0.174637 0.015109
0.554514 0.180554 0.013378
0.578500 0.184009 0.012558
0.598710 0.186903 0.011889
0.625991 0.190713 0.010941
0.666331 0.196076 0.009284
0.707262 0.201609 0.007800
0.747580 0.207472 0.006781
0.785124 0.212899 0.005757
0.823329 0.216861 0.004730
0.852993 0.221362 0.003609
0.885059 0.220013 0.002327
0.917049 0.218331 0.001220
0.945583 0.219853 0.000523
0.969377 0.221404 0.000210
0.000398 0.144710 0.044192
0.033958 0.146744 0.037305
0.090059 0.153751 0.040174
0.144747 0.159137 0.040103
0.192670 0.162377 0.038966
0.236171 0.165852 0.036434
0.275603 0.168475 0.034135
0.320986 0.174643 0.032229
0.378258 0.184866 0.025195
0.440364 0.192424 0.020331
0.505077 0.201407 0.017867
0.548063 0.207866 0.015800
0.574219 0.211783 0.014529
0.595444 0.214859 0.013549
0.623621 0.218833 0.012342
0.665310 0.224535 0.010790
0.706010 0.229829 0.009449
0.743149 0.234968 0.008329
0.781936 0.239621 0.007099
0.824132 0.242858 0.005837
0.854684 0.245554 0.004715
0.886428 0.244050 0.003608
0.918277 0.243438 0.002233
0.948060 0.245790 0.000834
0.974886 0.246662 0.000244
0.000053 0.172628 0.040775
0.028114 0.174980 0.033526
0.083198 0.182100 0.035933
0.138563 0.189043 0.037119
0.186607 0.192891 0.038019
0.231624 0.196038 0.038130
0.277758 0.199794 0.035977
0.332520 0.203875 0.033142
0.388087 0.212913 0.030148
0.441455 0.221010 0.022830
0.495923 0.227412 0.020459
0.532294 0.232422 0.018971
0.560558 0.236807 0.017588
0.582804 0.240132 0.016423
0.612530 0.244500 0.014950
0.657425 0.250917 0.013221
0.701864 0.256636 0.011581
0.743087 0.262110 0.010112
0.781510 0.265612 0.008569
0.823893 0.268516 0.007122
0.861658 0.266674 0.005909
0.894532 0.266270 0.004735
0.925726 0.267828 0.002842
0.956768 0.270032 0.000742
0.984649 0.271739 0.000280
-0.000074 0.200642 0.037024
0.022145 0.203067 0.029419
0.075969 0.210381 0.031608
0.132217 0.216879 0.034508
0.181251 0.222023 0.034280
0.226293 0.226199 0.037460
0.273535 0.230052 0.038446
0.329946 0.234518 0.035720
0.395878 0.240031 0.033223
0.455781 0.251112 0.026006
0.497247 0.255994 0.022049
0.527355 0.259130 0.021305
0.550473 0.262421 0.020583
0.570317 0.265230 0.019651
0.597944 0.269201 0.018217
0.640008 0.275123 0.016210
0.690895 0.281992 0.014120
0.736835 0.287624 0.012131
0.781503 0.292125 0.010148
0.824123 0.294353 0.008471
0.871014 0.289050 0.007076
0.904908 0.290697 0.005975
0.934055 0.294344 0.003625
0.965395 0.295958 0.000676
0.991872 0.298572 0.000341
-0.000042 0.229176 0.033373
0.016801 0.231770 0.025702
0.067741 0.239449 0.027003
0.124761 0.246324 0.031673
0.175575 0.251625 0.034331
0.221241 0.256887 0.034340
0.268165 0.261310 0.038975
0.324648 0.265487 0.038737
0.393055 0.270211 0.033722
0.461106 0.277732 0.030080
0.512811 0.287956 0.023254
0.541764 0.291240 0.022036
0.558557 0.292531 0.021683
0.574893 0.294355 0.021449
0.597461 0.297103 0.020941
0.630411 0.301216 0.019171
0.679860 0.308181 0.016841
0.712834 0.311519 0.015289
0.772608 0.315905 0.012520
0.818600 0.320457 0.010339
0.872271 0.315177 0.008648
0.910587 0.317019 0.007428
0.941495 0.321229 0.004658
0.971637 0.323135 0.001069
0.993932 0.326036 0.000587
-0.000017 0.257889 0.030432
0.012676 0.260093 0.022675
0.060056 0.268144 0.023399
0.116237 0.276357 0.027149
0.168341 0.282833 0.033346
0.214957 0.288348 0.036153
0.262584 0.293718 0.035403
0.318920 0.298007 0.041025
0.388167 0.302512 0.036796
0.457386 0.306884 0.031850
0.513660 0.315071 0.026603
0.546245 0.321718 0.022581
0.566703 0.324141 0.021313
0.584686 0.325953 0.020985
0.608447 0.328107 0.021102
0.640401 0.331349 0.021151
0.670047 0.334916 0.019782
0.708586 0.339052 0.017918
0.757188 0.339347 0.015259
0.803231 0.343586 0.012851
0.863157 0.339488 0.010906
0.908591 0.343137 0.009655
0.944166 0.349186 0.006770
0.975287 0.351978 0.002593
0.994477 0.353540 0.000911
0.000001 0.286570 0.027113
0.008863 0.288708 0.019337
0.052446 0.296506 0.020322
0.108183 0.305208 0.024387
0.159758 0.312435 0.028719
0.207766 0.318360 0.033533
0.255547 0.324164 0.034494
0.312761 0.330204 0.034106
0.382850 0.335505 0.038629
0.451213 0.339350 0.033832
0.507677 0.342327 0.030023
0.542563 0.347526 0.025730
0.563498 0.353086 0.021376
0.583100 0.355837 0.019774
0.609691 0.358469 0.019231
0.646205 0.361274 0.020199
0.682108 0.365394 0.021089
0.713288 0.365478 0.020219
0.743879 0.364334 0.018009
0.795536 0.363582 0.015629
0.856314 0.363851 0.013349
0.904075 0.371724 0.013213
0.941483 0.380632 0.011505
0.972523 0.384168 0.006407
0.993105 0.382123 0.000908
0.000000 0.315162 0.023230
0.005366 0.317379 0.016211
0.043959 0.325271 0.016974
0.098254 0.335099 0.020904
0.149528 0.343814 0.024201
0.199639 0.349358 0.031113
