luts/FUJI_ETERNA_Cinema.cube
TITLE "Generated for krafta web app"
LUT_3D_SIZE 5
#INPUTGAMMA sRGB
#IMAGEPROFILE sRGB
#OUTPUTGAMMA sRGB
0.000000 0.000000 0.000000
0.254588 0.045477 0.031849
0.460508 0.086721 0.058174
0.664592 0.131228 0.085761
0.859949 0.173520 0.109486
0.019774 0.223233 0.002323
0.273860 0.252195 0.060689
0.490410 0.279437 0.090173
0.707727 0.321741 0.118577
0.939893 0.335868 0.117553
0.036448 0.416047 0.002875
0.283833 0.448968 0.057153
0.506364 0.468847 0.113526
0.731963 0.489416 0.138392
0.983928 0.488480 0.128730
0.061611 0.619580 0.002205
0.309623 0.654616 0.058514
0.536541 0.684601 0.125817
0.750986 0.709390 0.198062
0.978256 0.712176 0.186258
0.144490 0.830926 0.023005
0.495085 0.917923 0.156999
0.718586 0.952540 0.219868
0.857468 0.947445 0.222243
0.999898 0.948341 0.234816
0.084862 0.071969 0.251896
0.283030 0.092603 0.264129
0.469874 0.122298 0.281238
0.675719 0.166160 0.302358
0.866304 0.207490 0.319026
0.097109 0.278924 0.274136
0.271415 0.267758 0.262487
0.473288 0.288324 0.287982
0.706598 0.329914 0.312525
0.898395 0.376412 0.326495
0.106977 0.472421 0.280230
0.293075 0.453431 0.264046
0.517913 0.477356 0.301522
0.736985 0.505805 0.336875
0.962494 0.529774 0.336556
0.134374 0.671528 0.261660
0.358472 0.684947 0.287430
0.568946 0.712248 0.341503
0.748782 0.717983 0.377466
0.987364 0.718070 0.362043
0.271764 0.898950 0.290762
0.546604 0.958861 0.383495
0.694664 0.960330 0.397618
0.849552 0.960924 0.405477
0.999605 0.960530 0.413548
0.153039 0.135076 0.477912
0.343322 0.156387 0.493842
0.506442 0.175103 0.502107
0.680790 0.196435 0.510919
0.893192 0.244157 0.537308
0.174764 0.327357 0.486824
0.379860 0.341144 0.500859
0.563431 0.361463 0.518737
0.731335 0.376274 0.528226
0.922175 0.412431 0.546446
0.187826 0.521458 0.530771
0.349425 0.506850 0.500328
0.504448 0.501023 0.504113
0.733869 0.534413 0.530376
0.927449 0.570544 0.545209
0.220385 0.719867 0.511745
0.426949 0.727600 0.524293
0.594114 0.729447 0.548630
0.741098 0.727200 0.563663
0.991664 0.734054 0.556122
0.373593 0.963058 0.551639
0.532411 0.972909 0.580684
0.685677 0.973408 0.590757
0.841033 0.974227 0.598215
0.999244 0.973883 0.606041
0.217270 0.197392 0.697438
0.403217 0.221175 0.715256
0.570644 0.241359 0.724725
0.753547 0.268234 0.741660
0.942193 0.294793 0.762723
0.252417 0.396549 0.744793
0.443229 0.416021 0.766186
0.606957 0.431848 0.769975
0.786853 0.439165 0.768260
0.980415 0.447858 0.770679
0.263653 0.582360 0.787055
0.433175 0.568681 0.757192
0.598005 0.576997 0.752528
0.776259 0.586668 0.755297
0.981954 0.609418 0.770242
0.293662 0.771618 0.771988
0.445237 0.758266 0.759892
0.594656 0.744937 0.744908
0.741666 0.742102 0.740110
0.965690 0.776385 0.763467
0.366104 0.979188 0.757622
0.524822 0.984030 0.770339
0.677898 0.986116 0.778788
0.833776 0.986844 0.785872
0.997457 0.986049 0.793719
0.280447 0.260017 0.911687
0.466628 0.287832 0.932500
0.653409 0.328406 0.979856
0.838329 0.363939 0.999125
0.999998 0.376469 0.999987
0.337578 0.479299 0.998485
0.516089 0.498541 1.000321
0.687177 0.506901 0.999993
0.869453 0.514878 0.999995
1.000000 0.521248 0.999997
0.343220 0.650617 0.999996
0.514691 0.646542 0.999993
0.689304 0.652170 0.999994
0.872519 0.657183 0.999995
1.000000 0.669401 0.999996
0.346819 0.839299 1.000000
0.506932 0.823820 0.999996
0.662464 0.809981 0.999838
0.840414 0.815865 1.000003
1.000000 0.827647 1.000054
0.382577 0.999996 0.999991
0.531566 0.999995 0.999988
0.677630 0.999993 0.999986
0.827613 0.998642 0.998326
0.999989 0.999989 0.999987
