luts/FUJI_PRO_NEG_Std.cube
TITLE "Generated for krafta web app"
LUT_3D_SIZE 9
#INPUTGAMMA sRGB
#IMAGEPROFILE sRGB
#OUTPUTGAMMA sRGB
0.000000 0.000000 0.000000
0.144311 0.025944 0.034307
0.270878 0.049981 0.063703
0.439429 0.084634 0.104681
0.542607 0.106078 0.129044
0.615879 0.121911 0.146659
0.718054 0.144754 0.171542
0.820548 0.167283 0.196297
0.913692 0.188337 0.218892
0.003272 0.119072 0.000761
0.147932 0.136540 0.025894
0.271699 0.151671 0.057767
0.449528 0.186952 0.099589
0.552854 0.205229 0.126720
0.636578 0.224822 0.144106
0.749859 0.247014 0.172057
0.861675 0.262810 0.197371
0.964432 0.263973 0.214185
0.006396 0.216979 -0.000004
0.144391 0.238841 0.012129
0.277685 0.249089 0.050202
0.454111 0.271827 0.096243
0.549797 0.286847 0.119126
0.623928 0.300521 0.137398
0.739169 0.322405 0.164799
0.880594 0.326851 0.192426
0.991272 0.341370 0.210410
0.007281 0.314993 0.000000
0.133083 0.336844 0.002586
0.274386 0.353258 0.036547
0.458830 0.367213 0.087759
0.558117 0.379427 0.112534
0.628892 0.389069 0.128181
0.741051 0.399665 0.157052
0.895733 0.398604 0.191236
0.999995 0.423555 0.212754
-0.000104 0.427412 0.000000
0.102257 0.450978 -0.000205
0.250781 0.475795 0.012677
0.445633 0.492506 0.068721
0.548194 0.497186 0.093090
0.627399 0.502901 0.113094
0.758015 0.513537 0.146106
0.913120 0.505003 0.182670
0.999993 0.516677 0.205398
0.000000 0.504386 0.000000
0.072623 0.532256 0.000001
0.233782 0.560144 0.004095
0.433751 0.581835 0.048932
0.551426 0.589133 0.082807
0.642193 0.595494 0.104975
0.763443 0.600693 0.128652
0.892546 0.597891 0.153835
0.996661 0.616527 0.194934
0.000000 0.591526 0.000000
0.066846 0.629392 0.000000
0.241257 0.659475 -0.000037
0.448992 0.688751 0.028922
0.572571 0.700260 0.071208
0.643830 0.708008 0.098014
0.747045 0.722138 0.128850
0.866807 0.732298 0.158494
0.988015 0.731903 0.174750
0.000000 0.685925 0.000000
0.104282 0.732537 0.000000
0.283745 0.763450 -0.000204
0.481253 0.793814 0.030371
0.570535 0.803382 0.046053
0.638931 0.811251 0.062857
0.753618 0.822166 0.093836
0.873450 0.835442 0.128430
0.980899 0.848619 0.155975
0.000732 0.798204 0.000000
0.186960 0.840604 -0.000002
0.330737 0.861062 0.000000
0.481057 0.873709 0.007902
0.579875 0.884438 0.024814
0.644787 0.891002 0.037920
0.751846 0.906638 0.068250
0.869368 0.925083 0.099652
0.981649 0.944720 0.132295
0.053075 0.045688 0.152785
0.189807 0.069962 0.181339
0.312623 0.093059 0.207631
0.479200 0.124958 0.242003
0.579041 0.144841 0.263223
0.650756 0.160073 0.279074
0.756290 0.181002 0.301775
0.848243 0.196665 0.317003
0.923843 0.202295 0.320285
0.043657 0.143487 0.140768
0.138831 0.143284 0.135401
0.226876 0.149724 0.150726
0.423691 0.182203 0.197190
0.545270 0.204493 0.227931
0.634292 0.219898 0.247607
0.745893 0.239513 0.271395
0.838924 0.263155 0.294133
0.932110 0.285693 0.310893
0.042376 0.239074 0.135380
0.152932 0.239983 0.130430
0.270894 0.248783 0.158592
0.397405 0.259104 0.186349
0.499044 0.275577 0.208133
0.578570 0.288246 0.226868
0.742617 0.309868 0.260059
0.875692 0.338655 0.289056
0.966478 0.363242 0.306337
0.033348 0.335504 0.115584
0.146841 0.337546 0.111616
0.268061 0.345188 0.144996
0.446992 0.358721 0.192043
0.552783 0.369927 0.215902
0.597313 0.374295 0.224146
0.731574 0.389065 0.257971
0.893717 0.421547 0.287303
0.990609 0.443245 0.303518
0.013756 0.448942 0.078442
0.120211 0.454351 0.078813
0.254366 0.467996 0.116540
0.449380 0.482851 0.176738
0.557139 0.490020 0.206024
0.641497 0.494719 0.225085
0.773434 0.501915 0.250825
0.910801 0.519422 0.273855
0.995541 0.537805 0.299973
0.003394 0.528186 0.047873
0.092828 0.536046 0.051167
0.249563 0.554247 0.098855
0.447281 0.575568 0.151760
0.573788 0.582737 0.188721
0.652806 0.586762 0.203804
0.764324 0.591761 0.222092
0.889360 0.611794 0.258713
0.997277 0.614035 0.293960
-0.000245 0.620780 0.021625
0.091697 0.633629 0.030194
0.253125 0.661651 0.073804
0.479927 0.695593 0.148937
0.559584 0.705279 0.163440
0.628410 0.714559 0.184316
0.752604 0.728820 0.227927
0.867753 0.736979 0.254731
0.992600 0.730512 0.270838
0.001008 0.723141 0.003365
0.155421 0.743711 0.033890
0.317423 0.772705 0.083031
0.476031 0.792763 0.118753
0.567177 0.800987 0.136499
0.644648 0.809896 0.159900
0.755537 0.823054 0.190988
0.873540 0.838312 0.224542
0.984627 0.848291 0.252631
0.073120 0.833819 0.004460
0.208318 0.844270 0.035536
0.325726 0.858262 0.060528
0.474513 0.872975 0.093783
0.562571 0.883083 0.112677
0.634313 0.893385 0.131718
0.746301 0.911304 0.164159
0.867265 0.931449 0.197812
0.983564 0.951193 0.231777
0.096704 0.085382 0.284465
0.234191 0.113657 0.317746
0.355777 0.137338 0.342413
0.526336 0.173388 0.381866
0.621166 0.192068 0.400238
0.690879 0.205780 0.413634
0.783359 0.219424 0.426580
0.861012 0.220095 0.425126
0.923329 0.219070 0.417628
0.084081 0.170212 0.252412
0.166578 0.165389 0.239487
0.260623 0.172810 0.253257
0.452217 0.207171 0.302758
0.565443 0.228693 0.332063
0.643576 0.241968 0.350444
0.757125 0.260608 0.376494
0.851990 0.278657 0.393741
0.923312 0.300952 0.408004
0.079948 0.261967 0.263916
0.189475 0.266753 0.255448
0.252569 0.259886 0.253039
0.359507 0.265564 0.267893
0.481683 0.283867 0.297020
0.595046 0.303013 0.326311
0.730226 0.330419 0.358170
0.852356 0.358677 0.387384
0.930902 0.383655 0.404083
0.074880 0.355639 0.257785
0.189432 0.360996 0.246363
0.276739 0.360245 0.251087
0.482340 0.382405 0.313539
0.487123 0.370559 0.298184
0.568878 0.380715 0.316529
0.752252 0.410266 0.359643
0.884398 0.438662 0.385014
0.963029 0.464047 0.402643
0.048375 0.472642 0.227114
0.168949 0.476770 0.223818
0.292602 0.481018 0.244373
0.443558 0.487546 0.279027
0.553032 0.494700 0.301989
0.641150 0.502405 0.322780
0.768881 0.517248 0.348914
0.892450 0.545126 0.374810
0.985864 0.555100 0.397346
0.028463 0.555207 0.195808
0.149284 0.558491 0.195060
0.245618 0.559317 0.200584
0.478893 0.590588 0.280432
0.576296 0.593522 0.289409
0.656182 0.597702 0.304109
0.762942 0.607629 0.326946
0.889179 0.624179 0.366940
0.997640 0.616985 0.390210
0.026856 0.652847 0.157832
0.149224 0.662207 0.154703
0.291311 0.673240 0.192393
0.484987 0.704113 0.258827
0.560598 0.710486 0.266959
0.636664 0.718500 0.287094
0.752986 0.731965 0.327477
0.869171 0.741380 0.354897
0.996265 0.727349 0.370124
0.067445 0.763549 0.117454
0.217050 0.775141 0.158111
0.319758 0.775742 0.181143
0.468806 0.790818 0.214965
0.567242 0.801843 0.242108
0.642547 0.811685 0.262653
0.755135 0.826939 0.294902
0.872206 0.842536 0.324352
0.987191 0.850307 0.353230
0.139454 0.868484 0.118121
0.235385 0.866429 0.142077
0.314782 0.858100 0.153913
0.455567 0.872404 0.187177
0.558742 0.888963 0.217551
0.629713 0.898719 0.234212
0.742807 0.917281 0.265326
0.866386 0.938261 0.300728
0.983986 0.956245 0.325764
0.142610 0.128964 0.425964
0.278622 0.159853 0.460806
0.403872 0.187356 0.491194
0.569260 0.222343 0.525328
0.666005 0.240509 0.545067
0.720761 0.244298 0.545864
0.788135 0.239074 0.534975
0.859757 0.233674 0.524223
0.938192 0.236183 0.523571
0.114493 0.201423 0.374044
0.211990 0.204074 0.376075
0.321991 0.217579 0.396230
0.518972 0.259650 0.455023
0.621393 0.273364 0.474822
0.686906 0.280174 0.483940
0.764825 0.282847 0.486042
0.851306 0.292070 0.495987
0.936395 0.318130 0.515882
0.128654 0.290156 0.381769
0.226666 0.295126 0.385523
0.278753 0.282401 0.361500
0.433401 0.294896 0.389206
0.580947 0.325420 0.437050
0.672672 0.340005 0.460785
0.761421 0.351537 0.475432
0.846906 0.375070 0.490142
0.928962 0.402239 0.513479
0.118654 0.383199 0.392667
0.230174 0.389275 0.376871
0.354612 0.398793 0.407825
0.381289 0.375012 0.378674
0.487710 0.388305 0.402596
0.601455 0.406250 0.429558
0.754707 0.430842 0.461859
0.857409 0.456969 0.486145
0.929343 0.484824 0.508056
0.105934 0.498472 0.383318
0.215556 0.500501 0.369255
0.299067 0.497094 0.371811
0.418475 0.497835 0.378832
0.531799 0.507913 0.405467
0.620466 0.516572 0.428262
0.761249 0.543618 0.452352
0.876251 0.561643 0.481285
0.976271 0.573137 0.500094
0.080743 0.583767 0.356670
0.197203 0.584502 0.348895
0.309871 0.590234 0.349753
0.478094 0.605181 0.395496
0.570843 0.606535 0.400911
0.646065 0.612267 0.415778
0.758427 0.625277 0.441081
0.884563 0.631345 0.479898
0.992683 0.638395 0.493452
0.095386 0.687356 0.310223
0.224302 0.700647 0.306230
0.333649 0.700883 0.329665
0.482053 0.709543 0.366301
0.579958 0.719215 0.391242
0.652806 0.726819 0.411265
0.754911 0.736727 0.446057
0.872749 0.742099 0.462476
0.998638 0.727630 0.483304
0.141805 0.801165 0.264608
0.251460 0.803902 0.289120
0.337653 0.797007 0.305219
0.463508 0.792522 0.329353
0.561233 0.804577 0.354468
0.643530 0.817327 0.379838
0.752219 0.831384 0.406257
0.871914 0.847893 0.441546
0.990230 0.853879 0.466903
0.175597 0.899078 0.255088
0.253851 0.891226 0.273005
0.336221 0.884017 0.288683
0.450664 0.878749 0.302270
0.550899 0.894020 0.329805
0.624716 0.905038 0.348328
0.743133 0.925646 0.382923
0.863129 0.943952 0.411404
0.982871 0.961239 0.434344
0.190181 0.174977 0.568896
0.320475 0.204073 0.600344
0.450188 0.236627 0.636359
0.603795 0.264092 0.661122
0.667855 0.259801 0.650589
0.715089 0.254368 0.641182
0.791329 0.250254 0.633304
0.881818 0.251502 0.631308
0.970643 0.256896 0.633350
0.151365 0.237801 0.507242
0.276644 0.259162 0.540369
0.397241 0.276654 0.561006
0.566301 0.296120 0.593631
0.637290 0.296905 0.590037
0.681278 0.295759 0.585129
0.770467 0.298986 0.593395
0.871960 0.310744 0.604754
0.963515 0.338149 0.628144
0.171531 0.322680 0.511494
0.237038 0.317358 0.491146
0.350636 0.323970 0.508987
0.542978 0.352339 0.555477
0.613925 0.355318 0.557922
0.668724 0.355687 0.565725
0.754925 0.365035 0.575690
0.868611 0.393472 0.599782
0.957550 0.418478 0.623109
0.167705 0.409994 0.505134
0.283305 0.420760 0.520482
0.381675 0.424171 0.538687
0.512151 0.425493 0.541981
0.607201 0.433020 0.554008
0.656785 0.433209 0.555447
0.756196 0.449861 0.563255
0.857652 0.477389 0.592486
0.950475 0.497533 0.614526
0.152422 0.523222 0.523341
0.245148 0.516996 0.506442
0.328560 0.516790 0.514456
0.440105 0.517930 0.508671
0.518202 0.521379 0.507736
0.621902 0.534120 0.526679
0.760977 0.556424 0.551709
0.859756 0.578641 0.584831
0.951872 0.597622 0.601958
0.148441 0.606801 0.507493
0.260547 0.617500 0.505508
0.363324 0.615696 0.502204
0.485131 0.617677 0.504545
0.566115 0.621769 0.514161
0.633057 0.623599 0.523661
0.756890 0.634639 0.547402
0.875407 0.647082 0.580388
0.982611 0.663338 0.597480
0.165386 0.725317 0.461138
0.268390 0.730168 0.445123
0.363336 0.726018 0.461200
0.498520 0.721977 0.485205
0.585797 0.725690 0.506417
0.668099 0.737925 0.534632
0.752485 0.740716 0.551080
0.871488 0.741571 0.575488
0.996686 0.742218 0.598312
0.182878 0.831862 0.397564
0.272464 0.828133 0.417088
0.361824 0.820221 0.439323
0.481016 0.810429 0.456131
0.562016 0.810801 0.469594
0.639692 0.821512 0.490197
0.756218 0.838702 0.523845
0.871959 0.852919 0.559047
0.993822 0.856144 0.579565
0.202222 0.923021 0.390840
0.279332 0.916877 0.410887
0.356347 0.909558 0.421319
0.470750 0.901119 0.432094
0.549640 0.902096 0.445572
0.625899 0.913821 0.465768
0.738340 0.931484 0.493757
0.853052 0.945934 0.512569
0.983428 0.967702 0.546717
0.236779 0.221341 0.711594
0.369924 0.254326 0.750075
0.482760 0.276637 0.771073
0.607539 0.279836 0.767874
0.675060 0.272355 0.755016
0.731189 0.269920 0.749782
0.818373 0.269608 0.745783
0.914632 0.272131 0.744879
0.994804 0.274386 0.748020
0.205801 0.285882 0.662349
0.330949 0.303935 0.688790
0.440944 0.312784 0.701666
0.561255 0.311429 0.696256
0.644026 0.314445 0.703844
0.708915 0.318303 0.708005
0.803772 0.323889 0.714165
0.903411 0.332412 0.722797
0.994498 0.354561 0.741442
0.210608 0.358558 0.654244
0.319413 0.363562 0.665762
0.428006 0.371447 0.675529
0.542608 0.373198 0.675110
0.621827 0.377558 0.680886
0.689892 0.385355 0.690465
0.791870 0.396759 0.699840
0.897729 0.411030 0.715739
0.991924 0.432512 0.736323
0.214404 0.448382 0.664793
0.312446 0.447139 0.661231
0.410396 0.448092 0.661274
0.532966 0.449682 0.666312
0.606217 0.453699 0.668627
0.675664 0.462194 0.678352
0.771958 0.474942 0.682674
0.887661 0.492740 0.708147
0.985916 0.512538 0.728724
0.197008 0.547992 0.676546
0.294365 0.546988 0.659898
0.380582 0.543759 0.650791
0.504304 0.547025 0.640264
0.573813 0.545407 0.641896
0.644999 0.559489 0.648491
0.756705 0.577046 0.665540
0.871081 0.593697 0.693932
0.968925 0.615774 0.716635
0.205887 0.637855 0.659840
0.296695 0.640182 0.650458
0.390223 0.633534 0.637689
0.506363 0.631728 0.624397
0.576238 0.631261 0.626814
0.632858 0.632458 0.633192
0.752650 0.652907 0.658619
0.865559 0.665364 0.684968
0.960476 0.690133 0.706477
0.209311 0.754016 0.601794
0.297125 0.753891 0.585000
0.390154 0.745739 0.592189
0.521178 0.740207 0.613637
0.609719 0.741757 0.631551
0.666762 0.742453 0.640882
0.749284 0.744814 0.655530
0.874146 0.745947 0.683187
0.989764 0.766718 0.705888
0.214566 0.860581 0.536650
0.300483 0.852068 0.559704
0.388157 0.844871 0.578196
0.510558 0.835921 0.592164
0.586477 0.832067 0.601284
0.643960 0.830016 0.609275
0.764482 0.847672 0.645776
0.871241 0.857447 0.671048
0.995237 0.857945 0.698494
0.226294 0.949584 0.535072
0.303148 0.943865 0.552348
0.388483 0.939022 0.562837
0.503483 0.930641 0.572051
0.575779 0.926890 0.580458
0.625441 0.922837 0.583822
0.729011 0.933857 0.599206
0.845438 0.949378 0.620292
0.985921 0.975350 0.662132
0.279401 0.263790 0.839953
0.401487 0.290748 0.869822
0.502599 0.303300 0.879384
0.613273 0.290220 0.861115
0.699751 0.289779 0.860102
0.765337 0.290304 0.859002
0.858064 0.291653 0.856369
0.944096 0.294959 0.855336
0.999997 0.298462 0.853642
0.254040 0.325388 0.799631
0.359215 0.331686 0.807377
0.449553 0.330614 0.805447
0.599624 0.340739 0.824701
0.699170 0.350294 0.838494
0.768786 0.356205 0.844119
0.862698 0.362645 0.850552
0.945494 0.366747 0.847537
0.999999 0.373407 0.848540
0.268047 0.397492 0.804081
0.386833 0.409544 0.825933
0.477442 0.411907 0.829257
0.619050 0.423826 0.837085
0.710328 0.434781 0.840940
0.769778 0.438025 0.839845
0.850916 0.438720 0.837187
0.937717 0.441248 0.837047
0.999997 0.446215 0.845308
0.261710 0.478786 0.802861
0.380661 0.489127 0.808983
0.466093 0.491458 0.807869
0.601849 0.502130 0.823088
0.686464 0.509192 0.822783
0.743409 0.510118 0.821244
0.835652 0.513445 0.824454
0.927327 0.516025 0.827836
1.000121 0.524941 0.839665
0.262642 0.590699 0.825764
0.355507 0.590908 0.808789
0.443271 0.591978 0.792153
0.566960 0.593127 0.787341
0.657497 0.601830 0.793342
0.719091 0.605163 0.795662
0.803787 0.606225 0.799730
0.895734 0.609552 0.803859
0.995714 0.627516 0.828531
0.243380 0.666859 0.831656
0.335361 0.663673 0.809736
0.429151 0.665631 0.793733
0.558108 0.665010 0.773867
0.634815 0.668143 0.767487
0.691760 0.670909 0.770999
0.774939 0.675340 0.775232
0.878145 0.683589 0.790337
0.987446 0.703944 0.818061
0.241372 0.771751 0.763208
0.332384 0.765506 0.764806
0.423236 0.757372 0.764307
0.543451 0.753253 0.763687
0.620095 0.749077 0.759193
0.673976 0.749050 0.758483
0.751308 0.751308 0.755616
0.869899 0.764841 0.780081
0.975280 0.788853 0.805106
0.245659 0.880728 0.678596
0.330250 0.874788 0.696805
0.418243 0.869011 0.709935
0.542348 0.860802 0.719165
0.619298 0.856135 0.728000
0.674025 0.853124 0.733931
0.767481 0.853986 0.751639
0.871199 0.861714 0.776402
0.997598 0.865941 0.802216
0.255554 0.974096 0.675201
0.335194 0.970155 0.686245
0.418088 0.965888 0.692507
0.538375 0.958880 0.703394
0.609926 0.954653 0.710063
0.658015 0.948895 0.707818
0.719775 0.936596 0.695277
0.840080 0.953551 0.722503
0.990249 0.983146 0.775077
0.320730 0.304617 0.954323
0.423953 0.319930 0.963094
0.512812 0.317465 0.958306
0.646363 0.309437 0.955774
0.737792 0.312190 0.956758
0.812356 0.317565 0.962272
0.904988 0.323293 0.966783
0.986943 0.330983 0.970206
1.000000 0.339665 0.969080
0.287891 0.354649 0.910947
0.390512 0.358117 0.919544
0.505154 0.367196 0.938561
0.676695 0.385202 0.966188
0.770330 0.394468 0.972472
0.832366 0.399018 0.971611
0.906610 0.401999 0.964543
0.981746 0.408449 0.963921
1.000000 0.417117 0.973174
0.324729 0.435959 0.935408
0.434309 0.446932 0.954044
0.551077 0.460911 0.966610
0.691010 0.471871 0.968332
0.760471 0.471902 0.962600
0.811866 0.471906 0.957180
0.889984 0.474045 0.953520
0.988320 0.482698 0.966059
1.000000 0.486749 0.976070
0.343347 0.527464 0.943840
0.435579 0.532413 0.946589
0.537837 0.541744 0.950823
0.660080 0.544982 0.946472
0.724647 0.542583 0.941654
0.795563 0.546871 0.951905
0.898449 0.553191 0.959608
0.980404 0.557206 0.962654
1.000000 0.558165 0.969230
0.324934 0.633470 0.953412
0.411466 0.634620 0.939191
0.485435 0.630669 0.924624
0.634250 0.637491 0.933299
0.721495 0.640732 0.936956
0.781796 0.643021 0.939406
0.866121 0.645568 0.942915
0.952889 0.646774 0.947560
1.000000 0.647393 0.952778
0.298502 0.706493 0.955455
0.375057 0.702155 0.937204
0.482532 0.705408 0.930425
0.613104 0.702920 0.911594
0.692346 0.707604 0.920068
0.749637 0.709300 0.920720
0.836417 0.711536 0.925211
0.930602 0.713080 0.930003
1.000000 0.715822 0.934316
0.292859 0.788733 0.950961
0.379649 0.787168 0.942871
0.465493 0.786520 0.931492
0.587691 0.784119 0.912831
0.663751 0.783643 0.902525
0.721116 0.783935 0.895394
0.806491 0.787274 0.897134
0.900079 0.790569 0.903374
0.998769 0.800960 0.917503
0.288704 0.892207 0.893016
0.367946 0.888008 0.897644
0.450800 0.882833 0.895449
0.572868 0.877096 0.891165
0.647978 0.873970 0.887135
0.706117 0.870829 0.883122
0.789118 0.867525 0.878867
0.872600 0.868781 0.877230
0.989053 0.887087 0.902046
0.287289 0.988667 0.819914
0.366931 0.988184 0.822782
0.450273 0.987334 0.826156
0.570685 0.984672 0.831755
0.642120 0.980903 0.834995
0.693146 0.976737 0.834709
0.767512 0.969969 0.834155
0.846192 0.963060 0.835350
0.995432 0.991609 0.886811
0.343248 0.331526 0.999999
0.434711 0.335749 0.997912
0.535307 0.331889 0.999988
0.693106 0.334790 1.000000
0.787189 0.338176 1.000000
0.853765 0.343104 1.000000
0.960389 0.358908 1.000000
0.999837 0.367777 1.000000
1.000000 0.380306 1.000000
0.325015 0.380658 1.000325
0.443390 0.391256 0.999993
0.574105 0.407577 1.000000
0.734874 0.422907 1.000000
0.809676 0.425591 1.000000
0.861738 0.428122 1.000000
0.945119 0.435643 1.000000
1.000215 0.444474 1.000000
1.000000 0.455783 1.000000
0.390202 0.476923 1.000000
0.491909 0.484366 1.000000
0.597813 0.494138 1.000000
0.722357 0.498218 1.000000
0.788231 0.498969 1.000000
0.842031 0.500857 1.000000
0.951759 0.511289 1.000000
1.000098 0.519983 1.000000
1.000000 0.523550 1.000000
0.398826 0.563375 1.000000
0.491543 0.569086 1.000000
0.579213 0.572895 1.000000
0.678523 0.568423 1.000000
0.783382 0.577396 1.000000
0.857609 0.583621 1.000000
0.954148 0.590191 1.000000
0.999861 0.593836 1.000000
1.000000 0.593662 1.000000
0.375979 0.664762 1.000000
0.436838 0.658330 0.999997
0.527136 0.658842 0.999998
0.692289 0.670797 1.000000
0.778897 0.677159 1.000000
0.835813 0.679883 1.000000
0.915985 0.681705 1.000000
0.994962 0.682200 1.000000
1.000000 0.682659 1.000000
0.327513 0.730786 1.000000
0.427124 0.732295 0.999999
0.535198 0.735102 0.999998
0.669885 0.741534 0.999997
0.742406 0.744279 0.999998
0.801272 0.745589 0.999998
0.888821 0.746805 1.000000
0.980709 0.748256 1.000000
1.000000 0.750501 1.000000
0.345447 0.819595 1.000000
0.432250 0.820520 1.000000
0.516271 0.820608 0.999998
0.632463 0.819587 0.999996
0.709509 0.819079 0.999995
0.770575 0.820359 0.999995
0.859617 0.822647 0.999997
0.953468 0.825131 0.999998
1.000000 0.828113 0.999999
0.327401 0.905194 1.000000
0.404265 0.904056 0.999999
0.487205 0.901795 0.999999
0.611472 0.900860 0.999997
0.688382 0.900967 0.999996
0.746893 0.900952 0.999994
0.832148 0.901827 0.999991
0.925996 0.904199 1.000132
1.000017 0.908169 1.000015
0.321495 0.994942 0.989626
0.399019 0.994869 0.990858
0.479701 0.995360 0.990776
0.601727 0.996099 0.991007
0.677492 0.996770 0.993114
0.734483 0.997219 0.994678
0.816689 0.996609 0.995572
0.903735 0.997516 0.997384
0.999988 0.999988 0.999986
