luts/FUJI_ACROS_Yellow_Filter.cube
#Generated for krafta web app
#Black and White LUTs
TITLE "Fuji XTrans III - Acros+Ye"
#LUT size
LUT_3D_SIZE 9
#LUT data points
0.003922 0.003922 0.003922
0.023529 0.023529 0.023529
0.086275 0.086275 0.086275
0.188235 0.188235 0.188235
0.250980 0.250980 0.250980
0.447059 0.447059 0.447059
0.490196 0.490196 0.490196
0.549020 0.549020 0.549020
0.552941 0.552941 0.552941
0.007843 0.007843 0.007843
0.039216 0.039216 0.039216
0.101961 0.101961 0.101961
0.211765 0.211765 0.211765
0.325490 0.325490 0.325490
0.450980 0.450980 0.450980
0.533333 0.533333 0.533333
0.541176 0.541176 0.541176
0.619608 0.619608 0.619608
0.062745 0.062745 0.062745
0.094118 0.094118 0.094118
0.141176 0.141176 0.141176
0.270588 0.270588 0.270588
0.368627 0.368627 0.368627
0.482353 0.482353 0.482353
0.568627 0.568627 0.568627
0.611765 0.611765 0.611765
0.623529 0.623529 0.623529
0.113725 0.113725 0.113725
0.196078 0.196078 0.196078
0.243137 0.243137 0.243137
0.341176 0.341176 0.341176
0.435294 0.435294 0.435294
0.525490 0.525490 0.525490
0.600000 0.600000 0.600000
0.623529 0.623529 0.623529
0.623529 0.623529 0.623529
0.250980 0.250980 0.250980
0.254902 0.254902 0.254902
0.341176 0.341176 0.341176
0.431373 0.431373 0.431373
0.509804 0.509804 0.509804
0.584314 0.584314 0.584314
0.654902 0.654902 0.654902
0.654902 0.654902 0.654902
0.698039 0.698039 0.698039
0.172549 0.172549 0.172549
0.254902 0.254902 0.254902
0.352941 0.352941 0.352941
0.466667 0.466667 0.466667
0.615686 0.615686 0.615686
0.623529 0.623529 0.623529
0.713725 0.713725 0.713725
0.741176 0.741176 0.741176
0.741176 0.741176 0.741176
0.345098 0.345098 0.345098
0.254902 0.254902 0.254902
0.341176 0.341176 0.341176
0.521569 0.521569 0.521569
0.592157 0.592157 0.592157
0.615686 0.615686 0.615686
0.713725 0.713725 0.713725
0.741176 0.741176 0.741176
0.807843 0.807843 0.807843
0.392157 0.392157 0.392157
0.337255 0.337255 0.337255
0.513725 0.513725 0.513725
0.580392 0.580392 0.580392
0.662745 0.662745 0.662745
0.682353 0.682353 0.682353
0.713725 0.713725 0.713725
0.807843 0.807843 0.807843
0.807843 0.807843 0.807843
0.392157 0.392157 0.392157
0.337255 0.337255 0.337255
0.509804 0.509804 0.509804
0.580392 0.580392 0.580392
0.666667 0.666667 0.666667
0.694118 0.694118 0.694118
0.780392 0.780392 0.780392
0.807843 0.807843 0.807843
0.827451 0.827451 0.827451
0.007843 0.007843 0.007843
0.015686 0.015686 0.015686
0.109804 0.109804 0.109804
0.152941 0.152941 0.152941
0.337255 0.337255 0.337255
0.513725 0.513725 0.513725
0.552941 0.552941 0.552941
0.556863 0.556863 0.556863
0.670588 0.670588 0.670588
0.019608 0.019608 0.019608
0.047059 0.047059 0.047059
0.113725 0.113725 0.113725
0.207843 0.207843 0.207843
0.337255 0.337255 0.337255
0.458824 0.458824 0.458824
0.549020 0.549020 0.549020
0.615686 0.615686 0.615686
0.670588 0.670588 0.670588
0.070588 0.070588 0.070588
0.101961 0.101961 0.101961
0.156863 0.156863 0.156863
0.258824 0.258824 0.258824
0.372549 0.372549 0.372549
0.482353 0.482353 0.482353
0.572549 0.572549 0.572549
0.619608 0.619608 0.619608
0.678431 0.678431 0.678431
0.172549 0.172549 0.172549
0.200000 0.200000 0.200000
0.247059 0.247059 0.247059
0.341176 0.341176 0.341176
0.435294 0.435294 0.435294
0.533333 0.533333 0.533333
0.611765 0.611765 0.611765
0.650980 0.650980 0.650980
0.717647 0.717647 0.717647
0.250980 0.250980 0.250980
0.329412 0.329412 0.329412
0.349020 0.349020 0.349020
0.431373 0.431373 0.431373
0.513725 0.513725 0.513725
0.596078 0.596078 0.596078
0.658824 0.658824 0.658824
0.698039 0.698039 0.698039
0.741176 0.741176 0.741176
0.345098 0.345098 0.345098
0.388235 0.388235 0.388235
0.407843 0.407843 0.407843
0.470588 0.470588 0.470588
0.596078 0.596078 0.596078
0.654902 0.654902 0.654902
0.709804 0.709804 0.709804
0.772549 0.772549 0.772549
0.827451 0.827451 0.827451
0.392157 0.392157 0.392157
0.392157 0.392157 0.392157
0.509804 0.509804 0.509804
0.576471 0.576471 0.576471
0.654902 0.654902 0.654902
0.682353 0.682353 0.682353
0.737255 0.737255 0.737255
0.807843 0.807843 0.807843
0.807843 0.807843 0.807843
0.435294 0.435294 0.435294
0.392157 0.392157 0.392157
0.509804 0.509804 0.509804
0.580392 0.580392 0.580392
0.666667 0.666667 0.666667
0.698039 0.698039 0.698039
0.776471 0.776471 0.776471
0.807843 0.807843 0.807843
0.827451 0.827451 0.827451
0.443137 0.443137 0.443137
0.396078 0.396078 0.396078
0.576471 0.576471 0.576471
0.600000 0.600000 0.600000
0.662745 0.662745 0.662745
0.694118 0.694118 0.694118
0.776471 0.776471 0.776471
0.827451 0.827451 0.827451
0.870588 0.870588 0.870588
0.015686 0.015686 0.015686
0.062745 0.062745 0.062745
0.196078 0.196078 0.196078
0.250980 0.250980 0.250980
0.372549 0.372549 0.372549
0.498039 0.498039 0.498039
0.580392 0.580392 0.580392
0.619608 0.619608 0.619608
0.690196 0.690196 0.690196
0.047059 0.047059 0.047059
0.082353 0.082353 0.082353
0.149020 0.149020 0.149020
0.247059 0.247059 0.247059
0.368627 0.368627 0.368627
0.482353 0.482353 0.482353
0.572549 0.572549 0.572549
0.619608 0.619608 0.619608
0.670588 0.670588 0.670588
0.109804 0.109804 0.109804
0.121569 0.121569 0.121569
0.188235 0.188235 0.188235
0.286275 0.286275 0.286275
0.396078 0.396078 0.396078
0.501961 0.501961 0.501961
0.600000 0.600000 0.600000
0.686275 0.686275 0.686275
0.717647 0.717647 0.717647
0.203922 0.203922 0.203922
0.219608 0.219608 0.219608
0.270588 0.270588 0.270588
0.360784 0.360784 0.360784
0.458824 0.458824 0.458824
0.549020 0.549020 0.549020
0.639216 0.639216 0.639216
0.705882 0.705882 0.705882
0.741176 0.741176 0.741176
0.337255 0.337255 0.337255
0.337255 0.337255 0.337255
0.376471 0.376471 0.376471
0.447059 0.447059 0.447059
0.525490 0.525490 0.525490
0.607843 0.607843 0.607843
0.682353 0.682353 0.682353
0.745098 0.745098 0.745098
0.764706 0.764706 0.764706
0.392157 0.392157 0.392157
0.392157 0.392157 0.392157
0.470588 0.470588 0.470588
0.521569 0.521569 0.521569
0.596078 0.596078 0.596078
0.662745 0.662745 0.662745
0.725490 0.725490 0.725490
0.784314 0.784314 0.784314
0.835294 0.835294 0.835294
0.392157 0.392157 0.392157
0.533333 0.533333 0.533333
0.517647 0.517647 0.517647
0.600000 0.600000 0.600000
0.662745 0.662745 0.662745
0.694118 0.694118 0.694118
0.776471 0.776471 0.776471
0.827451 0.827451 0.827451
0.866667 0.866667 0.866667
0.443137 0.443137 0.443137
0.443137 0.443137 0.443137
0.572549 0.572549 0.572549
0.603922 0.603922 0.603922
0.658824 0.658824 0.658824
0.694118 0.694118 0.694118
0.776471 0.776471 0.776471
0.870588 0.870588 0.870588
0.866667 0.866667 0.866667
0.443137 0.443137 0.443137
0.443137 0.443137 0.443137
0.572549 0.572549 0.572549
0.603922 0.603922 0.603922
0.658824 0.658824 0.658824
0.756863 0.756863 0.756863
0.811765 0.811765 0.811765
0.870588 0.870588 0.870588
0.870588 0.870588 0.870588
0.094118 0.098039 0.098039
0.129412 0.129412 0.129412
0.200000 0.200000 0.200000
0.282353 0.282353 0.282353
0.407843 0.407843 0.407843
0.513725 0.513725 0.513725
0.607843 0.607843 0.607843
0.698039 0.698039 0.698039
0.701961 0.701961 0.701961
0.094118 0.094118 0.094118
0.125490 0.125490 0.125490
0.192157 0.192157 0.192157
0.294118 0.294118 0.294118
0.403922 0.403922 0.403922
0.513725 0.513725 0.513725
0.607843 0.607843 0.607843
0.682353 0.682353 0.682353
0.733333 0.733333 0.733333
0.145098 0.145098 0.145098
0.176471 0.176471 0.176471
0.235294 0.235294 0.235294
0.329412 0.329412 0.329412
0.431373 0.431373 0.431373
0.533333 0.533333 0.533333
0.623529 0.623529 0.623529
0.698039 0.698039 0.698039
0.729412 0.729412 0.729412
0.243137 0.243137 0.243137
0.266667 0.266667 0.266667
0.325490 0.325490 0.325490
0.396078 0.396078 0.396078
0.490196 0.490196 0.490196
0.576471 0.576471 0.576471
0.658824 0.658824 0.658824
0.725490 0.725490 0.725490
0.760784 0.760784 0.760784
0.352941 0.352941 0.352941
0.364706 0.364706 0.364706
0.407843 0.407843 0.407843
0.474510 0.474510 0.474510
0.549020 0.549020 0.549020
0.627451 0.627451 0.627451
0.698039 0.698039 0.698039
0.760784 0.760784 0.760784
0.792157 0.792157 0.792157
0.403922 0.403922 0.403922
0.462745 0.462745 0.462745
0.494118 0.494118 0.494118
0.549020 0.549020 0.549020
0.619608 0.619608 0.619608
0.682353 0.682353 0.682353
0.741176 0.741176 0.741176
0.800000 0.800000 0.800000
0.835294 0.835294 0.835294
0.458824 0.458824 0.458824
0.545098 0.545098 0.545098
0.560784 0.560784 0.560784
0.603922 0.603922 0.603922
0.666667 0.666667 0.666667
0.729412 0.729412 0.729412
0.788235 0.788235 0.788235
0.843137 0.843137 0.843137
0.878431 0.878431 0.878431
0.545098 0.545098 0.545098
0.545098 0.545098 0.545098
0.635294 0.635294 0.635294
0.635294 0.635294 0.635294
0.694118 0.694118 0.694118
0.752941 0.752941 0.752941
0.819608 0.819608 0.819608
0.870588 0.870588 0.870588
0.898039 0.898039 0.898039
0.545098 0.545098 0.545098
0.545098 0.545098 0.545098
0.623529 0.623529 0.623529
0.639216 0.639216 0.639216
0.698039 0.698039 0.698039
0.752941 0.752941 0.752941
0.819608 0.819608 0.819608
0.901961 0.901961 0.901961
0.937255 0.937255 0.937255
0.176471 0.176471 0.176471
0.211765 0.211765 0.211765
0.258824 0.258824 0.258824
0.337255 0.337255 0.337255
0.435294 0.435294 0.435294
0.541176 0.541176 0.541176
0.631373 0.631373 0.631373
0.709804 0.709804 0.709804
0.752941 0.752941 0.752941
0.164706 0.164706 0.164706
0.200000 0.200000 0.200000
0.258824 0.258824 0.258824
0.349020 0.349020 0.349020
0.443137 0.443137 0.443137
0.541176 0.541176 0.541176
0.635294 0.635294 0.635294
0.709804 0.709804 0.709804
0.745098 0.745098 0.745098
0.196078 0.196078 0.196078
0.239216 0.239216 0.239216
0.290196 0.290196 0.290196
0.376471 0.376471 0.376471
0.470588 0.470588 0.470588
0.560784 0.560784 0.560784
0.650980 0.650980 0.650980
0.721569 0.721569 0.721569
0.756863 0.756863 0.756863
0.286275 0.286275 0.286275
0.317647 0.317647 0.317647
0.372549 0.372549 0.372549
0.439216 0.439216 0.439216
0.521569 0.521569 0.521569
0.600000 0.600000 0.600000
0.682353 0.682353 0.682353
0.749020 0.749020 0.749020
0.780392 0.780392 0.780392
0.384314 0.384314 0.384314
0.407843 0.407843 0.407843
0.447059 0.447059 0.447059
0.509804 0.509804 0.509804
0.576471 0.576471 0.576471
0.650980 0.650980 0.650980
0.717647 0.717647 0.717647
0.780392 0.780392 0.780392
0.815686 0.815686 0.815686
0.482353 0.482353 0.482353
0.494118 0.494118 0.494118
0.525490 0.525490 0.525490
0.576471 0.576471 0.576471
0.639216 0.639216 0.639216
0.701961 0.701961 0.701961
0.760784 0.760784 0.760784
0.819608 0.819608 0.819608
0.850980 0.850980 0.850980
0.533333 0.533333 0.533333
0.533333 0.533333 0.533333
0.588235 0.588235 0.588235
0.631373 0.631373 0.631373
0.690196 0.690196 0.690196
0.749020 0.749020 0.749020
0.803922 0.803922 0.803922
0.862745 0.862745 0.862745
0.929412 0.929412 0.929412
0.568627 0.568627 0.568627
0.572549 0.572549 0.572549
0.627451 0.627451 0.627451
0.658824 0.658824 0.658824
0.713725 0.713725 0.713725
0.776471 0.776471 0.776471
0.831373 0.831373 0.831373
0.905882 0.905882 0.905882
0.937255 0.937255 0.937255
0.572549 0.572549 0.572549
0.572549 0.572549 0.572549
0.627451 0.627451 0.627451
0.658824 0.658824 0.658824
0.713725 0.713725 0.713725
0.776471 0.776471 0.776471
0.901961 0.901961 0.901961
0.901961 0.901961 0.901961
0.937255 0.937255 0.937255
0.250980 0.250980 0.250980
0.282353 0.282353 0.282353
0.321569 0.321569 0.321569
0.388235 0.388235 0.388235
0.478431 0.478431 0.478431
0.568627 0.568627 0.568627
0.658824 0.658824 0.658824
0.733333 0.733333 0.733333
0.784314 0.784314 0.784314
0.247059 0.247059 0.247059
0.290196 0.290196 0.290196
0.325490 0.325490 0.325490
0.392157 0.392157 0.392157
0.482353 0.482353 0.482353
0.572549 0.572549 0.572549
0.662745 0.662745 0.662745
0.733333 0.733333 0.733333
0.772549 0.772549 0.772549
0.250980 0.250980 0.250980
0.309804 0.309804 0.309804
0.360784 0.360784 0.360784
0.431373 0.431373 0.431373
0.513725 0.513725 0.513725
0.596078 0.596078 0.596078
0.678431 0.678431 0.678431
0.749020 0.749020 0.749020
0.780392 0.780392 0.780392
0.329412 0.329412 0.329412
0.376471 0.376471 0.376471
0.415686 0.415686 0.415686
0.482353 0.482353 0.482353
0.556863 0.556863 0.556863
0.631373 0.631373 0.631373
0.701961 0.701961 0.701961
0.768627 0.768627 0.768627
0.803922 0.803922 0.803922
0.419608 0.419608 0.419608
0.450980 0.450980 0.450980
0.486275 0.486275 0.486275
0.545098 0.545098 0.545098
0.607843 0.607843 0.607843
0.674510 0.674510 0.674510
0.741176 0.741176 0.741176
0.800000 0.800000 0.800000
0.835294 0.835294 0.835294
0.513725 0.513725 0.513725
0.529412 0.529412 0.529412
0.560784 0.560784 0.560784
0.607843 0.607843 0.607843
0.666667 0.666667 0.666667
0.721569 0.721569 0.721569
0.776471 0.776471 0.776471
0.835294 0.835294 0.835294
0.870588 0.870588 0.870588
0.580392 0.580392 0.580392
0.592157 0.592157 0.592157
0.619608 0.619608 0.619608
0.662745 0.662745 0.662745
0.713725 0.713725 0.713725
0.768627 0.768627 0.768627
0.823529 0.823529 0.823529
0.874510 0.874510 0.874510
0.949020 0.949020 0.949020
0.623529 0.623529 0.623529
0.631373 0.631373 0.631373
0.647059 0.647059 0.647059
0.690196 0.690196 0.690196
0.737255 0.737255 0.737255
0.796078 0.796078 0.796078
0.898039 0.898039 0.898039
0.925490 0.925490 0.925490
0.980392 0.980392 0.980392
0.623529 0.623529 0.623529
0.631373 0.631373 0.631373
0.709804 0.709804 0.709804
0.694118 0.694118 0.694118
0.792157 0.792157 0.792157
0.847059 0.847059 0.847059
0.901961 0.901961 0.901961
0.925490 0.925490 0.925490
0.980392 0.980392 0.980392
0.333333 0.333333 0.333333
0.356863 0.356863 0.356863
0.392157 0.392157 0.392157
0.450980 0.450980 0.450980
0.521569 0.521569 0.521569
0.607843 0.607843 0.607843
0.690196 0.690196 0.690196
0.756863 0.756863 0.756863
0.796078 0.796078 0.796078
0.329412 0.329412 0.329412
0.364706 0.364706 0.364706
0.400000 0.400000 0.400000
0.458824 0.458824 0.458824
0.529412 0.529412 0.529412
0.615686 0.615686 0.615686
0.698039 0.698039 0.698039
0.760784 0.760784 0.760784
0.803922 0.803922 0.803922
0.317647 0.317647 0.317647
0.380392 0.380392 0.380392
0.419608 0.419608 0.419608
0.474510 0.474510 0.474510
0.552941 0.552941 0.552941
0.627451 0.627451 0.627451
0.701961 0.701961 0.701961
0.768627 0.768627 0.768627
0.803922 0.803922 0.803922
0.372549 0.372549 0.372549
0.435294 0.435294 0.435294
0.466667 0.466667 0.466667
0.521569 0.521569 0.521569
0.588235 0.588235 0.588235
0.666667 0.666667 0.666667
0.729412 0.729412 0.729412
0.792157 0.792157 0.792157
0.823529 0.823529 0.823529
0.458824 0.458824 0.458824
0.501961 0.501961 0.501961
0.529412 0.529412 0.529412
0.580392 0.580392 0.580392
0.635294 0.635294 0.635294
0.701961 0.701961 0.701961
0.760784 0.760784 0.760784
0.819608 0.819608 0.819608
0.854902 0.854902 0.854902
0.541176 0.541176 0.541176
0.568627 0.568627 0.568627
0.596078 0.596078 0.596078
0.639216 0.639216 0.639216
0.690196 0.690196 0.690196
0.745098 0.745098 0.745098
0.796078 0.796078 0.796078
0.854902 0.854902 0.854902
0.890196 0.890196 0.890196
0.615686 0.615686 0.615686
0.627451 0.627451 0.627451
0.654902 0.654902 0.654902
0.690196 0.690196 0.690196
0.737255 0.737255 0.737255
0.788235 0.788235 0.788235
0.839216 0.839216 0.839216
0.890196 0.890196 0.890196
0.968627 0.968627 0.968627
0.643137 0.643137 0.643137
0.658824 0.658824 0.658824
0.709804 0.709804 0.709804
0.776471 0.776471 0.776471
0.796078 0.796078 0.796078
0.850980 0.850980 0.850980
0.866667 0.866667 0.866667
0.937255 0.937255 0.937255
0.988235 0.988235 0.988235
0.752941 0.752941 0.752941
0.705882 0.705882 0.705882
0.709804 0.709804 0.709804
0.780392 0.780392 0.780392
0.796078 0.796078 0.796078
0.850980 0.850980 0.850980
0.917647 0.917647 0.917647
0.937255 0.937255 0.937255
0.988235 0.988235 0.988235
0.419608 0.419608 0.419608
0.435294 0.435294 0.435294
0.466667 0.466667 0.466667
0.517647 0.517647 0.517647
0.580392 0.580392 0.580392
0.650980 0.650980 0.650980
0.725490 0.725490 0.725490
0.784314 0.784314 0.784314
0.811765 0.811765 0.811765
0.419608 0.419608 0.419608
0.454902 0.454902 0.454902
0.482353 0.482353 0.482353
0.533333 0.533333 0.533333
0.588235 0.588235 0.588235
0.662745 0.662745 0.662745
0.729412 0.729412 0.729412
0.796078 0.796078 0.796078
0.807843 0.807843 0.807843
0.403922 0.403922 0.403922
0.458824 0.458824 0.458824
0.486275 0.486275 0.486275
0.533333 0.533333 0.533333
0.600000 0.600000 0.600000
0.670588 0.670588 0.670588
0.737255 0.737255 0.737255
0.796078 0.796078 0.796078
0.823529 0.823529 0.823529
0.419608 0.419608 0.419608
0.494118 0.494118 0.494118
0.517647 0.517647 0.517647
0.568627 0.568627 0.568627
0.631373 0.631373 0.631373
0.694118 0.694118 0.694118
0.752941 0.752941 0.752941
0.815686 0.815686 0.815686
0.835294 0.835294 0.835294
0.498039 0.498039 0.498039
0.552941 0.552941 0.552941
0.576471 0.576471 0.576471
0.619608 0.619608 0.619608
0.674510 0.674510 0.674510
0.729412 0.729412 0.729412
0.784314 0.784314 0.784314
0.839216 0.839216 0.839216
0.886275 0.886275 0.886275
0.576471 0.576471 0.576471
0.611765 0.611765 0.611765
0.631373 0.631373 0.631373
0.674510 0.674510 0.674510
0.717647 0.717647 0.717647
0.768627 0.768627 0.768627
0.819608 0.819608 0.819608
0.874510 0.874510 0.874510
0.913725 0.913725 0.913725
0.650980 0.650980 0.650980
0.670588 0.670588 0.670588
0.690196 0.690196 0.690196
0.721569 0.721569 0.721569
0.764706 0.764706 0.764706
0.815686 0.815686 0.815686
0.858824 0.858824 0.858824
0.913725 0.913725 0.913725
0.972549 0.972549 0.972549
0.752941 0.752941 0.752941
0.698039 0.698039 0.698039
0.737255 0.737255 0.737255
0.768627 0.768627 0.768627
0.815686 0.815686 0.815686
0.866667 0.866667 0.866667
0.898039 0.898039 0.898039
0.952941 0.952941 0.952941
1.000000 1.000000 1.000000
0.756863 0.756863 0.756863
0.721569 0.721569 0.721569
0.737255 0.737255 0.737255
0.768627 0.768627 0.768627
0.815686 0.815686 0.815686
0.866667 0.866667 0.866667
0.905882 0.905882 0.905882
0.952941 0.952941 0.952941
1.000000 1.000000 1.000000
0.498039 0.498039 0.498039
0.509804 0.509804 0.509804
0.537255 0.537255 0.537255
0.576471 0.576471 0.576471
0.631373 0.631373 0.631373
0.690196 0.690196 0.690196
0.752941 0.752941 0.752941
0.823529 0.823529 0.823529
0.823529 0.823529 0.823529
0.501961 0.501961 0.501961
0.537255 0.537255 0.537255
0.564706 0.564706 0.564706
0.600000 0.600000 0.600000
0.647059 0.647059 0.647059
0.705882 0.705882 0.705882
0.760784 0.760784 0.760784
0.827451 0.827451 0.827451
0.827451 0.827451 0.827451
0.482353 0.482353 0.482353
0.533333 0.533333 0.533333
0.572549 0.572549 0.572549
0.611765 0.611765 0.611765
0.658824 0.658824 0.658824
0.721569 0.721569 0.721569
0.772549 0.772549 0.772549
0.831373 0.831373 0.831373
0.827451 0.827451 0.827451
0.470588 0.470588 0.470588
0.509804 0.509804 0.509804
0.584314 0.584314 0.584314
0.631373 0.631373 0.631373
0.682353 0.682353 0.682353
0.737255 0.737255 0.737255
0.788235 0.788235 0.788235
0.847059 0.847059 0.847059
0.870588 0.870588 0.870588
0.525490 0.525490 0.525490
0.545098 0.545098 0.545098
0.627451 0.627451 0.627451
0.674510 0.674510 0.674510
0.721569 0.721569 0.721569
0.772549 0.772549 0.772549
0.819608 0.819608 0.819608
0.874510 0.874510 0.874510
0.886275 0.886275 0.886275
0.611765 0.611765 0.611765
0.627451 0.627451 0.627451
0.658824 0.658824 0.658824
0.721569 0.721569 0.721569
0.768627 0.768627 0.768627
0.811765 0.811765 0.811765
0.854902 0.854902 0.854902
0.905882 0.905882 0.905882
0.925490 0.925490 0.925490
0.690196 0.690196 0.690196
0.705882 0.705882 0.705882
0.725490 0.725490 0.725490
0.768627 0.768627 0.768627
0.807843 0.807843 0.807843
0.854902 0.854902 0.854902
0.901961 0.901961 0.901961
0.945098 0.945098 0.945098
0.964706 0.964706 0.964706
0.725490 0.725490 0.725490
0.741176 0.741176 0.741176
0.760784 0.760784 0.760784
0.792157 0.792157 0.792157
0.811765 0.811765 0.811765
0.882353 0.882353 0.882353
0.929412 0.929412 0.929412
0.984314 0.984314 0.984314
0.992157 0.992157 0.992157
0.756863 0.756863 0.756863
0.741176 0.741176 0.741176
0.737255 0.737255 0.737255
0.772549 0.772549 0.772549
0.839216 0.839216 0.839216
0.898039 0.898039 0.898039
0.941176 0.941176 0.941176
0.984314 0.984314 0.984314
0.992157 0.992157 0.992157
