luts/Fujifilm_PRO_160.cube
# Generated for krafta web app
# https://www.facebook.com/krafta.visio
# Preset: FUJ - PRO 160
# Color profile : sRGB Color Space Profile
LUT_3D_SIZE 16
DOMAIN_MIN 0.0 0.0 0.0
DOMAIN_MAX 1.0 1.0 1.0
0.000000 0.000000 0.000000
0.086152 0.000092 0.000244
0.172366 0.000000 0.000061
0.249241 0.000000 0.000031
0.317845 0.000183 0.000183
0.384192 0.000214 0.000214
0.448127 0.000000 0.000275
0.513695 0.000153 0.000244
0.577691 0.000000 0.000458
0.641688 0.000458 0.000336
0.705257 0.000214 0.000549
0.766171 0.000427 0.000458
0.826230 0.002533 0.002014
0.887358 0.004059 0.003296
0.948669 0.004761 0.003754
1.000000 0.003815 0.002502
0.000000 0.088930 0.000000
0.086824 0.086854 0.000000
0.166934 0.087800 0.000000
0.243290 0.086030 0.000000
0.313176 0.082826 0.000000
0.379644 0.079835 0.000000
0.446296 0.076844 0.000000
0.512016 0.075715 0.000000
0.575799 0.073793 0.000000
0.640253 0.073274 0.000000
0.703731 0.072847 0.000000
0.764584 0.072419 0.001099
0.824491 0.071656 0.001862
0.885710 0.071901 0.003357
0.947234 0.071595 0.003449
1.000000 0.070375 0.003174
0.000000 0.166720 0.000000
0.084688 0.163821 0.000000
0.160769 0.160800 0.000000
0.235264 0.158633 0.000000
0.306310 0.155367 0.000000
0.375647 0.152804 0.000000
0.442878 0.150088 0.000000
0.508568 0.147585 0.000000
0.572747 0.145174 0.000000
0.637995 0.143648 0.000000
0.701289 0.142458 0.000000
0.762142 0.140658 0.000946
0.821897 0.139467 0.002197
0.883696 0.138247 0.003113
0.945464 0.137484 0.003388
1.000000 0.136080 0.002869
0.000000 0.235904 0.000000
0.079408 0.233829 0.000000
0.155337 0.231510 0.000000
0.228824 0.229038 0.000000
0.299748 0.225650 0.000000
0.368750 0.222843 0.000000
0.435798 0.219577 0.000000
0.502037 0.216983 0.000000
0.567834 0.214694 0.000000
0.633021 0.212985 0.000000
0.696040 0.210605 0.000366
0.756893 0.208316 0.002014
0.817685 0.205905 0.002564
0.879057 0.204471 0.003326
0.940124 0.202579 0.002228
1.000000 0.200778 0.000305
0.000000 0.299535 0.000000
0.076356 0.299107 0.000000
0.151186 0.298955 0.000000
0.224186 0.297490 0.000000
0.295354 0.295323 0.000000
0.364874 0.292668 0.000000
0.432715 0.289677 0.000000
0.499947 0.287114 0.000000
0.566186 0.284611 0.000000
0.632013 0.282567 0.000183
0.695308 0.279698 0.001801
0.757198 0.276921 0.003052
0.819059 0.274693 0.003967
0.881224 0.272740 0.004547
0.942596 0.270481 0.004334
1.000000 0.267643 0.000732
0.000000 0.363745 0.000000
0.075715 0.364172 0.000000
0.148074 0.364233 0.000000
0.219486 0.363073 0.000000
0.289403 0.360967 0.000000
0.358556 0.358526 0.000183
0.426795 0.356329 0.000824
0.494667 0.354314 0.000977
0.561120 0.351873 0.001495
0.627039 0.349615 0.001160
0.690089 0.346380 0.002747
0.752834 0.343481 0.003723
0.814939 0.340795 0.004791
0.877256 0.338506 0.004913
0.938933 0.336034 0.003174
0.999298 0.333104 0.000000
0.001007 0.427619 0.002228
0.075227 0.428229 0.002075
0.145480 0.428138 0.001892
0.215702 0.427222 0.002289
0.285100 0.425849 0.002564
0.353918 0.424201 0.002350
0.422278 0.422339 0.002258
0.489693 0.420233 0.001984
0.555505 0.417365 0.002686
0.621027 0.414832 0.002686
0.684565 0.411688 0.004120
0.747860 0.408911 0.004303
0.810452 0.406073 0.004395
0.872953 0.403601 0.003571
0.935027 0.401068 0.001129
0.996399 0.398199 0.000000
0.003632 0.490211 0.003723
0.074250 0.491493 0.003784
0.143404 0.492012 0.003693
0.212802 0.491554 0.003693
0.281743 0.490272 0.004303
0.349523 0.488197 0.003632
0.416388 0.485451 0.003143
0.482795 0.482826 0.002777
0.548486 0.480232 0.002747
0.613916 0.477974 0.002777
0.678157 0.475288 0.003449
0.742000 0.472633 0.003723
0.804898 0.469978 0.002594
0.867491 0.467292 0.000183
0.929656 0.464607 0.000000
0.992859 0.462593 0.000000
0.003113 0.546929 0.002838
0.070619 0.547051 0.002991
0.138521 0.547570 0.002899
0.206760 0.547539 0.003388
0.274723 0.547295 0.003632
0.342199 0.546654 0.003418
0.409674 0.545739 0.003143
0.476509 0.544457 0.002991
0.543084 0.543114 0.003204
0.609155 0.541680 0.003296
0.674586 0.539971 0.003571
0.739193 0.537957 0.003357
0.802762 0.535454 0.001984
0.865721 0.532769 0.000000
0.928252 0.530083 0.000000
0.989685 0.526726 0.000000
0.002960 0.607874 0.003662
0.069429 0.607385 0.003754
0.136538 0.607263 0.003540
0.203281 0.607019 0.003754
0.270237 0.606683 0.003571
0.337285 0.606165 0.003449
0.404059 0.605798 0.003052
0.470649 0.605035 0.002472
0.537133 0.604211 0.002625
0.602960 0.603113 0.001801
0.668544 0.601740 0.001190
0.732845 0.599634 0.000000
0.796536 0.597314 0.000000
0.860288 0.595300 0.000000
0.923766 0.593194 0.000000
0.984771 0.589349 0.000000
0.000366 0.668116 0.001770
0.066285 0.667872 0.000977
0.133486 0.667567 0.000885
0.200107 0.667201 0.001038
0.266606 0.666926 0.000488
0.332921 0.666438 0.000214
0.399420 0.665980 0.000000
0.465492 0.665309 0.000000
0.531426 0.664576 0.000000
0.596979 0.663539 0.000000
0.662226 0.662287 0.000000
0.726802 0.660761 0.000000
0.791165 0.659052 0.000000
0.854734 0.656947 0.000000
0.917388 0.654231 0.000000
0.978759 0.650507 0.000000
0.000000 0.728328 0.000000
0.059144 0.728054 0.000000
0.128511 0.727779 0.000000
0.195865 0.727352 0.000000
0.262089 0.726650 0.000000
0.328344 0.725856 0.000000
0.394171 0.725093 0.000000
0.459602 0.724239 0.000000
0.525200 0.723476 0.000000
0.590295 0.722286 0.000000
0.655085 0.721035 0.000000
0.719539 0.719692 0.000000
0.784024 0.718471 0.000000
0.847868 0.716732 0.000000
0.911406 0.714778 0.000000
0.975097 0.712917 0.000000
0.000000 0.777432 0.000000
0.022980 0.777615 0.000000
0.110384 0.778531 0.000000
0.183078 0.779355 0.000000
0.252415 0.780575 0.000000
0.320012 0.781399 0.000000
0.387152 0.782589 0.000000
0.453925 0.783352 0.000000
0.520806 0.784482 0.000000
0.587274 0.785092 0.000000
0.654047 0.786069 0.000000
0.720363 0.786496 0.000000
0.787106 0.787198 0.000000
0.852140 0.786313 0.000000
0.914092 0.782650 0.000000
0.972656 0.775998 0.000000
0.000000 0.844816 0.000000
0.000000 0.840818 0.000000
0.088563 0.839170 0.000000
0.169558 0.838895 0.000000
0.241886 0.839719 0.000000
0.311315 0.840360 0.000000
0.379339 0.841215 0.000000
0.446693 0.842039 0.000000
0.513878 0.843259 0.000000
0.580224 0.843626 0.000000
0.646815 0.844327 0.000000
0.712703 0.844419 0.000000
0.778744 0.844633 0.000000
0.843534 0.843687 0.000000
0.907225 0.841703 0.000000
0.968536 0.837491 0.000000
0.000000 0.905211 0.000000
0.000000 0.901762 0.000000
0.036927 0.899931 0.000000
0.145418 0.899321 0.000000
0.225437 0.899626 0.000000
0.298619 0.900053 0.000000
0.368963 0.900938 0.000000
0.437476 0.901488 0.000000
0.505272 0.902281 0.000000
0.572229 0.902617 0.000000
0.639033 0.903105 0.000000
0.705470 0.903441 0.000000
0.772213 0.904265 0.000000
0.838254 0.904387 0.000000
0.903746 0.903929 0.000000
0.967102 0.901366 0.000000
0.000000 0.967773 0.000000
0.000000 0.964996 0.000000
0.000000 0.963561 0.000000
0.094789 0.963104 0.000000
0.197726 0.963287 0.000000
0.279271 0.963714 0.000000
0.354192 0.964477 0.000000
0.425971 0.965209 0.000000
0.496193 0.966339 0.000000
0.565454 0.967468 0.000000
0.634180 0.968811 0.000000
0.702480 0.970031 0.000000
0.771176 0.971893 0.000000
0.839536 0.973510 0.000000
0.908385 0.975525 0.000000
0.977630 0.977813 0.000000
0.000122 0.000183 0.087404
0.091157 0.000000 0.091249
0.172763 0.000275 0.090944
0.248753 0.000153 0.085115
0.316197 0.000244 0.080201
0.381689 0.000214 0.078096
0.446754 0.000031 0.076600
0.511803 0.000031 0.075593
0.575311 0.000214 0.074403
0.639612 0.000732 0.073762
0.703365 0.001038 0.073304
0.763912 0.003967 0.073152
0.823667 0.004791 0.072633
0.884703 0.005463 0.072175
0.945800 0.006165 0.071412
1.000000 0.004181 0.069612
0.000000 0.089876 0.089815
0.086946 0.086946 0.086946
0.168612 0.084016 0.084016
0.243442 0.081758 0.081544
0.312627 0.079896 0.079774
0.379339 0.077882 0.077882
0.445594 0.076905 0.076967
0.510765 0.076112 0.075776
0.574548 0.074739 0.074495
0.639551 0.074067 0.073854
0.702937 0.073915 0.073548
0.763333 0.073793 0.073121
0.822782 0.073182 0.072297
0.883726 0.072480 0.072053
0.944640 0.071992 0.070893
1.000000 0.070192 0.069276
0.000000 0.168368 0.083955
0.082704 0.165408 0.082673
0.162203 0.162203 0.081025
0.237125 0.159182 0.079591
0.307897 0.156039 0.078920
0.376562 0.153323 0.077913
0.443305 0.150576 0.077028
0.508598 0.148287 0.075776
0.573724 0.146304 0.074891
0.638575 0.144869 0.074281
0.701137 0.143069 0.073426
0.761257 0.141115 0.073030
0.820768 0.139590 0.072511
0.882017 0.138399 0.071809
0.943145 0.137209 0.070558
1.000000 0.135256 0.068421
0.000000 0.237797 0.080964
0.080018 0.235569 0.080079
0.156558 0.233036 0.078920
0.230167 0.230350 0.077974
0.301244 0.227115 0.077577
0.370184 0.223972 0.076631
0.437385 0.220951 0.076295
0.503899 0.218418 0.075380
0.569574 0.215915 0.074678
0.634272 0.213809 0.073793
0.697047 0.211185 0.073243
0.757534 0.208865 0.072908
0.818692 0.206851 0.072419
0.879789 0.205020 0.071626
0.940093 0.202670 0.069795
1.000000 0.200412 0.066560
0.000000 0.299565 0.077882
0.077668 0.298894 0.077699
0.150912 0.297429 0.077607
0.222904 0.295384 0.076814
0.292760 0.292760 0.076234
0.361761 0.290196 0.075593
0.429541 0.287663 0.075227
0.496651 0.285435 0.074617
0.562646 0.282994 0.073793
0.628229 0.280827 0.072877
0.691707 0.278386 0.072908
0.753994 0.275822 0.072694
0.816281 0.273838 0.072541
0.878569 0.271855 0.071778
0.940093 0.269749 0.070375
1.000000 0.266972 0.066590
0.001495 0.363287 0.076967
0.076387 0.363134 0.076875
0.147799 0.362188 0.076997
0.218173 0.360754 0.076265
0.287816 0.358770 0.075441
0.356390 0.356481 0.075135
0.424170 0.354131 0.074281
0.491463 0.351995 0.073762
0.557702 0.349676 0.073304
0.623316 0.347448 0.072572
0.686885 0.344701 0.072663
0.749966 0.342138 0.072480
0.812314 0.339666 0.071534
0.874540 0.337377 0.070192
0.936339 0.334905 0.068452
0.997528 0.332311 0.064271
0.004059 0.427588 0.076265
0.076234 0.427771 0.076509
0.145785 0.427131 0.076051
0.215152 0.425910 0.076020
0.284001 0.424170 0.075410
0.352392 0.422187 0.074708
0.419837 0.419867 0.074067
0.486580 0.417609 0.073304
0.552667 0.415229 0.072450
0.618158 0.412848 0.072084
0.681636 0.409827 0.071809
0.744839 0.407050 0.071443
0.807462 0.404364 0.070222
0.869993 0.401953 0.068421
0.932158 0.399481 0.065400
0.994263 0.397070 0.061158
0.004242 0.489448 0.074556
0.074617 0.489967 0.075044
0.142611 0.489662 0.074678
0.211734 0.488746 0.074342
0.279728 0.487373 0.074037
0.347417 0.485420 0.073823
0.414527 0.483223 0.072938
0.480781 0.480873 0.072236
0.546410 0.478370 0.070924
0.611597 0.476112 0.070741
0.675715 0.473487 0.070588
0.739437 0.471015 0.069520
0.802579 0.468391 0.067994
0.865049 0.465736 0.065705
0.927031 0.462928 0.060639
0.988556 0.460029 0.053162
0.002502 0.548211 0.072023
0.071290 0.548028 0.072145
0.138796 0.547784 0.072114
0.206760 0.547265 0.071534
0.274266 0.546532 0.071717
0.341588 0.545708 0.071199
0.408942 0.544762 0.071107
0.475685 0.543450 0.070771
0.541863 0.541924 0.070253
0.607691 0.540429 0.069886
0.673030 0.538659 0.069917
0.737514 0.536675 0.068879
0.801083 0.534173 0.067292
0.864317 0.531823 0.064271
0.927398 0.529534 0.060365
0.989532 0.526574 0.051789
0.003662 0.607996 0.070924
0.070436 0.607660 0.070436
0.136568 0.607294 0.070680
0.203464 0.606928 0.070375
0.270176 0.606531 0.070344
0.337041 0.605829 0.070192
0.403662 0.605066 0.069612
0.469978 0.604059 0.069276
0.536004 0.602991 0.068910
0.601678 0.601709 0.068025
0.666835 0.600244 0.066529
0.731228 0.598291 0.065339
0.795163 0.596216 0.062318
0.859281 0.594446 0.058259
0.922972 0.592493 0.051972
0.984710 0.589136 0.038605
0.000000 0.668208 0.068147
0.066957 0.668116 0.067903
0.133669 0.667781 0.067903
0.200412 0.667323 0.067201
0.266636 0.666804 0.066926
0.332708 0.666072 0.066194
0.398810 0.665187 0.065705
0.464698 0.664332 0.064546
0.530541 0.663508 0.063813
0.595911 0.662379 0.062409
0.660914 0.660975 0.061280
0.725460 0.659480 0.058656
0.789212 0.657374 0.053620
0.852750 0.655268 0.046174
0.915862 0.652918 0.033967
0.977966 0.649714 0.014191
0.000000 0.728023 0.060609
0.059388 0.727840 0.060273
0.128389 0.727321 0.059693
0.195315 0.726680 0.058808
0.261662 0.726009 0.057557
0.327855 0.725246 0.056397
0.393561 0.724514 0.055207
0.459174 0.723476 0.053468
0.524315 0.722377 0.051453
0.588952 0.720882 0.048157
0.653315 0.719265 0.044404
0.717464 0.717617 0.040192
0.781460 0.716030 0.035187
0.845029 0.714168 0.023133
0.908385 0.712154 0.005493
0.972473 0.710597 0.000000
0.000000 0.778988 0.024689
0.022889 0.779080 0.024933
0.110445 0.779721 0.025574
0.183017 0.780209 0.026795
0.252232 0.781033 0.027588
0.319738 0.781735 0.028595
0.387182 0.782864 0.029603
0.453925 0.783505 0.030243
0.520684 0.784451 0.031159
0.586999 0.784878 0.030518
0.653590 0.785641 0.030610
0.719875 0.785977 0.029694
0.786587 0.786740 0.029419
0.851774 0.785916 0.024567
0.914061 0.782528 0.003632
0.973114 0.776303 0.000000
0.000000 0.845731 0.000000
0.000000 0.842008 0.000000
0.088319 0.840391 0.000000
0.169131 0.840055 0.000000
0.241794 0.840696 0.000000
0.311284 0.841123 0.000000
0.379339 0.841733 0.000000
0.446509 0.842313 0.000000
0.513634 0.843290 0.000000
0.579950 0.843473 0.000000
0.646387 0.844022 0.000000
0.712367 0.844083 0.000000
0.778470 0.844450 0.000000
0.843503 0.843656 0.000000
0.907439 0.841855 0.000000
0.969055 0.837888 0.000000
0.000000 0.905821 0.000000
0.000000 0.902647 0.000000
0.033082 0.900969 0.000000
0.144259 0.900420 0.000000
0.224887 0.900633 0.000000
0.298283 0.900969 0.000000
0.368688 0.901671 0.000000
0.437263 0.902007 0.000000
0.504967 0.902495 0.000000
0.571862 0.902678 0.000000
0.638605 0.903044 0.000000
0.705165 0.903349 0.000000
0.771939 0.904143 0.000000
0.838163 0.904295 0.000000
0.903868 0.904021 0.000000
0.967468 0.901640 0.000000
0.000000 0.968292 0.000000
0.000000 0.965698 0.000000
0.000000 0.964263 0.000000
0.090974 0.963836 0.000000
0.195651 0.964111 0.000000
0.278141 0.964508 0.000000
0.353521 0.965179 0.000000
0.425452 0.965850 0.000000
0.495766 0.966766 0.000000
0.564996 0.967773 0.000000
0.633845 0.968963 0.000000
0.702083 0.970031 0.000000
0.770687 0.971649 0.000000
0.839048 0.973175 0.000000
0.908049 0.975250 0.000000
0.977417 0.977569 0.000000
0.000000 0.000275 0.181277
0.094423 0.000000 0.178134
0.171237 0.000000 0.171878
0.244785 0.000061 0.165316
0.313146 0.000153 0.158907
0.377874 0.000000 0.154055
0.442878 0.001312 0.151431
0.507561 0.003723 0.149020
0.571496 0.003876 0.146670
0.636469 0.004211 0.144900
0.700313 0.004303 0.143374
0.761227 0.007141 0.142153
0.821347 0.007843 0.140597
0.883116 0.008545 0.139254
0.944640 0.007965 0.137819
1.000000 0.005249 0.135409
0.000000 0.088808 0.175448
0.085328 0.085267 0.170657
0.166018 0.082612 0.165988
0.239933 0.081147 0.161196
0.308537 0.079835 0.156832
0.375311 0.080110 0.153902
0.441535 0.078981 0.151247
0.506706 0.078004 0.148989
0.571405 0.076905 0.146517
0.636622 0.075990 0.145113
0.700191 0.075257 0.143526
0.760739 0.075654 0.142153
0.820737 0.074647 0.140383
0.882261 0.074189 0.139162
0.943572 0.072999 0.137514
1.000000 0.070253 0.135256
0.000000 0.165927 0.165866
0.081636 0.163241 0.163394
0.160464 0.160464 0.160464
0.234409 0.157931 0.157839
0.304875 0.155612 0.155520
0.373266 0.153231 0.153475
0.439918 0.151095 0.151003
0.505333 0.148623 0.148562
0.571160 0.146883 0.146761
0.635920 0.145144 0.145113
0.698512 0.143557 0.143343
0.758755 0.141939 0.141634
0.819059 0.140291 0.139956
0.880522 0.139101 0.138735
0.942046 0.137484 0.137026
1.000000 0.135042 0.134707
0.000000 0.235843 0.158968
0.081331 0.233707 0.157778
0.156252 0.231449 0.156252
0.228946 0.228977 0.154543
0.299474 0.226200 0.152926
0.368017 0.223331 0.151186
0.435157 0.220432 0.149172
0.502037 0.218143 0.147402
0.567468 0.215732 0.145785
0.632197 0.213443 0.143893
0.694881 0.211215 0.142245
0.755459 0.208896 0.140810
0.817105 0.206943 0.139651
0.878355 0.204807 0.137942
0.938811 0.202670 0.135653
0.999420 0.200107 0.132937
0.004700 0.297948 0.152773
0.080171 0.297307 0.152377
0.151339 0.296117 0.151522
0.222263 0.294163 0.150515
0.291875 0.291661 0.148928
0.360327 0.289281 0.147646
0.427893 0.286839 0.146334
0.494881 0.284642 0.145083
0.560784 0.282292 0.143648
0.626215 0.280247 0.142336
0.689723 0.277806 0.141085
0.752438 0.275547 0.140200
0.815000 0.273625 0.139071
0.877440 0.271702 0.137942
0.939269 0.269566 0.136110
0.999786 0.266789 0.133150
0.006195 0.362341 0.149142
0.079072 0.362158 0.148959
0.148257 0.361303 0.148379
0.218143 0.359716 0.147890
0.287297 0.357855 0.146792
0.355627 0.355718 0.145663
0.423102 0.353307 0.144259
0.490303 0.351171 0.143343
0.556420 0.349004 0.142061
0.621820 0.346746 0.140932
0.685634 0.344121 0.140078
0.748745 0.341650 0.139284
0.811276 0.339300 0.138064
0.873655 0.336980 0.136446
0.935637 0.334600 0.134249
0.997192 0.331975 0.131258
0.007202 0.426612 0.146517
0.078035 0.426886 0.146639
0.145937 0.426276 0.146059
0.215122 0.425086 0.145724
0.283665 0.423438 0.144869
0.351873 0.421515 0.143984
0.419257 0.419226 0.142947
0.485847 0.416968 0.141726
0.551812 0.414496 0.140536
0.617090 0.412177 0.139498
0.680568 0.409277 0.138796
0.743832 0.406561 0.137728
0.806516 0.403998 0.136141
0.869139 0.401556 0.134524
0.931456 0.399084 0.132174
0.993988 0.396704 0.128725
0.005219 0.488655 0.143160
0.075502 0.489357 0.143343
0.142641 0.489021 0.143160
0.211551 0.488167 0.142794
0.279606 0.486702 0.142336
0.347082 0.484840 0.141512
0.413947 0.482612 0.140414
0.480262 0.480323 0.139467
0.545830 0.477852 0.138247
0.611017 0.475593 0.137636
0.675044 0.472999 0.136721
0.738766 0.470527 0.135775
0.801816 0.467964 0.134127
0.864408 0.465309 0.132021
0.926177 0.462379 0.128359
0.987884 0.459327 0.123537
0.003052 0.547723 0.139162
0.071656 0.547539 0.139254
0.138949 0.547234 0.139101
0.206455 0.546715 0.138949
0.273960 0.546075 0.138827
0.341344 0.545159 0.138430
0.408515 0.544244 0.138033
0.475166 0.542901 0.137545
0.541405 0.541466 0.137026
0.607294 0.539971 0.136324
0.672541 0.538262 0.136141
0.736965 0.536248 0.135073
0.800534 0.533776 0.133577
0.863920 0.531487 0.131350
0.927184 0.529229 0.128481
0.989532 0.526329 0.123354
0.003540 0.607660 0.137148
0.070405 0.607385 0.136995
0.136385 0.607080 0.136904
0.203342 0.606714 0.136751
0.270237 0.606317 0.136721
0.336858 0.605676 0.136294
0.403540 0.604822 0.135836
0.469673 0.603845 0.135500
0.535698 0.602777 0.134768
0.601343 0.601465 0.134188
0.666468 0.599878 0.133150
0.730831 0.597925 0.131807
0.794858 0.595941 0.129580
0.859007 0.594232 0.127230
0.922820 0.592279 0.123293
0.984771 0.588952 0.116121
0.000916 0.667933 0.134218
0.067018 0.667964 0.134188
0.133791 0.667689 0.134127
0.200015 0.667262 0.133761
0.266331 0.666682 0.133486
0.332769 0.665919 0.132753
0.398688 0.665126 0.132235
0.464668 0.664240 0.131838
0.530388 0.663355 0.130953
0.595697 0.662135 0.129976
0.660609 0.660731 0.128817
0.725246 0.659205 0.127291
0.788876 0.657038 0.124086
0.852598 0.655024 0.119661
0.915862 0.652735 0.113558
0.978119 0.649592 0.102937
0.000000 0.727840 0.128756
0.057343 0.727687 0.128542
0.127779 0.727230 0.128176
0.194797 0.726650 0.127687
0.261540 0.726040 0.126986
0.327550 0.725338 0.126162
0.393591 0.724605 0.125521
0.459083 0.723507 0.124178
0.524224 0.722347 0.122713
0.588891 0.720790 0.121004
0.653223 0.719112 0.118959
0.717311 0.717433 0.116304
0.781277 0.715846 0.113527
0.844907 0.713985 0.107179
0.908293 0.711879 0.097169
0.972473 0.710292 0.083619
0.000000 0.779538 0.108888
0.018158 0.779599 0.108797
0.108278 0.780117 0.109285
0.181888 0.780575 0.109926
0.251255 0.781430 0.110475
0.319341 0.782040 0.110994
0.386877 0.783108 0.111788
0.453681 0.783749 0.112062
0.520653 0.784665 0.112886
0.587030 0.785092 0.112398
0.653681 0.785885 0.112825
0.720119 0.786252 0.112337
0.786893 0.786984 0.112398
0.851987 0.786069 0.109926
0.914244 0.782559 0.098054
0.973449 0.776364 0.069825
0.000000 0.846036 0.095888
0.000000 0.842496 0.088930
0.084779 0.840940 0.086000
0.167330 0.840635 0.084749
0.240604 0.841184 0.085115
0.310369 0.841550 0.085115
0.378668 0.842161 0.085328
0.446235 0.842741 0.085237
0.513481 0.843656 0.085725
0.580011 0.843839 0.084840
0.646418 0.844358 0.083894
0.712459 0.844388 0.081422
0.778622 0.844694 0.079530
0.843717 0.843839 0.073823
0.907683 0.842008 0.062623
0.969451 0.838071 0.023133
0.000000 0.906126 0.046174
0.000000 0.903044 0.031189
0.020356 0.901427 0.023133
0.139925 0.900908 0.019257
0.222324 0.901091 0.018189
0.296513 0.901427 0.017426
0.367529 0.902129 0.018189
0.436500 0.902464 0.015747
0.504326 0.902831 0.013031
0.571466 0.902983 0.008057
0.638422 0.903380 0.003601
0.705074 0.903685 0.000000
0.772000 0.904417 0.000000
0.838315 0.904601 0.000000
0.904112 0.904295 0.000000
0.967895 0.901915 0.000000
0.000000 0.968688 0.000000
0.000000 0.966094 0.000000
0.000000 0.964721 0.000000
0.079347 0.964324 0.000000
0.190860 0.964630 0.000000
0.275090 0.965026 0.000000
0.351232 0.965667 0.000000
0.423804 0.966247 0.000000
0.494575 0.967163 0.000000
0.564202 0.968170 0.000000
0.633265 0.969329 0.000000
0.701747 0.970367 0.000000
0.770413 0.971923 0.000000
0.838987 0.973449 0.000000
0.908049 0.975463 0.000000
0.977630 0.977783 0.000000
0.000000 0.000061 0.257786
0.089723 0.000000 0.254398
0.166659 0.000244 0.247959
0.240024 0.000000 0.240574
0.308659 0.000000 0.232975
0.374975 0.000061 0.226963
0.440345 0.001465 0.222843
0.504845 0.003967 0.219577
0.568811 0.006226 0.216526
0.633600 0.006806 0.214420
0.697383 0.006897 0.212314
0.758541 0.010224 0.210330
0.819303 0.010986 0.208164
0.881559 0.011383 0.206638
0.943328 0.010101 0.204807
1.000000 0.005676 0.201999
0.000000 0.085328 0.250919
0.083558 0.083436 0.246220
0.162387 0.081788 0.241093
0.235782 0.080232 0.235843
0.305241 0.079286 0.230259
0.372839 0.079683 0.226200
0.438849 0.079469 0.222507
0.503563 0.079103 0.219211
0.568719 0.078676 0.216709
0.633814 0.077516 0.214572
0.697169 0.076448 0.212345
0.758083 0.077180 0.210239
0.818845 0.076295 0.208042
0.880613 0.075776 0.206271
0.942260 0.073762 0.204318
1.000000 0.070802 0.201785
0.000000 0.162844 0.241550
0.082368 0.160708 0.238193
0.158572 0.158511 0.234562
0.231907 0.156649 0.231754
0.301915 0.154696 0.228367
0.370245 0.153048 0.225193
0.436805 0.151095 0.221988
0.502586 0.149050 0.219211
0.568200 0.147066 0.216770
0.633051 0.145266 0.214328
0.695705 0.143496 0.211826
0.756222 0.142275 0.209476
0.817136 0.140963 0.207462
0.879026 0.139742 0.205570
0.940795 0.137697 0.203677
1.000000 0.134859 0.200992
0.000000 0.233463 0.233402
0.081605 0.231571 0.231540
0.155581 0.229374 0.229374
0.227268 0.227268 0.227268
0.296971 0.224949 0.224857
0.365301 0.222385 0.222507
0.432715 0.219791 0.219944
0.499458 0.217655 0.217533
0.564935 0.215213 0.215213
0.629633 0.212894 0.212772
0.692378 0.210819 0.210605
0.753384 0.208743 0.208530
0.815488 0.207004 0.206760
0.876921 0.205081 0.204807
0.937713 0.202396 0.202152
0.998596 0.199374 0.199130
0.004913 0.296086 0.223789
0.080873 0.295415 0.223423
0.151278 0.294072 0.222477
0.221256 0.292454 0.221378
0.290105 0.290257 0.219455
0.358465 0.288182 0.217746
0.426001 0.285832 0.215946
0.492988 0.283726 0.214176
0.558862 0.281376 0.212192
0.624231 0.279301 0.210513
0.687678 0.277043 0.208896
0.750851 0.275242 0.207584
0.813626 0.273381 0.206302
0.876249 0.271550 0.204746
0.938293 0.269383 0.202640
0.999145 0.266300 0.199344
0.008484 0.360906 0.219425
0.080140 0.360693 0.219333
0.148501 0.359808 0.218662
0.217746 0.358434 0.217655
0.286259 0.356573 0.216220
0.354498 0.354467 0.214847
0.421851 0.352300 0.213260
0.488838 0.350225 0.211917
0.554833 0.348028 0.210361
0.620356 0.345892 0.208804
0.684077 0.343481 0.207584
0.747372 0.341222 0.206271
0.810025 0.338842 0.204776
0.872587 0.336706 0.203006
0.934752 0.334173 0.200778
0.996704 0.331609 0.197971
0.007202 0.425147 0.215518
0.078035 0.425391 0.215610
0.145388 0.424842 0.215213
0.214481 0.423774 0.214511
0.282780 0.422248 0.213626
0.350988 0.420447 0.212497
0.418341 0.418341 0.211215
0.484718 0.415991 0.209812
0.550530 0.413611 0.208377
0.615778 0.411231 0.206973
0.679316 0.408453 0.205814
0.742641 0.406012 0.204379
0.805447 0.403449 0.202792
0.868254 0.401068 0.200870
0.930816 0.398688 0.198489
0.993530 0.396246 0.195468
0.004517 0.487556 0.211276
