luts/Fujifilm_Sensia_100.cube
# Generated for krafta web app
# https://www.facebook.com/krafta.visio
# Preset: FUJ - Sensia 100
# Color profile : sRGB Color Space Profile
LUT_3D_SIZE 16
DOMAIN_MIN 0.0 0.0 0.0
DOMAIN_MAX 1.0 1.0 1.0
0.000000 0.000000 0.000000
0.093172 0.000000 0.000000
0.187503 0.000183 0.000000
0.268009 0.000336 0.000275
0.337438 0.000275 0.000183
0.404150 0.000092 0.000000
0.467903 0.000366 0.000153
0.534112 0.000305 0.000183
0.598474 0.000336 0.000397
0.662989 0.000366 0.000214
0.726131 0.000336 0.000580
0.786099 0.001953 0.001190
0.844938 0.005066 0.004120
0.905150 0.007660 0.006744
0.965362 0.010681 0.009461
1.000000 0.011353 0.009735
0.000000 0.097841 0.000000
0.094759 0.095064 0.000000
0.180148 0.096223 0.000000
0.260258 0.093721 0.000000
0.331243 0.089204 0.000000
0.398199 0.085084 0.000000
0.465736 0.081392 0.000000
0.532341 0.079072 0.000000
0.596216 0.077333 0.000000
0.661341 0.076112 0.000000
0.724331 0.075959 0.000000
0.784115 0.076295 0.001831
0.842741 0.075868 0.004120
0.903014 0.076814 0.006958
0.963592 0.077211 0.009430
1.000000 0.076997 0.010498
0.000000 0.180026 0.000000
0.091859 0.176089 0.000000
0.171908 0.171878 0.000000
0.249454 0.168887 0.000000
0.322454 0.164218 0.000000
0.393256 0.160861 0.000000
0.461616 0.157321 0.000000
0.527977 0.154147 0.000000
0.592523 0.151217 0.000000
0.658686 0.149599 0.000000
0.721462 0.147860 0.000000
0.781247 0.145815 0.002564
0.839628 0.144289 0.005127
0.900633 0.143252 0.007446
0.961486 0.142611 0.009308
1.000000 0.141604 0.010986
0.000000 0.250309 0.000000
0.084688 0.247410 0.000000
0.164553 0.244419 0.000000
0.241184 0.241154 0.000000
0.314092 0.236912 0.000000
0.384497 0.233036 0.000000
0.452583 0.228763 0.000000
0.519799 0.225437 0.000000
0.586481 0.222751 0.000000
0.652613 0.220523 0.000000
0.715053 0.217563 0.001221
0.774777 0.214603 0.004334
0.834470 0.211704 0.005859
0.894896 0.209812 0.008057
0.954711 0.207828 0.008392
1.000000 0.205966 0.008331
0.000000 0.313817 0.000000
0.081300 0.313298 0.000000
0.159030 0.313207 0.000000
0.235019 0.311437 0.000000
0.308568 0.308690 0.000000
0.380133 0.305333 0.000000
0.449348 0.301366 0.000000
0.517815 0.298192 0.000000
0.585168 0.294987 0.000244
0.652094 0.292454 0.001038
0.714717 0.288670 0.003845
0.775814 0.285039 0.006287
0.836820 0.282109 0.009339
0.898192 0.279728 0.011292
0.958404 0.277104 0.012726
1.000000 0.273442 0.011109
0.000000 0.378546 0.000000
0.080598 0.379248 0.000000
0.155550 0.379339 0.000000
0.229252 0.377966 0.000000
0.301244 0.375280 0.000092
0.372198 0.372259 0.000671
0.442267 0.369451 0.001617
0.511620 0.366979 0.002380
0.579370 0.364080 0.002960
0.646143 0.361089 0.003357
0.708583 0.356603 0.006317
0.770687 0.352758 0.008850
0.831968 0.349218 0.011017
0.893492 0.346227 0.013397
0.954009 0.343206 0.013550
1.000000 0.339483 0.010864
0.002991 0.443183 0.003265
0.080812 0.444007 0.003937
0.152712 0.443977 0.003449
0.224613 0.442908 0.003784
0.296086 0.441169 0.004059
0.366857 0.439216 0.004150
0.436866 0.437018 0.004303
0.505943 0.434485 0.004181
0.572839 0.430884 0.004669
0.638758 0.427405 0.005676
0.702052 0.423011 0.008301
0.764858 0.419196 0.011322
0.826658 0.415381 0.012879
0.888426 0.412055 0.013336
0.949371 0.408759 0.013153
1.000000 0.405005 0.009522
0.006134 0.506310 0.006287
0.079896 0.508049 0.006775
0.150332 0.508843 0.006836
0.221592 0.508385 0.007446
0.292241 0.506859 0.007172
0.361639 0.504234 0.006928
0.429786 0.500816 0.006104
0.497536 0.497566 0.005646
0.564446 0.494392 0.005798
0.630182 0.491096 0.006928
0.694301 0.487282 0.009827
0.757839 0.483589 0.011810
0.820066 0.479744 0.012634
0.881773 0.476112 0.011963
0.942779 0.472450 0.009339
1.000000 0.469764 0.006195
0.006439 0.561303 0.007111
0.076081 0.561425 0.006653
0.144717 0.562188 0.007324
0.213993 0.562341 0.007691
0.283482 0.562127 0.008423
0.352392 0.561395 0.007843
0.421271 0.560357 0.008179
0.489448 0.558892 0.008148
0.557336 0.557397 0.008759
0.624598 0.555718 0.009400
0.690333 0.553033 0.011810
0.754849 0.550011 0.014221
0.817899 0.546380 0.014588
0.880034 0.542626 0.013703
0.941497 0.538903 0.010651
1.000000 0.534630 0.002747
0.010132 0.621607 0.011536
0.076722 0.620996 0.011322
0.142794 0.620905 0.010956
0.210300 0.620630 0.011475
0.278172 0.620264 0.011078
0.346014 0.619776 0.011414
0.414099 0.619409 0.011383
0.481788 0.618585 0.011261
0.549401 0.617762 0.011627
0.616388 0.616541 0.011688
0.682948 0.615015 0.011475
0.747066 0.611780 0.011933
0.810239 0.608301 0.010986
0.873472 0.605249 0.008453
0.936065 0.602106 0.004456
0.997864 0.598596 0.000000
0.011444 0.680934 0.012512
0.075868 0.680568 0.012421
0.140658 0.680201 0.012818
0.207095 0.679866 0.012818
0.273869 0.679561 0.012146
0.340978 0.679042 0.012055
0.408209 0.678553 0.011841
0.475135 0.677821 0.011170
0.541985 0.677028 0.011292
0.608362 0.675837 0.010620
0.674372 0.674464 0.009125
0.739681 0.672694 0.007813
0.803738 0.670069 0.004822
0.867582 0.667536 0.001556
0.930877 0.664851 0.000000
0.993286 0.661616 0.000000
0.007141 0.740017 0.009552
0.072114 0.739651 0.009125
0.137118 0.739345 0.008606
0.203128 0.738918 0.008606
0.269657 0.738338 0.007416
0.335973 0.737728 0.007080
0.402533 0.737057 0.005890
0.468818 0.736355 0.004395
0.535088 0.735683 0.003876
0.601038 0.734707 0.002594
0.666804 0.733639 0.000153
0.732296 0.732479 0.000000
0.797848 0.731380 0.000000
0.862272 0.729519 0.000000
0.926238 0.727382 0.000000
0.990265 0.725338 0.000000
0.000000 0.793698 0.000000
0.054566 0.793790 0.000000
0.126894 0.794339 0.000000
0.195315 0.794797 0.000000
0.263096 0.795499 0.000000
0.330175 0.795956 0.000000
0.397253 0.796567 0.000000
0.464118 0.796902 0.000000
0.531121 0.797452 0.000000
0.597803 0.797635 0.000000
0.664790 0.798032 0.000000
0.731350 0.798093 0.000000
0.798154 0.798306 0.000000
0.863890 0.797452 0.000000
0.927123 0.794461 0.000000
0.987976 0.789456 0.000000
0.000000 0.859312 0.000000
0.035431 0.856809 0.000000
0.115541 0.855711 0.000000
0.187320 0.855528 0.000000
0.256138 0.855985 0.000000
0.324163 0.856321 0.000000
0.391638 0.856748 0.000000
0.458656 0.857145 0.000000
0.525780 0.857786 0.000000
0.592248 0.857877 0.000000
0.658930 0.858152 0.000000
0.725185 0.858030 0.000000
0.791501 0.857939 0.000000
0.857023 0.857176 0.000000
0.921843 0.855711 0.000000
0.984771 0.852567 0.000000
0.000000 0.920623 0.000000
0.000000 0.918486 0.000000
0.092775 0.917327 0.000000
0.172976 0.916930 0.000000
0.245731 0.917082 0.000000
0.315709 0.917296 0.000000
0.384344 0.917754 0.000000
0.451972 0.918029 0.000000
0.519402 0.918395 0.000000
0.586206 0.918486 0.000000
0.652949 0.918669 0.000000
0.719509 0.918761 0.000000
0.786191 0.919127 0.000000
0.852506 0.919036 0.000000
0.918425 0.918578 0.000000
0.983032 0.916869 0.000000
0.000000 0.983520 0.000000
0.000000 0.981872 0.000000
0.031800 0.980957 0.000000
0.146487 0.980682 0.000000
0.228428 0.980804 0.000000
0.302922 0.980987 0.000000
0.374182 0.981415 0.000000
0.443793 0.981811 0.000000
0.512657 0.982422 0.000000
0.580896 0.983032 0.000000
0.648890 0.983734 0.000000
0.716609 0.984405 0.000000
0.784543 0.985412 0.000000
0.852232 0.986267 0.000000
0.920226 0.987366 0.000000
0.988403 0.988586 0.000000
0.000214 0.000183 0.094820
0.100862 0.000000 0.100923
0.188815 0.000000 0.100526
0.267674 0.000031 0.092378
0.335454 0.000000 0.086427
0.401038 0.000122 0.083253
0.466529 0.000000 0.081392
0.532006 0.000000 0.079866
0.595636 0.000000 0.078218
0.660517 0.000916 0.077455
0.723934 0.002289 0.077272
0.783352 0.006531 0.077638
0.841703 0.008698 0.077516
0.901701 0.011414 0.077577
0.961700 0.013397 0.077790
1.000000 0.013519 0.076661
0.000000 0.099306 0.099306
0.095521 0.095521 0.095521
0.182742 0.091310 0.091432
0.260685 0.088228 0.088075
0.330816 0.085420 0.085359
0.398047 0.083253 0.082948
0.465064 0.081575 0.081697
0.530907 0.080110 0.080110
0.594812 0.078859 0.078859
0.660700 0.078096 0.077821
0.723568 0.078218 0.077852
0.782742 0.078553 0.078035
0.840635 0.078157 0.077455
0.900511 0.078248 0.077821
0.960296 0.078370 0.077699
1.000000 0.077363 0.076783
0.000000 0.182254 0.091341
0.089845 0.178347 0.089235
0.174075 0.174014 0.086976
0.251957 0.169802 0.085389
0.324712 0.165469 0.084138
0.394690 0.161929 0.082979
0.462379 0.158267 0.081880
0.528283 0.155489 0.080293
0.594079 0.153048 0.079225
0.659754 0.151186 0.078614
0.721431 0.149050 0.078126
0.780209 0.146792 0.077913
0.838254 0.145083 0.077729
0.898497 0.144015 0.077729
0.958526 0.142763 0.077363
1.000000 0.141176 0.076265
0.000000 0.253147 0.087037
0.085389 0.250187 0.085939
0.166323 0.246708 0.084810
0.242954 0.243229 0.083375
0.316197 0.238895 0.082826
0.386877 0.234806 0.081910
0.454963 0.230930 0.081209
0.522637 0.227726 0.080049
0.589044 0.224613 0.079316
0.654597 0.221927 0.078309
0.716426 0.218784 0.077699
0.775784 0.215488 0.078126
0.835874 0.213169 0.078187
0.895872 0.210971 0.078035
0.954772 0.208469 0.076722
1.000000 0.206119 0.074617
0.000000 0.314000 0.083558
0.083436 0.313085 0.083467
0.159091 0.311376 0.083101
0.233310 0.308721 0.081941
0.305089 0.305303 0.081239
0.376013 0.302037 0.080323
0.445075 0.298711 0.079683
0.513481 0.295964 0.079133
0.580529 0.292912 0.078340
0.647181 0.290288 0.077394
0.710079 0.286992 0.077790
0.771603 0.283696 0.078309
0.833219 0.281163 0.078737
0.894713 0.278843 0.079133
0.955138 0.276249 0.078553
1.000000 0.272831 0.075715
0.003479 0.378058 0.082704
0.082490 0.377813 0.082582
0.155306 0.376684 0.082155
0.227726 0.374884 0.081788
0.299229 0.372381 0.080812
0.369482 0.369574 0.079988
0.438727 0.366583 0.079164
0.507347 0.363989 0.078737
0.574792 0.361059 0.078157
0.641260 0.358312 0.077546
0.704433 0.354559 0.078004
0.766934 0.351202 0.078645
0.828550 0.347906 0.078676
0.889982 0.344884 0.078279
0.950622 0.341863 0.077272
1.000000 0.338567 0.074495
0.006073 0.443244 0.082124
0.082155 0.443519 0.082460
0.152987 0.442695 0.082063
0.224033 0.441138 0.081575
0.294804 0.439033 0.080781
0.364782 0.436591 0.080201
0.433753 0.433692 0.079347
0.501762 0.430945 0.078553
0.569024 0.428016 0.077150
0.635096 0.424811 0.077333
0.698146 0.420630 0.078035
0.760891 0.416907 0.078462
0.822782 0.413245 0.077943
0.884489 0.410040 0.077119
0.945556 0.406775 0.075654
1.000000 0.403662 0.072602
0.007782 0.505272 0.080690
0.080995 0.506126 0.080751
0.149691 0.505730 0.080934
0.219883 0.504631 0.080354
0.289799 0.502892 0.079622
0.358892 0.500542 0.079225
0.427283 0.497841 0.078035
0.494789 0.494942 0.077485
0.561578 0.491951 0.076051
0.627192 0.488655 0.076509
0.691035 0.484932 0.076875
0.754482 0.481422 0.077424
0.816953 0.477882 0.076814
0.878569 0.474220 0.075105
0.939666 0.470619 0.071992
1.000000 0.467933 0.068238
0.007813 0.563043 0.077577
0.077211 0.562829 0.077668
0.145327 0.562585 0.077821
0.213809 0.561975 0.077821
0.282933 0.561151 0.077607
0.351568 0.560174 0.077333
0.420356 0.559075 0.077302
0.488289 0.557580 0.077119
0.555779 0.555871 0.076692
0.622705 0.554009 0.076783
0.688258 0.551385 0.077729
0.752682 0.548363 0.078431
0.815671 0.544854 0.078035
0.878202 0.541436 0.076448
0.940398 0.538201 0.074128
1.000000 0.534508 0.068482
0.012421 0.621820 0.078279
0.077424 0.621393 0.078187
0.143526 0.620996 0.078126
0.210483 0.620539 0.078096
0.278172 0.620142 0.078187
0.345830 0.619379 0.077913
0.413519 0.618494 0.077546
0.480842 0.617365 0.077333
0.547997 0.616205 0.077272
0.614618 0.614740 0.076295
0.680720 0.613001 0.075746
0.744930 0.609949 0.075532
0.808499 0.606897 0.074311
0.872099 0.604211 0.072480
0.935271 0.601556 0.069032
0.997803 0.598505 0.062715
0.012909 0.681056 0.077882
0.076967 0.680964 0.077943
0.141604 0.680568 0.077699
0.207675 0.680049 0.077394
0.274113 0.679408 0.077180
0.340856 0.678523 0.076570
0.407568 0.677516 0.076143
0.474128 0.676509 0.075074
0.540826 0.675624 0.074769
0.607050 0.674311 0.073732
0.672694 0.672755 0.072908
0.737881 0.671015 0.071199
0.802182 0.668696 0.069001
0.866270 0.666438 0.066133
0.929900 0.664027 0.060548
0.992767 0.661128 0.050629
0.007263 0.739620 0.074098
0.073091 0.739376 0.073884
0.137453 0.738949 0.073518
0.203250 0.738430 0.072724
0.269200 0.737942 0.072206
0.335851 0.737301 0.071687
0.402075 0.736690 0.070863
0.468452 0.735866 0.070069
0.534447 0.734951 0.069001
0.600183 0.733761 0.067201
0.665705 0.732448 0.065400
0.730983 0.731136 0.063264
0.796201 0.729824 0.060304
0.860441 0.727871 0.055024
0.924315 0.725704 0.045380
0.988556 0.723873 0.031678
0.000000 0.794644 0.056733
0.055360 0.794705 0.056947
0.127169 0.795071 0.057282
0.195529 0.795315 0.058015
0.263005 0.795804 0.058869
0.330175 0.796139 0.059480
0.397345 0.796689 0.060212
0.464118 0.796994 0.060792
0.531090 0.797391 0.061219
0.597711 0.797482 0.061097
0.664485 0.797757 0.061555
0.731075 0.797726 0.061494
0.797848 0.798001 0.061646
0.863615 0.797208 0.059022
0.927092 0.794369 0.047944
0.988220 0.789639 0.018463
0.000000 0.859892 0.045991
0.036530 0.857511 0.038361
0.115663 0.856504 0.034150
0.187442 0.856229 0.033051
0.256382 0.856565 0.034546
0.324346 0.856779 0.034394
0.391730 0.857023 0.034546
0.458656 0.857328 0.034089
0.525566 0.857755 0.035096
0.592035 0.857755 0.033661
0.658656 0.857908 0.033448
0.725002 0.857786 0.030884
0.791348 0.857816 0.029053
0.856931 0.857145 0.023102
0.921904 0.855802 0.013458
0.985077 0.852781 0.000000
0.000000 0.921019 0.002625
0.000000 0.919036 0.000000
0.092103 0.917967 0.000000
0.172671 0.917601 0.000000
0.245518 0.917693 0.000000
0.315557 0.917815 0.000000
0.384253 0.918212 0.000000
0.451911 0.918303 0.000000
0.519249 0.918517 0.000000
0.586023 0.918517 0.000000
0.652735 0.918608 0.000000
0.719326 0.918669 0.000000
0.786069 0.919005 0.000000
0.852384 0.918975 0.000000
0.918486 0.918639 0.000000
0.983246 0.917021 0.000000
0.000000 0.983856 0.000000
0.000000 0.982269 0.000000
0.028107 0.981415 0.000000
0.145113 0.981140 0.000000
0.227573 0.981262 0.000000
0.302373 0.981476 0.000000
0.373877 0.981842 0.000000
0.443580 0.982177 0.000000
0.512474 0.982666 0.000000
0.580743 0.983215 0.000000
0.648737 0.983825 0.000000
0.716396 0.984375 0.000000
0.784237 0.985260 0.000000
0.851957 0.986084 0.000000
0.920012 0.987213 0.000000
0.988312 0.988464 0.000000
0.000000 0.000275 0.199527
0.105013 0.000000 0.195682
0.186069 0.000000 0.187015
0.262333 0.000031 0.177890
0.331334 0.000153 0.169070
0.396124 0.000214 0.162661
0.461524 0.002716 0.159304
0.526543 0.006073 0.156588
0.590784 0.006043 0.153323
0.656550 0.007111 0.151522
0.720150 0.008759 0.149813
0.780026 0.013153 0.148592
0.838865 0.015259 0.146761
0.899779 0.017945 0.145754
0.960266 0.019409 0.144717
1.000000 0.017914 0.142611
0.000000 0.097536 0.192233
0.093385 0.092927 0.185611
0.179080 0.089479 0.178958
0.255924 0.087129 0.172519
0.325353 0.086000 0.166323
0.392981 0.086213 0.162722
0.459876 0.085206 0.159487
0.525658 0.083864 0.156374
0.590906 0.082704 0.153567
0.657038 0.081300 0.151736
0.720089 0.081270 0.149996
0.779568 0.081971 0.148531
0.838163 0.081300 0.146578
0.898741 0.081697 0.145602
0.958953 0.081636 0.144381
1.000000 0.080171 0.142489
0.000000 0.179263 0.179232
0.088746 0.175570 0.175540
0.171695 0.171695 0.171695
0.248508 0.168276 0.168276
0.320775 0.165286 0.165133
0.390448 0.162417 0.162417
0.458167 0.159274 0.159213
0.524193 0.156130 0.156008
0.590906 0.154025 0.153872
0.656550 0.151888 0.151797
0.718257 0.150179 0.149874
0.777249 0.148226 0.148013
0.836179 0.146517 0.146273
0.896635 0.145785 0.145266
0.957122 0.144381 0.143893
1.000000 0.142458 0.141970
0.000000 0.250675 0.169863
0.088563 0.247715 0.168307
0.166171 0.244633 0.166293
0.241398 0.241489 0.164004
0.313878 0.237827 0.161929
0.384039 0.234104 0.159670
0.452125 0.230320 0.156985
0.520165 0.227573 0.154818
0.586542 0.224643 0.152621
0.652033 0.221836 0.150607
0.713863 0.218875 0.148745
0.773251 0.215915 0.147250
0.833951 0.213809 0.146090
0.894072 0.211490 0.144594
0.953185 0.208835 0.142580
1.000000 0.206210 0.139925
0.008240 0.311925 0.161685
0.087160 0.311131 0.161166
0.160159 0.309606 0.160037
0.232578 0.307134 0.158694
0.304021 0.303899 0.156832
0.374029 0.300877 0.155154
0.443061 0.297795 0.153262
0.511284 0.295018 0.151797
0.578271 0.292088 0.150027
0.644648 0.289708 0.148562
0.707637 0.286412 0.147555
0.769772 0.283665 0.146700
0.831662 0.281254 0.145968
0.893339 0.279057 0.145205
0.954101 0.276616 0.143648
1.000000 0.273259 0.140963
0.010468 0.376959 0.157259
0.085664 0.376745 0.157046
0.156252 0.375586 0.156405
0.227878 0.373724 0.155642
0.298711 0.371221 0.154391
0.368566 0.368505 0.152865
0.437385 0.365606 0.151217
0.505791 0.363012 0.150149
0.573144 0.360357 0.148653
0.639429 0.357488 0.147158
0.702815 0.353979 0.146517
0.765438 0.350805 0.146059
0.827237 0.347662 0.145052
0.888823 0.344762 0.143801
0.949706 0.341863 0.142214
1.000000 0.338659 0.139498
0.011139 0.442084 0.154116
0.084230 0.442481 0.154269
0.153628 0.441688 0.153719
0.224247 0.440192 0.153109
0.294377 0.438148 0.152224
0.364233 0.435859 0.150942
0.432959 0.433021 0.149722
0.500938 0.430182 0.148409
0.567987 0.427192 0.146944
0.633753 0.424048 0.145785
0.696864 0.420020 0.145480
0.759609 0.416419 0.144717
0.821592 0.412940 0.143374
0.883421 0.409705 0.142092
0.944701 0.406622 0.140169
1.000000 0.403601 0.137606
0.009613 0.504479 0.150057
0.081575 0.505394 0.150362
0.150027 0.505028 0.150149
0.220096 0.503929 0.149813
0.289555 0.502159 0.149172
0.358465 0.499886 0.148135
0.426764 0.497139 0.146731
0.494301 0.494331 0.145602
0.560937 0.491341 0.144289
0.626398 0.488075 0.143923
0.690272 0.484382 0.143648
0.753628 0.480934 0.142977
0.816068 0.477455 0.141787
0.877714 0.473823 0.139834
0.939025 0.470314 0.137118
1.000000 0.467567 0.134371
0.007965 0.562585 0.145693
0.077546 0.562341 0.145632
0.145571 0.562005 0.145632
0.213779 0.561425 0.145296
0.282689 0.560632 0.145296
0.351385 0.559625 0.144839
0.419898 0.558526 0.144533
0.487831 0.557031 0.144106
0.555261 0.555383 0.143526
0.622187 0.553521 0.143282
0.687617 0.550896 0.143648
0.751919 0.547936 0.143557
0.814939 0.544427 0.142336
0.877684 0.541131 0.140841
0.940032 0.538079 0.138705
1.000000 0.534447 0.134768
0.013581 0.621454 0.144320
0.078279 0.621180 0.144167
0.143618 0.620783 0.144106
0.210544 0.620356 0.144076
0.278294 0.620020 0.143923
0.345892 0.619257 0.143771
0.413428 0.618311 0.143130
0.480629 0.617121 0.142916
0.547784 0.615961 0.142367
0.614313 0.614466 0.141848
0.680293 0.612573 0.141024
0.744442 0.609613 0.140200
0.808042 0.606592 0.138949
0.871733 0.604028 0.137453
0.935088 0.601373 0.134981
0.997742 0.598413 0.130831
0.015595 0.680812 0.142550
0.078859 0.680842 0.142641
0.142092 0.680537 0.142458
0.207950 0.680049 0.142092
0.274296 0.679347 0.142031
0.340917 0.678462 0.141360
0.407660 0.677516 0.140902
0.474250 0.676509 0.140444
0.540795 0.675471 0.139712
0.606775 0.674098 0.139040
0.672358 0.672511 0.137942
0.737606 0.670710 0.136660
0.801907 0.668452 0.135042
0.866087 0.666285 0.132784
0.929808 0.663905 0.129183
0.992767 0.661097 0.123384
0.008667 0.739437 0.138521
0.073091 0.739254 0.138338
0.137850 0.738796 0.138155
0.203342 0.738338 0.137819
0.269596 0.737881 0.137484
0.335760 0.737331 0.136965
0.402258 0.736690 0.136355
0.468421 0.735836 0.135622
0.534478 0.734829 0.134737
0.600092 0.733639 0.133639
0.665614 0.732326 0.132326
0.730861 0.730983 0.130678
0.795987 0.729702 0.129091
0.860288 0.727718 0.125734
0.924193 0.725521 0.120211
0.988495 0.723690 0.113436
0.000000 0.794949 0.127352
0.055421 0.794949 0.127474
0.126528 0.795285 0.127535
0.195315 0.795529 0.127871
0.262974 0.795987 0.128176
0.330236 0.796262 0.128695
0.397284 0.796811 0.129274
0.464118 0.797086 0.129458
0.531121 0.797482 0.130037
0.597742 0.797604 0.129763
0.664576 0.797879 0.130159
0.731167 0.797879 0.129915
0.798032 0.798093 0.130190
0.863676 0.797269 0.128725
0.927123 0.794369 0.122255
0.988403 0.789670 0.107454
0.000000 0.860044 0.121370
0.033082 0.857786 0.117464
0.114961 0.856809 0.115816
0.186648 0.856596 0.115297
0.256077 0.856840 0.115450
0.323949 0.857023 0.115419
0.391485 0.857298 0.115480
0.458595 0.857572 0.115694
0.525597 0.858000 0.116152
0.592157 0.857969 0.115724
0.658747 0.858122 0.115236
0.725063 0.857939 0.114199
0.791440 0.857969 0.113405
0.857115 0.857237 0.110353
0.922057 0.855894 0.104952
0.985290 0.852873 0.089296
0.000000 0.921172 0.099428
0.000000 0.919249 0.093263
0.088502 0.918242 0.089967
0.170993 0.917845 0.088441
0.244327 0.917967 0.088167
0.314733 0.918120 0.087953
0.383703 0.918486 0.088045
0.451575 0.918578 0.087129
0.518883 0.918730 0.086244
0.585809 0.918700 0.084565
0.652644 0.918822 0.082734
0.719295 0.918883 0.080415
0.786099 0.919219 0.078614
0.852537 0.919158 0.074434
0.918639 0.918791 0.067750
0.983520 0.917205 0.051148
0.000000 0.984070 0.040681
0.000000 0.982544 0.026917
0.015198 0.981689 0.018341
0.141024 0.981415 0.014862
0.225193 0.981567 0.014160
0.300694 0.981781 0.012543
0.372625 0.982116 0.011414
0.442634 0.982422 0.008850
0.511772 0.982910 0.007233
0.580194 0.983429 0.004700
0.648402 0.984039 0.001678
0.716152 0.984588 0.000000
0.784085 0.985443 0.000000
0.851896 0.986236 0.000000
0.920043 0.987335 0.000000
0.988434 0.988586 0.000000
0.000366 0.000153 0.279454
0.099062 0.000000 0.274876
0.179446 0.000244 0.266300
0.255528 0.000153 0.256565
0.325719 0.000061 0.246281
0.392462 0.000000 0.238376
0.458381 0.002594 0.233066
0.523217 0.006744 0.228977
0.587549 0.009888 0.225376
0.653193 0.011261 0.222812
0.716701 0.013672 0.220371
0.776852 0.019196 0.218112
0.836423 0.022583 0.215671
0.897887 0.025727 0.214115
0.958648 0.027405 0.212467
1.000000 0.024353 0.209567
0.000000 0.093233 0.270542
0.090517 0.090608 0.264164
0.173739 0.088167 0.257298
0.250187 0.086030 0.250278
0.321050 0.085206 0.242863
0.389899 0.085512 0.237491
0.456611 0.085756 0.232792
0.521721 0.085573 0.228611
0.587732 0.084565 0.225742
0.653620 0.083742 0.223178
0.716579 0.083131 0.220462
0.776394 0.085023 0.217990
0.835904 0.085634 0.215549
0.896788 0.086152 0.213809
0.957336 0.085603 0.211948
1.000000 0.083680 0.209293
0.000000 0.174838 0.258213
0.089693 0.171939 0.253513
0.169314 0.169131 0.248875
0.245243 0.166659 0.245090
0.317174 0.164218 0.240543
0.386603 0.162020 0.236484
0.454139 0.159579 0.232547
0.520745 0.156954 0.228824
0.587366 0.154513 0.225803
0.653040 0.152285 0.222904
0.714900 0.150698 0.220005
0.774136 0.149508 0.217197
0.833921 0.148592 0.214939
0.894835 0.147799 0.213107
0.955596 0.146365 0.211246
1.000000 0.143954 0.208682
0.000000 0.247593 0.247410
0.088716 0.244938 0.244999
0.165469 0.242130 0.242100
0.239292 0.239292 0.239292
0.310613 0.236362 0.236301
0.380468 0.233066 0.233066
0.449134 0.229801 0.229862
0.517144 0.227146 0.226993
0.583368 0.224063 0.224002
0.648951 0.221256 0.221103
0.710811 0.218753 0.218601
0.770687 0.216373 0.216159
0.831998 0.214603 0.214359
0.892363 0.212589 0.212284
0.951720 0.209934 0.209537
1.000000 0.206729 0.206424
0.008606 0.309636 0.234928
0.088563 0.308721 0.234409
0.160311 0.307073 0.233219
0.231571 0.304967 0.231724
0.302129 0.302220 0.229343
0.371954 0.299443 0.227329
0.440772 0.296544 0.224979
0.508995 0.294011 0.222690
0.575952 0.291112 0.220432
0.642206 0.288640 0.218357
0.705104 0.285954 0.216587
0.767849 0.283757 0.215244
0.829984 0.281590 0.213870
0.891905 0.279423 0.212589
0.952850 0.277134 0.210697
1.000000 0.273655 0.207401
0.014252 0.375219 0.229465
0.087648 0.374914 0.229343
0.156405 0.373877 0.228519
0.227146 0.372045 0.227359
0.297368 0.369726 0.225589
0.367193 0.367102 0.223789
0.435889 0.364477 0.221744
0.504204 0.361883 0.220096
0.571313 0.359228 0.218235
0.637659 0.356573 0.216495
0.700984 0.353338 0.215274
0.763760 0.350469 0.214054
0.825742 0.347570 0.212497
0.887510 0.344823 0.210880
0.948608 0.341985 0.208804
1.000000 0.338933 0.205966
0.012299 0.440284 0.224735
0.084993 0.440620 0.224949
0.153384 0.439948 0.224460
0.223484 0.438636 0.223636
0.293523 0.436744 0.222507
0.362982 0.434577 0.221256
0.431922 0.431922 0.219669
0.499611 0.429084 0.217777
0.566430 0.426062 0.216098
0.632227 0.422980 0.214572
0.695369 0.419196 0.213382
0.758206 0.415900 0.212070
0.820279 0.412573 0.210483
0.882261 0.409583 0.208682
0.943816 0.406531 0.206516
1.000000 0.403510 0.203799
0.009796 0.503075 0.219699
