luts/FUJI_ASTIA.cube
TITLE "Generated for krafta web app"
LUT_3D_SIZE 25
#INPUTGAMMA sRGB
#IMAGEPROFILE sRGB
#OUTPUTGAMMA sRGB
0.000000 0.000000 0.000000
0.025445 0.002779 0.002908
0.080478 0.008418 0.008429
0.131631 0.014586 0.015418
0.183597 0.021000 0.022308
0.235298 0.027408 0.028537
0.284433 0.034013 0.035093
0.335699 0.040623 0.042008
0.386924 0.046393 0.047384
0.441687 0.051430 0.051792
0.490717 0.058013 0.058326
0.538965 0.064529 0.064870
0.586630 0.071127 0.071439
0.632207 0.077463 0.077379
0.673403 0.083442 0.082778
0.712834 0.088699 0.087700
0.757458 0.092901 0.091308
0.800227 0.096748 0.093746
0.836813 0.101375 0.097380
0.869784 0.107832 0.102073
0.900055 0.113599 0.107089
0.937506 0.117791 0.110098
0.974863 0.121185 0.112613
0.998435 0.139778 0.114025
1.000000 0.146455 0.116542
0.000665 0.024593 0.000759
0.025093 0.026271 0.001941
0.075951 0.030336 0.005531
0.129357 0.036086 0.012885
0.182191 0.041869 0.020606
0.233234 0.047290 0.027263
0.283943 0.053386 0.034705
0.334448 0.059331 0.041693
0.385226 0.064965 0.048327
0.439311 0.070574 0.053675
0.491424 0.077412 0.058417
0.539087 0.083363 0.065196
0.586747 0.089700 0.072084
0.633259 0.095862 0.078434
0.675416 0.101711 0.084353
0.713451 0.107068 0.089913
0.753157 0.111884 0.094370
0.799243 0.115701 0.095665
0.838163 0.120793 0.098189
0.870964 0.127511 0.102453
0.900172 0.133178 0.107184
0.938040 0.136269 0.110196
0.976575 0.147594 0.109786
0.998606 0.146690 0.113302
1.000000 0.150978 0.116565
0.001647 0.065832 0.000545
0.023270 0.067584 0.000756
0.073013 0.070195 0.003454
0.123186 0.073264 0.008440
0.176931 0.078196 0.016200
0.230716 0.083180 0.024456
0.282004 0.088386 0.032222
0.333311 0.093918 0.040804
0.385714 0.100462 0.049069
0.436192 0.106108 0.054389
0.489515 0.112649 0.058476
0.540607 0.119716 0.065899
0.588231 0.125436 0.073526
0.634578 0.130939 0.080365
0.677664 0.135838 0.086586
0.716021 0.140529 0.092694
0.753683 0.145264 0.098929
0.794252 0.149619 0.102763
0.836406 0.155270 0.103104
0.871760 0.160010 0.104423
0.901912 0.164923 0.108536
0.941520 0.168720 0.110802
0.981531 0.170937 0.110263
0.999083 0.167624 0.112278
1.000000 0.171800 0.113747
0.001570 0.107128 0.000046
0.020991 0.108593 0.000043
0.069819 0.110521 0.000949
0.121161 0.111919 0.005552
0.173695 0.115356 0.012183
0.225699 0.118621 0.020331
0.274602 0.121374 0.025680
0.329394 0.127982 0.035836
0.381802 0.134253 0.043984
0.434724 0.140888 0.052898
0.485699 0.147215 0.058331
0.538553 0.154817 0.064070
0.586810 0.160138 0.071661
0.632756 0.165087 0.079187
0.676786 0.170339 0.086986
0.717166 0.175196 0.093615
0.756080 0.179673 0.099071
0.794339 0.184280 0.104018
0.832913 0.188042 0.108003
0.871343 0.192947 0.105944
0.903741 0.197820 0.108091
0.939222 0.197596 0.112450
0.975099 0.195013 0.110640
0.998438 0.195551 0.108429
1.000000 0.199917 0.110003
0.001677 0.148222 -0.000006
0.018740 0.149866 -0.000028
0.065732 0.152294 -0.000256
0.117980 0.152999 0.003279
0.171155 0.154169 0.008670
0.224024 0.156541 0.016666
0.274071 0.159465 0.023722
0.325420 0.163714 0.032126
0.375747 0.168390 0.037674
0.429834 0.174493 0.047709
0.479524 0.180476 0.053722
0.530591 0.186887 0.060998
0.581800 0.193611 0.068627
0.628772 0.199187 0.075228
0.673219 0.204222 0.083528
0.714454 0.209374 0.089772
0.754842 0.214192 0.095311
0.793523 0.218349 0.100451
0.831795 0.221376 0.105800
0.865280 0.225113 0.107623
0.897586 0.230890 0.106139
0.934343 0.228937 0.107200
0.970618 0.225733 0.106113
0.998047 0.226749 0.104367
1.000000 0.231088 0.108611
0.001602 0.189607 0.000000
0.017119 0.191163 0.000001
0.061577 0.194273 -0.000050
0.113516 0.195350 0.000061
0.166434 0.195444 0.004385
0.220282 0.196698 0.011562
0.273532 0.199647 0.020721
0.325618 0.203279 0.030196
0.374699 0.206416 0.037189
0.421862 0.209564 0.040323
0.472139 0.214229 0.047176
0.523099 0.220009 0.053877
0.576761 0.227219 0.063512
0.624492 0.232704 0.070292
0.669274 0.237854 0.077455
0.711183 0.243084 0.084578
0.751270 0.248025 0.090743
0.792825 0.252523 0.097704
0.830662 0.254482 0.101546
0.861625 0.257609 0.102531
0.890424 0.263125 0.102959
0.929827 0.259628 0.106965
0.972090 0.255668 0.105513
0.998306 0.258740 0.103511
1.000000 0.263695 0.109548
0.000423 0.231237 0.000000
0.014640 0.232844 0.000000
0.057334 0.236144 0.000002
0.108114 0.238426 -0.000069
0.161409 0.238679 0.000029
0.215296 0.239220 0.007673
0.268927 0.240256 0.015054
0.322303 0.242176 0.022956
0.373064 0.245732 0.031311
0.422408 0.248828 0.039704
0.472133 0.252675 0.048058
0.517429 0.255488 0.049714
0.565369 0.260013 0.052934
0.617505 0.266433 0.063106
0.662152 0.271364 0.069133
0.704803 0.276460 0.076373
0.745679 0.281332 0.083436
0.790574 0.285408 0.093210
0.829897 0.287833 0.098227
0.861387 0.292387 0.099582
0.898922 0.289132 0.105157
0.939975 0.286013 0.111845
0.978749 0.288561 0.108451
0.999020 0.292359 0.107201
1.000000 0.297058 0.111970
0.000011 0.273077 0.000000
0.012199 0.274176 0.000000
0.052162 0.276981 0.000000
0.102984 0.279695 0.000001
0.156637 0.281871 -0.000119
0.210177 0.282473 0.001590
0.263787 0.282956 0.011393
0.317254 0.283788 0.018081
0.369501 0.285296 0.025277
0.420171 0.288721 0.033334
0.470573 0.291968 0.042875
0.519590 0.295435 0.050740
0.564716 0.298216 0.053354
0.608719 0.301544 0.055441
0.652672 0.305339 0.060027
0.696493 0.310214 0.067547
0.739254 0.314898 0.075090
0.784285 0.315870 0.084408
0.825350 0.320771 0.091073
0.861766 0.326729 0.097246
0.903978 0.322274 0.107099
0.948016 0.318822 0.115275
0.985632 0.322684 0.110850
0.999596 0.326937 0.111582
1.000000 0.331466 0.115276
0.000000 0.314546 0.000000
0.009234 0.315532 0.000000
0.045775 0.317908 0.000000
0.096688 0.320497 0.000000
0.150466 0.323283 -0.000001
0.205150 0.325280 -0.000093
0.259517 0.325854 0.003882
0.312082 0.325932 0.013742
0.364826 0.326736 0.019848
0.417028 0.328703 0.027096
0.467210 0.331479 0.033773
0.517017 0.335006 0.043213
0.565956 0.338449 0.051609
0.610080 0.341020 0.055658
0.651117 0.343333 0.058713
0.689110 0.346204 0.060364
0.729187 0.349473 0.065711
0.773706 0.349369 0.073649
0.821170 0.355092 0.086083
0.857486 0.361012 0.091877
0.904807 0.356141 0.105653
0.952074 0.353035 0.118876
0.980251 0.358162 0.119622
0.998714 0.361331 0.113795
1.000000 0.365628 0.116409
0.000000 0.356014 0.000000
0.005451 0.356546 0.000000
0.038426 0.358586 0.000000
0.088012 0.361813 0.000000
0.141793 0.365512 0.000000
0.196512 0.369438 -0.000025
0.253251 0.368795 0.000995
0.307055 0.368818 0.010207
0.360136 0.369454 0.015283
0.412417 0.369774 0.021088
0.462285 0.371384 0.025638
0.510949 0.374113 0.030525
0.559497 0.377178 0.038138
0.606150 0.380035 0.045830
0.649315 0.382315 0.052646
0.688325 0.384525 0.057449
0.726031 0.386491 0.060487
0.771062 0.387327 0.070607
0.812416 0.389927 0.078166
0.848372 0.395275 0.084468
0.899346 0.389971 0.101074
0.951934 0.387691 0.117545
0.978507 0.394344 0.121870
0.998356 0.396051 0.115675
1.000000 0.400160 0.116844
0.000000 0.395542 0.000000
0.002258 0.396511 0.000000
0.030672 0.398907 0.000000
0.078114 0.402298 0.000000
0.131704 0.406136 0.000000
0.187172 0.410068 0.000001
0.243609 0.412223 0.000020
0.299985 0.412119 0.005003
0.353925 0.412703 0.012757
0.405895 0.413590 0.017349
0.456242 0.413710 0.020499
0.505362 0.414466 0.022997
0.553176 0.416069 0.026249
0.598279 0.418063 0.030448
0.641603 0.420298 0.037645
0.683370 0.422685 0.046662
0.725603 0.424857 0.056357
0.771603 0.426358 0.069372
0.817875 0.430988 0.084447
0.853623 0.429904 0.088967
0.900154 0.422510 0.100811
0.948020 0.421083 0.114134
0.981398 0.427445 0.119663
0.999036 0.430133 0.114293
1.000000 0.435576 0.116614
0.000000 0.434318 0.000000
0.000372 0.435346 0.000000
0.023127 0.437963 0.000000
0.067371 0.441624 0.000000
0.120980 0.445704 0.000000
0.177031 0.450082 0.000000
0.233801 0.454409 -0.000009
0.290141 0.456058 0.000150
0.345706 0.454710 0.007421
0.398528 0.455340 0.011888
0.449922 0.455706 0.014937
0.499373 0.455899 0.017427
0.546204 0.455808 0.017997
0.591181 0.456643 0.019259
0.634862 0.458491 0.024929
0.677479 0.461013 0.035060
0.720333 0.463286 0.045621
0.766501 0.464574 0.060149
0.814199 0.468787 0.078157
0.856780 0.468051 0.090633
0.904568 0.460162 0.105308
0.950100 0.456609 0.116441
0.983378 0.460566 0.118382
0.999231 0.464339 0.114060
1.000000 0.470718 0.116233
0.000000 0.472814 0.000000
-0.001224 0.473580 0.000000
0.015074 0.476411 0.000000
0.056983 0.480039 0.000000
0.109775 0.484294 0.000000
0.166473 0.489095 0.000000
0.224053 0.493674 0.000000
0.280294 0.496821 -0.000070
0.335674 0.497058 -0.000025
0.389964 0.496571 0.004699
0.442819 0.496727 0.007619
0.493666 0.497007 0.011300
0.542806 0.496946 0.015375
0.589003 0.496872 0.017446
0.632552 0.498171 0.021267
0.675070 0.500810 0.028970
0.719921 0.504257 0.041236
0.766664 0.506237 0.056143
0.812423 0.509173 0.070860
0.856297 0.507285 0.084984
0.902478 0.500396 0.099759
0.947399 0.496072 0.111156
0.982263 0.496955 0.116019
0.999136 0.499060 0.114570
1.000000 0.505595 0.116213
0.000000 0.509371 0.000000
-0.001280 0.510224 0.000000
0.008613 0.513426 0.000000
0.046506 0.517699 0.000000
0.098440 0.522461 0.000000
0.156102 0.527521 0.000000
0.214208 0.531997 0.000000
0.271700 0.535985 0.000002
0.327375 0.537845 -0.000073
0.381362 0.538533 -0.000234
0.434169 0.537241 0.001093
0.485427 0.537307 0.003118
0.536487 0.537560 0.007829
0.585311 0.537464 0.013533
0.631729 0.538848 0.020300
0.676206 0.541809 0.029269
0.718852 0.544715 0.036820
0.763246 0.546547 0.047314
0.805956 0.548648 0.057768
0.849361 0.546595 0.070346
0.894463 0.541799 0.084593
0.941528 0.540137 0.097206
0.973498 0.539751 0.111657
0.998013 0.538452 0.115406
1.000000 0.542012 0.115179
0.000000 0.544470 0.000000
-0.000903 0.545265 0.000000
0.006236 0.549129 0.000000
0.036718 0.554272 0.000000
0.086263 0.559975 0.000000
0.145970 0.565174 0.000000
0.205539 0.570710 0.000000
0.263763 0.575741 0.000000
0.319985 0.576871 0.000002
0.374380 0.577206 -0.000023
0.426728 0.577496 -0.000184
0.478868 0.576640 -0.000409
0.530529 0.577206 0.001596
0.581038 0.577900 0.007709
0.627993 0.578806 0.015059
0.671706 0.580722 0.022486
0.714051 0.582980 0.029444
0.756077 0.585067 0.035953
0.798126 0.587050 0.044325
0.841040 0.586215 0.054498
0.884949 0.583384 0.067222
0.932132 0.583717 0.082336
0.967917 0.584345 0.099089
0.997633 0.583976 0.104768
1.000000 0.583112 0.107300
0.000000 0.578651 0.000000
-0.000598 0.579550 0.000000
0.003716 0.583220 0.000000
0.027503 0.589087 0.000000
0.076448 0.595665 0.000000
0.138632 0.602252 0.000000
0.199934 0.607747 0.000000
0.257760 0.612550 0.000000
0.312111 0.615751 0.000000
0.368579 0.614681 0.000000
0.421340 0.614780 0.000002
0.473612 0.614700 -0.000096
0.526412 0.615892 0.000296
0.578789 0.617507 0.004614
0.625435 0.618096 0.011154
0.667673 0.618922 0.016404
0.709570 0.620944 0.023226
0.750491 0.622592 0.029120
0.790574 0.623980 0.034229
0.831300 0.624476 0.040217
0.874550 0.623210 0.051283
0.922023 0.625451 0.068899
0.961851 0.626891 0.088015
0.996751 0.627412 0.091708
1.000000 0.625369 0.095992
0.000000 0.610020 0.000000
-0.000279 0.610828 0.000000
0.000726 0.614655 0.000000
0.021558 0.621426 0.000000
0.072557 0.629007 0.000000
0.134231 0.635892 0.000000
0.195066 0.642030 0.000000
0.253135 0.646418 0.000000
0.307565 0.649767 0.000000
0.362905 0.650567 0.000000
0.417824 0.649758 0.000000
0.472767 0.651337 -0.000058
0.527026 0.653103 0.000199
0.578149 0.654041 0.003822
0.623883 0.654818 0.009629
0.664758 0.655665 0.013523
0.704438 0.657074 0.017646
0.744424 0.658540 0.023683
0.783559 0.659797 0.028242
0.822241 0.660900 0.032010
0.865168 0.661146 0.040873
0.913428 0.664190 0.058253
0.956888 0.665896 0.078604
0.994994 0.666917 0.080068
0.999999 0.663838 0.085546
0.000000 0.639652 0.000000
-0.000047 0.641163 0.000000
-0.001502 0.646915 0.000000
0.017660 0.654300 0.000000
0.070687 0.662023 0.000000
0.132934 0.669227 0.000000
0.193007 0.674934 0.000000
0.250418 0.679650 0.000000
0.305284 0.683735 0.000000
0.359542 0.686712 0.000000
0.415988 0.687097 0.000000
0.472964 0.687481 -0.000093
0.525807 0.689739 0.000650
0.574613 0.690814 0.003829
0.618592 0.691779 0.007657
0.659320 0.692417 0.010879
0.699352 0.693662 0.015031
0.739078 0.694935 0.021507
0.777640 0.696187 0.027066
0.815863 0.697580 0.031792
0.857386 0.698626 0.036378
0.905063 0.701889 0.049258
0.952123 0.703279 0.069481
0.993284 0.703644 0.066892
0.999997 0.699433 0.074896
0.000000 0.671002 0.000000
-0.000002 0.672903 0.000000
-0.001811 0.678971 0.000000
0.015487 0.687098 0.000000
0.070684 0.694818 0.000000
0.132545 0.701840 0.000000
0.190645 0.706996 0.000000
0.246634 0.711151 0.000000
0.301306 0.715226 0.000000
0.356038 0.719222 0.000000
0.414265 0.723293 0.000000
0.470326 0.724221 -0.000015
0.522035 0.725262 0.000107
0.570794 0.727692 0.000198
0.613396 0.729717 0.002944
0.652598 0.731622 0.012137
0.696496 0.734522 0.026171
0.738103 0.736504 0.037007
0.773087 0.735839 0.031589
0.811387 0.736271 0.034234
0.851776 0.737916 0.040323
0.897119 0.740317 0.047337
0.947189 0.740596 0.058896
0.992018 0.739687 0.054097
0.999998 0.734963 0.063744
0.000000 0.701739 0.000000
0.000002 0.704060 0.000000
-0.001853 0.710657 0.000000
0.015496 0.719087 0.000000
0.069987 0.726550 0.000000
0.130867 0.732802 0.000000
0.187899 0.737351 0.000000
0.244141 0.741773 0.000000
0.301027 0.746703 0.000000
0.357976 0.751708 0.000000
0.414353 0.756339 0.000000
0.468337 0.758929 0.000005
0.518973 0.760808 -0.000032
0.567273 0.763310 -0.000374
0.610313 0.765347 0.000505
0.649041 0.766965 0.004390
0.690607 0.768918 0.011351
0.734712 0.771610 0.022340
0.771328 0.771169 0.017203
0.813487 0.771356 0.033594
0.853595 0.772833 0.045555
0.894581 0.775035 0.048031
0.940013 0.775987 0.054272
0.987441 0.773644 0.046542
0.999997 0.769586 0.052656
0.000000 0.734876 0.000000
0.000000 0.738162 0.000000
-0.001852 0.745901 0.000000
0.015916 0.754612 0.000000
0.068021 0.761942 0.000000
0.128874 0.767771 0.000000
0.187455 0.772365 0.000000
0.245663 0.777583 0.000000
0.304123 0.783485 0.000000
0.360902 0.788561 0.000000
0.415368 0.792788 0.000000
0.468102 0.796317 0.000000
0.516888 0.798381 0.000000
0.563795 0.800033 0.000028
0.607252 0.801407 -0.000135
0.647084 0.802618 -0.000931
0.686787 0.803767 -0.001329
0.730204 0.805954 0.003672
0.769794 0.806837 0.002049
0.813355 0.807485 0.021501
0.854815 0.809002 0.032655
0.895134 0.810606 0.038807
0.937169 0.811708 0.047849
0.979944 0.810245 0.045840
0.999994 0.808304 0.041749
0.000000 0.771588 0.000000
0.000000 0.775595 0.000000
-0.001948 0.784174 0.000000
0.016981 0.793394 0.000000
0.068713 0.800696 0.000000
0.131041 0.807119 0.000000
0.191804 0.813200 0.000000
0.250186 0.819176 0.000000
0.306435 0.824838 0.000000
0.360354 0.829684 0.000000
0.414032 0.833839 0.000000
0.466007 0.836845 0.000000
0.512922 0.838028 0.000000
0.557771 0.839123 0.000000
0.601247 0.841074 0.000000
0.642525 0.843062 0.000015
0.684197 0.844032 -0.000046
0.725845 0.845280 -0.000642
0.765911 0.846728 -0.001102
0.807935 0.847959 0.003871
0.851132 0.849699 0.008283
0.896058 0.851205 0.017026
0.940582 0.852646 0.027764
0.978322 0.853861 0.034816
0.999994 0.854214 0.032478
0.000000 0.811392 0.000000
0.000000 0.814975 0.000000
-0.002319 0.822872 0.000000
0.020868 0.832167 0.000000
0.074384 0.840868 0.000000
0.135398 0.847388 0.000000
0.194306 0.854258 0.000000
0.251240 0.860217 0.000000
0.305136 0.864885 0.000000
0.356171 0.867801 0.000000
0.406127 0.869651 0.000000
0.456108 0.871438 0.000000
0.505248 0.873357 0.000000
0.552802 0.875607 0.000000
0.597503 0.878262 0.000000
0.641085 0.880912 0.000000
0.686115 0.882537 -0.000005
0.730380 0.884303 -0.000018
0.768700 0.886223 0.000845
0.807446 0.888174 0.000660
0.847958 0.890294 0.002375
0.894539 0.893084 0.005730
0.941442 0.896327 0.009815
0.981047 0.899055 0.015485
0.999995 0.901226 0.022833
0.000000 0.853601 0.000000
0.000000 0.856842 0.000000
-0.002915 0.864828 0.000000
0.027464 0.873750 0.000000
0.079233 0.881606 0.000000
0.137567 0.888595 0.000000
0.194761 0.894278 0.000000
0.249815 0.898305 0.000000
0.299478 0.899507 0.000000
0.349256 0.901003 0.000000
0.397561 0.902247 0.000000
0.448447 0.904734 0.000000
0.500527 0.907373 0.000000
0.551030 0.910085 0.000000
0.596671 0.912753 0.000000
0.637472 0.915236 0.000000
0.678388 0.917552 -0.000001
0.719239 0.920015 -0.000004
0.757408 0.922392 0.000171
0.797021 0.924800 0.000182
0.839951 0.927554 0.000275
0.888991 0.930951 0.000574
0.936996 0.934854 0.001394
0.979895 0.938608 0.003973
0.999994 0.941537 0.010564
0.000000 0.896540 0.000000
0.000000 0.899800 0.000000
-0.003341 0.906174 0.000000
0.032585 0.913862 0.000000
0.083101 0.920905 0.000000
0.138575 0.926668 0.000000
0.194219 0.930086 0.000000
0.246185 0.932386 0.000000
0.295970 0.933747 0.000000
0.345111 0.935674 0.000000
0.394536 0.937860 0.000000
0.446828 0.939936 0.000000
0.497125 0.942337 0.000000
0.542836 0.945221 0.000000
0.585490 0.947922 0.000000
0.624592 0.950268 0.000000
0.663862 0.952657 0.000000
0.706387 0.955424 0.000000
0.747402 0.958338 0.000000
0.788334 0.961242 0.000000
0.830858 0.964317 0.000000
0.880244 0.968033 0.000000
0.929844 0.972225 0.000000
0.975521 0.976085 0.000001
0.999993 0.979750 0.000003
0.001705 0.003652 0.022061
0.027681 0.006018 0.022161
0.078952 0.010913 0.025368
0.132661 0.017360 0.033028
0.184510 0.023738 0.039433
0.234828 0.029734 0.044470
0.286146 0.036356 0.051296
0.337943 0.042452 0.057190
0.388667 0.048352 0.062476
0.442603 0.053628 0.066951
0.491250 0.060008 0.072915
0.539456 0.066442 0.078970
0.586367 0.072773 0.084790
0.632092 0.078962 0.090119
0.674474 0.084784 0.095464
0.715353 0.090041 0.101008
0.758222 0.094539 0.105063
0.801305 0.098291 0.107432
0.837810 0.103230 0.111497
0.870610 0.109665 0.116106
0.900596 0.115238 0.120970
0.937952 0.119156 0.123655
0.975301 0.122622 0.124364
0.998434 0.135963 0.124892
1.000000 0.142169 0.127576
0.002044 0.026641 0.019015
0.025420 0.027581 0.018170
0.075258 0.030715 0.019367
0.128292 0.036469 0.026511
0.180907 0.042529 0.034025
0.231431 0.048139 0.039997
0.283172 0.054395 0.047500
0.336336 0.060002 0.053912
0.386466 0.065593 0.060015
0.439816 0.071344 0.065648
0.490531 0.078034 0.071080
0.538261 0.084070 0.077434
0.586073 0.090430 0.084025
0.632851 0.096604 0.090129
0.675628 0.102394 0.095878
0.714691 0.107768 0.101532
0.754058 0.112664 0.106072
0.798777 0.116528 0.107917
0.836812 0.121987 0.111419
0.870194 0.129403 0.116072
0.899041 0.134869 0.120545
0.936092 0.137151 0.122575
0.976277 0.144958 0.121881
0.998657 0.146266 0.124521
1.000000 0.150946 0.127612
0.002211 0.067672 0.014279
0.023131 0.067236 0.012284
0.072284 0.069368 0.015248
0.121714 0.072056 0.020679
0.175662 0.076977 0.028459
0.228341 0.082184 0.035907
0.278811 0.087699 0.043149
0.332500 0.093715 0.051703
0.387259 0.100594 0.059004
0.436793 0.106007 0.064184
0.488681 0.112392 0.069444
0.539356 0.119225 0.077149
0.587554 0.125091 0.084584
0.634006 0.130705 0.091304
0.677786 0.135812 0.097381
0.716689 0.140582 0.103134
0.754651 0.145388 0.109046
0.794894 0.149837 0.113173
0.833501 0.154460 0.115097
0.869424 0.160431 0.117574
0.900319 0.165115 0.121460
0.939672 0.167430 0.122650
0.980641 0.169441 0.121336
0.999065 0.169195 0.122825
1.000000 0.173202 0.123632
0.001601 0.108478 0.008690
0.020712 0.108813 0.006681
0.069881 0.109992 0.010364
0.121108 0.110941 0.018042
0.172224 0.113586 0.025040
0.222722 0.116483 0.031176
0.272049 0.119897 0.036485
0.327299 0.126867 0.046826
0.380450 0.133433 0.054691
0.435443 0.140998 0.061925
0.485849 0.146988 0.068187
0.537866 0.154089 0.074787
0.586385 0.159551 0.082243
0.632393 0.164739 0.089586
0.676841 0.170180 0.097142
0.717595 0.175069 0.103240
0.756862 0.179634 0.108821
0.795217 0.184326 0.113841
0.832712 0.187822 0.117815
0.869158 0.192954 0.117768
0.901553 0.196209 0.120044
0.936490 0.196216 0.123173
0.973515 0.195594 0.121007
0.998388 0.196857 0.118542
1.000000 0.201259 0.120469
0.001753 0.149787 0.004132
0.018636 0.150005 0.002050
0.065818 0.151432 0.004468
0.118216 0.152169 0.012787
0.170881 0.152781 0.020754
0.223399 0.155232 0.029677
0.273420 0.157896 0.037230
0.323512 0.161758 0.043428
0.372621 0.165971 0.048570
0.427004 0.173018 0.057232
0.478916 0.180401 0.061662
0.529626 0.186629 0.069469
0.581589 0.193158 0.078165
0.629412 0.198891 0.085452
0.673547 0.204025 0.093222
0.714835 0.209190 0.099762
0.755551 0.214295 0.105291
0.793801 0.218258 0.110000
0.831468 0.221529 0.114641
0.865249 0.224283 0.116886
0.897539 0.227737 0.116982
0.932930 0.227306 0.118529
0.969518 0.226479 0.116964
0.998012 0.227882 0.114929
1.000000 0.232046 0.118937
0.001859 0.190868 0.000440
0.017235 0.191208 -0.000709
0.061692 0.193226 0.000697
0.113555 0.194630 0.005487
0.166400 0.194656 0.014535
0.220165 0.195497 0.023560
0.273887 0.198198 0.033859
0.324710 0.201013 0.042792
0.373908 0.203902 0.050865
0.420161 0.206802 0.053240
0.469378 0.212228 0.057345
0.520851 0.219765 0.060503
0.574906 0.226634 0.071434
0.624283 0.232399 0.079352
0.670058 0.237800 0.087184
0.711535 0.242909 0.094126
0.751539 0.247814 0.100633
0.793212 0.252506 0.107585
0.830224 0.254803 0.110738
0.863716 0.255254 0.112741
0.894058 0.258748 0.114124
0.930965 0.258258 0.117716
0.972118 0.256922 0.116045
0.998346 0.260065 0.114541
1.000000 0.264934 0.120052
0.000622 0.232675 -0.001072
0.015104 0.232723 -0.001556
0.057888 0.234950 -0.000371
0.108665 0.237372 0.002087
0.161498 0.237908 0.006207
0.215463 0.238047 0.017735
0.268784 0.238914 0.026379
0.322427 0.240837 0.036329
0.373277 0.243418 0.045995
0.422688 0.246018 0.054867
0.469739 0.248846 0.060651
0.514984 0.253191 0.060147
0.562656 0.259811 0.059532
0.614828 0.265864 0.070266
0.661002 0.270994 0.077337
0.704774 0.276354 0.085455
0.745580 0.281176 0.092451
0.790649 0.285401 0.103199
0.829888 0.288576 0.107882
0.864773 0.289226 0.110859
0.901171 0.286975 0.116151
0.940122 0.287047 0.121661
0.978789 0.289948 0.118437
0.999007 0.293776 0.117869
1.000000 0.298480 0.122659
0.000101 0.274173 -0.002105
0.012109 0.274425 -0.001910
0.052420 0.276056 -0.001502
0.103996 0.278225 0.001311
0.157854 0.280404 0.004112
0.211008 0.281428 0.008339
0.263648 0.281344 0.020988
0.316362 0.281992 0.028535
0.368448 0.283433 0.037023
0.419459 0.286062 0.046596
0.470380 0.288723 0.057703
0.520181 0.291631 0.067567
0.564393 0.296051 0.066712
0.606453 0.301421 0.062704
0.650337 0.304837 0.067473
0.694998 0.309834 0.075647
0.739733 0.314876 0.084938
0.785781 0.316256 0.095071
0.824139 0.321030 0.100347
0.864603 0.322865 0.108499
0.905910 0.320070 0.117957
0.947600 0.320049 0.124653
0.985374 0.323886 0.120409
0.999544 0.328292 0.121651
1.000000 0.332825 0.125414
-0.000043 0.315454 -0.001510
0.009323 0.315548 -0.001233
0.045576 0.317637 -0.000963
0.096994 0.319650 -0.000350
0.151287 0.321965 0.003127
0.205723 0.323977 0.005218
0.259191 0.324730 0.009467
0.311605 0.325178 0.019620
0.363466 0.324959 0.030159
0.415547 0.326596 0.038937
0.465952 0.328798 0.047181
0.516470 0.331641 0.058163
0.566150 0.334115 0.068542
0.609842 0.338345 0.069602
0.649895 0.343638 0.067251
0.688451 0.346080 0.069615
0.728693 0.349300 0.074636
0.775270 0.349820 0.084710
0.821345 0.355674 0.096842
0.862999 0.356894 0.105925
0.907570 0.353622 0.117698
0.951094 0.354101 0.128060
0.979813 0.359300 0.129397
0.998655 0.362636 0.123777
1.000000 0.366806 0.125861
0.000001 0.356634 -0.000849
0.005652 0.356596 -0.000619
0.038544 0.358193 -0.000388
0.087954 0.361466 -0.000939
0.142458 0.364368 0.000342
0.197436 0.367878 0.002715
0.253525 0.367594 0.007057
0.306988 0.368326 0.014587
0.359153 0.368902 0.021174
0.410196 0.367951 0.031347
0.460263 0.369250 0.037298
0.509159 0.371162 0.043918
0.559259 0.373927 0.054367
0.607181 0.375945 0.064994
0.649212 0.379403 0.067964
0.686246 0.384489 0.065181
0.723546 0.386093 0.067822
0.771050 0.387588 0.080482
0.814605 0.391047 0.091145
0.856923 0.391477 0.102043
0.904756 0.387715 0.116021
0.951602 0.388965 0.127499
0.978856 0.395432 0.131146
0.998441 0.397261 0.125066
1.000000 0.401628 0.127580
0.000000 0.396495 -0.000327
0.002711 0.396660 -0.000244
0.031347 0.398414 -0.000073
0.078440 0.401930 -0.000273
0.132772 0.405380 -0.001109
0.188601 0.409115 0.000599
0.244980 0.410550 0.004453
