luts/FUJI_ACROS_Yellow_Filter.cube
#Generated for krafta web app
#Black and White LUTs
TITLE "Fuji XTrans III - Acros+Ye"
#LUT size
LUT_3D_SIZE 5
#LUT data points
0.003922 0.003922 0.003922
0.086275 0.086275 0.086275
0.250980 0.250980 0.250980
0.490196 0.490196 0.490196
0.552941 0.552941 0.552941
0.062745 0.062745 0.062745
0.141176 0.141176 0.141176
0.368627 0.368627 0.368627
0.568627 0.568627 0.568627
0.623529 0.623529 0.623529
0.250980 0.250980 0.250980
0.341176 0.341176 0.341176
0.509804 0.509804 0.509804
0.654902 0.654902 0.654902
0.698039 0.698039 0.698039
0.345098 0.345098 0.345098
0.341176 0.341176 0.341176
0.592157 0.592157 0.592157
0.713725 0.713725 0.713725
0.807843 0.807843 0.807843
0.392157 0.392157 0.392157
0.509804 0.509804 0.509804
0.666667 0.666667 0.666667
0.780392 0.780392 0.780392
0.827451 0.827451 0.827451
0.015686 0.015686 0.015686
0.196078 0.196078 0.196078
0.372549 0.372549 0.372549
0.580392 0.580392 0.580392
0.690196 0.690196 0.690196
0.109804 0.109804 0.109804
0.188235 0.188235 0.188235
0.396078 0.396078 0.396078
0.600000 0.600000 0.600000
0.717647 0.717647 0.717647
0.337255 0.337255 0.337255
0.376471 0.376471 0.376471
0.525490 0.525490 0.525490
0.682353 0.682353 0.682353
0.764706 0.764706 0.764706
0.392157 0.392157 0.392157
0.517647 0.517647 0.517647
0.662745 0.662745 0.662745
0.776471 0.776471 0.776471
0.866667 0.866667 0.866667
0.443137 0.443137 0.443137
0.572549 0.572549 0.572549
0.658824 0.658824 0.658824
0.811765 0.811765 0.811765
0.870588 0.870588 0.870588
0.176471 0.176471 0.176471
0.258824 0.258824 0.258824
0.435294 0.435294 0.435294
0.631373 0.631373 0.631373
0.752941 0.752941 0.752941
0.196078 0.196078 0.196078
0.290196 0.290196 0.290196
0.470588 0.470588 0.470588
0.650980 0.650980 0.650980
0.756863 0.756863 0.756863
0.384314 0.384314 0.384314
0.447059 0.447059 0.447059
0.576471 0.576471 0.576471
0.717647 0.717647 0.717647
0.815686 0.815686 0.815686
0.533333 0.533333 0.533333
0.588235 0.588235 0.588235
0.690196 0.690196 0.690196
0.803922 0.803922 0.803922
0.929412 0.929412 0.929412
0.572549 0.572549 0.572549
0.627451 0.627451 0.627451
0.713725 0.713725 0.713725
0.901961 0.901961 0.901961
0.937255 0.937255 0.937255
0.333333 0.333333 0.333333
0.392157 0.392157 0.392157
0.521569 0.521569 0.521569
0.690196 0.690196 0.690196
0.796078 0.796078 0.796078
0.317647 0.317647 0.317647
0.419608 0.419608 0.419608
0.552941 0.552941 0.552941
0.701961 0.701961 0.701961
0.803922 0.803922 0.803922
0.458824 0.458824 0.458824
0.529412 0.529412 0.529412
0.635294 0.635294 0.635294
0.760784 0.760784 0.760784
0.854902 0.854902 0.854902
0.615686 0.615686 0.615686
0.654902 0.654902 0.654902
0.737255 0.737255 0.737255
0.839216 0.839216 0.839216
0.968627 0.968627 0.968627
0.752941 0.752941 0.752941
0.709804 0.709804 0.709804
0.796078 0.796078 0.796078
0.917647 0.917647 0.917647
0.988235 0.988235 0.988235
0.498039 0.498039 0.498039
0.537255 0.537255 0.537255
0.631373 0.631373 0.631373
0.752941 0.752941 0.752941
0.823529 0.823529 0.823529
0.482353 0.482353 0.482353
0.572549 0.572549 0.572549
0.658824 0.658824 0.658824
0.772549 0.772549 0.772549
0.827451 0.827451 0.827451
0.525490 0.525490 0.525490
0.627451 0.627451 0.627451
0.721569 0.721569 0.721569
0.819608 0.819608 0.819608
0.886275 0.886275 0.886275
0.690196 0.690196 0.690196
0.725490 0.725490 0.725490
0.807843 0.807843 0.807843
0.901961 0.901961 0.901961
0.964706 0.964706 0.964706
0.756863 0.756863 0.756863
0.737255 0.737255 0.737255
0.839216 0.839216 0.839216
0.941176 0.941176 0.941176
0.992157 0.992157 0.992157
