luts/Fujifilm_PRO_160.cube
# Generated for krafta web app
# https://www.facebook.com/krafta.visio
# Preset: FUJ - PRO 160
# Color profile : sRGB Color Space Profile
LUT_3D_SIZE 6
DOMAIN_MIN 0.0 0.0 0.0
DOMAIN_MAX 1.0 1.0 1.0
0.000000 0.000000 0.000000
0.249241 0.000000 0.000031
0.448127 0.000000 0.000275
0.641688 0.000458 0.000336
0.826230 0.002533 0.002014
1.000000 0.003815 0.002502
0.000000 0.235904 0.000000
0.228824 0.229038 0.000000
0.435798 0.219577 0.000000
0.633021 0.212985 0.000000
0.817685 0.205905 0.002564
1.000000 0.200778 0.000305
0.001007 0.427619 0.002228
0.215702 0.427222 0.002289
0.422278 0.422339 0.002258
0.621027 0.414832 0.002686
0.810452 0.406073 0.004395
0.996399 0.398199 0.000000
0.002960 0.607874 0.003662
0.203281 0.607019 0.003754
0.404059 0.605798 0.003052
0.602960 0.603113 0.001801
0.796536 0.597314 0.000000
0.984771 0.589349 0.000000
0.000000 0.777432 0.000000
0.183078 0.779355 0.000000
0.387152 0.782589 0.000000
0.587274 0.785092 0.000000
0.787106 0.787198 0.000000
0.972656 0.775998 0.000000
0.000000 0.967773 0.000000
0.094789 0.963104 0.000000
0.354192 0.964477 0.000000
0.565454 0.967468 0.000000
0.771176 0.971893 0.000000
0.977630 0.977813 0.000000
0.000000 0.000061 0.257786
0.240024 0.000000 0.240574
0.440345 0.001465 0.222843
0.633600 0.006806 0.214420
0.819303 0.010986 0.208164
1.000000 0.005676 0.201999
0.000000 0.233463 0.233402
0.227268 0.227268 0.227268
0.432715 0.219791 0.219944
0.629633 0.212894 0.212772
0.815488 0.207004 0.206760
0.998596 0.199374 0.199130
0.007202 0.425147 0.215518
0.214481 0.423774 0.214511
0.418341 0.418341 0.211215
0.615778 0.411231 0.206973
0.805447 0.403449 0.202792
0.993530 0.396246 0.195468
0.004608 0.606958 0.203861
0.203006 0.606256 0.203586
0.403143 0.604334 0.202457
0.601007 0.601068 0.200504
0.794491 0.595575 0.196262
0.984833 0.588617 0.185031
0.000000 0.779904 0.179782
0.179660 0.780545 0.179965
0.386297 0.783291 0.182132
0.587030 0.785367 0.183047
0.787228 0.787320 0.183597
0.973907 0.776394 0.155428
0.000000 0.969177 0.083009
0.054749 0.964935 0.057191
0.347356 0.966217 0.052094
0.562707 0.968719 0.043946
0.770108 0.972412 0.023804
0.977966 0.978149 0.000000
0.000366 0.000000 0.455207
0.224369 0.000000 0.444373
0.429328 0.002686 0.429297
0.626368 0.005341 0.418616
0.813931 0.013245 0.408484
1.000000 0.002502 0.400397
0.011414 0.224735 0.440864
0.220462 0.220554 0.433753
0.425330 0.215488 0.425330
0.621881 0.209842 0.415595
0.809964 0.206516 0.406531
0.995972 0.195163 0.396643
0.006195 0.419226 0.419257
0.211276 0.418219 0.418189
0.413519 0.413519 0.413519
0.610132 0.407599 0.407538
0.801358 0.401190 0.401038
0.992187 0.392645 0.392493
0.005493 0.604059 0.403265
0.202487 0.603510 0.402930
0.401404 0.601770 0.401495
0.598688 0.598657 0.398871
0.792874 0.593591 0.393469
0.985382 0.585931 0.382788
0.000000 0.781064 0.378851
0.162783 0.782040 0.379767
0.381872 0.784451 0.382025
0.585718 0.785946 0.382940
0.787289 0.787411 0.383795
0.976074 0.775509 0.361242
0.000000 0.971862 0.329778
0.000000 0.968078 0.320500
0.318700 0.968811 0.319158
0.552239 0.971435 0.319402
0.766842 0.974487 0.316716
0.979675 0.979828 0.311681
0.003052 0.001404 0.636713
0.213626 0.003235 0.632227
0.417212 0.007294 0.624018
0.614282 0.007599 0.614252
0.806760 0.007416 0.605341
0.995789 0.000122 0.596826
0.018799 0.216312 0.632319
0.213962 0.213962 0.627131
0.414984 0.210819 0.620264
0.611536 0.206729 0.611597
0.803677 0.202823 0.602960
0.991852 0.188724 0.593103
0.015839 0.410712 0.613825
0.209201 0.410132 0.612848
0.407202 0.407172 0.608576
0.603326 0.402869 0.603296
0.796506 0.396735 0.596765
0.990570 0.385809 0.589288
0.000000 0.599542 0.599512
0.198886 0.599176 0.599115
0.397711 0.597986 0.598016
0.594629 0.594690 0.594659
0.791165 0.590234 0.590173
0.986969 0.581048 0.580896
0.000000 0.782895 0.581476
0.148287 0.783688 0.581994
0.375738 0.785275 0.582849
0.583490 0.786526 0.583581
0.785946 0.786069 0.582635
0.979065 0.774044 0.563867
0.000000 0.975036 0.546624
0.000000 0.972137 0.538354
0.279454 0.973022 0.538354
0.539208 0.975128 0.539391
0.762692 0.977173 0.537346
0.982269 0.982422 0.536675
0.007202 0.006226 0.812711
0.205203 0.006897 0.811032
0.404303 0.006683 0.806851
0.601892 0.004059 0.802304
0.796780 0.000000 0.796780
0.990112 0.000000 0.791562
0.018616 0.207248 0.811215
0.205966 0.205936 0.808774
0.403998 0.204105 0.805631
0.600885 0.200931 0.800961
0.795132 0.194644 0.795071
0.986450 0.177340 0.787533
0.008026 0.401373 0.801480
0.201144 0.400763 0.800748
0.398566 0.398474 0.798428
0.595026 0.394446 0.794766
0.790951 0.389166 0.790951
0.986297 0.377173 0.785672
0.000000 0.592737 0.792813
0.181949 0.592401 0.792752
0.387640 0.590845 0.791806
0.588434 0.588464 0.790249
0.787411 0.584710 0.787381
0.985748 0.575738 0.782284
0.000000 0.783688 0.783688
0.137240 0.784176 0.784146
0.373144 0.785519 0.785489
0.581140 0.785946 0.785916
0.782010 0.782132 0.782040
0.983246 0.772763 0.772671
0.000000 0.977966 0.767147
0.000000 0.975738 0.763180
0.269566 0.977295 0.762692
0.527031 0.979278 0.760281
0.757015 0.981262 0.757107
0.986236 0.986358 0.758419
0.001678 0.000000 0.994781
0.194217 0.000000 0.994324
0.394110 0.000000 0.993042
0.591943 0.000000 0.991333
0.789242 0.000000 0.989685
0.986664 0.000000 0.988098
0.000000 0.192660 0.994537
0.192081 0.191562 0.993927
0.392737 0.187808 0.992248
0.590021 0.178500 0.989166
0.785672 0.160342 0.985260
0.981872 0.126406 0.981781
0.000000 0.387488 0.992462
0.173129 0.387060 0.992370
0.384344 0.384222 0.991180
0.585290 0.378119 0.989044
0.783597 0.366583 0.985779
0.983764 0.352880 0.983673
0.000000 0.582513 0.990387
0.116182 0.581872 0.990387
0.364050 0.579522 0.990387
0.575158 0.575219 0.988891
0.780056 0.568383 0.986694
0.985290 0.561608 0.985229
0.000000 0.781552 0.988006
0.000000 0.781247 0.988098
0.337041 0.780758 0.988678
0.562921 0.779568 0.989441
0.776516 0.776577 0.989532
0.988708 0.772732 0.988708
0.000000 0.986786 0.986755
0.000000 0.986145 0.986114
0.241123 0.986481 0.986450
0.519188 0.987274 0.987243
0.754299 0.989319 0.989258
0.994629 0.994629 0.994629
