luts/FUJI_ASTIA.cube
TITLE "Generated for krafta web app"
LUT_3D_SIZE 9
#INPUTGAMMA sRGB
#IMAGEPROFILE sRGB
#OUTPUTGAMMA sRGB
0.000000 0.000000 0.000000
0.131631 0.014586 0.015418
0.284433 0.034013 0.035093
0.441687 0.051430 0.051792
0.586630 0.071127 0.071439
0.712834 0.088699 0.087700
0.836813 0.101375 0.097380
0.937506 0.117791 0.110098
1.000000 0.146455 0.116542
0.001570 0.107128 0.000046
0.121161 0.111919 0.005552
0.274602 0.121374 0.025680
0.434724 0.140888 0.052898
0.586810 0.160138 0.071661
0.717166 0.175196 0.093615
0.832913 0.188042 0.108003
0.939222 0.197596 0.112450
1.000000 0.199917 0.110003
0.000423 0.231237 0.000000
0.108114 0.238426 -0.000069
0.268927 0.240256 0.015054
0.422408 0.248828 0.039704
0.565369 0.260013 0.052934
0.704803 0.276460 0.076373
0.829897 0.287833 0.098227
0.939975 0.286013 0.111845
1.000000 0.297058 0.111970
0.000000 0.356014 0.000000
0.088012 0.361813 0.000000
0.253251 0.368795 0.000995
0.412417 0.369774 0.021088
0.559497 0.377178 0.038138
0.688325 0.384525 0.057449
0.812416 0.389927 0.078166
0.951934 0.387691 0.117545
1.000000 0.400160 0.116844
0.000000 0.472814 0.000000
0.056983 0.480039 0.000000
0.224053 0.493674 0.000000
0.389964 0.496571 0.004699
0.542806 0.496946 0.015375
0.675070 0.500810 0.028970
0.812423 0.509173 0.070860
0.947399 0.496072 0.111156
1.000000 0.505595 0.116213
0.000000 0.578651 0.000000
0.027503 0.589087 0.000000
0.199934 0.607747 0.000000
0.368579 0.614681 0.000000
0.526412 0.615892 0.000296
0.667673 0.618922 0.016404
0.790574 0.623980 0.034229
0.922023 0.625451 0.068899
1.000000 0.625369 0.095992
0.000000 0.671002 0.000000
0.015487 0.687098 0.000000
0.190645 0.706996 0.000000
0.356038 0.719222 0.000000
0.522035 0.725262 0.000107
0.652598 0.731622 0.012137
0.773087 0.735839 0.031589
0.897119 0.740317 0.047337
0.999998 0.734963 0.063744
0.000000 0.771588 0.000000
0.016981 0.793394 0.000000
0.191804 0.813200 0.000000
0.360354 0.829684 0.000000
0.512922 0.838028 0.000000
0.642525 0.843062 0.000015
0.765911 0.846728 -0.001102
0.896058 0.851205 0.017026
0.999994 0.854214 0.032478
0.000000 0.896540 0.000000
0.032585 0.913862 0.000000
0.194219 0.930086 0.000000
0.345111 0.935674 0.000000
0.497125 0.942337 0.000000
0.624592 0.950268 0.000000
0.747402 0.958338 0.000000
0.880244 0.968033 0.000000
0.999993 0.979750 0.000003
0.011158 0.024833 0.150052
0.137310 0.037991 0.159306
0.295981 0.056436 0.176787
0.444817 0.073082 0.185036
0.592585 0.090742 0.198090
0.728223 0.106176 0.210771
0.839972 0.120224 0.216907
0.938412 0.132444 0.211561
1.000000 0.144145 0.199816
0.013130 0.118875 0.127685
0.115349 0.113054 0.105953
0.258600 0.118220 0.108192
0.421878 0.139600 0.137699
0.580907 0.160001 0.165198
0.719456 0.179066 0.179286
0.835346 0.189803 0.184334
0.924231 0.198899 0.188898
1.000000 0.210924 0.193536
0.004721 0.241100 0.093150
0.111789 0.233215 0.076449
0.260568 0.234893 0.104050
0.403917 0.238853 0.128500
0.547334 0.249976 0.135359
0.697717 0.268649 0.166932
0.830947 0.280580 0.178462
0.939091 0.294707 0.191198
1.000000 0.307758 0.192101
0.000946 0.363167 0.045670
0.094927 0.358221 0.034627
0.251079 0.360604 0.064930
0.402631 0.360744 0.101111
0.560739 0.368529 0.146877
0.681828 0.372119 0.156623
0.829491 0.383556 0.190682
0.945689 0.397243 0.194599
1.000000 0.410767 0.193429
-0.000021 0.482064 0.009324
0.069544 0.479158 0.009177
0.228932 0.485434 0.028711
0.388525 0.488191 0.063466
0.549158 0.491685 0.114674
0.688242 0.496987 0.149157
0.813779 0.497341 0.180153
0.939230 0.514507 0.180959
1.000000 0.517848 0.195907
0.000000 0.590522 -0.001924
0.044920 0.590983 -0.001556
0.213087 0.601148 0.011204
0.371336 0.607113 0.026189
0.531745 0.613587 0.069513
0.665227 0.613763 0.106958
0.782140 0.614182 0.120205
0.922834 0.630304 0.147914
1.000000 0.621021 0.191680
0.000000 0.686819 -0.000330
0.033863 0.689675 -0.000024
0.191109 0.705488 -0.000512
0.366042 0.722158 0.011059
0.519245 0.728405 0.045308
0.638828 0.734377 0.056321
0.772138 0.739038 0.112630
0.898151 0.741698 0.129214
0.999996 0.730926 0.155529
0.000000 0.789174 0.000000
0.038117 0.796894 0.000000
0.203109 0.817236 -0.000589
0.362643 0.831815 0.011906
0.507912 0.835779 0.011549
0.643673 0.840282 0.030742
0.766364 0.845267 0.055994
0.894626 0.850641 0.090467
0.999994 0.852656 0.118591
-0.000589 0.909128 0.000000
0.050062 0.917394 0.000000
0.188701 0.927477 0.000000
0.340306 0.934727 -0.000012
0.482647 0.942592 -0.000136
0.615522 0.951320 -0.001332
0.741656 0.960327 0.006193
0.876397 0.970534 0.029738
0.999993 0.981718 0.071786
0.023924 0.058144 0.348049
0.147475 0.072855 0.361813
0.303961 0.092546 0.378476
0.455284 0.109721 0.387951
0.600654 0.125993 0.396107
0.729121 0.140445 0.398245
0.835775 0.150782 0.380950
0.934718 0.157943 0.352978
0.999998 0.163595 0.321911
0.032043 0.140023 0.294611
0.122192 0.131056 0.265822
0.267084 0.132326 0.255930
0.419015 0.148747 0.273210
0.581274 0.177072 0.314892
0.715256 0.191342 0.319629
0.828687 0.205244 0.322833
0.922915 0.218326 0.318539
0.999999 0.229589 0.319214
0.028505 0.256472 0.291593
0.136376 0.255295 0.259984
0.251932 0.244367 0.244941
0.379923 0.240979 0.231305
0.556780 0.258378 0.268475
0.707898 0.280595 0.299172
0.822698 0.294946 0.305591
0.930010 0.310027 0.315277
0.999999 0.324294 0.314558
0.016946 0.377665 0.260844
0.121895 0.375391 0.228974
0.253300 0.367162 0.219310
0.426521 0.380058 0.283858
0.541103 0.372327 0.271988
0.695191 0.386920 0.300340
0.819336 0.400261 0.311962
0.934026 0.412757 0.314075
1.000000 0.428266 0.319221
0.005458 0.499348 0.205148
0.100115 0.496244 0.181266
0.254961 0.492024 0.193998
0.407532 0.496283 0.231888
0.547396 0.497161 0.256411
0.679984 0.501112 0.287896
0.800766 0.519332 0.297763
0.928750 0.529892 0.302857
1.000000 0.531712 0.322379
0.000590 0.610316 0.140620
0.083972 0.605952 0.125084
0.211182 0.601927 0.110844
0.378983 0.613305 0.171931
0.526719 0.618321 0.208470
0.655083 0.620292 0.238317
0.779535 0.626866 0.260328
0.917967 0.636892 0.290040
0.999999 0.621493 0.320972
-0.000323 0.705525 0.087746
0.091435 0.704734 0.061557
0.211123 0.712466 0.086505
0.370534 0.725934 0.141686
0.521128 0.733730 0.177057
0.649607 0.734492 0.198263
0.771624 0.739687 0.242936
0.891073 0.739798 0.271743
0.999998 0.728482 0.287238
0.023618 0.806656 0.033918
0.109787 0.816494 0.057090
0.211224 0.821501 0.070820
0.358160 0.827992 0.094775
0.505073 0.832271 0.118597
0.639483 0.838859 0.151945
0.765333 0.844891 0.191168
0.889009 0.851321 0.216457
0.999995 0.850958 0.247977
0.039274 0.925743 0.013241
0.099008 0.928413 0.017939
0.184386 0.927312 0.012890
0.320844 0.935080 0.030168
0.468937 0.944790 0.057716
0.607873 0.954308 0.088923
0.735254 0.963728 0.120450
0.871692 0.973947 0.158457
0.999992 0.984649 0.192171
0.036224 0.096119 0.563417
0.156751 0.111274 0.574242
0.310053 0.128402 0.581451
0.460847 0.147508 0.593447
0.601605 0.164977 0.593424
0.722713 0.175395 0.568681
0.826140 0.177795 0.528381
0.922429 0.179092 0.484305
0.999988 0.186760 0.453823
0.026451 0.163709 0.477451
0.135252 0.164607 0.471873
0.283979 0.171037 0.471546
0.439699 0.188916 0.486556
0.591033 0.216454 0.508383
0.716256 0.226395 0.493313
0.821769 0.232315 0.470832
0.927383 0.236297 0.447974
0.999997 0.251650 0.450957
0.055338 0.278627 0.462092
0.158118 0.278624 0.447668
0.259779 0.259365 0.397906
0.411682 0.262136 0.394204
0.577829 0.290410 0.432093
0.719186 0.309469 0.452934
0.829610 0.318511 0.448249
0.918530 0.331740 0.443031
0.999998 0.345166 0.454316
0.037617 0.397508 0.458466
0.152622 0.397761 0.419521
0.312018 0.404083 0.451011
0.378140 0.375443 0.377513
0.546385 0.390447 0.407400
0.687518 0.405706 0.424284
0.810922 0.416284 0.434724
0.922710 0.428848 0.439142
0.999996 0.443927 0.452211
0.028482 0.515624 0.426269
0.133877 0.514775 0.391715
0.263199 0.506110 0.363748
0.388644 0.502407 0.364466
0.533401 0.505648 0.395268
0.668388 0.512506 0.420822
0.795763 0.530954 0.419947
0.917156 0.542866 0.436971
0.999998 0.543159 0.450243
0.016077 0.630183 0.373230
0.125800 0.622180 0.343565
0.269172 0.623340 0.333795
0.389268 0.626629 0.346782
0.532049 0.631178 0.381645
0.651564 0.628157 0.388350
0.772869 0.639303 0.404328
0.908865 0.638201 0.442832
1.000000 0.639404 0.445149
0.047638 0.723685 0.308570
0.163634 0.725194 0.292928
0.274649 0.726062 0.297871
0.392616 0.730620 0.311160
0.536748 0.732716 0.339109
0.665733 0.736354 0.375765
0.766680 0.738696 0.401451
0.891550 0.738293 0.415216
0.999999 0.728704 0.435103
0.097539 0.824479 0.237120
0.172469 0.829150 0.249584
0.265231 0.829403 0.248772
0.356356 0.826433 0.237232
0.497434 0.832441 0.267028
0.642549 0.840132 0.314193
0.759575 0.845955 0.340334
0.883138 0.851598 0.373576
0.999994 0.850261 0.399450
0.097741 0.938572 0.201959
0.147632 0.939269 0.197714
0.224454 0.940128 0.184106
0.324465 0.940349 0.177954
0.462034 0.947858 0.199619
0.599891 0.957811 0.234053
0.729009 0.967469 0.270755
0.864624 0.976936 0.306847
0.999990 0.985681 0.333600
0.046464 0.128332 0.748090
0.165019 0.146101 0.764772
0.319359 0.167860 0.783475
0.466040 0.186090 0.784020
0.593393 0.190503 0.736832
0.703283 0.190299 0.678518
0.808111 0.193803 0.639529
0.914341 0.199926 0.606055
0.999987 0.207069 0.580409
0.035080 0.191081 0.664755
0.145043 0.194055 0.657012
0.304185 0.217009 0.685163
0.454205 0.235569 0.681804
0.588219 0.243130 0.654868
0.702173 0.245243 0.618320
0.812043 0.251450 0.594406
0.922614 0.258177 0.574828
0.999998 0.272535 0.580664
0.071246 0.302618 0.632116
0.145044 0.293828 0.599969
0.305668 0.296468 0.587328
0.462262 0.318619 0.613149
0.592855 0.325235 0.596974
0.716422 0.332557 0.579398
0.819156 0.339968 0.567150
0.921628 0.352610 0.570443
0.999999 0.363938 0.582761
0.066190 0.415549 0.609225
0.183350 0.422239 0.600345
0.310319 0.415365 0.593076
0.446839 0.415174 0.575687
0.593228 0.422504 0.576506
0.709148 0.429054 0.562783
0.802658 0.440630 0.553230
0.917852 0.449855 0.567686
0.999998 0.460297 0.577082
0.056934 0.534499 0.613231
0.157931 0.527595 0.570600
0.286634 0.522617 0.545963
0.406073 0.518651 0.531220
0.527183 0.517017 0.524841
0.663535 0.527115 0.533275
0.791956 0.540428 0.536946
0.905105 0.553745 0.560113
0.999996 0.561253 0.564258
0.069105 0.642037 0.579875
0.171152 0.643632 0.563096
0.310198 0.641535 0.554710
0.420263 0.636261 0.522717
0.533585 0.636064 0.513568
0.645129 0.634208 0.518869
0.772000 0.642953 0.526412
0.902835 0.647387 0.560032
0.999998 0.658215 0.562078
0.109311 0.741453 0.517010
0.214924 0.738989 0.490696
0.330166 0.734990 0.486860
0.435110 0.734435 0.483502
0.544680 0.733436 0.487961
0.672290 0.738199 0.525509
0.757605 0.739759 0.529189
0.887834 0.736339 0.551726
0.999998 0.738949 0.563592
0.153093 0.834916 0.420869
0.220620 0.838042 0.428696
0.305683 0.837903 0.428823
0.396068 0.836892 0.419900
0.498455 0.834764 0.414346
0.634594 0.841030 0.450013
0.758837 0.847247 0.486456
0.877021 0.851179 0.519518
0.999995 0.848725 0.539692
0.136264 0.950839 0.385218
0.191628 0.954076 0.388529
0.273572 0.954942 0.379959
0.365511 0.953838 0.362052
0.461824 0.952561 0.346172
0.600205 0.961726 0.382772
0.724633 0.970499 0.413920
0.853985 0.976878 0.434068
0.999910 0.986977 0.470009
0.057890 0.162083 0.907819
0.171989 0.177599 0.920465
0.320254 0.196704 0.929572
0.454725 0.203557 0.896972
0.578294 0.203258 0.833331
0.695538 0.207283 0.788348
0.799891 0.213067 0.751324
0.909434 0.219145 0.717919
0.999996 0.224174 0.695118
0.046785 0.217940 0.818459
0.160865 0.234488 0.845945
0.310634 0.249063 0.833459
0.443286 0.253256 0.808346
0.573736 0.257018 0.767066
0.696537 0.263921 0.738348
0.806466 0.270120 0.713426
0.922411 0.278225 0.693251
1.000000 0.289621 0.695231
0.070919 0.324317 0.791113
0.160816 0.321275 0.772830
0.310349 0.331824 0.767586
0.442819 0.337369 0.741347
0.580623 0.343459 0.716347
0.700859 0.354098 0.700912
0.806933 0.362306 0.688430
0.930033 0.368110 0.689672
1.000000 0.379826 0.696797
0.093032 0.444296 0.782330
0.194334 0.438897 0.749746
0.318314 0.431135 0.725930
0.460576 0.436550 0.717053
0.598095 0.443000 0.698385
0.696010 0.453698 0.682971
0.800076 0.459660 0.674135
0.924205 0.467332 0.684672
1.000000 0.478756 0.693146
0.082039 0.551072 0.785587
0.186217 0.545558 0.745990
0.314632 0.540917 0.715322
0.438452 0.541040 0.691960
0.572625 0.538639 0.669171
0.671715 0.549647 0.657729
0.778076 0.560149 0.658336
0.908482 0.567346 0.673216
0.999998 0.579637 0.681709
0.107018 0.657452 0.763674
0.198091 0.655022 0.737563
0.322648 0.647738 0.702795
0.444016 0.641689 0.667167
0.555425 0.639398 0.642891
0.642169 0.640336 0.635716
0.763296 0.654151 0.643436
0.894136 0.657584 0.662764
0.999995 0.674190 0.669038
0.151926 0.752402 0.687829
0.247971 0.748069 0.654241
0.363074 0.740919 0.639277
0.462849 0.739213 0.632678
0.577383 0.738526 0.642022
0.669136 0.739580 0.642050
0.749087 0.741239 0.639705
0.884692 0.741675 0.662674
0.999996 0.754923 0.670807
0.198978 0.846983 0.593709
0.256406 0.847804 0.595448
0.339535 0.848627 0.594881
0.436233 0.847459 0.590557
0.536491 0.844449 0.579531
0.642200 0.843430 0.586577
0.765322 0.848765 0.624090
0.870557 0.851610 0.638463
0.999994 0.847914 0.667217
0.174308 0.963599 0.560834
0.225178 0.966952 0.559272
0.309821 0.968002 0.549014
0.414910 0.967039 0.539597
0.509497 0.965894 0.522834
0.591386 0.964515 0.505198
0.713638 0.971074 0.528755
0.840052 0.974632 0.537853
0.999201 0.989488 0.592234
0.067613 0.193176 0.999622
0.175141 0.206718 1.000068
0.313878 0.215612 0.996090
0.438132 0.215010 0.961172
0.569080 0.220102 0.932714
0.686012 0.226144 0.898952
0.789638 0.231074 0.865116
0.905712 0.237166 0.839049
0.999995 0.244529 0.811958
0.057536 0.251536 0.967336
0.161311 0.261610 0.964172
0.290220 0.262803 0.925207
0.430239 0.270754 0.900528
0.560246 0.277633 0.876482
0.676636 0.285623 0.862669
0.790542 0.292410 0.844207
0.913054 0.300042 0.827771
1.000000 0.308371 0.811867
0.066307 0.342860 0.913900
0.145576 0.348414 0.923455
0.275326 0.349912 0.897461
0.421089 0.360015 0.881222
0.552716 0.369673 0.863893
0.677780 0.378048 0.850547
0.797714 0.382965 0.837053
0.926646 0.388705 0.821707
1.000000 0.396249 0.813456
0.120629 0.466752 0.914559
0.209827 0.465201 0.905418
0.297378 0.452783 0.874129
0.442784 0.463256 0.864443
0.562024 0.470224 0.849096
0.684337 0.474573 0.835962
0.803575 0.479032 0.824024
0.930463 0.485028 0.809541
1.000000 0.494942 0.810413
0.118441 0.576392 0.935109
0.203704 0.576362 0.914726
0.326988 0.572552 0.882099
0.434416 0.562931 0.842228
0.558265 0.568558 0.825408
0.678111 0.574865 0.813172
0.792608 0.579610 0.798952
0.915895 0.584661 0.788835
1.000000 0.595559 0.800563
0.096066 0.677219 0.944315
0.183236 0.675207 0.918452
0.304172 0.672346 0.885689
0.441108 0.665440 0.834509
0.555179 0.664710 0.805953
0.667419 0.667190 0.785313
0.769212 0.671547 0.771823
0.892284 0.677307 0.771696
0.999998 0.690202 0.787300
0.155689 0.766994 0.878914
0.225640 0.765577 0.863588
0.337241 0.757306 0.836479
0.445110 0.754260 0.815658
0.559819 0.747756 0.787446
0.655199 0.745314 0.768957
0.743722 0.744686 0.750405
0.877515 0.754040 0.762475
0.999994 0.769731 0.773994
0.226634 0.858721 0.764984
0.285911 0.858975 0.765828
0.373128 0.859580 0.762650
0.474891 0.856202 0.750606
0.576611 0.853038 0.739962
0.676163 0.850634 0.740053
0.762136 0.849877 0.740632
0.865606 0.851699 0.755356
0.999994 0.854975 0.775778
0.204476 0.977210 0.732937
0.267624 0.978875 0.734042
0.357217 0.979911 0.720731
0.453201 0.979652 0.703502
0.547095 0.978545 0.686299
0.637458 0.976749 0.674132
0.702275 0.967995 0.626598
0.827191 0.973178 0.641059
0.997772 0.992058 0.720923
0.070297 0.216635 1.000000
0.169432 0.225196 1.000000
0.299355 0.228581 1.000000
0.431915 0.234521 0.999611
0.558935 0.241287 0.997241
0.672559 0.249114 0.985839
0.779398 0.254872 0.977803
0.894459 0.262851 0.965052
0.999989 0.271684 0.951333
0.054515 0.274405 1.000156
0.147924 0.278833 1.000006
0.278979 0.284088 0.997469
0.414492 0.293466 0.996980
0.542811 0.301005 0.991729
0.666033 0.309942 0.985367
0.781675 0.318800 0.979452
0.903440 0.327356 0.965406
1.000000 0.335751 0.955397
0.041426 0.362977 1.000572
0.131566 0.367143 0.997691
0.267982 0.376830 0.996632
0.401575 0.387694 0.996518
0.540801 0.393590 0.989583
0.670994 0.398793 0.982544
0.790785 0.404297 0.975363
0.921753 0.411938 0.965332
1.000000 0.420067 0.954897
0.135122 0.498696 1.000514
0.154246 0.474896 0.997462
0.262657 0.476413 0.995722
0.401183 0.483188 0.990105
0.547236 0.489126 0.982691
0.677232 0.494838 0.976220
0.798305 0.500223 0.967240
0.929370 0.506782 0.958126
1.000000 0.514927 0.948065
0.132538 0.611471 1.000325
0.218256 0.608654 1.000347
0.319856 0.597799 0.995675
0.396298 0.582383 0.980609
0.540598 0.586869 0.970621
0.672287 0.592526 0.960137
0.792406 0.597858 0.952260
0.924821 0.604100 0.943789
1.000000 0.612139 0.933311
0.098780 0.710091 1.000236
0.178475 0.705670 1.000408
0.310329 0.702892 0.996782
0.452838 0.699563 0.986740
0.551480 0.686115 0.955334
0.661938 0.686429 0.940217
0.775982 0.691315 0.931649
0.901270 0.696523 0.921324
1.000000 0.706084 0.915126
0.083012 0.796416 1.000819
0.164252 0.793388 1.000767
0.295696 0.789999 0.998716
0.430537 0.784166 0.987390
0.561865 0.776747 0.956401
0.670474 0.772528 0.928563
0.761669 0.771314 0.908437
0.883040 0.777001 0.895154
0.999997 0.786309 0.898267
0.160840 0.886286 0.993181
0.234669 0.884599 0.988297
0.341105 0.880658 0.977178
0.453939 0.875924 0.960068
0.568738 0.869527 0.935621
0.671517 0.863627 0.912617
0.764924 0.858562 0.889907
0.861098 0.858109 0.871475
0.999851 0.870367 0.881390
0.234246 0.985414 0.907689
0.300233 0.987469 0.902404
0.394372 0.988641 0.891346
0.497091 0.988568 0.875043
0.593646 0.989462 0.859909
0.676234 0.987663 0.835133
0.746841 0.981628 0.800475
0.827022 0.975669 0.771108
0.997669 0.996067 0.853955
0.065830 0.237038 1.000000
0.155921 0.239237 1.000000
0.292118 0.246885 1.000000
0.423928 0.255062 1.000000
0.547942 0.261805 1.000000
0.663347 0.270683 1.000000
0.770946 0.279120 1.000000
0.888879 0.288223 1.000000
0.999990 0.297888 1.000000
0.038737 0.291966 1.000000
0.135813 0.296909 1.000000
0.270839 0.306500 1.000000
0.410115 0.319135 1.000000
0.543500 0.327233 1.000000
0.664044 0.335386 1.000000
0.776381 0.343342 1.000000
0.906104 0.352808 1.000000
1.000000 0.362080 1.000000
0.021340 0.382282 1.000000
0.117855 0.387935 1.000000
0.252684 0.397356 1.000000
0.401587 0.407336 1.000000
0.544860 0.415614 1.000000
0.673131 0.422572 1.000000
0.792783 0.429252 1.000000
0.924895 0.436697 1.000000
1.000000 0.444885 1.000000
0.092992 0.506042 1.000000
0.122025 0.488161 1.000000
0.249491 0.493909 1.000000
0.396770 0.501572 1.000000
0.548185 0.510934 1.000000
0.679478 0.518214 1.000000
0.801753 0.524692 1.000000
0.936174 0.531532 1.000000
1.000000 0.539192 1.000000
0.159047 0.637897 1.000000
0.230633 0.630681 1.000000
0.280248 0.604705 1.000000
0.387017 0.597002 1.000000
0.534886 0.605827 1.000000
0.672687 0.614624 1.000000
0.795280 0.621431 1.000000
0.917453 0.627642 1.000000
1.000000 0.635066 1.000000
0.102713 0.729241 1.000000
0.202389 0.729693 1.000000
0.345260 0.730090 1.000000
0.458170 0.724859 1.000000
0.520365 0.699108 1.000000
0.642155 0.704693 1.000000
0.746975 0.710643 1.000000
0.880442 0.717308 1.000000
0.999999 0.727201 1.000000
0.100005 0.822094 1.000000
0.198854 0.820523 1.000000
0.325227 0.820763 1.000000
0.452382 0.812780 1.000000
0.573557 0.804966 1.000000
0.610030 0.784749 1.000000
0.722011 0.787202 1.000000
0.865110 0.795138 1.000000
0.999996 0.805916 0.999998
0.106823 0.913453 1.000000
0.189126 0.911094 1.000000
0.303615 0.907101 1.000000
0.431400 0.902106 1.000000
0.558322 0.897923 1.000000
0.675195 0.893647 1.000000
0.759202 0.884587 0.999999
0.849171 0.878056 0.999992
1.000008 0.890117 1.000005
0.187350 0.999617 1.000000
0.265800 0.999913 1.000000
0.372182 0.999992 1.000000
0.487116 0.999784 0.999998
0.597371 0.999849 0.999995
0.693053 0.999875 0.999991
0.781388 0.998031 0.999986
0.877651 0.997726 1.000040
0.999986 0.999988 0.999983
