luts/Fujifilm_Fortia_50.cube
# Generated for krafta web app
# https://www.facebook.com/krafta.visio
# Preset: FUJ - Fortia 50
# Color profile : sRGB Color Space Profile
LUT_3D_SIZE 16
DOMAIN_MIN 0.0 0.0 0.0
DOMAIN_MAX 1.0 1.0 1.0
0.000000 0.000000 0.000000
0.094728 0.000122 0.000000
0.190829 0.000092 0.000092
0.273808 0.000244 0.000122
0.345525 0.000244 0.000000
0.414282 0.000305 0.000366
0.480385 0.000000 0.000214
0.548852 0.000061 0.000061
0.615198 0.000366 0.000397
0.682063 0.000305 0.000092
0.745937 0.000336 0.000275
0.806210 0.000061 0.000641
0.865446 0.000153 0.000305
0.925597 0.000488 0.000549
0.985565 0.000427 0.000549
1.000000 0.000427 0.000641
0.000000 0.097871 0.000000
0.094636 0.094911 0.000000
0.182773 0.095705 0.000000
0.265812 0.092164 0.000000
0.339147 0.086305 0.000000
0.408576 0.080659 0.000000
0.478218 0.075929 0.000000
0.547051 0.071260 0.000000
0.613306 0.066011 0.000000
0.680873 0.058228 0.000000
0.744808 0.051820 0.000000
0.805112 0.043336 0.000000
0.864164 0.032532 0.000000
0.924529 0.020874 0.000000
0.984863 0.006226 0.000610
1.000000 0.000305 0.000763
0.000000 0.181796 0.000000
0.089113 0.177615 0.000000
0.172976 0.173129 0.000000
0.253635 0.169955 0.000000
0.329320 0.165194 0.000000
0.402594 0.161349 0.000000
0.473426 0.156741 0.000000
0.542290 0.152041 0.000000
0.609308 0.147433 0.000000
0.677943 0.142916 0.000000
0.741634 0.138369 0.000000
0.801999 0.132509 0.000000
0.860929 0.125765 0.000000
0.922057 0.119051 0.000000
0.982788 0.111055 0.000000
1.000000 0.100221 0.000000
0.000000 0.253880 0.000000
0.077821 0.250919 0.000000
0.163943 0.247715 0.000000
0.243656 0.243961 0.000000
0.319554 0.239353 0.000000
0.392889 0.235416 0.000000
0.463722 0.230625 0.000000
0.533471 0.226627 0.000000
0.602869 0.222599 0.000000
0.671443 0.218906 0.000000
0.734890 0.213657 0.000000
0.795529 0.208072 0.000000
0.855772 0.202029 0.000000
0.916472 0.196231 0.000000
0.976349 0.189883 0.000000
1.000000 0.181949 0.000000
0.000000 0.319371 0.000000
0.066621 0.318547 0.000000
0.155154 0.318151 0.000000
0.235996 0.315953 0.000000
0.312413 0.312596 0.000000
0.387091 0.308812 0.000000
0.459144 0.304784 0.000000
0.530236 0.300969 0.000000
0.600397 0.297185 0.000000
0.669612 0.293278 0.000000
0.733547 0.287816 0.000000
0.795468 0.282109 0.000000
0.857115 0.276768 0.000000
0.918883 0.271183 0.000000
0.979217 0.264958 0.000000
1.000000 0.257420 0.000000
0.000000 0.385779 0.000000
0.052949 0.386297 0.000000
0.145571 0.386114 0.000000
0.227054 0.384314 0.000000
0.303380 0.381353 0.000000
0.377783 0.377722 0.000000
0.450752 0.374395 0.000000
0.523064 0.371679 0.000000
0.593652 0.368048 0.000000
0.662654 0.364080 0.000000
0.726406 0.358373 0.000000
0.789700 0.352636 0.000000
0.851896 0.346990 0.000000
0.913848 0.341558 0.000000
0.974701 0.335515 0.000000
1.000000 0.328374 0.000000
0.000000 0.452155 0.000000
0.032319 0.452735 0.000000
0.135225 0.452491 0.000000
0.217472 0.451179 0.000000
0.295140 0.449165 0.000000
0.370123 0.446693 0.000000
0.443702 0.443915 0.000000
0.515801 0.440772 0.000000
0.586023 0.436805 0.000000
0.654170 0.432471 0.000000
0.718898 0.426734 0.000000
0.783047 0.421302 0.000000
0.845884 0.415717 0.000000
0.908324 0.410193 0.000000
0.969787 0.404211 0.000000
1.000000 0.397375 0.000000
0.000000 0.517082 0.000000
0.006409 0.518547 0.000000
0.122042 0.519219 0.000000
0.208469 0.518425 0.000000
0.287114 0.516686 0.000000
0.362249 0.513664 0.000000
0.434852 0.509911 0.000000
0.506065 0.506096 0.000000
0.576257 0.502434 0.000000
0.644343 0.498085 0.000000
0.710384 0.492866 0.000000
0.775326 0.487770 0.000000
0.838712 0.482307 0.000000
0.901335 0.476661 0.000000
0.963012 0.470619 0.000000
1.000000 0.464881 0.000000
0.000000 0.574060 0.000000
0.000000 0.574060 0.000000
0.103914 0.574548 0.000000
0.193790 0.574395 0.000000
0.273930 0.573754 0.000000
0.349523 0.572625 0.000000
0.423438 0.571130 0.000000
0.495399 0.569116 0.000000
0.566766 0.566888 0.000000
0.636988 0.564355 0.000000
0.704829 0.560357 0.000000
0.771023 0.555840 0.000000
0.835416 0.550561 0.000000
0.898619 0.544945 0.000000
0.960815 0.538994 0.000000
1.000000 0.532006 0.000000
0.000000 0.634760 0.000000
0.000000 0.634180 0.000000
0.085603 0.633997 0.000000
0.181521 0.633539 0.000000
0.262333 0.632898 0.000000
0.338384 0.632013 0.000000
0.412421 0.631220 0.000000
0.484718 0.629816 0.000000
0.556085 0.628412 0.000000
0.626368 0.626551 0.000000
0.695857 0.624262 0.000000
0.762142 0.619654 0.000000
0.827024 0.614557 0.000000
0.891417 0.609644 0.000000
0.954864 0.604242 0.000000
1.000000 0.597803 0.000000
0.000000 0.694545 0.000000
0.000000 0.694240 0.000000
0.056245 0.693812 0.000000
0.166659 0.693294 0.000000
0.250370 0.692775 0.000000
0.327611 0.691981 0.000000
0.401862 0.691127 0.000000
0.474098 0.690059 0.000000
0.545373 0.688716 0.000000
0.615442 0.686976 0.000000
0.684810 0.684962 0.000000
0.753292 0.682521 0.000000
0.819364 0.678370 0.000000
0.884550 0.673732 0.000000
0.948486 0.668574 0.000000
1.000000 0.662379 0.000000
0.000000 0.753994 0.000000
0.000000 0.753658 0.000000
0.003998 0.753262 0.000000
0.147036 0.752743 0.000000
0.236332 0.751949 0.000000
0.315404 0.751095 0.000000
0.390295 0.750088 0.000000
0.462867 0.748989 0.000000
0.534203 0.747890 0.000000
0.604364 0.746365 0.000000
0.673915 0.744717 0.000000
0.742580 0.742855 0.000000
0.811093 0.741054 0.000000
0.877317 0.737209 0.000000
0.942351 0.732570 0.000000
1.000000 0.727657 0.000000
0.000000 0.806577 0.000000
0.000000 0.806668 0.000000
0.000000 0.807218 0.000000
0.111635 0.807645 0.000000
0.215305 0.808286 0.000000
0.299413 0.808621 0.000000
0.377081 0.809079 0.000000
0.451637 0.809171 0.000000
0.524620 0.809445 0.000000
0.596307 0.809293 0.000000
0.667506 0.809262 0.000000
0.737911 0.808804 0.000000
0.808194 0.808438 0.000000
0.877195 0.806821 0.000000
0.942107 0.801602 0.000000
1.000000 0.793362 0.000000
0.000000 0.872007 0.000000
0.000000 0.869200 0.000000
0.000000 0.867948 0.000000
0.043427 0.867643 0.000000
0.185916 0.868040 0.000000
0.279057 0.868254 0.000000
0.360449 0.868559 0.000000
0.437263 0.868742 0.000000
0.511681 0.869139 0.000000
0.584100 0.868894 0.000000
0.655726 0.868803 0.000000
0.726406 0.868162 0.000000
0.796628 0.867521 0.000000
0.865812 0.865995 0.000000
0.933898 0.863645 0.000000
0.998657 0.858030 0.000000
0.000000 0.932372 0.000000
0.000000 0.929992 0.000000
0.000000 0.928679 0.000000
0.000000 0.928161 0.000000
0.132845 0.928191 0.000000
0.246860 0.928283 0.000000
0.336797 0.928588 0.000000
0.417914 0.928649 0.000000
0.494850 0.928771 0.000000
0.569085 0.928527 0.000000
0.641962 0.928313 0.000000
0.713649 0.927886 0.000000
0.785092 0.927703 0.000000
0.855589 0.926909 0.000000
0.925444 0.925628 0.000000
0.993683 0.922850 0.000000
0.000000 0.993835 0.000000
0.000000 0.991974 0.000000
0.000000 0.990967 0.000000
0.000000 0.990539 0.000000
0.000000 0.990539 0.000000
0.187076 0.990600 0.000000
0.297551 0.990814 0.000000
0.388342 0.990997 0.000000
0.471046 0.991302 0.000000
0.549493 0.991547 0.000000
0.625544 0.991852 0.000000
0.699916 0.991943 0.000000
0.773648 0.992309 0.000000
0.846586 0.992370 0.000000
0.919432 0.992493 0.000000
0.992340 0.992554 0.000000
0.000122 0.000000 0.098116
0.101869 0.000061 0.102449
0.192172 0.000244 0.101289
0.273533 0.000000 0.091829
0.343481 0.000214 0.082582
0.411414 0.000031 0.077150
0.479133 0.000000 0.071382
0.546807 0.000366 0.065766
0.612848 0.000214 0.059907
0.679988 0.000000 0.052735
0.744045 0.000366 0.045350
0.804013 0.000275 0.037171
0.862760 0.000336 0.025666
0.922728 0.000488 0.013489
0.982452 0.000580 0.000458
1.000000 0.000275 0.000671
0.000000 0.099580 0.099336
0.094911 0.094911 0.094911
0.185611 0.089967 0.089998
0.266148 0.085389 0.084749
0.338933 0.080354 0.080293
0.408667 0.075441 0.075044
0.478035 0.070893 0.070802
0.546166 0.065248 0.065278
0.612512 0.059968 0.058625
0.680629 0.052430 0.051789
0.744381 0.044556 0.045533
0.804135 0.037079 0.036194
0.862547 0.026612 0.025391
0.922576 0.013245 0.013672
0.982208 0.000397 0.000610
1.000000 0.000549 0.000885
0.000000 0.184054 0.086702
0.084413 0.179995 0.084504
0.174807 0.175051 0.081361
0.256382 0.170077 0.078523
0.331609 0.165042 0.075929
0.404364 0.160403 0.071565
0.474495 0.155123 0.068025
0.543023 0.150240 0.061982
0.611261 0.145510 0.055756
0.679194 0.141176 0.048341
0.741848 0.135592 0.039979
0.801358 0.129641 0.031006
0.860044 0.122683 0.021271
0.920439 0.116091 0.007813
0.980438 0.106569 0.000000
1.000000 0.094820 0.000000
0.000000 0.256596 0.075471
0.073854 0.253666 0.074769
0.164706 0.249851 0.072053
0.245792 0.245731 0.069886
0.322362 0.240848 0.066621
0.395300 0.236240 0.065003
0.466285 0.231357 0.061280
0.536522 0.227054 0.055268
0.605707 0.222721 0.048402
0.673548 0.218021 0.041138
0.736538 0.212528 0.032532
0.796689 0.206943 0.024262
0.857359 0.201175 0.013306
0.917632 0.195346 0.000000
0.976715 0.187930 0.000000
1.000000 0.179385 0.000000
0.000000 0.319615 0.063233
0.062196 0.318669 0.063020
0.152804 0.316655 0.061280
0.233402 0.313664 0.058747
0.309636 0.309636 0.056062
0.383825 0.305821 0.050935
0.455512 0.301946 0.048615
0.526696 0.298253 0.044678
0.596307 0.294347 0.037263
0.665431 0.290440 0.028809
0.729549 0.285283 0.021180
0.792020 0.279759 0.013519
0.854215 0.274662 0.002686
0.915984 0.269200 0.000000
0.976532 0.263005 0.000000
1.000000 0.255344 0.000000
0.000000 0.385534 0.049042
0.047089 0.385199 0.048066
0.143252 0.383764 0.046723
0.224063 0.381811 0.043946
0.301122 0.378790 0.040284
0.375341 0.375341 0.035431
0.447852 0.371832 0.029694
0.519493 0.368566 0.024201
0.589685 0.364935 0.020081
0.658412 0.361181 0.013458
0.722957 0.355749 0.007904
0.786648 0.350469 0.000000
0.848997 0.345129 0.000000
0.910918 0.339635 0.000000
0.971832 0.333471 0.000000
1.000000 0.326482 0.000000
0.000000 0.452277 0.028656
0.026734 0.452522 0.027832
0.132448 0.451514 0.026276
0.215732 0.449714 0.024140
0.293278 0.447333 0.020020
0.368017 0.444373 0.015106
0.440925 0.440894 0.009583
0.512322 0.437568 0.003021
0.582879 0.434089 0.000000
0.651026 0.429786 0.000000
0.715724 0.424201 0.000000
0.779660 0.418860 0.000000
0.842557 0.413428 0.000000
0.905058 0.407721 0.000000
0.966583 0.401862 0.000000
1.000000 0.395483 0.000000
0.000000 0.516381 0.002350
0.000000 0.517021 0.000824
0.118990 0.516411 0.000336
0.205539 0.515160 0.000000
0.284215 0.513176 0.000000
0.359197 0.510521 0.000000
0.432441 0.507317 0.000000
0.503807 0.503777 0.000000
0.573877 0.500206 0.000000
0.641871 0.495796 0.000000
0.707607 0.490700 0.000000
0.772396 0.485634 0.000000
0.835966 0.480385 0.000000
0.898589 0.474708 0.000000
0.960296 0.468635 0.000000
1.000000 0.462623 0.000000
0.000000 0.575647 0.000000
0.000000 0.575402 0.000000
0.101534 0.574914 0.000000
0.192386 0.574151 0.000000
0.272374 0.573083 0.000000
0.348150 0.571618 0.000000
0.422126 0.570092 0.000000
0.494423 0.568048 0.000000
0.565484 0.565576 0.000000
0.635370 0.562860 0.000000
0.703120 0.558770 0.000000
0.769253 0.554192 0.000000
0.833555 0.549004 0.000000
0.897063 0.543664 0.000000
0.959960 0.538109 0.000000
1.000000 0.531579 0.000000
0.000000 0.635065 0.000000
0.000000 0.634668 0.000000
0.083406 0.634119 0.000000
0.179995 0.633539 0.000000
0.261540 0.632837 0.000000
0.337896 0.631800 0.000000
0.411444 0.630518 0.000000
0.483680 0.628870 0.000000
0.554711 0.627100 0.000000
0.624872 0.624964 0.000000
0.693935 0.622553 0.000000
0.760372 0.617975 0.000000
0.825559 0.613245 0.000000
0.890288 0.608606 0.000000
0.954253 0.603540 0.000000
1.000000 0.597528 0.000000
0.000000 0.694759 0.000000
0.000000 0.694667 0.000000
0.055238 0.694148 0.000000
0.166201 0.693538 0.000000
0.249546 0.692744 0.000000
0.326879 0.691615 0.000000
0.400824 0.690303 0.000000
0.472999 0.688899 0.000000
0.544152 0.687526 0.000000
0.614191 0.685695 0.000000
0.683406 0.683467 0.000000
0.751736 0.681056 0.000000
0.817868 0.676967 0.000000
0.883177 0.672511 0.000000
0.947539 0.667567 0.000000
1.000000 0.661707 0.000000
0.000000 0.753719 0.000000
0.000000 0.753475 0.000000
0.000153 0.752956 0.000000
0.144564 0.752316 0.000000
0.234928 0.751614 0.000000
0.314488 0.750698 0.000000
0.389380 0.749783 0.000000
0.462318 0.748531 0.000000
0.533440 0.747127 0.000000
0.603479 0.745388 0.000000
0.672572 0.743435 0.000000
0.741176 0.741360 0.000000
0.809415 0.739284 0.000000
0.875364 0.735409 0.000000
0.940337 0.730739 0.000000
1.000000 0.725948 0.000000
0.000000 0.807736 0.000000
0.000000 0.807736 0.000000
0.000000 0.808103 0.000000
0.110414 0.808286 0.000000
0.213870 0.808682 0.000000
0.298589 0.808865 0.000000
0.376654 0.809293 0.000000
0.451423 0.809293 0.000000
0.524224 0.809476 0.000000
0.595941 0.809171 0.000000
0.667140 0.808988 0.000000
0.737575 0.808469 0.000000
0.807889 0.808103 0.000000
0.877012 0.806577 0.000000
0.942168 0.801480 0.000000
1.000000 0.793484 0.000000
0.000000 0.872679 0.000000
0.000000 0.870054 0.000000
0.000000 0.868864 0.000000
0.038605 0.868498 0.000000
0.184451 0.868772 0.000000
0.277836 0.868833 0.000000
0.359899 0.868925 0.000000
0.436835 0.868986 0.000000
0.511131 0.869200 0.000000
0.583642 0.868833 0.000000
0.655390 0.868589 0.000000
0.726131 0.867948 0.000000
0.796506 0.867399 0.000000
0.865782 0.865965 0.000000
0.934081 0.863737 0.000000
0.999054 0.858244 0.000000
0.000000 0.932830 0.000000
0.000000 0.930632 0.000000
0.000000 0.929412 0.000000
0.000000 0.928923 0.000000
0.129824 0.928923 0.000000
0.245274 0.928923 0.000000
0.335790 0.929137 0.000000
0.417121 0.929015 0.000000
0.494179 0.928954 0.000000
0.568475 0.928588 0.000000
0.641413 0.928283 0.000000
0.713344 0.927825 0.000000
0.784787 0.927611 0.000000
0.855436 0.926909 0.000000
0.925536 0.925719 0.000000
0.993988 0.923033 0.000000
0.000000 0.994202 0.000000
0.000000 0.992462 0.000000
0.000000 0.991455 0.000000
0.000000 0.991058 0.000000
0.000000 0.991089 0.000000
0.183566 0.991150 0.000000
0.295628 0.991333 0.000000
0.386938 0.991424 0.000000
0.469978 0.991638 0.000000
0.548669 0.991791 0.000000
0.624872 0.991943 0.000000
0.699336 0.991943 0.000000
0.773129 0.992157 0.000000
0.846128 0.992187 0.000000
0.919097 0.992340 0.000000
0.992218 0.992401 0.000000
0.000000 0.000061 0.204593
0.106447 0.000305 0.200320
0.190158 0.000000 0.191592
0.268406 0.000336 0.181460
0.339574 0.000000 0.171023
0.406531 0.000397 0.162661
0.474372 0.000153 0.157107
0.541741 0.000153 0.151400
0.608484 0.000366 0.144747
0.676570 0.000000 0.139742
0.740902 0.000366 0.134401
0.801266 0.000214 0.128634
0.860441 0.000397 0.121767
0.921294 0.000427 0.114260
0.981476 0.000122 0.104891
1.000000 0.000214 0.091249
0.000000 0.097139 0.195926
0.091890 0.091402 0.189456
0.182223 0.086732 0.182589
0.262028 0.082521 0.174624
0.333806 0.078981 0.167300
0.403937 0.075532 0.161288
0.473152 0.069642 0.156191
0.541466 0.063142 0.150179
0.609308 0.054475 0.144869
0.677668 0.046143 0.139620
0.741604 0.037690 0.134279
0.801602 0.029145 0.128664
0.860624 0.019318 0.121798
0.921294 0.004883 0.114809
0.981231 0.000427 0.104921
1.000000 0.000580 0.091371
0.000000 0.181125 0.180850
0.081270 0.177096 0.177096
0.172274 0.172274 0.172274
0.252628 0.168093 0.168032
0.327672 0.163943 0.163943
0.400214 0.159274 0.159121
0.470558 0.154269 0.153750
0.539330 0.148440 0.148196
0.608637 0.143191 0.143191
0.676631 0.137423 0.137728
0.739284 0.132357 0.132448
0.799069 0.126314 0.126253
0.858457 0.119844 0.119417
0.919158 0.112490 0.112062
0.979522 0.102602 0.102296
1.000000 0.089387 0.088624
0.000000 0.254276 0.167483
0.072419 0.251316 0.165225
0.162753 0.247990 0.162722
0.243870 0.244175 0.159640
0.320073 0.239261 0.156741
0.392370 0.234775 0.153933
0.463630 0.229831 0.148928
0.534447 0.225467 0.144350
0.603479 0.220859 0.139254
0.671473 0.215915 0.133364
0.734401 0.210605 0.128054
0.794736 0.204623 0.122560
0.855924 0.198886 0.116274
0.916381 0.192752 0.108400
0.975555 0.185306 0.096712
1.000000 0.175875 0.082521
0.000000 0.317815 0.153658
0.059754 0.316960 0.152804
0.151003 0.315160 0.151492
0.231785 0.312291 0.148836
0.308690 0.308568 0.145998
0.382574 0.304509 0.142123
0.453956 0.300359 0.140475
0.524620 0.296696 0.137057
0.594507 0.292607 0.132357
0.663386 0.288548 0.127443
0.727596 0.283421 0.122255
0.790585 0.278294 0.117494
0.853056 0.273014 0.111208
0.915068 0.267552 0.103029
0.975891 0.261387 0.091981
1.000000 0.253605 0.074830
0.000000 0.384802 0.142184
0.042420 0.384436 0.141634
0.140291 0.383001 0.140475
0.222477 0.380896 0.139071
0.299901 0.377966 0.136446
0.374548 0.374670 0.132998
0.447028 0.370825 0.129366
0.518547 0.367163 0.126497
0.588495 0.363684 0.124025
0.656855 0.359777 0.119875
0.721706 0.354528 0.115511
0.785428 0.349371 0.110353
0.848081 0.343938 0.102815
0.910124 0.338323 0.094270
0.971283 0.332280 0.080507
1.000000 0.325261 0.061707
0.000000 0.451514 0.130739
0.019898 0.451759 0.130220
0.128389 0.450843 0.129580
0.213626 0.449073 0.127810
0.291936 0.446723 0.125551
0.367437 0.443793 0.122560
0.440406 0.440467 0.119265
0.512078 0.436835 0.114870
0.582361 0.433082 0.109743
0.650050 0.428748 0.108614
0.714595 0.423194 0.105837
0.778714 0.417914 0.100587
0.841733 0.412390 0.091859
0.904295 0.406775 0.081209
0.966003 0.401007 0.065461
1.000000 0.394598 0.039429
0.000000 0.515709 0.116274
0.000000 0.516503 0.115877
0.114046 0.515984 0.115419
0.203250 0.514733 0.113375
0.282902 0.512627 0.111238
0.358404 0.509972 0.108370
0.431556 0.506828 0.104799
0.503288 0.503441 0.100282
0.573541 0.499702 0.095674
0.641535 0.495094 0.091279
0.707149 0.489937 0.088716
0.771756 0.484840 0.084871
0.835355 0.479530 0.076387
0.897978 0.473915 0.062074
0.959777 0.467720 0.040101
1.000000 0.461677 0.004730
0.000000 0.575311 0.098482
0.000000 0.575067 0.098329
0.096620 0.574640 0.097353
0.189944 0.573846 0.095949
0.270695 0.572778 0.094850
0.347173 0.571313 0.091859
0.421363 0.569726 0.089418
0.493874 0.567620 0.084718
0.564996 0.565209 0.080079
0.635218 0.562402 0.074250
0.702815 0.558251 0.069459
0.768826 0.553643 0.061799
0.833036 0.548425 0.052399
0.896727 0.543175 0.036408
0.959808 0.537591 0.009583
1.000000 0.531090 0.000000
0.000000 0.634882 0.080385
0.000000 0.634546 0.080446
0.077180 0.634089 0.079774
0.178317 0.633478 0.077729
0.260502 0.632868 0.076692
0.336828 0.631800 0.072480
0.410925 0.630396 0.068940
0.483131 0.628748 0.064027
0.554498 0.627008 0.056794
0.624628 0.624842 0.048524
0.693812 0.622126 0.037598
0.760128 0.617609 0.024903
0.825345 0.612879 0.005127
0.890135 0.608209 0.000000
0.954223 0.603113 0.000000
1.000000 0.597101 0.000000
0.000000 0.694636 0.052033
0.000000 0.694667 0.051850
0.048554 0.694240 0.050660
0.163455 0.693660 0.048585
0.248539 0.692744 0.045167
0.326177 0.691615 0.039063
0.400183 0.690425 0.033509
0.472755 0.688960 0.025147
0.543969 0.687495 0.015503
0.613977 0.685542 0.005921
0.683223 0.683314 0.000000
0.751644 0.680842 0.000000
0.817746 0.676692 0.000000
0.883116 0.672267 0.000000
0.947631 0.667262 0.000000
1.000000 0.661341 0.000000
0.000000 0.753689 0.000000
0.000000 0.753445 0.000000
0.000000 0.752956 0.000000
0.142061 0.752346 0.000000
0.233341 0.751675 0.000000
0.313451 0.750790 0.000000
0.389014 0.749874 0.000000
0.461646 0.748623 0.000000
0.533013 0.747158 0.000000
0.603265 0.745327 0.000000
0.672480 0.743435 0.000000
0.741207 0.741268 0.000000
0.809445 0.739162 0.000000
0.875395 0.735195 0.000000
0.940398 0.730343 0.000000
1.000000 0.725490 0.000000
0.000000 0.808164 0.000000
0.000000 0.808164 0.000000
0.000000 0.808438 0.000000
0.105287 0.808652 0.000000
0.211795 0.808988 0.000000
0.297246 0.809140 0.000000
0.375677 0.809537 0.000000
0.450599 0.809537 0.000000
0.523888 0.809659 0.000000
0.595758 0.809354 0.000000
0.667048 0.809171 0.000000
0.737667 0.808652 0.000000
0.808164 0.808286 0.000000
0.877226 0.806699 0.000000
0.942382 0.801450 0.000000
1.000000 0.793393 0.000000
0.000000 0.872953 0.000000
0.000000 0.870420 0.000000
0.000000 0.869291 0.000000
0.025360 0.868956 0.000000
0.180941 0.869169 0.000000
0.276127 0.869169 0.000000
0.358495 0.869261 0.000000
0.435920 0.869322 0.000000
0.510613 0.869474 0.000000
0.583276 0.869108 0.000000
0.655207 0.868833 0.000000
0.726040 0.868162 0.000000
0.796506 0.867582 0.000000
0.865934 0.866117 0.000000
0.934386 0.863859 0.000000
0.999451 0.858274 0.000000
0.000000 0.933074 0.000000
0.000000 0.930938 0.000000
0.000000 0.929778 0.000000
0.000000 0.929320 0.000000
0.122072 0.929290 0.000000
0.242008 0.929320 0.000000
0.333562 0.929534 0.000000
0.415625 0.929412 0.000000
0.493050 0.929229 0.000000
0.567681 0.928862 0.000000
0.640894 0.928557 0.000000
0.712978 0.928099 0.000000
0.784604 0.927855 0.000000
0.855467 0.927092 0.000000
0.925658 0.925933 0.000000
0.994354 0.923217 0.000000
0.000000 0.994537 0.000000
0.000000 0.992798 0.000000
0.000000 0.991821 0.000000
0.000000 0.991455 0.000000
0.000000 0.991516 0.000000
0.175723 0.991547 0.000000
0.291478 0.991699 0.000000
0.384131 0.991760 0.000000
0.467994 0.991913 0.000000
0.547173 0.992096 0.000000
0.623865 0.992218 0.000000
0.698573 0.992187 0.000000
0.772549 0.992401 0.000000
0.845823 0.992370 0.000000
0.919005 0.992493 0.000000
0.992340 0.992554 0.000000
0.000000 0.000153 0.286748
0.099672 0.000061 0.282109
0.183413 0.000000 0.273686
0.262028 0.000000 0.263432
0.334264 0.000336 0.252171
0.403296 0.000000 0.242863
0.471473 0.000031 0.236179
0.538689 0.000000 0.230076
0.605371 0.000397 0.223819
0.673335 0.000000 0.218723
0.737545 0.000336 0.213321
0.798367 0.000183 0.207645
0.858305 0.000092 0.201907
0.919707 0.000214 0.196109
0.980163 0.000519 0.188907
1.000000 0.000549 0.179660
0.000000 0.090333 0.277379
0.088045 0.087434 0.271092
0.176303 0.083803 0.264256
0.256657 0.079377 0.256596
0.330236 0.076204 0.248142
0.401099 0.073060 0.241367
0.470161 0.068482 0.234897
0.537774 0.062348 0.229068
0.606226 0.053376 0.223545
0.674495 0.041382 0.218692
0.738430 0.031769 0.212985
0.798795 0.025269 0.207858
0.858793 0.014649 0.201938
0.919768 0.002258 0.196048
0.979980 0.000183 0.188846
1.000000 0.000427 0.179629
0.000000 0.175692 0.263767
0.080140 0.172213 0.259007
0.168673 0.168368 0.254185
0.249943 0.165072 0.249607
0.324651 0.161837 0.243748
0.396765 0.157687 0.238743
0.466804 0.152987 0.233036
0.535912 0.147616 0.227848
0.605188 0.141665 0.222507
0.673396 0.135256 0.217166
0.736294 0.129793 0.211521
0.796292 0.124361 0.205692
0.856596 0.118318 0.200015
0.917723 0.110201 0.193851
0.978363 0.100130 0.187076
1.000000 0.085115 0.177737
0.000000 0.251072 0.250980
0.071077 0.248417 0.248508
0.161257 0.244938 0.245212
0.241215 0.241215 0.241215
0.315953 0.237522 0.237400
0.388983 0.233005 0.233341
0.460517 0.228580 0.228367
0.531334 0.224094 0.223728
0.600610 0.218662 0.218692
0.668666 0.213657 0.213413
0.731655 0.208591 0.208499
0.792508 0.203250 0.202792
0.854337 0.197818 0.197757
0.915007 0.191379 0.191287
0.974517 0.183597 0.183413
1.000000 0.173556 0.173526
0.000000 0.315648 0.235050
0.057832 0.314580 0.234165
0.148684 0.312596 0.232151
0.229465 0.310002 0.229740
0.306523 0.306584 0.226444
0.380133 0.302617 0.223453
0.451179 0.298619 0.221347
0.522301 0.295048 0.217197
0.592248 0.290776 0.212802
0.661189 0.286534 0.208377
0.725338 0.281682 0.203861
0.788876 0.277012 0.199557
0.851682 0.272129 0.194705
0.913909 0.266575 0.188785
0.975036 0.260136 0.180911
1.000000 0.251896 0.170260
0.000000 0.383124 0.223972
0.033295 0.382696 0.223575
0.135927 0.381415 0.221836
0.220127 0.379278 0.220066
0.297887 0.376501 0.217716
0.373175 0.373236 0.214878
0.446082 0.369421 0.211124
0.516899 0.365728 0.209659
0.586511 0.362097 0.207126
0.655268 0.358129 0.202823
0.720058 0.353124 0.199069
0.783993 0.348211 0.194736
0.846830 0.342901 0.189120
0.909087 0.337499 0.182986
0.970520 0.331151 0.174777
1.000000 0.324041 0.164218
0.000000 0.450019 0.213016
0.007752 0.450111 0.212741
0.123903 0.449378 0.211887
0.210269 0.447761 0.210788
0.289799 0.445441 0.208804
0.365515 0.442786 0.206119
0.439399 0.439490 0.203250
0.511162 0.435767 0.199405
0.581201 0.431647 0.196811
0.648676 0.427283 0.194949
0.713191 0.421973 0.192660
0.777462 0.416907 0.188205
0.840665 0.411505 0.182437
0.903349 0.406104 0.175326
0.965423 0.400000 0.166903
1.000000 0.393469 0.154818
0.000000 0.514641 0.201205
