luts/Fujifilm_Sensia_100.cube
# Generated for krafta web app
# https://www.facebook.com/krafta.visio
# Preset: FUJ - Sensia 100
# Color profile : sRGB Color Space Profile
LUT_3D_SIZE 6
DOMAIN_MIN 0.0 0.0 0.0
DOMAIN_MAX 1.0 1.0 1.0
0.000000 0.000000 0.000000
0.268009 0.000336 0.000275
0.467903 0.000366 0.000153
0.662989 0.000366 0.000214
0.844938 0.005066 0.004120
1.000000 0.011353 0.009735
0.000000 0.250309 0.000000
0.241184 0.241154 0.000000
0.452583 0.228763 0.000000
0.652613 0.220523 0.000000
0.834470 0.211704 0.005859
1.000000 0.205966 0.008331
0.002991 0.443183 0.003265
0.224613 0.442908 0.003784
0.436866 0.437018 0.004303
0.638758 0.427405 0.005676
0.826658 0.415381 0.012879
1.000000 0.405005 0.009522
0.010132 0.621607 0.011536
0.210300 0.620630 0.011475
0.414099 0.619409 0.011383
0.616388 0.616541 0.011688
0.810239 0.608301 0.010986
0.997864 0.598596 0.000000
0.000000 0.793698 0.000000
0.195315 0.794797 0.000000
0.397253 0.796567 0.000000
0.597803 0.797635 0.000000
0.798154 0.798306 0.000000
0.987976 0.789456 0.000000
0.000000 0.983520 0.000000
0.146487 0.980682 0.000000
0.374182 0.981415 0.000000
0.580896 0.983032 0.000000
0.784543 0.985412 0.000000
0.988403 0.988586 0.000000
0.000366 0.000153 0.279454
0.255528 0.000153 0.256565
0.458381 0.002594 0.233066
0.653193 0.011261 0.222812
0.836423 0.022583 0.215671
1.000000 0.024353 0.209567
0.000000 0.247593 0.247410
0.239292 0.239292 0.239292
0.449134 0.229801 0.229862
0.648951 0.221256 0.221103
0.831998 0.214603 0.214359
1.000000 0.206729 0.206424
0.012299 0.440284 0.224735
0.223484 0.438636 0.223636
0.431922 0.431922 0.219669
0.632227 0.422980 0.214572
0.820279 0.412573 0.210483
1.000000 0.403510 0.203799
0.016632 0.620722 0.211856
0.210971 0.619867 0.211368
0.413306 0.617762 0.210452
0.613947 0.614069 0.208713
0.807553 0.606287 0.205234
0.997620 0.598291 0.197635
0.000000 0.795132 0.194949
0.194797 0.795407 0.195163
0.397253 0.796872 0.196506
0.597864 0.797696 0.197269
0.798215 0.798337 0.197757
0.988617 0.789700 0.180362
0.000000 0.984375 0.144961
0.133120 0.981781 0.134432
0.370459 0.982422 0.132876
0.579431 0.983764 0.130770
0.783902 0.985718 0.125612
0.988617 0.988769 0.114107
0.000763 0.000000 0.478096
0.235142 0.000183 0.463966
0.444800 0.004395 0.444709
0.644770 0.009644 0.431647
0.830198 0.030762 0.418524
1.000000 0.044678 0.409857
0.017273 0.236545 0.460273
0.230869 0.230961 0.450843
0.440131 0.224704 0.440284
0.639734 0.217655 0.428229
0.825406 0.216648 0.416876
1.000000 0.209751 0.406256
0.011322 0.433204 0.433204
0.219944 0.432074 0.432074
0.426337 0.426337 0.426337
0.625299 0.419226 0.419165
0.814908 0.411963 0.411902
1.000000 0.403357 0.403204
0.030457 0.617639 0.414221
0.214145 0.616999 0.414099
0.412970 0.615015 0.413062
0.611475 0.611505 0.410315
0.805142 0.604730 0.404791
0.997131 0.597284 0.396551
0.000000 0.795438 0.394751
0.191196 0.795987 0.395300
0.396582 0.797269 0.396704
0.597528 0.797787 0.397223
0.798520 0.798611 0.398077
0.989532 0.789151 0.382238
0.000000 0.985901 0.362860
0.065705 0.983581 0.356664
0.355474 0.983948 0.355840
0.573663 0.985321 0.356146
0.782101 0.986877 0.354620
0.989563 0.989715 0.351781
0.004822 0.003357 0.655482
0.221286 0.006714 0.649958
0.428840 0.013825 0.640192
0.628840 0.017304 0.628779
0.821988 0.027375 0.617578
1.000000 0.031128 0.606378
0.033906 0.226352 0.651026
0.223331 0.223239 0.644465
0.426825 0.219730 0.636225
0.626032 0.215274 0.625971
0.818235 0.213352 0.614954
1.000000 0.205051 0.602747
0.038178 0.422400 0.628717
0.220279 0.421942 0.627680
0.419074 0.419074 0.622583
0.616510 0.414435 0.616510
0.808835 0.408850 0.608240
1.000000 0.401373 0.600855
0.034485 0.612390 0.612360
0.213413 0.612024 0.611963
0.411780 0.610834 0.610834
0.607080 0.607172 0.607111
0.802274 0.602625 0.602564
0.996948 0.595544 0.595422
0.000000 0.796048 0.595636
0.189090 0.796445 0.596033
0.395300 0.797269 0.596765
0.597101 0.797726 0.597131
0.797116 0.797208 0.596460
0.990723 0.788327 0.583551
0.000000 0.987579 0.572351
0.000000 0.985840 0.567285
0.339086 0.986267 0.567193
0.567529 0.987396 0.567742
0.780056 0.988373 0.566247
0.990997 0.991150 0.565423
0.016052 0.014710 0.825895
0.211215 0.016876 0.823941
0.411902 0.020661 0.819089
0.611627 0.023041 0.814145
0.808255 0.021149 0.808164
1.000000 0.009613 0.801755
0.041749 0.216373 0.824643
0.214878 0.214908 0.821653
0.412787 0.213596 0.818021
0.610956 0.211551 0.812772
0.806241 0.207126 0.806180
0.998444 0.197635 0.798520
0.060945 0.412390 0.813138
0.218082 0.411933 0.812314
0.409827 0.409735 0.809628
0.605310 0.406043 0.805478
0.801633 0.402014 0.801602
0.997040 0.395148 0.796872
0.029297 0.603601 0.803464
0.208469 0.603662 0.803403
0.403571 0.602594 0.802304
0.600855 0.600855 0.800687
0.798398 0.598108 0.798367
0.995392 0.592035 0.794186
0.000000 0.795651 0.795621
0.184909 0.795926 0.795895
0.393835 0.796689 0.796658
0.596185 0.797208 0.797177
0.794034 0.794125 0.794064
0.992615 0.787839 0.787747
0.000000 0.989166 0.783322
0.000000 0.987823 0.780850
0.336614 0.988647 0.780667
0.562219 0.989654 0.779385
0.777340 0.990661 0.777432
0.993164 0.993286 0.777798
0.006775 0.004883 1.000000
0.201633 0.004150 1.000000
0.400305 0.000732 1.000000
0.598901 0.000000 0.998718
0.797269 0.000000 0.997375
0.995605 0.000000 0.996033
0.010132 0.202457 1.000000
0.202182 0.201694 1.000000
0.399451 0.198978 0.999329
0.597406 0.194339 0.997162
0.794644 0.185000 0.994476
0.992096 0.169314 0.992035
0.000000 0.398566 0.999115
0.197086 0.398413 0.999084
0.396826 0.396704 0.998199
0.595453 0.393164 0.996674
0.793515 0.386389 0.994446
0.992950 0.379034 0.992920
0.000000 0.594659 0.997162
0.178195 0.594476 0.997131
0.388922 0.593591 0.997070
0.590875 0.590875 0.996033
0.791623 0.586572 0.994537
0.993500 0.582391 0.993439
0.000000 0.792111 0.995026
0.134401 0.791989 0.995056
0.374121 0.791897 0.995331
0.584558 0.791501 0.995727
0.789975 0.790005 0.995666
0.995026 0.787564 0.995026
0.000000 0.993744 0.993713
0.000000 0.993378 0.993347
0.326360 0.993561 0.993530
0.558801 0.993957 0.993927
0.776608 0.995026 0.994965
0.997650 0.997650 0.997650
