luts/FUJI_ETERNA_Bleach_Bypass.cube
TITLE "Generated for krafta web app"
LUT_3D_SIZE 25
#INPUTGAMMA sRGB
#IMAGEPROFILE sRGB
#OUTPUTGAMMA sRGB
0.000000 0.000000 0.000000
0.025100 0.006806 0.007103
0.049989 0.013088 0.013524
0.075036 0.020952 0.021681
0.095734 0.026914 0.028005
0.114428 0.031810 0.033323
0.133912 0.036730 0.038803
0.158817 0.043619 0.046514
0.189144 0.052598 0.056234
0.223961 0.061225 0.066020
0.258493 0.069821 0.075773
0.292125 0.079019 0.086158
0.328748 0.089589 0.098078
0.366219 0.100344 0.110144
0.403465 0.111604 0.122571
0.437544 0.121288 0.133379
0.472942 0.126808 0.140631
0.496858 0.132504 0.147198
0.515960 0.136693 0.152131
0.531010 0.140746 0.156635
0.543766 0.144162 0.160442
0.556022 0.147441 0.164090
0.567822 0.151185 0.168064
0.583880 0.153618 0.171123
0.600046 0.154756 0.173048
0.011089 0.025674 0.011301
0.038718 0.035842 0.021919
0.062176 0.041471 0.027894
0.088208 0.049374 0.036371
0.108631 0.054777 0.042405
0.126483 0.058821 0.047153
0.146113 0.063202 0.052451
0.171838 0.070235 0.060717
0.201587 0.078373 0.070096
0.235360 0.087347 0.080568
0.270666 0.096005 0.089719
0.304087 0.104542 0.099716
0.340179 0.114459 0.111190
0.378552 0.125429 0.123605
0.415502 0.136024 0.135538
0.448106 0.145851 0.146477
0.479049 0.152500 0.154311
0.507029 0.157071 0.159151
0.526321 0.161309 0.164169
0.541242 0.165106 0.168499
0.554020 0.168367 0.172247
0.566355 0.171602 0.175932
0.578535 0.175514 0.180118
0.595869 0.178329 0.183513
0.613684 0.179923 0.185800
0.022113 0.050969 0.022511
0.049094 0.061338 0.033067
0.074403 0.069393 0.041683
0.099704 0.077049 0.049987
0.120182 0.082415 0.055982
0.138905 0.086989 0.061313
0.160154 0.092277 0.067672
0.186415 0.099398 0.076254
0.216489 0.107396 0.085672
0.248042 0.115705 0.095203
0.281644 0.123549 0.104046
0.316811 0.132865 0.114143
0.353593 0.142943 0.126073
0.390887 0.152787 0.137789
0.426627 0.161638 0.148418
0.459616 0.170599 0.158717
0.488544 0.177455 0.166804
0.514842 0.181286 0.171318
0.536709 0.185473 0.175983
0.552162 0.189249 0.180393
0.565192 0.192573 0.184311
0.577958 0.195847 0.188133
0.590608 0.199520 0.192219
0.610099 0.202085 0.195859
0.631042 0.203627 0.198806
0.033580 0.076621 0.034291
0.059882 0.086507 0.044495
0.087347 0.096316 0.054942
0.113703 0.105003 0.064429
0.134457 0.110776 0.070934
0.153224 0.115318 0.076442
0.174560 0.120803 0.082977
0.200879 0.127805 0.091288
0.229854 0.135290 0.099993
0.261283 0.143592 0.109521
0.294615 0.152041 0.119309
0.329523 0.161069 0.128691
0.366294 0.170500 0.140032
0.403229 0.179915 0.151380
0.439377 0.189224 0.162266
0.472528 0.197690 0.171920
0.501061 0.204414 0.179793
0.526381 0.209649 0.185984
0.549889 0.213340 0.190111
0.566173 0.217271 0.194640
0.579447 0.220832 0.198891
0.592438 0.224218 0.202972
0.605476 0.227500 0.206681
0.626748 0.229945 0.210294
0.649850 0.231433 0.213254
0.043911 0.099945 0.044932
0.069549 0.109424 0.054944
0.097835 0.119892 0.066069
0.124630 0.128699 0.075988
0.146250 0.135212 0.083389
0.166082 0.140808 0.089906
0.187860 0.146664 0.096823
0.213312 0.153297 0.104473
0.241885 0.160790 0.112982
0.273807 0.169316 0.122827
0.307619 0.178458 0.133307
0.341734 0.186980 0.142729
0.378194 0.196257 0.153285
0.415256 0.205646 0.164457
0.451559 0.215150 0.175231
0.485008 0.223590 0.184683
0.513892 0.230348 0.192584
0.538813 0.236236 0.199484
0.563066 0.240438 0.204599
0.579788 0.244523 0.209386
0.593368 0.248052 0.213409
0.607044 0.251212 0.217277
0.622702 0.253834 0.221593
0.643655 0.257462 0.226135
0.664454 0.261172 0.230038
0.053484 0.122093 0.054815
0.078402 0.130997 0.064620
0.106798 0.141396 0.076095
0.133824 0.150263 0.086201
0.156223 0.157361 0.094325
0.177142 0.163990 0.101752
0.199528 0.170666 0.109250
0.224992 0.177566 0.116963
0.253549 0.184971 0.125464
0.285871 0.193759 0.135528
0.319522 0.202661 0.145816
0.353403 0.211336 0.155795
0.389757 0.220640 0.165969
0.427101 0.230128 0.176994
0.463326 0.239491 0.187445
0.496797 0.247902 0.196848
0.526150 0.255092 0.205015
0.551287 0.260522 0.211753
0.575492 0.265658 0.218073
0.592493 0.269861 0.223087
0.606269 0.273287 0.226894
0.620733 0.276332 0.230677
0.639553 0.278813 0.235833
0.660039 0.283819 0.241421
0.677919 0.289670 0.246278
0.063286 0.145073 0.064998
0.087641 0.153505 0.074615
0.116533 0.164142 0.086833
0.144114 0.173391 0.097594
0.167158 0.181053 0.106202
0.187856 0.187753 0.113559
0.210206 0.194775 0.121169
0.237028 0.202865 0.130012
0.266421 0.210587 0.138888
0.298009 0.218760 0.148448
0.331135 0.227311 0.158320
0.365417 0.236249 0.168423
0.402104 0.245868 0.178968
0.439445 0.255370 0.189716
0.476017 0.265030 0.200338
0.508935 0.273196 0.209599
0.538376 0.280412 0.217713
0.564738 0.285679 0.224642
0.588397 0.291401 0.231191
0.606045 0.295859 0.236378
0.619983 0.299425 0.240552
0.634787 0.302809 0.244831
0.655660 0.306019 0.250288
0.677199 0.311728 0.256250
0.695010 0.317792 0.261295
0.075009 0.171382 0.077288
0.098551 0.179806 0.086208
0.127343 0.190652 0.098194
0.155522 0.200477 0.110631
0.178064 0.207778 0.118921
0.198665 0.214371 0.126120
0.221739 0.221790 0.134263
0.249705 0.230575 0.143887
0.280191 0.239156 0.153600
0.311970 0.247429 0.163136
0.345369 0.256063 0.173079
0.380123 0.265351 0.183425
0.416282 0.274603 0.193632
0.453929 0.284471 0.204386
0.490253 0.293885 0.214777
0.523319 0.302114 0.224067
0.552133 0.309025 0.232074
0.579179 0.314749 0.239340
0.603882 0.320787 0.246251
0.621317 0.325165 0.251340
0.635911 0.329222 0.255929
0.651969 0.333166 0.260821
0.674680 0.336996 0.266990
0.697567 0.343050 0.273134
0.716376 0.349546 0.278164
0.089353 0.202503 0.092263
0.111604 0.210538 0.100147
0.140423 0.221853 0.111868
0.167790 0.231621 0.123069
0.190838 0.240172 0.131856
0.211597 0.247048 0.139644
0.234482 0.253981 0.148398
0.262636 0.262413 0.158966
0.294630 0.272289 0.169918
0.327540 0.281551 0.180244
0.361084 0.289909 0.189936
0.396235 0.299158 0.200354
0.432718 0.308665 0.210617
0.470488 0.318705 0.221389
0.506381 0.327832 0.231560
0.539142 0.335804 0.240663
0.568420 0.342548 0.248716
0.595764 0.348882 0.256386
0.621541 0.355220 0.263641
0.640700 0.360828 0.269697
0.658917 0.364488 0.274900
0.678244 0.367858 0.280220
0.698935 0.373266 0.286669
0.721010 0.380183 0.293046
0.740448 0.387070 0.298510
0.105294 0.237836 0.108880
0.127484 0.245920 0.116750
0.155089 0.256269 0.127582
0.182642 0.266202 0.138692
0.206203 0.274854 0.148005
0.227510 0.282330 0.156097
0.250690 0.289995 0.164631
0.278498 0.298498 0.174881
0.310068 0.307766 0.186710
0.344967 0.318597 0.198490
0.380120 0.328527 0.209499
0.414626 0.337556 0.219421
0.451935 0.347598 0.230184
0.489063 0.357071 0.240680
0.524899 0.366266 0.250663
0.557260 0.374016 0.259563
0.586465 0.380741 0.267627
0.616050 0.387065 0.275882
0.642588 0.394772 0.284300
0.662431 0.400928 0.290808
0.683260 0.404292 0.296467
0.705340 0.407427 0.302276
0.725610 0.414261 0.309025
0.745696 0.421688 0.316112
0.762504 0.428119 0.322228
0.122002 0.275776 0.126148
0.143484 0.282975 0.133675
0.170351 0.293153 0.143826
0.197905 0.302925 0.155159
0.221534 0.311726 0.164802
0.242626 0.319106 0.172934
0.265773 0.326816 0.181521
0.294783 0.336170 0.192337
0.326664 0.345728 0.203912
0.361468 0.356431 0.216093
0.397317 0.367673 0.228129
0.433860 0.378747 0.239744
0.471706 0.388752 0.250690
0.509022 0.398294 0.261247
0.544025 0.406773 0.270967
0.576131 0.414283 0.279617
0.606714 0.422223 0.288639
0.639764 0.429261 0.298322
0.664430 0.436297 0.306322
0.683682 0.442019 0.312784
0.707534 0.445563 0.319316
0.732437 0.448528 0.325742
0.748947 0.454175 0.331268
0.765151 0.459350 0.336764
0.778892 0.463277 0.341399
0.138753 0.314634 0.143316
0.159133 0.321195 0.150073
0.185749 0.330910 0.160047
0.212550 0.341393 0.170411
0.235682 0.349803 0.179932
0.257099 0.357112 0.188977
0.281070 0.365084 0.198908
0.310496 0.374807 0.210097
0.342296 0.384643 0.221551
0.376345 0.395059 0.233104
0.412584 0.406181 0.245248
0.450856 0.418633 0.258452
0.490700 0.430935 0.271415
0.527827 0.439833 0.281799
0.562585 0.447700 0.291443
0.595708 0.455621 0.300850
0.627741 0.464248 0.310733
0.660446 0.471106 0.320264
0.685003 0.477286 0.328168
0.704603 0.482927 0.334761
0.727636 0.485744 0.340744
0.751117 0.487444 0.346335
0.766084 0.490566 0.350958
0.781696 0.494619 0.356003
0.795541 0.498537 0.360531
0.156427 0.356189 0.161083
0.176200 0.362467 0.167284
0.201621 0.371472 0.176688
0.228717 0.382047 0.187352
0.251756 0.391083 0.196274
0.273042 0.399155 0.204568
0.296932 0.407531 0.214524
0.326560 0.416482 0.227751
0.357935 0.426135 0.238267
0.393145 0.436684 0.251142
0.430498 0.448153 0.264140
0.469565 0.460776 0.277516
0.509527 0.473033 0.291405
0.548505 0.484038 0.303928
0.584190 0.492724 0.314452
0.618377 0.501248 0.324905
0.650760 0.509496 0.335041
0.680924 0.516132 0.343800
0.705380 0.521811 0.351208
0.726191 0.526967 0.357410
0.748015 0.529855 0.362929
0.769458 0.531876 0.368111
0.784504 0.535054 0.372621
0.800035 0.538352 0.377161
0.813598 0.541122 0.380991
0.174722 0.399041 0.179369
0.193666 0.404756 0.184957
0.218016 0.413446 0.193746
0.244884 0.423807 0.204348
0.267774 0.432571 0.213323
0.288939 0.440393 0.221663
0.312435 0.448692 0.230898
0.341059 0.458314 0.241817
0.373074 0.468858 0.253919
0.409815 0.480525 0.267836
0.447665 0.491318 0.282821
0.486231 0.502919 0.296153
0.526763 0.514899 0.309786
0.566352 0.526071 0.323628
0.605185 0.537982 0.337123
0.640250 0.547425 0.348088
0.672047 0.555261 0.357688
0.700843 0.561779 0.365891
0.725046 0.567485 0.372854
0.746911 0.572937 0.379406
0.767376 0.576432 0.384736
0.786484 0.579118 0.389417
0.801430 0.582357 0.393647
0.816977 0.586202 0.398621
0.830537 0.589736 0.403262
0.190790 0.440739 0.195689
0.210316 0.446168 0.201752
0.234725 0.454537 0.211072
0.260489 0.464170 0.221125
0.282001 0.472205 0.229375
0.301636 0.479611 0.236883
0.323466 0.487470 0.245564
0.350272 0.495603 0.256883
0.381298 0.505759 0.268678
0.417995 0.517877 0.282724
0.456109 0.529051 0.297687
0.495229 0.540498 0.311462
0.537245 0.552989 0.325829
0.580860 0.565776 0.340776
0.621902 0.578482 0.355217
0.658724 0.590422 0.368295
0.690917 0.599226 0.378270
0.718965 0.605979 0.386320
0.743333 0.611814 0.393328
0.765573 0.617411 0.399907
0.785290 0.621440 0.405113
0.803130 0.624684 0.409569
0.817726 0.627920 0.413559
0.832936 0.632784 0.419515
0.846175 0.637903 0.425786
0.205596 0.478036 0.210743
0.224587 0.483132 0.216328
0.247705 0.491021 0.225405
0.271024 0.499432 0.234688
0.290182 0.506428 0.242053
0.308225 0.512886 0.248756
0.329020 0.520064 0.256359
0.355162 0.528617 0.266344
0.386345 0.538217 0.280067
0.421297 0.549164 0.294623
0.457503 0.560110 0.308349
0.495518 0.570881 0.322022
0.537843 0.583189 0.336641
0.582170 0.596026 0.351259
0.626771 0.610226 0.366796
0.667608 0.624846 0.382231
0.705511 0.638618 0.396204
0.736870 0.648956 0.406968
0.760485 0.654839 0.413890
0.781685 0.660790 0.420643
0.800793 0.665195 0.425940
0.818380 0.668693 0.430395
0.832874 0.671777 0.434263
0.848114 0.677002 0.440694
0.861483 0.682790 0.447771
0.216991 0.510234 0.223575
0.235963 0.515335 0.228988
0.257493 0.522250 0.236819
0.279507 0.529586 0.245159
0.299153 0.536442 0.252445
0.314801 0.542203 0.258750
0.330049 0.548008 0.265401
0.350257 0.555086 0.273472
0.371085 0.560169 0.280597
0.398638 0.565671 0.293381
0.436742 0.577548 0.310380
0.477516 0.591380 0.325626
0.523356 0.606667 0.342302
0.583387 0.628674 0.364497
0.641671 0.650763 0.386489
0.692831 0.670460 0.406005
0.726971 0.682047 0.419036
0.754481 0.691471 0.429083
0.777573 0.698924 0.437322
0.797932 0.704762 0.444111
0.816391 0.709686 0.449697
0.833747 0.714303 0.454864
0.849023 0.719029 0.460167
0.864064 0.723017 0.465629
0.876554 0.725884 0.470295
0.222948 0.536064 0.232042
0.239551 0.540318 0.236898
0.255562 0.545918 0.243473
0.272473 0.552510 0.251176
0.286722 0.557824 0.257740
0.298091 0.561161 0.262121
0.308239 0.562770 0.264715
0.319447 0.563380 0.266621
0.338946 0.568158 0.272834
0.367719 0.576941 0.285893
0.409178 0.592295 0.304231
0.446539 0.603148 0.320614
0.504833 0.626509 0.346376
0.557006 0.647274 0.367992
0.616266 0.671873 0.392150
0.665374 0.690088 0.410077
0.709367 0.707074 0.427843
0.748861 0.722912 0.443457
0.781098 0.736081 0.456501
0.817055 0.751589 0.470615
0.836830 0.756624 0.476773
0.848063 0.756445 0.478864
0.863369 0.760682 0.483474
0.878411 0.763743 0.487948
0.890623 0.765343 0.491491
0.230377 0.560525 0.239977
0.245030 0.565506 0.245854
0.259383 0.570730 0.252796
0.271976 0.576238 0.258610
0.279720 0.577210 0.260654
0.284913 0.576141 0.261011
0.291807 0.575659 0.262118
0.307269 0.579937 0.267932
0.324821 0.584499 0.274427
0.352470 0.594040 0.286150
0.395400 0.611242 0.304407
0.438397 0.628203 0.323467
0.501186 0.654551 0.352371
0.558917 0.677916 0.380682
0.608833 0.698775 0.401894
0.676284 0.725424 0.429096
0.746675 0.755421 0.456866
0.781295 0.767765 0.469819
0.806915 0.775981 0.478704
0.831003 0.784267 0.487661
0.847633 0.788654 0.492835
0.860722 0.790974 0.496079
0.875230 0.794164 0.500230
0.890274 0.796521 0.504277
0.903129 0.797918 0.507558
0.237363 0.582093 0.248248
0.250636 0.586619 0.253935
0.259692 0.588452 0.257610
0.262848 0.587279 0.257301
0.269881 0.588387 0.259436
0.276472 0.589208 0.261528
0.283276 0.589758 0.263670
0.294558 0.592322 0.267962
0.313085 0.598177 0.275493
0.341931 0.609917 0.288714
0.401025 0.636879 0.314702
0.453865 0.660488 0.338528
0.499253 0.678066 0.357874
0.549004 0.698591 0.381341
0.650116 0.745113 0.423393
0.726271 0.776637 0.456436
0.781219 0.797640 0.480708
0.814550 0.807957 0.491761
0.837609 0.813297 0.500556
0.853539 0.816168 0.505259
0.867202 0.818661 0.508740
0.880069 0.821094 0.512030
0.891386 0.823152 0.515509
0.903641 0.824813 0.518926
0.914555 0.825972 0.521847
0.240803 0.598764 0.254061
0.248544 0.599679 0.256394
0.253985 0.599599 0.258079
0.255410 0.597052 0.256997
0.261501 0.597901 0.258913
0.269045 0.599873 0.261954
0.277601 0.602089 0.265508
0.288335 0.604594 0.269660
0.309271 0.612648 0.279081
0.340032 0.626437 0.294221
0.407395 0.658521 0.324585
0.464776 0.685012 0.350999
0.509710 0.702695 0.369196
0.593610 0.740917 0.404885
0.692446 0.785725 0.445944
0.765446 0.816125 0.477194
0.811210 0.831433 0.496657
0.846422 0.841429 0.507052
0.866289 0.844390 0.515342
0.878858 0.845174 0.518326
0.889923 0.846215 0.521165
0.900642 0.847698 0.524361
0.909852 0.849226 0.527050
0.920022 0.850718 0.529733
0.929216 0.851960 0.532111
0.240211 0.611901 0.256830
0.241213 0.608738 0.255318
0.246023 0.608994 0.257362
0.252250 0.609999 0.260049
0.256122 0.609238 0.260387
0.262335 0.610160 0.262276
0.273011 0.613603 0.266855
0.288851 0.619372 0.273991
0.312315 0.629669 0.285677
0.344762 0.644776 0.302182
0.409545 0.675791 0.331876
0.474188 0.706143 0.361487
0.541537 0.735664 0.389864
0.678593 0.799908 0.447142
0.726528 0.818213 0.467214
0.789749 0.843411 0.491828
0.841123 0.860910 0.509161
0.876704 0.870293 0.518839
0.891680 0.870811 0.524813
0.902584 0.870961 0.527404
0.911577 0.871429 0.530488
0.920100 0.872329 0.533865
0.928758 0.873795 0.535945
0.938197 0.875439 0.538063
0.946544 0.876849 0.539902
0.233930 0.621451 0.255100
0.238986 0.622187 0.257499
0.244728 0.623138 0.260660
0.249560 0.622856 0.262420
0.253670 0.622319 0.262968
0.260065 0.623403 0.264962
0.271189 0.627221 0.269860
0.289626 0.635114 0.279110
0.315081 0.646760 0.292532
0.348996 0.662853 0.310345
0.405119 0.690087 0.337164
0.511411 0.740753 0.382740
0.618079 0.789615 0.427318
0.711840 0.830778 0.466267
0.769388 0.852349 0.488588
0.822232 0.870552 0.507228
0.866399 0.884367 0.521435
0.892874 0.889875 0.528613
0.907659 0.891343 0.533463
0.918716 0.891953 0.536599
0.928067 0.892721 0.539530
0.936749 0.893690 0.542377
0.944644 0.894632 0.544594
0.953170 0.895772 0.546863
0.960785 0.896931 0.549118
0.229585 0.633374 0.255692
0.235291 0.635280 0.258884
0.240340 0.635923 0.261549
0.244657 0.635216 0.263055
0.250902 0.636252 0.265148
0.259231 0.638732 0.268523
0.271773 0.643544 0.274393
0.292030 0.652750 0.284797
0.319199 0.665228 0.299345
0.355645 0.682114 0.317644
0.449366 0.727510 0.359228
0.566115 0.782946 0.409249
0.661540 0.826244 0.450185
0.739022 0.857845 0.481642
0.811864 0.885892 0.508869
0.856034 0.898937 0.523472
0.887970 0.906850 0.533806
0.907092 0.909433 0.539186
0.922070 0.911474 0.543583
0.934096 0.912686 0.547220
0.943738 0.913728 0.549995
0.952135 0.914671 0.552312
0.959634 0.915416 0.554455
0.967365 0.916373 0.556822
0.974012 0.917321 0.558955
0.227964 0.645503 0.258421
0.230799 0.645787 0.259280
0.233970 0.645383 0.260298
0.239121 0.645365 0.262617
0.248084 0.648407 0.266589
0.259175 0.652879 0.271949
0.273724 0.659077 0.279168
0.295327 0.668953 0.290138
0.323542 0.681682 0.304981
0.362893 0.699158 0.323129
0.520849 0.775299 0.389540
0.622902 0.823083 0.434696
0.670999 0.843112 0.457708
0.761469 0.880067 0.493637
0.846596 0.913617 0.525244
0.884913 0.923841 0.537877
0.904037 0.925711 0.544415
0.918806 0.926667 0.548980
0.933877 0.928680 0.553408
0.947139 0.930391 0.557214
0.956741 0.931526 0.559852
0.964440 0.932365 0.561800
0.971873 0.933204 0.563674
0.978948 0.934273 0.566274
0.984656 0.935214 0.568246
0.011978 0.010621 0.024235
0.035865 0.016460 0.029697
0.058271 0.021579 0.034457
0.084961 0.030316 0.043516
0.104888 0.035684 0.048976
0.122613 0.040030 0.053444
0.142424 0.045060 0.058747
0.167950 0.052055 0.066468
0.198714 0.059552 0.074957
0.232388 0.068798 0.084996
0.266108 0.077754 0.094697
0.299619 0.087018 0.104840
0.336550 0.098149 0.116906
0.374786 0.109509 0.129134
0.411376 0.120650 0.141170
0.445677 0.129434 0.151294
0.478656 0.133809 0.157696
0.501929 0.139157 0.163834
0.521004 0.143101 0.168562
0.536485 0.147511 0.173199
0.549452 0.151240 0.177068
0.561543 0.154653 0.180617
0.572944 0.158236 0.184330
0.591168 0.162110 0.188137
0.610843 0.165522 0.191363
0.023407 0.037423 0.037693
0.040346 0.038821 0.039453
0.058865 0.041260 0.040985
0.084409 0.049937 0.049332
0.104246 0.055645 0.055169
0.121697 0.059936 0.059887
0.141573 0.064977 0.065530
0.169698 0.073548 0.074553
0.202749 0.082079 0.083682
0.234247 0.089739 0.092283
0.267746 0.099091 0.102670
0.301146 0.107891 0.112559
0.338274 0.118648 0.124455
0.377972 0.130377 0.137300
0.415157 0.140234 0.148360
0.447357 0.148973 0.158118
0.476440 0.155208 0.165556
0.499369 0.160878 0.172083
0.519208 0.164298 0.176319
0.535658 0.168601 0.180987
0.550492 0.173075 0.185695
0.565567 0.177702 0.190544
0.581664 0.182415 0.195556
0.602907 0.186932 0.200153
0.623852 0.190550 0.203691
0.034284 0.062767 0.048600
0.049972 0.062766 0.049333
0.067211 0.064817 0.051702
0.091622 0.072479 0.059287
0.112760 0.078808 0.065705
0.131611 0.084060 0.071271
0.152195 0.089787 0.077471
0.178868 0.097962 0.086088
0.210234 0.106921 0.095413
0.242417 0.114514 0.103384
0.276119 0.123702 0.113876
0.312433 0.134047 0.125309
0.349923 0.144446 0.137302
0.387079 0.154348 0.148659
0.422317 0.162175 0.157995
0.455204 0.170787 0.167826
0.482721 0.176798 0.175101
0.507081 0.182078 0.181433
0.530153 0.187356 0.187559
0.547680 0.192082 0.192791
0.562658 0.196691 0.197678
0.577988 0.201637 0.202825
0.595605 0.207241 0.208757
0.617758 0.212736 0.214152
0.638693 0.216622 0.217693
0.045380 0.087801 0.059661
0.060963 0.087597 0.060369
0.082422 0.092690 0.066008
0.105963 0.099298 0.073100
0.125790 0.104973 0.079094
0.144139 0.110003 0.084453
0.163972 0.115239 0.090095
0.188579 0.121864 0.097302
0.218331 0.130584 0.106736
0.251537 0.139649 0.115689
0.285688 0.148922 0.125737
0.320482 0.158135 0.136219
0.357229 0.167676 0.147438
0.394507 0.177465 0.158635
0.431015 0.186734 0.169142
0.464638 0.195288 0.178822
0.493823 0.202324 0.186974
0.520908 0.209359 0.194962
0.545497 0.215351 0.201904
0.563007 0.220376 0.207451
0.579740 0.224786 0.212656
0.597286 0.229623 0.218191
0.614558 0.236177 0.224465
0.635183 0.242501 0.230262
0.654531 0.247511 0.234724
0.055489 0.110986 0.069946
0.070782 0.110718 0.070547
0.095643 0.117773 0.078849
0.119011 0.123966 0.085842
0.137670 0.128580 0.091055
0.155664 0.133533 0.096337
0.175971 0.139144 0.102381
0.201063 0.146210 0.109906
0.230905 0.155022 0.119532
0.263637 0.164545 0.129652
0.297224 0.174070 0.138641
0.330722 0.182388 0.148214
0.367220 0.191689 0.158989
0.404928 0.201659 0.170207
0.442444 0.212061 0.181691
0.477392 0.221430 0.191946
0.508414 0.229701 0.201109
0.535957 0.237170 0.209458
0.561396 0.243107 0.216525
0.579176 0.248168 0.222161
0.597166 0.252417 0.227524
0.616209 0.257101 0.233240
0.633202 0.263789 0.239463
0.653130 0.270438 0.245351
0.671608 0.275676 0.249912
0.064759 0.132769 0.079417
0.079845 0.132880 0.080015
0.105929 0.140417 0.089499
0.129476 0.146409 0.096987
0.148058 0.150788 0.102117
0.166360 0.155720 0.107522
0.188239 0.162511 0.114608
0.214603 0.170446 0.123011
0.244878 0.179410 0.132783
0.276499 0.188162 0.142980
0.309085 0.197542 0.151803
0.342700 0.206724 0.160792
0.379397 0.216192 0.171627
0.417479 0.226344 0.182903
0.455228 0.236966 0.194538
0.490980 0.247048 0.205408
0.522866 0.255992 0.215094
0.550423 0.263088 0.223164
0.576089 0.269197 0.230356
0.594227 0.274248 0.236004
0.613200 0.278557 0.241531
0.633123 0.283231 0.247369
0.650163 0.289670 0.253462
0.670292 0.296469 0.259382
0.689206 0.302269 0.264182
0.074448 0.155607 0.089302
0.089233 0.155672 0.089804
0.115287 0.163818 0.099273
0.139303 0.169960 0.107998
0.158770 0.174979 0.113977
0.178056 0.180533 0.120021
0.200367 0.187147 0.127291
0.227558 0.195408 0.136152
0.257401 0.203570 0.145606
0.288207 0.211601 0.154883
0.321279 0.220674 0.165432
0.354892 0.231642 0.173701
0.392117 0.241699 0.184701
0.430553 0.252177 0.196209
0.468753 0.262992 0.207854
0.504015 0.272930 0.218692
0.535831 0.281807 0.228342
0.564916 0.289206 0.236849
0.590119 0.296038 0.244385
0.609087 0.301209 0.250221
0.629075 0.305651 0.255968
0.650110 0.310744 0.262173
0.667125 0.317075 0.268199
0.687558 0.324113 0.274204
0.706909 0.330245 0.279127
0.085837 0.181524 0.101134
0.100806 0.181456 0.101882
0.125346 0.189027 0.110006
0.149916 0.196475 0.118836
0.171313 0.203630 0.126110
0.191224 0.209357 0.133293
0.213406 0.215125 0.141527
0.240070 0.222864 0.150179
0.270000 0.231380 0.159801
0.301609 0.239692 0.169428
0.335433 0.248823 0.179925
0.371057 0.259150 0.190825
0.406785 0.270888 0.199587
0.445560 0.281529 0.211195
0.484871 0.293133 0.223511
0.520161 0.302949 0.234196
0.551191 0.311506 0.243780
0.580516 0.319152 0.252383
0.606905 0.326293 0.260277
0.629135 0.330891 0.266515
0.649498 0.335864 0.272571
0.669081 0.341742 0.278851
0.686609 0.348424 0.285215
0.707630 0.355452 0.291152
0.727500 0.361473 0.295805
0.099762 0.212309 0.115283
0.114680 0.212113 0.116350
0.139501 0.219870 0.124672
0.164741 0.228008 0.133747
0.187776 0.236238 0.142158
0.208131 0.243114 0.149257
0.229173 0.249201 0.156647
0.254726 0.255573 0.166651
0.285233 0.264486 0.176686
0.317591 0.273414 0.186858
0.352129 0.283016 0.197617
0.387929 0.293003 0.208856
0.424961 0.304659 0.218647
0.464152 0.317072 0.229530
0.503105 0.328453 0.241628
0.538133 0.338043 0.252185
0.569724 0.346548 0.261810
0.598885 0.354530 0.270903
0.625721 0.361509 0.278648
0.651190 0.365768 0.285265
0.672363 0.371027 0.291557
0.691456 0.377537 0.298041
0.709207 0.384442 0.304674
0.729806 0.391682 0.310972
0.748783 0.397709 0.315652
0.115339 0.247339 0.131317
0.129341 0.247783 0.131695
0.155440 0.255175 0.140878
0.181269 0.263285 0.150378
0.203246 0.270854 0.158437
0.222921 0.277348 0.165325
0.244326 0.284132 0.172541
0.271233 0.292928 0.182156
0.301642 0.301387 0.194573
0.335084 0.311038 0.205990
0.369707 0.320964 0.216795
0.404941 0.330522 0.227513
0.445350 0.342516 0.240816
0.484529 0.356116 0.250531
0.523196 0.368071 0.261716
0.557983 0.377387 0.272258
0.589690 0.386004 0.282024
0.620746 0.393432 0.291203
0.647134 0.401414 0.299838
0.678725 0.406792 0.308532
0.700134 0.411963 0.314813
0.715977 0.417714 0.320120
0.733949 0.424455 0.326498
0.750974 0.430183 0.332589
0.764495 0.434334 0.337708
0.131969 0.284583 0.148081
0.145121 0.285455 0.148036
0.169846 0.293305 0.156134
0.195945 0.301099 0.166391
0.218422 0.308398 0.175217
0.238579 0.314908 0.182536
0.260801 0.322090 0.190236
0.288933 0.331467 0.200465
0.320088 0.341585 0.211467
