luts/FUJI_CLASSIC_NEG.cube
TITLE "Generated for krafta web app"
LUT_3D_SIZE 5
#INPUTGAMMA sRGB
#IMAGEPROFILE sRGB
#OUTPUTGAMMA sRGB
0.000000 0.000000 0.000000
0.232144 0.049084 0.006001
0.625434 0.139321 0.009749
0.808525 0.180956 0.007934
0.899374 0.203986 0.012376
0.000000 0.149583 0.051009
0.232619 0.206718 0.079280
0.593189 0.273690 0.068214
0.813992 0.315219 0.067155
0.955787 0.322445 0.066957
0.000000 0.383204 0.122801
0.190350 0.446635 0.163872
0.623517 0.510821 0.191566
0.845377 0.539595 0.185211
0.977071 0.536708 0.177368
0.000000 0.563956 0.190438
0.182417 0.628730 0.233163
0.644403 0.719482 0.288903
0.823199 0.749431 0.294813
0.937901 0.760878 0.297119
0.000000 0.697959 0.254179
0.285148 0.796047 0.328112
0.742909 0.896342 0.387893
0.887636 0.898496 0.365912
0.960826 0.902325 0.352145
0.085808 0.065464 0.179297
0.309946 0.113936 0.156420
0.690992 0.201688 0.123890
0.852197 0.224868 0.099516
0.915139 0.231072 0.087924
0.054309 0.225045 0.263750
0.202546 0.237947 0.236761
0.488218 0.278259 0.230544
0.860029 0.350656 0.264730
0.988662 0.380221 0.268644
0.004877 0.444329 0.339609
0.158499 0.449020 0.309924
0.601633 0.508665 0.320750
0.854384 0.563222 0.337112
0.981005 0.588145 0.329908
0.003394 0.614229 0.383485
0.248391 0.674810 0.406836
0.666600 0.760182 0.440068
0.852784 0.775325 0.442268
0.948529 0.776725 0.423068
0.093531 0.773991 0.456245
0.378664 0.859086 0.513905
0.735752 0.907047 0.517955
0.874584 0.914975 0.493369
0.960382 0.921345 0.481163
0.198871 0.149526 0.399026
0.429012 0.213441 0.380113
0.727264 0.258177 0.325011
0.856405 0.267417 0.308900
0.941013 0.277976 0.306598
0.191672 0.326856 0.497327
0.349532 0.344499 0.483977
0.730382 0.407430 0.471910
0.878085 0.408081 0.444216
0.983828 0.425935 0.443235
0.134357 0.547296 0.626923
0.282085 0.544661 0.597548
0.580589 0.568330 0.551184
0.866359 0.616742 0.539759
0.978473 0.645145 0.558419
0.152351 0.724645 0.676692
0.375596 0.760411 0.671975
0.702923 0.788721 0.648995
0.856328 0.798150 0.633367
0.969028 0.796761 0.613771
0.246999 0.876714 0.739491
0.441463 0.915621 0.755695
0.722075 0.934245 0.717624
0.876995 0.945442 0.694862
0.971624 0.950451 0.679409
0.335097 0.254456 0.622605
0.501557 0.274681 0.579998
0.793853 0.313215 0.567405
0.954684 0.347906 0.571189
1.000000 0.351930 0.559558
0.374624 0.479005 0.801275
0.541709 0.496758 0.772787
0.818590 0.497891 0.704052
0.949970 0.491793 0.663171
1.000084 0.490528 0.642946
0.287471 0.685582 0.920409
0.456493 0.686413 0.865631
0.757226 0.690338 0.792759
0.907005 0.694312 0.762822
0.995464 0.700627 0.750856
0.261059 0.816189 0.952633
0.394187 0.805447 0.917482
0.709239 0.814777 0.849376
0.872557 0.829949 0.822037
0.990135 0.851842 0.830612
0.286430 0.932201 0.974377
0.427677 0.943258 0.958883
0.725532 0.964382 0.918169
0.887020 0.974385 0.893548
0.988540 0.980996 0.878529
0.380398 0.286892 0.723528
0.536657 0.311079 0.705280
0.878906 0.388660 0.723481
1.000059 0.423923 0.718904
1.000000 0.421016 0.697060
0.473696 0.559927 0.946727
0.620455 0.564502 0.914696
0.887604 0.558527 0.833763
0.999251 0.555355 0.796901
1.000000 0.556043 0.779051
0.373910 0.769155 1.000000
0.540888 0.759720 0.994205
0.835838 0.764277 0.946018
0.967789 0.766167 0.912695
1.000000 0.767278 0.894651
0.298687 0.868334 1.000000
0.452175 0.875768 1.000000
0.761727 0.896324 0.999424
0.924742 0.900935 0.977625
0.999946 0.902321 0.957128
0.289449 0.968123 1.000000
0.421224 0.976458 1.000000
0.719509 0.987042 1.000000
0.888235 0.993769 1.000050
0.999986 0.999989 0.999986
