luts/FUJI_CLASSIC_CHROME.cube
TITLE "Generated for krafta web app"
LUT_3D_SIZE 5
#INPUTGAMMA sRGB
#IMAGEPROFILE sRGB
#OUTPUTGAMMA sRGB
0.000000 0.000000 0.000000
0.251645 0.057873 0.056438
0.584375 0.137782 0.131069
0.779173 0.186503 0.176051
0.979488 0.229966 0.215045
0.004218 0.173132 0.004730
0.255308 0.214218 0.063200
0.560960 0.273982 0.132138
0.788355 0.321733 0.183860
0.999989 0.360519 0.226927
-0.000007 0.393316 -0.000028
0.228154 0.449028 0.043530
0.568907 0.494804 0.137688
0.800252 0.532852 0.194911
0.999997 0.551763 0.248242
0.000000 0.543965 0.000000
0.223426 0.617439 0.037737
0.600673 0.687898 0.151575
0.780864 0.714469 0.188108
0.993250 0.743412 0.236645
0.000320 0.723783 0.000000
0.304454 0.797999 0.056073
0.606981 0.841890 0.124865
0.791745 0.871994 0.163908
0.993147 0.914294 0.219032
0.035749 0.075875 0.218663
0.282212 0.131759 0.265222
0.610642 0.207012 0.330123
0.806165 0.239328 0.355402
0.977904 0.259162 0.362556
0.046081 0.226506 0.235278
0.244549 0.237746 0.234934
0.495884 0.273759 0.271596
0.761044 0.339314 0.336067
0.971103 0.394405 0.376661
0.019386 0.449581 0.222998
0.260273 0.469961 0.247350
0.569764 0.502999 0.308408
0.803436 0.540591 0.358102
0.999787 0.585479 0.394912
0.017477 0.613507 0.197316
0.266865 0.643994 0.230282
0.586930 0.705862 0.310130
0.779333 0.733598 0.359868
0.999239 0.747720 0.390064
0.133083 0.801657 0.202974
0.296487 0.801021 0.209642
0.579859 0.847144 0.271182
0.778756 0.886171 0.319521
0.993217 0.931156 0.371570
0.080121 0.177060 0.497632
0.319937 0.238115 0.549159
0.631611 0.277695 0.569371
0.804764 0.282203 0.558723
0.992140 0.306177 0.566578
0.099669 0.302033 0.478087
0.280481 0.311091 0.474026
0.615766 0.364665 0.532820
0.794182 0.385171 0.550741
0.985753 0.437629 0.588050
0.087447 0.521654 0.526677
0.275630 0.521495 0.520441
0.526890 0.534853 0.517879
0.783973 0.587351 0.560851
0.980041 0.627598 0.606509
0.140889 0.711211 0.524236
0.342860 0.719998 0.525675
0.608280 0.734612 0.554190
0.774970 0.751713 0.577694
1.000029 0.766676 0.617379
0.200294 0.875651 0.497420
0.330224 0.868183 0.500652
0.562777 0.869930 0.504856
0.765380 0.909990 0.551316
0.994711 0.954566 0.598810
0.126496 0.274930 0.754142
0.349779 0.304994 0.768713
0.655941 0.317495 0.758230
0.854758 0.335979 0.758302
1.000000 0.355794 0.764762
0.136631 0.378944 0.721511
0.317055 0.388581 0.719745
0.644914 0.435961 0.750798
0.838731 0.455081 0.764545
0.999999 0.479020 0.783696
0.171945 0.607806 0.811894
0.372388 0.615999 0.786470
0.627911 0.626393 0.763011
0.802677 0.639304 0.774933
0.999968 0.672068 0.807745
0.177369 0.770572 0.808837
0.349882 0.762744 0.792380
0.609071 0.762144 0.774885
0.771896 0.772465 0.770829
0.989066 0.813564 0.814412
0.235848 0.944179 0.778197
0.381607 0.940317 0.778252
0.614142 0.935533 0.770470
0.758983 0.932094 0.760982
0.995917 0.977617 0.810120
0.150404 0.326219 0.920851
0.366945 0.335817 0.912201
0.688154 0.367096 0.916307
0.881694 0.392862 0.928718
1.000000 0.426677 0.944470
0.125155 0.427527 0.889352
0.349204 0.455488 0.907208
0.671846 0.491719 0.929740
0.870101 0.516795 0.944037
1.000000 0.543988 0.969945
0.254427 0.688101 0.999678
0.391688 0.670209 0.966880
0.630368 0.673366 0.940118
0.836044 0.697959 0.965146
1.000000 0.723674 0.994903
0.212651 0.825098 0.999996
0.400048 0.832275 0.999994
0.664509 0.838088 0.997552
0.791601 0.826777 0.964675
1.000031 0.853328 0.995547
0.226239 0.982086 0.999993
0.385095 0.984084 0.999992
0.639069 0.989296 0.999989
0.803285 0.993455 0.998401
0.999986 0.999989 0.999987
