luts/Fujifilm_Superia_400.cube
# Generated for krafta web app
# https://www.facebook.com/krafta.visio
# Preset: FUJ - Superia 400
# Color profile : sRGB Color Space Profile
LUT_3D_SIZE 6
DOMAIN_MIN 0.0 0.0 0.0
DOMAIN_MAX 1.0 1.0 1.0
0.000000 0.000000 0.000000
0.283391 0.004150 0.003906
0.480446 0.008728 0.008148
0.672114 0.026001 0.025513
0.848325 0.063966 0.062348
1.000000 0.101106 0.100252
0.001434 0.264317 0.001801
0.253971 0.254093 0.007507
0.463844 0.239475 0.022827
0.660670 0.232853 0.046723
0.836210 0.229038 0.075166
1.000000 0.234745 0.107546
0.063203 0.455116 0.063142
0.242466 0.455390 0.067536
0.449714 0.449836 0.075868
0.647120 0.438941 0.087221
0.828794 0.427283 0.107790
1.000000 0.421332 0.132387
0.109651 0.628077 0.109834
0.240604 0.627131 0.111482
0.428565 0.626551 0.117830
0.624567 0.624659 0.127718
0.812009 0.616358 0.142123
0.993469 0.609583 0.164736
0.154940 0.796506 0.154757
0.255711 0.797452 0.157412
0.424231 0.799069 0.164645
0.610590 0.800351 0.175418
0.801450 0.801602 0.191287
0.984924 0.796567 0.210422
0.235599 0.982605 0.236027
0.301366 0.980377 0.231754
0.446387 0.981140 0.239689
0.619928 0.982849 0.255283
0.803311 0.985565 0.281102
0.989441 0.989563 0.321355
0.000092 0.000000 0.294957
0.267735 0.000092 0.268162
0.468391 0.030701 0.242863
0.659541 0.065370 0.236576
0.837461 0.093935 0.235355
1.000000 0.121279 0.240513
0.026917 0.261143 0.260838
0.252140 0.252140 0.252140
0.459113 0.243503 0.243687
0.655695 0.238163 0.238010
0.832792 0.237247 0.236942
1.000000 0.240360 0.240024
0.079866 0.451698 0.243473
0.243168 0.450202 0.242924
0.443580 0.443488 0.240909
0.638758 0.434363 0.239353
0.820706 0.425177 0.241825
0.999969 0.421302 0.248051
0.119326 0.627008 0.243992
0.244144 0.626276 0.244327
0.428351 0.624659 0.245945
0.621698 0.621729 0.248753
0.808377 0.614313 0.253788
0.992676 0.610163 0.264439
0.161807 0.797452 0.258244
0.259281 0.797757 0.259464
0.426032 0.799161 0.263676
0.611200 0.800259 0.270481
0.801480 0.801572 0.280888
0.985016 0.797086 0.291844
0.238468 0.983062 0.307164
0.303319 0.981079 0.303563
0.447669 0.981811 0.309331
0.620874 0.983276 0.321599
0.803738 0.985687 0.341863
0.989532 0.989715 0.374884
0.000275 0.000000 0.489265
0.242130 0.007202 0.472633
0.451331 0.036164 0.451270
0.649378 0.065980 0.438483
0.830045 0.104005 0.427192
1.000000 0.139986 0.424109
0.054047 0.248234 0.470649
0.242527 0.242496 0.459510
0.448310 0.238163 0.448341
0.644495 0.235569 0.436500
0.824826 0.242802 0.427253
1.000000 0.249363 0.421790
0.080568 0.443305 0.443214
0.239811 0.442481 0.442420
0.437018 0.437018 0.437018
0.630365 0.431037 0.430945
0.813809 0.426795 0.426612
0.996704 0.424689 0.424475
0.134340 0.623529 0.429053
0.251926 0.622980 0.429786
0.430060 0.621454 0.430152
0.618769 0.618860 0.429725
0.804898 0.613489 0.428626
0.990967 0.611444 0.430701
0.175357 0.797147 0.426307
0.267796 0.797665 0.427375
0.430549 0.798947 0.430549
0.612940 0.799954 0.434668
0.801877 0.801999 0.441840
0.984680 0.797665 0.442817
0.236332 0.983886 0.446326
0.300298 0.982116 0.442908
0.445960 0.982635 0.446143
0.620752 0.984253 0.454475
0.804074 0.986481 0.466926
0.990387 0.990509 0.488685
0.019745 0.017426 0.658991
0.226108 0.028016 0.652705
0.432441 0.051728 0.642115
0.630365 0.074769 0.630365
0.820554 0.104463 0.619867
1.000000 0.136904 0.610986
0.072969 0.237186 0.655512
0.234348 0.234287 0.647791
0.432410 0.233219 0.638727
0.628229 0.233799 0.628229
0.816617 0.240421 0.617853
0.996582 0.246677 0.607874
0.104677 0.430335 0.631739
0.241947 0.430701 0.630915
0.428779 0.428840 0.625666
0.619928 0.426337 0.620020
0.806516 0.424475 0.612757
0.993683 0.424781 0.609277
0.140993 0.617548 0.617548
0.253788 0.617395 0.617334
0.430549 0.616876 0.616968
0.613977 0.614130 0.614069
0.801419 0.611536 0.611505
0.990600 0.609827 0.609735
0.180331 0.797177 0.608820
0.269841 0.797635 0.609369
0.430396 0.798642 0.610651
0.612543 0.799680 0.612634
0.800565 0.800595 0.615198
0.986053 0.797238 0.612055
0.205936 0.985473 0.611322
0.273228 0.984131 0.607568
0.432349 0.984771 0.609735
0.614496 0.986175 0.614557
0.801968 0.987945 0.621302
0.991821 0.991943 0.635218
0.041657 0.040803 0.823758
0.217166 0.048005 0.821561
0.414282 0.063233 0.816190
0.611536 0.084382 0.811093
0.805356 0.106233 0.805234
0.995270 0.132631 0.799832
0.080903 0.226932 0.822995
0.226291 0.226169 0.819394
0.417243 0.227848 0.815518
0.611749 0.231693 0.810056
0.803342 0.236362 0.803250
0.991791 0.243534 0.797116
0.119417 0.419776 0.810513
0.239811 0.419806 0.809628
0.418708 0.418708 0.806821
0.607935 0.417426 0.802548
0.799130 0.418341 0.799161
0.990204 0.420264 0.796780
0.146304 0.608606 0.801419
0.252689 0.609003 0.801450
0.421546 0.608240 0.800412
0.607233 0.607324 0.799069
0.797910 0.607233 0.797879
0.989471 0.606134 0.796536
0.179294 0.796933 0.796933
0.268742 0.797269 0.797238
0.429572 0.798154 0.798123
0.611719 0.799527 0.799496
0.797726 0.797818 0.797757
0.989014 0.795377 0.795254
0.207065 0.986877 0.797726
0.275639 0.985870 0.795804
0.428229 0.986938 0.796109
0.605341 0.988525 0.795712
0.796841 0.990356 0.796872
0.994079 0.994202 0.804837
0.047333 0.046296 0.997498
0.211521 0.050507 0.996918
0.404242 0.060975 0.995300
0.600305 0.080049 0.993744
0.796536 0.105043 0.992554
0.991485 0.134920 0.991455
0.063294 0.215000 0.997375
0.215610 0.215061 0.996460
0.404852 0.216129 0.994324
0.599817 0.220310 0.992462
0.794308 0.226291 0.990112
0.988098 0.235355 0.988098
0.071229 0.405127 0.994293
0.218387 0.405737 0.994293
0.406287 0.406165 0.993439
0.600183 0.407111 0.992126
0.794522 0.408362 0.990204
0.989014 0.412421 0.988952
0.097871 0.601190 0.992798
0.224002 0.600671 0.992828
0.403632 0.598657 0.992859
0.598383 0.598383 0.991974
0.794125 0.598352 0.990784
0.990143 0.600275 0.990143
0.154116 0.798215 0.991821
0.251011 0.797971 0.991882
0.416114 0.797482 0.992218
0.600366 0.796109 0.992737
0.794278 0.794308 0.992981
0.992950 0.795529 0.992950
0.220249 0.993194 0.993194
0.287724 0.992950 0.992920
0.433143 0.993256 0.993225
0.607477 0.993866 0.993835
0.796170 0.995239 0.995178
0.998383 0.998383 0.998383
