luts/FUJI_MONO_Yellow_Filter.cube
#Generated for krafta web app
#Black and White LUTs
TITLE "Fuji XTrans III - Mono+Ye"
#LUT size
LUT_3D_SIZE 5
#LUT data points
0.000000 0.000000 0.000000
0.066667 0.066667 0.066667
0.250980 0.250980 0.250980
0.482353 0.482353 0.482353
0.537255 0.537255 0.537255
0.062745 0.062745 0.062745
0.156863 0.156863 0.156863
0.368627 0.368627 0.368627
0.556863 0.556863 0.556863
0.603922 0.603922 0.603922
0.254902 0.254902 0.254902
0.337255 0.337255 0.337255
0.509804 0.509804 0.509804
0.639216 0.639216 0.639216
0.682353 0.682353 0.682353
0.345098 0.345098 0.345098
0.345098 0.345098 0.345098
0.580392 0.580392 0.580392
0.694118 0.694118 0.694118
0.780392 0.780392 0.780392
0.392157 0.392157 0.392157
0.501961 0.501961 0.501961
0.647059 0.647059 0.647059
0.752941 0.752941 0.752941
0.800000 0.800000 0.800000
0.011765 0.011765 0.011765
0.192157 0.192157 0.192157
0.364706 0.364706 0.364706
0.556863 0.556863 0.556863
0.662745 0.662745 0.662745
0.105882 0.105882 0.105882
0.203922 0.203922 0.203922
0.396078 0.396078 0.396078
0.588235 0.588235 0.588235
0.698039 0.698039 0.698039
0.345098 0.345098 0.345098
0.380392 0.380392 0.380392
0.521569 0.521569 0.521569
0.670588 0.670588 0.670588
0.745098 0.745098 0.745098
0.392157 0.392157 0.392157
0.501961 0.501961 0.501961
0.647059 0.647059 0.647059
0.752941 0.752941 0.752941
0.843137 0.843137 0.843137
0.447059 0.447059 0.447059
0.564706 0.564706 0.564706
0.647059 0.647059 0.647059
0.788235 0.788235 0.788235
0.839216 0.839216 0.839216
0.164706 0.164706 0.164706
0.250980 0.250980 0.250980
0.427451 0.427451 0.427451
0.603922 0.603922 0.603922
0.721569 0.721569 0.721569
0.192157 0.192157 0.192157
0.305882 0.305882 0.305882
0.466667 0.466667 0.466667
0.627451 0.627451 0.627451
0.733333 0.733333 0.733333
0.392157 0.392157 0.392157
0.454902 0.454902 0.454902
0.576471 0.576471 0.576471
0.709804 0.709804 0.709804
0.792157 0.792157 0.792157
0.533333 0.533333 0.533333
0.588235 0.588235 0.588235
0.686275 0.686275 0.686275
0.792157 0.792157 0.792157
0.905882 0.905882 0.905882
0.572549 0.572549 0.572549
0.623529 0.623529 0.623529
0.705882 0.705882 0.705882
0.878431 0.878431 0.878431
0.905882 0.905882 0.905882
0.309804 0.313725 0.309804
0.368627 0.368627 0.368627
0.490196 0.490196 0.490196
0.647059 0.647059 0.647059
0.749020 0.749020 0.749020
0.298039 0.298039 0.298039
0.407843 0.407843 0.407843
0.533333 0.533333 0.533333
0.678431 0.678431 0.678431
0.772549 0.772549 0.772549
0.443137 0.443137 0.443137
0.533333 0.533333 0.533333
0.631373 0.631373 0.631373
0.745098 0.745098 0.745098
0.831373 0.831373 0.831373
0.615686 0.615686 0.615686
0.662745 0.662745 0.662745
0.737255 0.737255 0.737255
0.827451 0.827451 0.827451
0.952941 0.952941 0.952941
0.760784 0.760784 0.760784
0.709804 0.709804 0.709804
0.796078 0.796078 0.796078
0.905882 0.905882 0.905882
0.964706 0.964706 0.964706
0.474510 0.474510 0.474510
0.509804 0.509804 0.509804
0.600000 0.600000 0.600000
0.717647 0.717647 0.717647
0.776471 0.776471 0.776471
0.447059 0.447059 0.447059
0.537255 0.537255 0.537255
0.623529 0.623529 0.623529
0.737255 0.737255 0.737255
0.784314 0.784314 0.784314
0.478431 0.478431 0.478431
0.615686 0.615686 0.615686
0.698039 0.698039 0.698039
0.788235 0.788235 0.788235
0.870588 0.870588 0.870588
0.670588 0.670588 0.670588
0.717647 0.717647 0.717647
0.796078 0.796078 0.796078
0.870588 0.870588 0.870588
0.945098 0.945098 0.945098
0.764706 0.764706 0.764706
0.749020 0.749020 0.749020
0.843137 0.843137 0.843137
0.933333 0.933333 0.933333
0.972549 0.972549 0.972549
