luts/FUJI_CLASSIC_CHROME.cube
TITLE "Generated for krafta web app"
LUT_3D_SIZE 9
#INPUTGAMMA sRGB
#IMAGEPROFILE sRGB
#OUTPUTGAMMA sRGB
0.000000 0.000000 0.000000
0.104512 0.022769 0.022818
0.251645 0.057873 0.056438
0.464650 0.107504 0.102632
0.584375 0.137782 0.131069
0.665821 0.158638 0.150427
0.779173 0.186503 0.176051
0.885688 0.210283 0.197217
0.979488 0.229966 0.215045
0.002561 0.075562 0.002673
0.105408 0.094128 0.025797
0.248595 0.120310 0.058797
0.465324 0.168742 0.108649
0.583101 0.196957 0.133768
0.676303 0.217991 0.156615
0.793476 0.245562 0.182603
0.899271 0.264756 0.205703
1.000512 0.281268 0.220002
0.004218 0.173132 0.004730
0.102631 0.193176 0.024405
0.255308 0.214218 0.063200
0.451049 0.250331 0.108815
0.560960 0.273982 0.132138
0.657575 0.296108 0.154841
0.788355 0.321733 0.183860
0.918203 0.336350 0.212328
0.999989 0.360519 0.226927
0.003576 0.273200 0.003362
0.095151 0.291546 0.018649
0.250979 0.317454 0.060794
0.450492 0.344170 0.106889
0.568433 0.366435 0.135165
0.659523 0.385242 0.158665
0.764737 0.403375 0.182641
0.921540 0.417741 0.220261
1.000000 0.448667 0.240795
-0.000007 0.393316 -0.000028
0.066752 0.413670 0.009788
0.228154 0.449028 0.043530
0.448716 0.479105 0.108709
0.568907 0.494804 0.137688
0.667172 0.512563 0.163084
0.800252 0.532852 0.194911
0.944480 0.538796 0.231014
0.999997 0.551763 0.248242
0.000000 0.461564 0.000000
0.044159 0.484501 0.003606
0.216765 0.525240 0.035992
0.446413 0.559454 0.108714
0.585602 0.578713 0.141217
0.682513 0.593839 0.163348
0.804077 0.609967 0.186458
0.925028 0.620557 0.212574
1.000205 0.639581 0.240797
0.000000 0.543965 0.000000
0.042834 0.574429 0.001304
0.223426 0.617439 0.037737
0.469739 0.664430 0.111047
0.600673 0.687898 0.151575
0.674579 0.697867 0.163322
0.780864 0.714469 0.188108
0.895443 0.730224 0.214984
0.993250 0.743412 0.236645
0.000000 0.627752 0.000000
0.067383 0.662477 0.000346
0.263453 0.710854 0.052065
0.487291 0.758785 0.111620
0.596895 0.777629 0.137750
0.680200 0.790578 0.157397
0.795092 0.804834 0.178881
0.902728 0.820757 0.199789
0.991519 0.837492 0.222958
0.000320 0.723783 0.000000
0.131324 0.761212 0.015273
0.304454 0.797999 0.056073
0.498355 0.826282 0.099462
0.606981 0.841890 0.124865
0.681596 0.852776 0.138588
0.791745 0.871994 0.163908
0.901822 0.892530 0.188003
0.993147 0.914294 0.219032
0.014487 0.029668 0.087908
0.114873 0.050426 0.106611
0.264753 0.086276 0.138861
0.471474 0.130747 0.177255
0.589557 0.159087 0.202167
0.675413 0.179551 0.220309
0.791840 0.207522 0.245399
0.891659 0.226335 0.260903
0.978765 0.242869 0.272214
0.017635 0.098000 0.099920
0.096313 0.100153 0.092539
0.213498 0.117803 0.113411
0.441491 0.169389 0.165351
0.576644 0.201697 0.197280
0.671228 0.221296 0.214083
0.790122 0.246706 0.238670
0.889239 0.270920 0.260367
0.974017 0.292385 0.274303
0.012263 0.193412 0.099835
0.107466 0.198879 0.099953
0.247580 0.217110 0.131162
0.406484 0.240956 0.160975
0.523059 0.265079 0.186309
0.596869 0.280362 0.201185
0.776558 0.314428 0.235975
0.918369 0.350069 0.269966
1.000091 0.373465 0.283235
0.010020 0.291706 0.093343
0.100188 0.296666 0.093197
0.235615 0.313047 0.125378
0.459718 0.347970 0.184546
0.592897 0.373010 0.218748
0.620240 0.367460 0.210904
0.769452 0.394343 0.247031
0.927468 0.433963 0.279139
0.999997 0.459654 0.294451
0.003827 0.413347 0.071685
0.077348 0.421346 0.075720
0.222221 0.445654 0.111435
0.452486 0.480880 0.179918
0.577070 0.495523 0.211069
0.668591 0.506030 0.229892
0.810031 0.524459 0.261968
0.944681 0.543436 0.285827
0.999997 0.562806 0.302731
0.000100 0.482789 0.054401
0.056822 0.493169 0.061812
0.230303 0.524569 0.112926
0.454353 0.561397 0.169848
0.595656 0.581198 0.211928
0.687534 0.589591 0.227182
0.803727 0.601600 0.245944
0.918528 0.632142 0.272968
1.000097 0.644011 0.305898
-0.000077 0.568991 0.043655
0.057379 0.583001 0.056987
0.225515 0.622776 0.100307
0.486202 0.673041 0.181857
0.600234 0.698622 0.217745
0.669890 0.705874 0.225865
0.784234 0.723808 0.251544
0.894468 0.738779 0.276220
0.997382 0.748545 0.294077
0.000876 0.654336 0.040359
0.089937 0.672976 0.064512
0.291205 0.727318 0.128639
0.486629 0.763176 0.171377
0.592995 0.779328 0.193523
0.679863 0.791511 0.214128
0.793545 0.808070 0.240782
0.902258 0.825364 0.261537
0.992300 0.840905 0.284330
0.048537 0.750571 0.056925
0.153164 0.769740 0.079859
0.304998 0.798918 0.112564
0.491049 0.827075 0.156423
0.595730 0.842786 0.179255
0.674772 0.856227 0.197213
0.784177 0.876081 0.221272
0.899283 0.899295 0.251085
0.992755 0.920871 0.277603
0.035749 0.075875 0.218663
0.135075 0.098288 0.238144
0.282212 0.131759 0.265222
0.493449 0.181355 0.309138
0.610642 0.207012 0.330123
0.693687 0.224811 0.344562
0.806165 0.239328 0.355402
0.901020 0.249886 0.360783
0.977904 0.259162 0.362556
0.041714 0.131096 0.206267
0.112716 0.129055 0.196017
0.233132 0.143537 0.211436
0.450858 0.192519 0.260602
0.582275 0.225733 0.294447
0.675602 0.246321 0.315595
0.797009 0.270539 0.338698
0.892579 0.291837 0.355215
0.967646 0.310294 0.366206
0.046081 0.226506 0.235278
0.136485 0.235233 0.228291
0.244549 0.237746 0.234934
0.353815 0.242404 0.238767
0.495884 0.273759 0.271596
0.621474 0.303177 0.302729
0.761044 0.339314 0.336067
0.896252 0.371343 0.363059
0.971103 0.394405 0.376661
0.035668 0.323281 0.238359
0.129757 0.329792 0.230353
0.241026 0.337724 0.243553
0.487596 0.380049 0.310474
0.485890 0.355576 0.278593
0.586896 0.376747 0.303312
0.787039 0.423584 0.348233
0.919553 0.456607 0.368738
0.992918 0.478736 0.384245
0.019386 0.449581 0.222998
0.109799 0.456181 0.222740
0.260273 0.469961 0.247350
0.439676 0.485419 0.280742
0.569764 0.502999 0.308408
0.672728 0.517439 0.329878
0.803436 0.540591 0.358102
0.930548 0.558912 0.375391
0.999787 0.585479 0.394912
0.012808 0.522223 0.209518
0.101198 0.528173 0.215807
0.224446 0.535777 0.219759
0.469791 0.576402 0.283596
0.601892 0.597237 0.316593
0.681534 0.601980 0.322702
0.797406 0.619687 0.341651
0.915881 0.645820 0.370732
0.999895 0.654290 0.399856
0.017477 0.613507 0.197316
0.108631 0.622901 0.195880
0.266865 0.643994 0.230282
0.475769 0.688096 0.285787
0.586930 0.705862 0.310130
0.674267 0.719506 0.331064
0.779333 0.733598 0.359868
0.896252 0.746310 0.370256
0.999239 0.747720 0.390064
0.071590 0.708309 0.194916
0.167621 0.722661 0.212583
0.300238 0.738648 0.234404
0.480815 0.768193 0.270086
0.592268 0.783116 0.292110
0.672696 0.795158 0.308012
0.784547 0.813184 0.330280
0.899337 0.834335 0.367873
0.991455 0.845144 0.383346
0.133083 0.801657 0.202974
0.195112 0.800067 0.202654
0.296487 0.801021 0.209642
0.471775 0.828771 0.248608
0.579859 0.847144 0.271182
0.660999 0.862226 0.288835
0.778756 0.886171 0.319521
0.893963 0.909190 0.346461
0.993217 0.931156 0.371570
0.056598 0.124748 0.356457
0.155026 0.150790 0.379288
0.300971 0.183557 0.406154
0.507353 0.229102 0.442127
0.626071 0.253336 0.462495
0.707743 0.263455 0.469181
0.808561 0.266960 0.465714
0.895693 0.268482 0.458531
0.974933 0.277196 0.459840
0.054010 0.170694 0.332116
0.132907 0.172479 0.328406
0.270020 0.195835 0.351336
0.488688 0.247961 0.403941
0.618350 0.279651 0.435268
0.702779 0.291582 0.445838
0.803829 0.299379 0.449688
0.893157 0.307036 0.452158
0.973967 0.330435 0.466879
0.083126 0.264369 0.356721
0.169828 0.275401 0.363556
0.236951 0.257231 0.329208
0.431722 0.283899 0.360435
0.589653 0.329627 0.411289
0.695247 0.354209 0.438756
0.802494 0.369552 0.453035
0.886929 0.388112 0.463170
0.964207 0.414581 0.479357
0.076803 0.362154 0.381699
0.163571 0.368506 0.369021
0.314529 0.391716 0.401811
0.365032 0.355865 0.359607
0.494508 0.382197 0.388815
0.625590 0.413866 0.421426
0.780561 0.454025 0.451489
0.889456 0.482848 0.471613
0.960135 0.500537 0.490828
0.058107 0.486656 0.382640
0.142377 0.492290 0.374155
0.254328 0.489342 0.370592
0.413212 0.498636 0.383396
0.548687 0.518654 0.412768
0.645879 0.533660 0.436446
0.796789 0.558708 0.457123
0.907699 0.590331 0.482646
0.993702 0.605289 0.502139
0.042522 0.562012 0.373812
0.135912 0.565024 0.368766
0.277100 0.577687 0.379463
0.462422 0.598872 0.404213
0.578440 0.610804 0.419875
0.667623 0.622135 0.438168
0.785544 0.637627 0.454832
0.907554 0.665824 0.487173
0.999855 0.666256 0.505815
0.084688 0.663820 0.364293
0.182409 0.675802 0.362826
0.315228 0.686235 0.384445
0.483721 0.702579 0.407412
0.591090 0.716908 0.426056
0.679355 0.732460 0.453686
0.777826 0.742081 0.468084
0.891479 0.750782 0.489790
1.000027 0.752048 0.506415
0.147086 0.762299 0.357843
0.223888 0.769637 0.366970
0.316630 0.765840 0.364158
0.471948 0.771894 0.382021
0.580371 0.788656 0.402971
0.662105 0.801932 0.418771
0.785844 0.826703 0.457013
0.895101 0.844216 0.481836
0.996794 0.856159 0.494681
0.176518 0.840254 0.349825
0.228488 0.837706 0.351621
0.309280 0.830764 0.349601
0.454532 0.835377 0.359784
0.567507 0.856515 0.385054
0.653659 0.873821 0.406881
0.771757 0.897979 0.435448
0.889190 0.921479 0.462259
0.993704 0.942795 0.484522
0.080121 0.177060 0.497632
0.175100 0.201617 0.517938
0.319937 0.238115 0.549159
0.525586 0.277316 0.577388
0.631611 0.277695 0.569371
0.703722 0.277426 0.562256
0.804764 0.282203 0.558723
0.909071 0.293174 0.562230
0.992140 0.306177 0.566578
0.072688 0.215895 0.468232
0.158400 0.228077 0.478482
0.305611 0.257909 0.505173
0.523896 0.299490 0.545519
0.629902 0.306771 0.547442
0.694493 0.307464 0.542926
0.800769 0.318105 0.548461
0.910998 0.332873 0.559083
0.988878 0.358397 0.575439
0.099669 0.302033 0.478087
0.153822 0.299158 0.463244
0.280481 0.311091 0.474026
0.526836 0.361937 0.532222
0.615766 0.364665 0.532820
0.683693 0.370158 0.536985
0.794182 0.385171 0.550741
0.901614 0.413019 0.567399
0.985753 0.437629 0.588050
0.113596 0.397313 0.499452
0.207793 0.412629 0.510318
0.320412 0.418978 0.522411
0.505001 0.434680 0.530465
0.612747 0.446235 0.544131
0.676036 0.449355 0.546938
0.787025 0.471493 0.553654
0.893614 0.500733 0.577643
0.978099 0.519113 0.598191
0.087447 0.521654 0.526677
0.173771 0.518591 0.512633
0.275630 0.521495 0.520441
0.427274 0.527866 0.517148
0.526890 0.534853 0.517879
0.645211 0.557330 0.539723
0.783973 0.587351 0.560851
0.889650 0.611449 0.589886
0.980041 0.627598 0.606509
0.101469 0.602444 0.535811
0.180583 0.608953 0.533762
0.312882 0.616949 0.529408
0.483566 0.628321 0.542249
0.576195 0.626573 0.531726
0.656474 0.634914 0.544230
0.778092 0.659643 0.564603
0.897106 0.678664 0.595616
0.995253 0.691280 0.612573
0.140889 0.711211 0.524236
0.232061 0.717253 0.517550
0.342860 0.719998 0.525675
0.497038 0.720260 0.531124
0.608280 0.734612 0.554190
0.680121 0.742046 0.565304
0.774970 0.751713 0.577694
0.894218 0.757793 0.599443
1.000029 0.766676 0.617379
0.193220 0.804310 0.507857
0.253289 0.803941 0.508655
0.342081 0.798730 0.510075
0.478680 0.792911 0.510605
0.572775 0.797618 0.517504
0.664765 0.816162 0.543129
0.786797 0.839822 0.577474
0.890851 0.854077 0.593504
0.994705 0.864337 0.616896
0.200294 0.875651 0.497420
0.247637 0.872564 0.499773
0.330224 0.868183 0.500652
0.466314 0.862722 0.495544
0.562777 0.869930 0.504856
0.645269 0.885323 0.522114
0.765380 0.909990 0.551316
0.884635 0.932906 0.577430
0.994711 0.954566 0.598810
0.102659 0.225431 0.624069
0.194305 0.249221 0.644136
0.339545 0.280232 0.666231
0.524479 0.288009 0.658331
0.630716 0.291373 0.652614
0.711334 0.296518 0.652332
0.826850 0.306982 0.654135
0.930471 0.318166 0.655951
1.000000 0.328095 0.663808
0.092796 0.255846 0.585316
0.184917 0.277120 0.606690
0.337240 0.302524 0.632706
0.520569 0.313054 0.634075
0.628814 0.322201 0.637911
0.713338 0.331411 0.642664
0.826160 0.344260 0.647355
0.930266 0.358408 0.654799
1.000155 0.379956 0.671586
0.119294 0.343959 0.603532
0.171198 0.338424 0.586936
0.329894 0.359906 0.609330
0.500621 0.371641 0.615872
0.613336 0.384808 0.627970
0.698165 0.397310 0.636706
0.812921 0.414902 0.647381
0.922534 0.434795 0.664262
0.999419 0.455925 0.681494
0.144263 0.441460 0.636426
0.218221 0.440172 0.627118
0.336272 0.444569 0.620549
0.495869 0.451452 0.625931
0.604906 0.464641 0.637500
0.684688 0.478627 0.642405
0.795319 0.497506 0.650297
0.908870 0.519843 0.672899
0.995867 0.539108 0.692560
0.119997 0.553095 0.659663
0.203287 0.552332 0.647212
0.317366 0.554494 0.641192
0.489458 0.564764 0.632603
0.579719 0.566217 0.636040
0.659921 0.585031 0.640240
0.779329 0.609853 0.656334
0.893244 0.629106 0.682573
0.986035 0.650185 0.702385
0.132797 0.637666 0.672593
0.209534 0.641157 0.664962
0.333449 0.637763 0.649632
0.496303 0.642042 0.640294
0.585383 0.645114 0.639125
0.650193 0.649779 0.641257
0.773949 0.678331 0.660944
0.887818 0.694329 0.687742
0.982900 0.716008 0.705762
0.175657 0.745788 0.657527
0.258784 0.745600 0.646821
0.365467 0.743091 0.642413
0.522630 0.744245 0.650601
0.615498 0.749002 0.657782
0.682973 0.753936 0.663857
0.770616 0.760093 0.669636
0.893641 0.767530 0.695166
0.997620 0.789682 0.714985
0.218460 0.835558 0.633819
0.272611 0.832496 0.636116
0.363487 0.829066 0.640776
0.503715 0.824030 0.639433
0.600373 0.826613 0.645919
0.664672 0.827666 0.647413
0.779974 0.847120 0.672371
0.888145 0.863183 0.698189
0.999156 0.871729 0.716068
0.214541 0.907330 0.630925
0.265524 0.905573 0.634540
0.352467 0.902550 0.634792
0.497259 0.899380 0.631471
0.578176 0.896467 0.626423
0.643227 0.898300 0.628134
0.757572 0.918783 0.650440
0.877578 0.940485 0.672925
0.995839 0.965658 0.701427
0.126496 0.274930 0.754142
0.214981 0.293315 0.768613
0.349779 0.304994 0.768713
0.535631 0.306958 0.755674
0.655941 0.317495 0.758230
0.742914 0.325888 0.758620
0.854758 0.335979 0.758302
0.953345 0.346195 0.762001
1.000000 0.355794 0.764762
0.121064 0.305332 0.725486
0.211390 0.317272 0.734978
0.336926 0.321846 0.729945
0.530801 0.340783 0.738487
0.652658 0.356850 0.746198
0.736578 0.367997 0.749880
0.848448 0.380494 0.757108
0.949777 0.392664 0.765075
1.000000 0.406104 0.771696
0.136631 0.378944 0.721511
0.217544 0.387193 0.724365
0.317055 0.388581 0.719745
0.524619 0.417384 0.742024
0.644914 0.435961 0.750798
0.728577 0.445933 0.756722
0.838731 0.455081 0.764545
0.943625 0.465753 0.772656
0.999999 0.479020 0.783696
0.193348 0.486270 0.775887
0.267520 0.490818 0.765019
0.323790 0.476787 0.729745
0.521253 0.503166 0.748403
0.633630 0.517682 0.756519
0.715025 0.524857 0.762502
0.826132 0.534016 0.771408
0.935465 0.545289 0.781815
0.999997 0.560591 0.796273
0.171945 0.607806 0.811894
0.248267 0.611506 0.802853
0.372388 0.615999 0.786470
0.524198 0.613869 0.758664
0.627911 0.626393 0.763011
0.697686 0.630193 0.765957
0.802677 0.639304 0.774933
0.910438 0.651703 0.786027
0.999968 0.672068 0.807745
0.145297 0.672472 0.821663
0.215530 0.675797 0.815341
0.347073 0.678354 0.792010
0.523818 0.684240 0.775166
0.624496 0.688750 0.767597
0.693025 0.693878 0.768901
0.787173 0.701874 0.772554
0.895137 0.716208 0.787388
0.996644 0.738116 0.811710
0.177369 0.770572 0.808837
0.244309 0.767829 0.801239
0.349882 0.762744 0.792380
0.509317 0.760925 0.782774
0.609071 0.762144 0.774885
0.676945 0.764949 0.772214
0.771896 0.772465 0.770829
0.885651 0.789813 0.792153
0.989066 0.813564 0.814412
0.231766 0.865333 0.778449
0.288681 0.863291 0.780050
0.384245 0.861445 0.781311
0.536493 0.857512 0.777390
0.623856 0.855801 0.775037
0.691621 0.856505 0.777112
0.786594 0.861455 0.784690
0.883750 0.871271 0.797680
0.999338 0.883629 0.821047
0.235848 0.944179 0.778197
0.289375 0.942759 0.780382
0.381607 0.940317 0.778252
0.529441 0.937225 0.773719
0.614142 0.935533 0.770470
0.673757 0.934054 0.766866
0.758983 0.932094 0.760982
0.873288 0.950254 0.779009
0.995917 0.977617 0.810120
0.140681 0.304503 0.847040
0.220939 0.315287 0.852388
0.352654 0.316350 0.842766
0.556808 0.332642 0.844574
0.672944 0.343231 0.844539
0.758230 0.352905 0.847088
0.870828 0.366056 0.850973
0.965586 0.379878 0.856769
1.000000 0.393487 0.862555
0.139100 0.331320 0.815494
0.213424 0.336788 0.817500
0.343328 0.348760 0.822154
0.549554 0.374277 0.835887
0.666976 0.390282 0.842959
0.750586 0.401393 0.848646
0.862050 0.414615 0.855651
0.962216 0.430191 0.862541
1.000000 0.445449 0.870861
0.122223 0.399401 0.804214
0.200632 0.409192 0.812675
0.340241 0.428693 0.825990
0.542048 0.455812 0.843805
0.655617 0.466395 0.850037
0.739200 0.474475 0.855465
0.853212 0.487361 0.862886
0.958854 0.502304 0.872386
1.000000 0.514589 0.883552
0.217723 0.526570 0.886925
0.218573 0.505538 0.841235
0.335848 0.516138 0.838269
0.529177 0.535593 0.847827
0.643716 0.546463 0.855233
0.725640 0.553945 0.860801
0.840684 0.565892 0.871309
0.951911 0.579311 0.883573
1.000000 0.591609 0.896499
0.214350 0.656503 0.931997
0.289579 0.658672 0.921682
0.397774 0.655995 0.902351
0.504602 0.637341 0.849352
0.620276 0.648222 0.859337
0.704474 0.657466 0.867163
0.818917 0.669774 0.878697
0.934797 0.682590 0.892400
0.999998 0.694687 0.906388
0.177490 0.718141 0.940374
0.253305 0.716401 0.921592
0.381413 0.721561 0.914301
0.564175 0.725248 0.899024
0.616400 0.713309 0.865354
0.693490 0.720233 0.869408
0.806295 0.732465 0.880716
0.919639 0.744484 0.893440
0.999992 0.756815 0.908411
0.172304 0.791218 0.936437
0.241582 0.792515 0.932443
0.356892 0.795223 0.926307
0.530753 0.798807 0.911387
0.634613 0.800891 0.899372
0.705844 0.802905 0.891643
0.794849 0.805243 0.881694
0.899529 0.816003 0.890157
0.999498 0.831651 0.908149
0.202715 0.882421 0.927079
0.263623 0.880653 0.925983
0.364790 0.878757 0.920938
0.524305 0.877349 0.911726
0.621921 0.876499 0.904424
0.691223 0.877517 0.900056
0.789434 0.877395 0.890999
0.885108 0.882817 0.887287
0.993788 0.903680 0.909163
0.241730 0.970446 0.910194
0.305626 0.970222 0.908064
0.402807 0.970251 0.905085
0.557038 0.969921 0.899016
0.644886 0.969227 0.895070
0.707978 0.968127 0.891683
0.790020 0.964710 0.883222
0.874207 0.962237 0.876644
0.997718 0.989259 0.909120
0.150404 0.326219 0.920851
0.225512 0.328183 0.915827
0.366945 0.335817 0.912201
0.573906 0.354898 0.914535
0.688154 0.367096 0.916307
0.769841 0.377698 0.921537
0.881694 0.392862 0.928718
0.980991 0.409972 0.936059
1.000000 0.426677 0.944470
0.141841 0.353315 0.892565
0.218588 0.360265 0.895755
0.355932 0.376199 0.902139
0.570392 0.406401 0.917696
0.681515 0.418022 0.922301
0.763577 0.428018 0.927549
0.876832 0.444049 0.934842
0.980410 0.462281 0.943957
1.000000 0.477520 0.954573
0.125155 0.427527 0.889352
0.205937 0.436997 0.895796
0.349204 0.455488 0.907208
0.556119 0.479302 0.923142
0.671846 0.491719 0.929740
0.755746 0.502051 0.935150
0.870101 0.516795 0.944037
0.976245 0.531439 0.955939
1.000000 0.543988 0.969945
0.188840 0.538770 0.943734
0.202732 0.522655 0.905740
0.336916 0.537847 0.913119
0.537943 0.558028 0.926347
0.658322 0.571636 0.936891
0.742627 0.581431 0.943004
0.858047 0.594852 0.954800
0.969160 0.608314 0.969498
1.000000 0.620431 0.985495
0.254427 0.688101 0.999678
0.321201 0.686701 0.992540
0.391688 0.670209 0.966880
0.510451 0.659122 0.928023
0.630368 0.673366 0.940118
0.718347 0.684243 0.950577
0.836044 0.697959 0.965146
0.952694 0.711652 0.981998
1.000000 0.723674 0.994903
0.206434 0.743561 0.999994
0.288826 0.745071 0.997958
0.425217 0.752909 0.997264
0.560143 0.746740 0.972520
0.612738 0.734043 0.941118
0.701241 0.744839 0.952191
0.820271 0.759076 0.968333
0.933484 0.771340 0.983360
0.999998 0.783305 0.995034
0.212651 0.825098 0.999996
0.288803 0.828306 0.999995
0.400048 0.832275 0.999994
0.564496 0.835693 0.999197
0.664509 0.838088 0.997552
0.704313 0.826053 0.972766
0.791601 0.826777 0.964675
0.904668 0.839110 0.978790
1.000031 0.853328 0.995547
0.194730 0.897901 0.999997
0.261084 0.898888 0.999997
0.362817 0.900732 0.999996
0.532178 0.903634 0.999994
0.635566 0.907188 0.999998
0.712098 0.909979 0.999934
0.813234 0.912301 0.995790
0.887319 0.907491 0.978870
0.999187 0.923379 0.997436
0.226239 0.982086 0.999993
0.287706 0.982929 0.999993
0.385095 0.984084 0.999992
0.544051 0.986828 0.999990
0.639069 0.989296 0.999989
0.707894 0.991137 1.000007
0.803285 0.993455 0.998401
0.899028 0.996309 0.998245
0.999986 0.999989 0.999987
