luts/FUJI_MONO.cube
#Generated for krafta web app
#Black and White LUTs
TITLE "Fuji XTrans III - Mono"
#LUT size
LUT_3D_SIZE 9
#LUT data points
0.000000 0.000000 0.000000
0.007843 0.007843 0.007843
0.031373 0.031373 0.027451
0.117647 0.117647 0.117647
0.172549 0.172549 0.172549
0.305882 0.305882 0.305882
0.337255 0.337255 0.337255
0.388235 0.388235 0.388235
0.388235 0.388235 0.388235
0.007843 0.007843 0.007843
0.019608 0.019608 0.019608
0.062745 0.062745 0.062745
0.141176 0.141176 0.141176
0.223529 0.223529 0.223529
0.305882 0.305882 0.305882
0.380392 0.380392 0.380392
0.380392 0.380392 0.380392
0.466667 0.466667 0.466667
0.074510 0.074510 0.074510
0.086275 0.086275 0.086275
0.129412 0.129412 0.129412
0.215686 0.215686 0.215686
0.286275 0.286275 0.286275
0.364706 0.364706 0.364706
0.443137 0.443137 0.443137
0.478431 0.478431 0.478431
0.478431 0.478431 0.478431
0.133333 0.133333 0.133333
0.211765 0.211765 0.211765
0.250980 0.250980 0.250980
0.325490 0.325490 0.325490
0.380392 0.380392 0.380392
0.447059 0.447059 0.447059
0.501961 0.501961 0.501961
0.478431 0.478431 0.478431
0.478431 0.478431 0.478431
0.274510 0.274510 0.274510
0.274510 0.274510 0.274510
0.349020 0.349020 0.349020
0.423529 0.423529 0.423529
0.478431 0.478431 0.478431
0.525490 0.525490 0.525490
0.572549 0.572549 0.572549
0.576471 0.576471 0.576471
0.600000 0.600000 0.600000
0.200000 0.200000 0.200000
0.274510 0.274510 0.274510
0.368627 0.368627 0.368627
0.458824 0.458824 0.458824
0.580392 0.580392 0.580392
0.572549 0.572549 0.572549
0.647059 0.647059 0.647059
0.674510 0.674510 0.674510
0.674510 0.674510 0.674510
0.380392 0.380392 0.380392
0.274510 0.274510 0.274510
0.356863 0.356863 0.356863
0.513725 0.513725 0.513725
0.568627 0.568627 0.568627
0.584314 0.584314 0.584314
0.647059 0.647059 0.647059
0.686275 0.686275 0.686275
0.733333 0.733333 0.733333
0.407843 0.407843 0.407843
0.356863 0.356863 0.356863
0.525490 0.525490 0.525490
0.572549 0.572549 0.572549
0.631373 0.631373 0.631373
0.647059 0.647059 0.647059
0.647059 0.647059 0.647059
0.729412 0.729412 0.729412
0.733333 0.733333 0.733333
0.407843 0.407843 0.407843
0.356863 0.356863 0.356863
0.525490 0.525490 0.525490
0.576471 0.576471 0.576471
0.631373 0.631373 0.631373
0.670588 0.670588 0.670588
0.729412 0.729412 0.729412
0.752941 0.752941 0.752941
0.768627 0.768627 0.768627
0.003922 0.003922 0.003922
0.007843 0.007843 0.007843
0.070588 0.070588 0.070588
0.109804 0.109804 0.109804
0.239216 0.239216 0.239216
0.352941 0.352941 0.352941
0.388235 0.388235 0.388235
0.388235 0.388235 0.388235
0.478431 0.478431 0.478431
0.023529 0.023529 0.023529
0.039216 0.039216 0.039216
0.090196 0.090196 0.090196
0.164706 0.164706 0.164706
0.239216 0.239216 0.239216
0.321569 0.321569 0.321569
0.388235 0.388235 0.388235
0.439216 0.439216 0.439216
0.490196 0.490196 0.490196
0.098039 0.098039 0.098039
0.113725 0.113725 0.113725
0.149020 0.149020 0.149020
0.231373 0.231373 0.231373
0.301961 0.301961 0.301961
0.368627 0.368627 0.368627
0.431373 0.431373 0.431373
0.466667 0.466667 0.466667
0.525490 0.525490 0.525490
0.203922 0.203922 0.203922
0.227451 0.227451 0.227451
0.270588 0.270588 0.270588
0.329412 0.329412 0.329412
0.388235 0.388235 0.388235
0.450980 0.450980 0.450980
0.505882 0.505882 0.505882
0.529412 0.529412 0.529412
0.603922 0.603922 0.603922
0.282353 0.282353 0.282353
0.356863 0.356863 0.356863
0.364706 0.364706 0.364706
0.423529 0.423529 0.423529
0.482353 0.482353 0.482353
0.537255 0.537255 0.537255
0.580392 0.580392 0.580392
0.600000 0.600000 0.600000
0.643137 0.643137 0.643137
0.380392 0.380392 0.380392
0.407843 0.407843 0.407843
0.419608 0.419608 0.419608
0.466667 0.466667 0.466667
0.568627 0.568627 0.568627
0.607843 0.607843 0.607843
0.650980 0.650980 0.650980
0.701961 0.701961 0.701961
0.741176 0.741176 0.741176
0.407843 0.407843 0.407843
0.411765 0.411765 0.411765
0.525490 0.525490 0.525490
0.568627 0.568627 0.568627
0.627451 0.627451 0.627451
0.643137 0.643137 0.643137
0.686275 0.686275 0.686275
0.729412 0.729412 0.729412
0.733333 0.733333 0.733333
0.478431 0.478431 0.478431
0.407843 0.407843 0.407843
0.525490 0.525490 0.525490
0.576471 0.576471 0.576471
0.631373 0.631373 0.631373
0.674510 0.674510 0.674510
0.729412 0.729412 0.729412
0.749020 0.749020 0.749020
0.760784 0.760784 0.760784
0.478431 0.478431 0.478431
0.419608 0.419608 0.419608
0.580392 0.580392 0.580392
0.607843 0.607843 0.607843
0.635294 0.635294 0.635294
0.670588 0.670588 0.670588
0.729412 0.729412 0.729412
0.768627 0.768627 0.768627
0.811765 0.811765 0.811765
0.043137 0.043137 0.043137
0.078431 0.078431 0.078431
0.168627 0.168627 0.168627
0.227451 0.227451 0.227451
0.294118 0.294118 0.294118
0.356863 0.356863 0.356863
0.415686 0.415686 0.415686
0.458824 0.458824 0.458824
0.501961 0.501961 0.501961
0.066667 0.066667 0.066667
0.094118 0.094118 0.094118
0.145098 0.145098 0.145098
0.215686 0.215686 0.215686
0.286275 0.286275 0.286275
0.356863 0.356863 0.356863
0.419608 0.419608 0.419608
0.450980 0.450980 0.450980
0.490196 0.490196 0.490196
0.141176 0.141176 0.141176
0.156863 0.156863 0.156863
0.207843 0.207843 0.207843
0.270588 0.270588 0.270588
0.333333 0.333333 0.333333
0.400000 0.400000 0.400000
0.466667 0.466667 0.466667
0.521569 0.521569 0.521569
0.549020 0.549020 0.549020
0.250980 0.250980 0.250980
0.262745 0.262745 0.262745
0.305882 0.305882 0.305882
0.360784 0.360784 0.360784
0.419608 0.419608 0.419608
0.478431 0.478431 0.478431
0.533333 0.533333 0.533333
0.568627 0.568627 0.568627
0.580392 0.580392 0.580392
0.376471 0.376471 0.376471
0.372549 0.372549 0.372549
0.396078 0.396078 0.396078
0.447059 0.447059 0.447059
0.501961 0.501961 0.501961
0.556863 0.556863 0.556863
0.603922 0.603922 0.603922
0.643137 0.643137 0.643137
0.639216 0.639216 0.639216
0.431373 0.431373 0.431373
0.419608 0.419608 0.419608
0.486275 0.486275 0.486275
0.529412 0.529412 0.529412
0.580392 0.580392 0.580392
0.627451 0.627451 0.627451
0.674510 0.674510 0.674510
0.709804 0.709804 0.709804
0.745098 0.745098 0.745098
0.435294 0.435294 0.435294
0.556863 0.556863 0.556863
0.525490 0.525490 0.525490
0.603922 0.603922 0.603922
0.650980 0.650980 0.650980
0.670588 0.670588 0.670588
0.729412 0.729412 0.729412
0.764706 0.764706 0.764706
0.800000 0.800000 0.800000
0.490196 0.490196 0.490196
0.470588 0.470588 0.470588
0.588235 0.588235 0.588235
0.607843 0.607843 0.607843
0.650980 0.650980 0.650980
0.670588 0.670588 0.670588
0.733333 0.733333 0.733333
0.811765 0.811765 0.811765
0.796078 0.796078 0.796078
0.490196 0.490196 0.490196
0.470588 0.470588 0.470588
0.588235 0.588235 0.588235
0.607843 0.607843 0.607843
0.654902 0.654902 0.654902
0.729412 0.729412 0.729412
0.776471 0.776471 0.776471
0.811765 0.811765 0.811765
0.811765 0.811765 0.811765
0.141176 0.141176 0.141176
0.168627 0.168627 0.168627
0.215686 0.215686 0.215686
0.258824 0.258824 0.258824
0.341176 0.341176 0.341176
0.396078 0.396078 0.396078
0.454902 0.454902 0.454902
0.517647 0.517647 0.517647
0.521569 0.521569 0.521569
0.141176 0.141176 0.141176
0.168627 0.168627 0.168627
0.211765 0.211765 0.211765
0.274510 0.274510 0.274510
0.337255 0.337255 0.337255
0.407843 0.407843 0.407843
0.462745 0.462745 0.462745
0.501961 0.501961 0.501961
0.556863 0.556863 0.556863
0.203922 0.203922 0.203922
0.235294 0.235294 0.235294
0.270588 0.270588 0.270588
0.325490 0.325490 0.325490
0.388235 0.388235 0.388235
0.443137 0.443137 0.443137
0.498039 0.498039 0.498039
0.545098 0.545098 0.545098
0.560784 0.560784 0.560784
0.305882 0.305882 0.305882
0.321569 0.321569 0.321569
0.356863 0.356863 0.356863
0.403922 0.403922 0.403922
0.458824 0.458824 0.458824
0.513725 0.513725 0.513725
0.560784 0.560784 0.560784
0.600000 0.600000 0.600000
0.615686 0.615686 0.615686
0.403922 0.403922 0.403922
0.415686 0.415686 0.415686
0.443137 0.443137 0.443137
0.490196 0.490196 0.490196
0.537255 0.537255 0.537255
0.584314 0.584314 0.584314
0.631373 0.631373 0.631373
0.670588 0.670588 0.670588
0.690196 0.690196 0.690196
0.454902 0.454902 0.454902
0.498039 0.498039 0.498039
0.521569 0.521569 0.521569
0.564706 0.564706 0.564706
0.607843 0.607843 0.607843
0.654902 0.654902 0.654902
0.698039 0.698039 0.698039
0.733333 0.733333 0.733333
0.752941 0.752941 0.752941
0.513725 0.513725 0.513725
0.572549 0.572549 0.572549
0.584314 0.584314 0.584314
0.619608 0.619608 0.619608
0.666667 0.666667 0.666667
0.709804 0.709804 0.709804
0.749020 0.749020 0.749020
0.788235 0.788235 0.788235
0.811765 0.811765 0.811765
0.572549 0.572549 0.572549
0.572549 0.572549 0.572549
0.650980 0.650980 0.650980
0.658824 0.658824 0.658824
0.701961 0.701961 0.701961
0.737255 0.737255 0.737255
0.780392 0.780392 0.780392
0.815686 0.815686 0.815686
0.835294 0.835294 0.835294
0.572549 0.572549 0.572549
0.572549 0.572549 0.572549
0.647059 0.647059 0.647059
0.658824 0.658824 0.658824
0.701961 0.701961 0.701961
0.737255 0.737255 0.737255
0.780392 0.780392 0.780392
0.858824 0.858824 0.858824
0.882353 0.882353 0.882353
0.231373 0.231373 0.231373
0.254902 0.254902 0.254902
0.290196 0.290196 0.290196
0.337255 0.337255 0.337255
0.388235 0.388235 0.388235
0.450980 0.450980 0.450980
0.498039 0.498039 0.498039
0.545098 0.545098 0.545098
0.572549 0.572549 0.572549
0.227451 0.227451 0.227451
0.262745 0.262745 0.262745
0.294118 0.294118 0.294118
0.345098 0.345098 0.345098
0.403922 0.403922 0.403922
0.458824 0.458824 0.458824
0.509804 0.509804 0.509804
0.552941 0.552941 0.552941
0.568627 0.568627 0.568627
0.282353 0.282353 0.282353
0.313725 0.313725 0.313725
0.349020 0.349020 0.349020
0.392157 0.392157 0.392157
0.439216 0.439216 0.439216
0.494118 0.494118 0.494118
0.545098 0.545098 0.545098
0.584314 0.584314 0.584314
0.607843 0.607843 0.607843
0.364706 0.364706 0.364706
0.388235 0.388235 0.388235
0.415686 0.415686 0.415686
0.458824 0.458824 0.458824
0.509804 0.509804 0.509804
0.552941 0.552941 0.552941
0.600000 0.600000 0.600000
0.635294 0.635294 0.635294
0.658824 0.658824 0.658824
0.458824 0.458824 0.458824
0.470588 0.470588 0.470588
0.498039 0.498039 0.498039
0.533333 0.533333 0.533333
0.576471 0.576471 0.576471
0.619608 0.619608 0.619608
0.658824 0.658824 0.658824
0.694118 0.694118 0.694118
0.717647 0.717647 0.717647
0.537255 0.537255 0.537255
0.549020 0.549020 0.549020
0.568627 0.568627 0.568627
0.600000 0.600000 0.600000
0.643137 0.643137 0.643137
0.686275 0.686275 0.686275
0.721569 0.721569 0.721569
0.756863 0.756863 0.756863
0.776471 0.776471 0.776471
0.592157 0.592157 0.592157
0.580392 0.580392 0.580392
0.623529 0.623529 0.623529
0.658824 0.658824 0.658824
0.701961 0.701961 0.701961
0.737255 0.737255 0.737255
0.776471 0.776471 0.776471
0.811765 0.811765 0.811765
0.862745 0.862745 0.862745
0.623529 0.623529 0.623529
0.615686 0.615686 0.615686
0.666667 0.666667 0.666667
0.686275 0.686275 0.686275
0.725490 0.725490 0.725490
0.764706 0.764706 0.764706
0.807843 0.807843 0.807843
0.858824 0.858824 0.858824
0.882353 0.882353 0.882353
0.627451 0.627451 0.627451
0.615686 0.615686 0.615686
0.666667 0.666667 0.666667
0.686275 0.686275 0.686275
0.721569 0.721569 0.721569
0.764706 0.764706 0.764706
0.858824 0.858824 0.858824
0.862745 0.862745 0.862745
0.882353 0.882353 0.882353
0.301961 0.301961 0.301961
0.325490 0.325490 0.325490
0.356863 0.356863 0.356863
0.403922 0.403922 0.403922
0.454902 0.454902 0.454902
0.501961 0.501961 0.501961
0.549020 0.549020 0.549020
0.584314 0.584314 0.584314
0.619608 0.619608 0.619608
0.317647 0.317647 0.317647
0.356863 0.356863 0.356863
0.380392 0.380392 0.380392
0.423529 0.423529 0.423529
0.470588 0.470588 0.470588
0.513725 0.513725 0.513725
0.560784 0.560784 0.560784
0.600000 0.600000 0.600000
0.619608 0.619608 0.619608
0.356863 0.356863 0.356863
0.400000 0.400000 0.400000
0.419608 0.419608 0.419608
0.458824 0.458824 0.458824
0.498039 0.498039 0.498039
0.545098 0.545098 0.545098
0.592157 0.592157 0.592157
0.627451 0.627451 0.627451
0.650980 0.650980 0.650980
0.427451 0.427451 0.427451
0.466667 0.466667 0.466667
0.482353 0.482353 0.482353
0.517647 0.517647 0.517647
0.556863 0.556863 0.556863
0.596078 0.596078 0.596078
0.639216 0.639216 0.639216
0.678431 0.678431 0.678431
0.694118 0.694118 0.694118
0.509804 0.509804 0.509804
0.529412 0.529412 0.529412
0.549020 0.549020 0.549020
0.580392 0.580392 0.580392
0.619608 0.619608 0.619608
0.658824 0.658824 0.658824
0.698039 0.698039 0.698039
0.729412 0.729412 0.729412
0.749020 0.749020 0.749020
0.584314 0.584314 0.584314
0.600000 0.600000 0.600000
0.615686 0.615686 0.615686
0.647059 0.647059 0.647059
0.682353 0.682353 0.682353
0.713725 0.713725 0.713725
0.752941 0.752941 0.752941
0.784314 0.784314 0.784314
0.803922 0.803922 0.803922
0.643137 0.643137 0.643137
0.654902 0.654902 0.654902
0.670588 0.670588 0.670588
0.698039 0.698039 0.698039
0.729412 0.729412 0.729412
0.768627 0.768627 0.768627
0.800000 0.800000 0.800000
0.839216 0.839216 0.839216
0.894118 0.894118 0.894118
0.682353 0.682353 0.682353
0.686275 0.686275 0.686275
0.698039 0.698039 0.698039
0.725490 0.725490 0.725490
0.760784 0.760784 0.760784
0.796078 0.796078 0.796078
0.870588 0.870588 0.870588
0.890196 0.890196 0.890196
0.929412 0.929412 0.929412
0.682353 0.682353 0.682353
0.686275 0.686275 0.686275
0.764706 0.764706 0.764706
0.725490 0.725490 0.725490
0.827451 0.827451 0.827451
0.858824 0.858824 0.858824
0.874510 0.874510 0.874510
0.890196 0.890196 0.890196
0.929412 0.929412 0.929412
0.372549 0.372549 0.372549
0.392157 0.392157 0.392157
0.423529 0.423529 0.423529
0.462745 0.462745 0.462745
0.513725 0.513725 0.513725
0.552941 0.552941 0.552941
0.592157 0.592157 0.592157
0.627451 0.627451 0.627451
0.658824 0.658824 0.658824
0.388235 0.388235 0.388235
0.435294 0.435294 0.435294
0.454902 0.454902 0.454902
0.490196 0.490196 0.490196
0.529412 0.529412 0.529412
0.572549 0.572549 0.572549
0.611765 0.611765 0.611765
0.647059 0.647059 0.647059
0.670588 0.670588 0.670588
0.431373 0.431373 0.431373
0.482353 0.482353 0.482353
0.501961 0.501961 0.501961
0.525490 0.525490 0.525490
0.560784 0.560784 0.560784
0.600000 0.600000 0.600000
0.639216 0.639216 0.639216
0.674510 0.674510 0.674510
0.694118 0.694118 0.694118
0.490196 0.490196 0.490196
0.529412 0.529412 0.529412
0.545098 0.545098 0.545098
0.572549 0.572549 0.572549
0.611765 0.611765 0.611765
0.647059 0.647059 0.647059
0.682353 0.682353 0.682353
0.713725 0.713725 0.713725
0.729412 0.729412 0.729412
0.556863 0.556863 0.556863
0.588235 0.588235 0.588235
0.603922 0.603922 0.603922
0.631373 0.631373 0.631373
0.662745 0.662745 0.662745
0.698039 0.698039 0.698039
0.729412 0.729412 0.729412
0.760784 0.760784 0.760784
0.780392 0.780392 0.780392
0.627451 0.627451 0.627451
0.650980 0.650980 0.650980
0.666667 0.666667 0.666667
0.690196 0.690196 0.690196
0.717647 0.717647 0.717647
0.749020 0.749020 0.749020
0.780392 0.780392 0.780392
0.815686 0.815686 0.815686
0.835294 0.835294 0.835294
0.690196 0.690196 0.690196
0.698039 0.698039 0.698039
0.713725 0.713725 0.713725
0.737255 0.737255 0.737255
0.768627 0.768627 0.768627
0.796078 0.796078 0.796078
0.827451 0.827451 0.827451
0.866667 0.866667 0.866667
0.921569 0.921569 0.921569
0.713725 0.713725 0.713725
0.725490 0.725490 0.725490
0.768627 0.768627 0.768627
0.819608 0.819608 0.819608
0.827451 0.827451 0.827451
0.862745 0.862745 0.862745
0.858824 0.858824 0.858824
0.913725 0.913725 0.913725
0.949020 0.949020 0.949020
0.823529 0.823529 0.823529
0.776471 0.776471 0.776471
0.768627 0.768627 0.768627
0.819608 0.819608 0.819608
0.831373 0.831373 0.831373
0.862745 0.862745 0.862745
0.901961 0.901961 0.901961
0.913725 0.913725 0.913725
0.949020 0.949020 0.949020
0.443137 0.443137 0.443137
0.458824 0.458824 0.458824
0.486275 0.486275 0.486275
0.525490 0.525490 0.525490
0.572549 0.572549 0.572549
0.615686 0.615686 0.615686
0.654902 0.654902 0.654902
0.682353 0.682353 0.682353
0.682353 0.682353 0.682353
0.454902 0.454902 0.454902
0.509804 0.509804 0.509804
0.529412 0.529412 0.529412
0.564706 0.564706 0.564706
0.600000 0.600000 0.600000
0.635294 0.635294 0.635294
0.666667 0.666667 0.666667
0.701961 0.701961 0.701961
0.690196 0.690196 0.690196
0.513725 0.513725 0.513725
0.552941 0.552941 0.552941
0.568627 0.568627 0.568627
0.596078 0.596078 0.596078
0.623529 0.623529 0.623529
0.658824 0.658824 0.658824
0.694118 0.694118 0.694118
0.713725 0.713725 0.713725
0.717647 0.717647 0.717647
0.549020 0.549020 0.549020
0.600000 0.600000 0.600000
0.611765 0.611765 0.611765
0.635294 0.635294 0.635294
0.666667 0.666667 0.666667
0.698039 0.698039 0.698039
0.721569 0.721569 0.721569
0.752941 0.752941 0.752941
0.749020 0.749020 0.749020
0.607843 0.607843 0.607843
0.650980 0.650980 0.650980
0.666667 0.666667 0.666667
0.690196 0.690196 0.690196
0.709804 0.709804 0.709804
0.741176 0.741176 0.741176
0.768627 0.768627 0.768627
0.796078 0.796078 0.796078
0.843137 0.843137 0.843137
0.674510 0.674510 0.674510
0.701961 0.701961 0.701961
0.713725 0.713725 0.713725
0.737255 0.737255 0.737255
0.760784 0.760784 0.760784
0.788235 0.788235 0.788235
0.815686 0.815686 0.815686
0.847059 0.847059 0.847059
0.878431 0.878431 0.878431
0.737255 0.737255 0.737255
0.752941 0.752941 0.752941
0.764706 0.764706 0.764706
0.784314 0.784314 0.784314
0.807843 0.807843 0.807843
0.839216 0.839216 0.839216
0.862745 0.862745 0.862745
0.894118 0.894118 0.894118
0.933333 0.933333 0.933333
0.827451 0.827451 0.827451
0.780392 0.780392 0.780392
0.815686 0.815686 0.815686
0.827451 0.827451 0.827451
0.862745 0.862745 0.862745
0.894118 0.894118 0.894118
0.913725 0.913725 0.913725
0.941176 0.941176 0.941176
0.976471 0.976471 0.976471
0.827451 0.827451 0.827451
0.796078 0.796078 0.796078
0.815686 0.815686 0.815686
0.827451 0.827451 0.827451
0.862745 0.862745 0.862745
0.894118 0.894118 0.894118
0.913725 0.913725 0.913725
0.941176 0.941176 0.941176
0.976471 0.976471 0.976471
0.509804 0.509804 0.509804
0.521569 0.521569 0.521569
0.541176 0.541176 0.541176
0.576471 0.576471 0.576471
0.619608 0.619608 0.619608
0.662745 0.662745 0.662745
0.701961 0.701961 0.701961
0.749020 0.749020 0.749020
0.749020 0.749020 0.749020
0.517647 0.517647 0.517647
0.545098 0.545098 0.545098
0.568627 0.568627 0.568627
0.600000 0.600000 0.600000
0.639216 0.639216 0.639216
0.682353 0.682353 0.682353
0.717647 0.717647 0.717647
0.749020 0.749020 0.749020
0.749020 0.749020 0.749020
0.560784 0.560784 0.560784
0.576471 0.576471 0.576471
0.635294 0.635294 0.635294
0.658824 0.658824 0.658824
0.686275 0.686275 0.686275
0.713725 0.713725 0.713725
0.741176 0.741176 0.741176
0.764706 0.764706 0.764706
0.764706 0.764706 0.764706
0.600000 0.603922 0.603922
0.631373 0.631373 0.631373
0.678431 0.678431 0.678431
0.698039 0.698039 0.698039
0.721569 0.721569 0.721569
0.749020 0.749020 0.749020
0.768627 0.768627 0.768627
0.796078 0.796078 0.796078
0.811765 0.811765 0.811765
0.647059 0.647059 0.647059
0.666667 0.666667 0.666667
0.725490 0.725490 0.725490
0.741176 0.741176 0.741176
0.760784 0.760784 0.760784
0.784314 0.784314 0.784314
0.807843 0.807843 0.807843
0.839216 0.839216 0.839216
0.843137 0.843137 0.843137
0.713725 0.713725 0.713725
0.725490 0.725490 0.725490
0.756863 0.756863 0.756863
0.788235 0.788235 0.788235
0.807843 0.807843 0.807843
0.831373 0.831373 0.831373
0.850980 0.850980 0.850980
0.882353 0.882353 0.882353
0.894118 0.894118 0.894118
0.776471 0.776471 0.776471
0.788235 0.788235 0.788235
0.803922 0.803922 0.803922
0.827451 0.827451 0.827451
0.847059 0.847059 0.847059
0.874510 0.874510 0.874510
0.894118 0.894118 0.894118
0.925490 0.925490 0.925490
0.945098 0.945098 0.945098
0.803922 0.803922 0.803922
0.819608 0.819608 0.819608
0.835294 0.835294 0.835294
0.850980 0.850980 0.850980
0.858824 0.858824 0.858824
0.898039 0.898039 0.898039
0.925490 0.925490 0.925490
0.968627 0.968627 0.968627
0.972549 0.972549 0.972549
0.827451 0.827451 0.827451
0.819608 0.819608 0.819608
0.815686 0.815686 0.815686
0.827451 0.827451 0.827451
0.882353 0.882353 0.882353
0.917647 0.917647 0.917647
0.941176 0.941176 0.941176
0.968627 0.968627 0.968627
0.972549 0.972549 0.972549
