luts/FUJI_PRO_NEG_Hi.cube
TITLE "Generated for krafta web app"
LUT_3D_SIZE 25
#INPUTGAMMA sRGB
#IMAGEPROFILE sRGB
#OUTPUTGAMMA sRGB
0.000000 0.000000 0.000000
0.002699 0.000507 0.000560
0.051170 0.009448 0.010500
0.095638 0.017553 0.019712
0.144472 0.027875 0.031220
0.192752 0.037546 0.041542
0.237675 0.047056 0.051468
0.282654 0.056873 0.061994
0.326433 0.066405 0.071862
0.370110 0.076176 0.081841
0.419025 0.083960 0.089631
0.461791 0.092526 0.098562
0.502744 0.101699 0.108021
0.542685 0.110654 0.117313
0.581183 0.119475 0.126156
0.619778 0.128253 0.134801
0.659050 0.136847 0.144049
0.696845 0.145759 0.152880
0.739263 0.158509 0.161770
0.777084 0.160021 0.166186
0.812452 0.166212 0.172235
0.845506 0.171401 0.177275
0.899489 0.191133 0.183915
0.908597 0.182901 0.189590
0.937771 0.188905 0.194213
0.000265 0.003861 0.000117
0.003558 0.004434 0.000729
0.049986 0.012471 0.009451
0.096273 0.020806 0.019168
0.145040 0.030996 0.030717
0.192229 0.040307 0.040878
0.238142 0.049920 0.051138
0.283159 0.059666 0.061742
0.327088 0.069125 0.071698
0.370928 0.078800 0.081694
0.419088 0.086760 0.089823
0.462322 0.095356 0.098566
0.503179 0.104433 0.107754
0.543450 0.113425 0.117218
0.582006 0.122229 0.126131
0.620764 0.131049 0.134873
0.659941 0.139573 0.144092
0.697795 0.148470 0.152973
0.740231 0.161111 0.161767
0.776845 0.162835 0.166559
0.812577 0.169101 0.172419
0.846099 0.174285 0.176956
0.898068 0.192122 0.183864
0.909473 0.185274 0.189594
0.938915 0.191404 0.194248
0.003000 0.043913 0.001093
0.006296 0.044538 0.001113
0.053032 0.048020 0.002939
0.098777 0.054658 0.012479
0.147812 0.063357 0.024574
0.195578 0.071509 0.035607
0.243079 0.080524 0.047359
0.288264 0.089504 0.058712
0.333495 0.098518 0.069578
0.378104 0.107275 0.079592
0.423105 0.117034 0.090821
0.467442 0.125672 0.098416
0.510183 0.134463 0.106220
0.550698 0.143257 0.115793
0.589975 0.151758 0.125493
0.630257 0.160778 0.135182
0.668991 0.168662 0.144390
0.707480 0.177219 0.153452
0.749314 0.188162 0.161496
0.777559 0.192010 0.169399
0.814115 0.198842 0.174259
0.853944 0.203037 0.175745
0.888223 0.205180 0.183507
0.918845 0.210228 0.189435
0.949984 0.217136 0.194095
0.005450 0.083468 0.000802
0.008552 0.083693 0.000844
0.054019 0.086960 0.002020
0.101799 0.090571 0.007159
0.149204 0.096508 0.017938
0.197887 0.103853 0.030012
0.245210 0.111546 0.041671
0.292983 0.120478 0.054014
0.339640 0.130162 0.065524
0.384143 0.139043 0.075801
0.427732 0.147530 0.085447
0.472595 0.157528 0.096944
0.514997 0.165932 0.105818
0.556747 0.175010 0.112740
0.597211 0.183119 0.123483
0.637946 0.191609 0.133927
0.677052 0.199096 0.143482
0.716845 0.206838 0.151883
0.753515 0.214047 0.159691
0.784783 0.219166 0.166798
0.817788 0.226094 0.174390
0.860286 0.225761 0.181516
0.897695 0.230050 0.183913
0.928874 0.235404 0.188139
0.957380 0.241145 0.191699
0.007286 0.124177 -0.000074
0.010254 0.124386 -0.000086
0.054205 0.127632 0.000389
0.103189 0.130444 0.004693
0.153451 0.134584 0.013731
0.202618 0.140088 0.025687
0.247550 0.144811 0.036138
0.295070 0.152804 0.047630
0.338401 0.159939 0.056840
0.385984 0.169380 0.068831
0.429827 0.178183 0.078943
0.475357 0.188016 0.090357
0.517763 0.196842 0.099954
0.559411 0.205237 0.107711
0.601098 0.214015 0.118850
0.642447 0.222906 0.129764
0.682212 0.230579 0.138613
0.720956 0.237511 0.147408
0.756068 0.243458 0.155066
0.789391 0.249667 0.162240
0.823514 0.256881 0.168822
0.861533 0.256461 0.182128
0.900147 0.259957 0.182767
0.936847 0.264672 0.184177
0.965007 0.270085 0.187971
0.009259 0.165170 0.000000
0.012103 0.165371 -0.000006
0.054486 0.168418 -0.000037
0.103089 0.171875 0.002116
0.153805 0.174402 0.010343
0.205421 0.178378 0.020144
0.254402 0.183896 0.032013
0.300771 0.190136 0.043305
0.342785 0.195177 0.052043
0.386904 0.201704 0.062147
0.429862 0.208922 0.071762
0.471326 0.216468 0.080899
0.519249 0.227348 0.093185
0.560850 0.235603 0.102423
0.603552 0.244546 0.112606
0.645521 0.253367 0.122864
0.686319 0.261749 0.132291
0.725681 0.269136 0.141552
0.763330 0.274353 0.150107
0.796006 0.280628 0.156680
0.835246 0.284443 0.167200
0.872107 0.285556 0.178470
0.908217 0.289336 0.178427
0.945777 0.294509 0.179407
0.972870 0.300728 0.183939
0.010850 0.205855 0.000000
0.013606 0.206053 0.000001
0.054813 0.209294 -0.000045
0.102850 0.213081 0.000220
0.154042 0.216112 0.005386
0.205719 0.218814 0.015274
0.256612 0.222707 0.025637
0.305404 0.227865 0.038005
0.351134 0.234379 0.049133
0.392571 0.239215 0.057772
0.436494 0.245553 0.068272
0.476330 0.250651 0.076516
0.517604 0.257707 0.085085
0.560004 0.265869 0.093938
0.603469 0.274537 0.104251
0.647287 0.283719 0.115179
0.687275 0.291567 0.124253
0.733614 0.299318 0.136457
0.773702 0.306541 0.145731
0.805672 0.312933 0.151758
0.852314 0.311138 0.168319
0.884716 0.315855 0.176425
0.922614 0.320752 0.174971
0.958293 0.326438 0.176142
0.981402 0.332619 0.181021
0.012194 0.246460 0.000000
0.014877 0.246645 0.000000
0.055185 0.249469 0.000004
0.103122 0.253712 -0.000194
0.154790 0.257352 0.001232
0.206481 0.260227 0.009730
0.257265 0.263089 0.020608
0.306294 0.266470 0.030836
0.353442 0.270880 0.042443
0.397736 0.277130 0.052485
0.442423 0.283344 0.063555
0.485725 0.289491 0.073864
0.521872 0.293071 0.079855
0.563763 0.299584 0.089276
0.601679 0.304888 0.096071
0.643467 0.312498 0.105255
0.685662 0.320591 0.114830
0.736415 0.327879 0.129740
0.774894 0.335953 0.138589
0.813911 0.344623 0.147478
0.862436 0.342422 0.165471
0.895542 0.347174 0.174489
0.933539 0.352712 0.172047
0.969286 0.358364 0.173649
0.988594 0.364442 0.178551
0.013223 0.286806 0.000000
0.015859 0.287074 0.000000
0.055605 0.289605 0.000000
0.103828 0.293473 -0.000056
0.156104 0.297408 0.000384
0.208321 0.300989 0.006035
0.258888 0.304069 0.015951
0.306372 0.306352 0.025345
0.354047 0.309492 0.035091
0.400953 0.313807 0.046457
0.445501 0.319837 0.057230
0.488516 0.325988 0.067198
0.530529 0.331875 0.076436
0.570979 0.337138 0.085351
0.610849 0.342083 0.094082
0.646677 0.346208 0.099770
0.688458 0.352707 0.108532
0.731883 0.355809 0.118997
0.772020 0.364327 0.129605
0.816187 0.374420 0.139697
0.869967 0.372555 0.161924
0.905226 0.377750 0.171648
0.942225 0.383646 0.173499
0.976229 0.389684 0.171342
0.994802 0.395766 0.176497
0.013404 0.327684 0.000000
0.016048 0.327879 0.000000
0.055946 0.329765 0.000000
0.104411 0.333471 -0.000016
0.156955 0.337985 -0.000148
0.209588 0.341126 0.004358
0.260274 0.344002 0.012916
0.307492 0.346147 0.022116
0.354763 0.349283 0.029276
0.401833 0.352388 0.039251
0.446076 0.356177 0.048771
0.488205 0.361700 0.057771
0.530958 0.367776 0.067851
0.571690 0.373409 0.076350
0.614976 0.379314 0.087591
0.657485 0.384763 0.098559
0.698435 0.390414 0.108202
0.739360 0.392434 0.118043
0.774682 0.396326 0.123538
0.820891 0.406371 0.133651
0.876505 0.403303 0.157189
0.912440 0.408039 0.167558
0.948159 0.414764 0.174765
0.980649 0.420935 0.170657
0.999079 0.427400 0.174552
0.015241 0.367668 0.000000
0.017742 0.367812 0.000000
0.056122 0.370053 0.000000
0.105037 0.373644 0.000000
0.157048 0.378207 -0.000151
0.209273 0.381678 0.001147
0.260283 0.383699 0.010023
0.308968 0.386310 0.019055
0.356240 0.389178 0.026694
0.401382 0.392160 0.032286
0.444706 0.394733 0.039246
0.488488 0.398289 0.048870
0.532241 0.403497 0.059719
0.575116 0.409639 0.070281
0.618183 0.415577 0.081352
0.662983 0.421393 0.094279
0.704910 0.426636 0.104832
0.749165 0.429952 0.117804
0.787342 0.434090 0.125685
0.826713 0.438379 0.134098
0.880615 0.435125 0.155611
0.918838 0.439928 0.165554
0.956176 0.446092 0.171761
0.986730 0.452180 0.167831
0.999982 0.459041 0.172710
0.017364 0.407131 0.000000
0.019762 0.407288 0.000000
0.056721 0.409688 0.000000
0.104787 0.413303 0.000000
0.156778 0.417790 -0.000006
0.209014 0.422230 -0.000563
0.260810 0.424055 0.006261
0.309492 0.425563 0.016478
0.356911 0.428716 0.023681
0.402159 0.431612 0.029250
0.446200 0.434329 0.034273
0.488864 0.437122 0.041230
0.533365 0.440620 0.051965
0.578212 0.445678 0.063871
0.621978 0.451609 0.075843
0.666634 0.457452 0.088788
0.708854 0.462634 0.099692
0.752960 0.465984 0.112402
0.793695 0.469766 0.123312
0.832511 0.472866 0.132911
0.886490 0.467414 0.153991
0.924720 0.471807 0.163391
0.961428 0.477259 0.167495
0.991918 0.483273 0.165493
0.999999 0.490510 0.170657
0.018585 0.446666 0.000000
0.021017 0.446723 0.000000
0.058214 0.448720 0.000000
0.105328 0.452008 0.000000
0.156979 0.456650 0.000000
0.209341 0.460942 -0.000062
0.260360 0.465319 -0.000096
0.308016 0.465455 0.009568
0.355596 0.467115 0.018992
0.402788 0.470367 0.025920
0.448152 0.473242 0.032123
0.493275 0.476385 0.038858
0.535801 0.479037 0.046627
0.582163 0.482688 0.059454
0.626758 0.487355 0.071454
0.669424 0.493023 0.082661
0.711103 0.498265 0.092644
0.754081 0.502077 0.104103
0.795800 0.505178 0.115631
0.835247 0.508115 0.126726
0.885708 0.503493 0.146660
0.926919 0.506073 0.156998
0.959348 0.509077 0.168515
0.985385 0.514546 0.172691
0.999990 0.521703 0.168615
0.019858 0.485644 0.000000
0.022307 0.485714 0.000000
0.059453 0.487101 0.000000
0.105749 0.490200 0.000000
0.157120 0.494787 0.000000
0.208856 0.499237 0.000000
0.258963 0.502801 -0.000102
0.306184 0.505620 0.000860
0.353422 0.508309 0.006693
0.400412 0.510547 0.014485
0.446983 0.511006 0.029279
0.493597 0.514431 0.036440
0.538417 0.517267 0.042812
0.583497 0.520217 0.053176
0.628604 0.523572 0.064929
0.671808 0.527580 0.075172
0.713133 0.532640 0.084288
0.754895 0.536911 0.094430
0.795989 0.539721 0.105009
0.833132 0.544078 0.113287
0.883298 0.539208 0.132553
0.924403 0.543095 0.145037
0.958915 0.545853 0.158168
0.986458 0.549059 0.165783
0.999991 0.553814 0.165460
0.020282 0.524833 0.000000
0.022736 0.524854 0.000000
0.059939 0.525541 0.000000
0.106173 0.528306 0.000000
0.157636 0.532712 0.000000
0.207147 0.536774 0.000000
0.253850 0.540406 0.000002
0.299921 0.543912 -0.000292
0.347808 0.544704 0.004133
0.396906 0.547236 0.012119
0.446612 0.550130 0.021169
0.492925 0.551480 0.033651
0.538993 0.554443 0.040554
0.583818 0.556308 0.046284
0.627657 0.558960 0.054754
0.671077 0.561593 0.063612
0.713385 0.564513 0.072125
0.754170 0.568784 0.080738
0.794922 0.572007 0.091065
0.832727 0.576365 0.099572
0.880272 0.574658 0.117239
0.921238 0.580761 0.131435
0.957737 0.584735 0.145810
0.987403 0.587912 0.150680
0.999996 0.591040 0.154863
0.022039 0.562667 0.000000
0.024427 0.562718 0.000000
0.060513 0.563869 0.000000
0.104708 0.566891 0.000000
0.153014 0.570156 0.000000
0.201112 0.573597 0.000000
0.246728 0.576936 0.000000
0.289551 0.579617 0.000007
0.333332 0.582386 -0.000470
0.378571 0.580659 0.010206
0.424334 0.582432 0.018949
0.470891 0.584150 0.029960
0.519735 0.587857 0.036464
0.568400 0.589089 0.038480
0.616651 0.591926 0.043231
0.664543 0.595223 0.050691
0.709935 0.598174 0.058762
0.753533 0.600847 0.067970
0.793398 0.604293 0.077164
0.831224 0.608533 0.085568
0.876692 0.609524 0.101173
0.917938 0.618755 0.117764
0.956416 0.623604 0.132890
0.988069 0.627215 0.136454
0.999996 0.629487 0.142206
0.024329 0.598867 0.000000
0.026633 0.598955 0.000000
0.061584 0.600549 0.000000
0.104908 0.603775 0.000000
0.151925 0.606957 0.000000
0.197549 0.610076 0.000000
0.240288 0.612318 0.000000
0.281169 0.614184 0.000000
0.323576 0.616169 -0.000092
0.368832 0.617049 0.002581
0.414453 0.616167 0.016695
0.460959 0.617562 0.023267
0.506330 0.618921 0.026284
0.551334 0.619659 0.027940
0.598642 0.623005 0.034900
0.648782 0.627953 0.040589
0.700138 0.632590 0.047631
0.747630 0.636337 0.055828
0.790906 0.639015 0.065585
0.829911 0.642824 0.074536
0.873593 0.647316 0.089499
0.915089 0.656822 0.106008
0.954635 0.664330 0.119846
0.988421 0.666859 0.121996
0.999996 0.667727 0.130080
0.024287 0.635092 0.000000
0.026643 0.635142 0.000000
0.061982 0.636250 0.000000
0.103919 0.638836 0.000000
0.149704 0.641847 0.000000
0.184801 0.643136 0.000000
0.212239 0.642911 0.000000
0.243903 0.643286 0.000000
0.277218 0.644086 0.000001
0.309695 0.643829 -0.000044
0.346255 0.641834 0.002779
0.390542 0.640017 0.021170
0.435659 0.641478 0.022223
0.488476 0.646251 0.025015
0.542581 0.652158 0.028570
0.597686 0.658084 0.033658
0.657165 0.664411 0.037925
0.721931 0.671975 0.047516
0.776987 0.677471 0.054218
0.827316 0.681731 0.067348
0.870761 0.686186 0.079782
0.912306 0.695512 0.094680
0.951673 0.703908 0.106717
0.988809 0.702950 0.107440
0.999993 0.704075 0.117446
0.023636 0.669025 0.000000
0.025969 0.669006 0.000000
0.059356 0.668879 0.000000
0.091328 0.669562 0.000000
0.124006 0.670192 0.000000
0.155336 0.670706 0.000000
0.185270 0.671390 0.000000
0.216363 0.671388 0.000000
0.247636 0.670885 0.000000
0.278648 0.669919 -0.000003
0.312726 0.668909 0.000062
0.360085 0.670943 0.000758
0.407285 0.673665 0.004736
0.450075 0.677691 0.003249
0.493741 0.682387 0.004352
0.558755 0.691468 0.032461
0.613138 0.698418 0.039555
0.688339 0.709103 0.048366
0.754084 0.716991 0.054807
0.808309 0.719806 0.057926
0.863329 0.724964 0.069591
0.909988 0.730586 0.085135
0.949898 0.737495 0.096824
0.982766 0.736204 0.104304
0.999994 0.739577 0.104473
0.026965 0.696798 0.000000
0.028903 0.696929 0.000000
0.057639 0.698526 0.000000
0.088608 0.698738 0.000000
0.118189 0.699050 0.000000
0.146154 0.699239 0.000000
0.168657 0.697972 0.000000
0.190559 0.695285 0.000000
0.211931 0.691589 0.000000
0.246607 0.692067 0.000000
0.282988 0.693124 -0.000042
0.325075 0.696129 -0.000273
0.374787 0.702227 0.000316
0.424403 0.708858 0.000038
0.477478 0.716020 0.000133
0.534419 0.723310 0.004439
0.581050 0.728212 0.007397
0.636712 0.734969 0.011534
0.704924 0.742574 0.018600
0.794282 0.751743 0.055420
0.854989 0.757647 0.063876
0.906790 0.763070 0.074553
0.948788 0.767366 0.088397
0.981776 0.767868 0.093697
1.000014 0.771708 0.092402
0.027936 0.725859 0.000000
0.029800 0.726152 0.000000
0.056037 0.729435 0.000000
0.079802 0.730067 0.000000
0.103372 0.729769 0.000000
0.121244 0.727721 0.000000
0.138561 0.724044 0.000000
0.161035 0.720836 0.000000
0.192499 0.720870 0.000000
0.232460 0.723627 0.000000
0.274438 0.726979 0.000000
0.330840 0.736091 -0.000004
0.382316 0.743152 -0.000094
0.433420 0.749831 -0.000059
0.476125 0.753398 -0.000083
0.519044 0.757063 -0.000699
0.560935 0.761004 -0.000393
0.605461 0.765347 0.000106
0.663032 0.771684 0.001260
0.749020 0.781396 0.021767
0.816479 0.788330 0.031231
0.881643 0.793558 0.052443
0.939972 0.798515 0.065193
0.977082 0.801400 0.085494
1.000403 0.805932 0.079977
0.025683 0.757297 0.000000
0.027550 0.757607 0.000000
0.052043 0.761096 0.000000
0.066103 0.758977 0.000000
0.080224 0.755972 0.000000
0.091076 0.750669 0.000000
0.112424 0.749005 0.000000
0.143823 0.749615 0.000000
0.182547 0.752478 0.000000
0.227916 0.758176 0.000000
0.278521 0.764914 0.000000
0.341402 0.775822 0.000000
0.394049 0.783032 0.000000
0.436752 0.787441 0.000000
0.475849 0.791376 0.000000
0.515244 0.795873 -0.000002
0.560195 0.800438 -0.000041
0.605373 0.804985 -0.000102
0.636687 0.806508 -0.000265
0.684859 0.810260 0.001262
0.750948 0.816506 0.007936
0.824627 0.823389 0.018458
0.895590 0.830200 0.030813
0.955113 0.835719 0.047155
0.994227 0.842936 0.064118
0.022975 0.787027 0.000000
0.023940 0.787005 0.000000
0.037786 0.785961 0.000000
0.050361 0.782095 0.000000
0.058806 0.776729 0.000000
0.068049 0.775058 0.000000
0.091633 0.775308 0.000000
0.124430 0.776680 0.000000
0.170881 0.782420 0.000000
0.227185 0.790612 0.000000
0.285316 0.798656 0.000000
0.347159 0.808418 0.000000
0.402917 0.816115 0.000000
0.450972 0.822562 0.000000
0.496798 0.829289 0.000000
0.542812 0.835660 0.000000
0.584907 0.839933 0.000000
0.613294 0.840704 0.000000
0.629009 0.840141 0.000002
0.641558 0.838960 -0.000222
0.686849 0.842579 0.001294
0.753670 0.849003 0.004093
0.827112 0.856604 0.011006
0.892220 0.863576 0.021913
0.959269 0.871593 0.036518
0.021408 0.812599 0.000000
0.022259 0.812250 0.000000
0.033519 0.807468 0.000000
0.039673 0.803292 0.000000
0.041788 0.801019 0.000000
0.051101 0.800979 0.000000
0.081003 0.803583 0.000000
0.124438 0.808030 0.000000
0.180767 0.815226 0.000000
0.240747 0.824108 0.000000
0.300688 0.833255 0.000000
0.365252 0.844762 0.000000
0.429474 0.855307 0.000000
0.484713 0.863874 0.000000
0.533166 0.870887 0.000000
0.552217 0.871670 0.000000
0.572126 0.872259 0.000000
0.587989 0.871619 0.000000
0.593671 0.869137 0.000000
0.602119 0.866860 -0.000002
0.618617 0.865069 0.000031
0.669358 0.868892 0.000124
0.743657 0.876621 0.000358
0.816434 0.884878 0.001352
0.892122 0.893674 0.009004
0.016104 0.831675 0.000000
0.016573 0.831646 0.000000
0.022236 0.830852 0.000000
0.021834 0.827978 0.000000
0.019614 0.825498 0.000000
0.040565 0.828885 0.000000
0.087257 0.835330 0.000000
0.142473 0.843169 0.000000
0.204840 0.852495 0.000000
0.271092 0.863801 0.000000
0.335190 0.875166 0.000000
0.403533 0.887285 0.000000
0.470720 0.898805 0.000000
0.502576 0.902568 0.000000
0.520152 0.903133 0.000000
0.530257 0.902048 0.000000
0.543076 0.901631 0.000000
0.551478 0.899288 0.000000
0.550036 0.895446 0.000000
0.549082 0.891625 0.000000
0.556063 0.888606 0.000000
0.570044 0.886596 0.000000
0.635575 0.892715 0.000000
0.710223 0.901216 0.000000
0.797943 0.912011 0.000003
0.001868 0.002241 0.008626
0.004794 0.002442 0.007722
0.050269 0.010621 0.016138
0.097060 0.019219 0.026317
0.145656 0.029393 0.037516
0.192550 0.038577 0.047097
0.238145 0.048084 0.056796
0.283269 0.058155 0.067568
0.327433 0.067573 0.077298
0.371786 0.077171 0.087207
0.419520 0.085010 0.095092
0.462484 0.093605 0.103974
0.502974 0.102583 0.113201
0.543109 0.111494 0.122394
0.581573 0.120210 0.131126
0.620119 0.128931 0.139659
0.659232 0.137440 0.148771
0.696816 0.146256 0.157480
0.739334 0.158834 0.166278
0.775500 0.160595 0.171177
0.811601 0.166814 0.177485
0.845717 0.171892 0.182333
0.895670 0.189359 0.188573
0.907629 0.183437 0.193938
0.936998 0.189584 0.198575
0.001778 0.005604 0.007136
0.005029 0.006160 0.007721
0.051418 0.014043 0.016161
0.097060 0.022169 0.025536
0.145738 0.032285 0.036869
0.192868 0.041425 0.046617
0.238577 0.050884 0.056488
0.283738 0.060879 0.067320
0.327993 0.070184 0.077062
0.372436 0.079706 0.086995
0.419759 0.087747 0.095232
0.462814 0.096316 0.103912
0.503590 0.105302 0.113008
0.543768 0.114204 0.122313
0.582254 0.122903 0.131105
0.621021 0.131679 0.139745
0.660124 0.140133 0.148837
0.697803 0.148943 0.157598
0.740314 0.161424 0.166312
0.775614 0.163381 0.171554
0.811759 0.169631 0.177678
0.846200 0.174739 0.182105
0.894503 0.190558 0.188500
0.908453 0.185807 0.193920
0.938072 0.192065 0.198587
0.004373 0.045315 0.007466
0.007446 0.045011 0.007427
0.052140 0.047875 0.008421
0.097558 0.054250 0.017815
0.147052 0.063177 0.030113
0.194598 0.071503 0.041067
0.241166 0.080395 0.052387
0.287290 0.089742 0.063963
0.333484 0.098657 0.074477
0.378218 0.107432 0.084282
0.422987 0.117086 0.095350
0.466663 0.125698 0.103179
0.509561 0.134585 0.111336
0.550109 0.143418 0.120937
0.589552 0.151974 0.130563
0.629776 0.160958 0.140121
0.668914 0.168867 0.149223
0.707701 0.177445 0.158235
0.749409 0.188345 0.166304
0.777829 0.192229 0.174203
0.813723 0.198681 0.179518
0.851872 0.202986 0.181230
0.886840 0.205433 0.187875
0.917347 0.210698 0.193540
0.948734 0.217351 0.197797
0.006642 0.084421 0.005747
0.009603 0.084559 0.005746
0.053488 0.087172 0.006749
0.101433 0.090583 0.013220
0.148048 0.095809 0.023608
0.197014 0.103319 0.035434
0.243876 0.111038 0.046765
0.291620 0.120101 0.058931
0.338483 0.130053 0.070747
0.384121 0.139098 0.080484
0.427709 0.147627 0.089856
0.472446 0.157542 0.101262
0.514914 0.166007 0.110375
0.556335 0.174866 0.117643
0.596994 0.183115 0.128332
0.637533 0.191615 0.138621
0.676833 0.199153 0.148102
0.716544 0.206859 0.156444
0.753160 0.214073 0.164241
0.784535 0.219090 0.171470
0.818037 0.225516 0.179373
0.858577 0.226018 0.185892
0.895996 0.230239 0.187895
0.927348 0.235795 0.192098
0.956386 0.241689 0.195755
0.008368 0.125326 0.003705
0.011199 0.125228 0.003654
0.053738 0.127608 0.003955
0.103024 0.130629 0.009994
0.152800 0.134264 0.019605
0.201626 0.139613 0.031222
0.246593 0.144267 0.041472
0.293697 0.152224 0.052586
0.336819 0.159031 0.061855
0.384783 0.169013 0.074090
0.429161 0.177943 0.083495
0.474686 0.188076 0.094261
0.517348 0.196762 0.104167
0.559249 0.205241 0.112407
0.601032 0.214076 0.123487
0.642355 0.222919 0.134233
0.681944 0.230752 0.143104
0.720499 0.237521 0.151931
0.755397 0.243423 0.159470
0.789830 0.248857 0.167418
0.823935 0.255897 0.174047
0.860747 0.256525 0.186321
0.898947 0.260277 0.186779
0.935876 0.265162 0.188223
0.964530 0.270518 0.192094
0.010180 0.166050 0.002679
0.012931 0.166179 0.002631
0.054245 0.168204 0.002424
0.102929 0.171808 0.006135
0.153604 0.174513 0.015457
0.204960 0.178166 0.025950
0.254387 0.183797 0.037910
0.299822 0.189412 0.048689
0.342076 0.194432 0.057590
0.385550 0.200731 0.067438
0.428281 0.207936 0.077181
0.470232 0.215950 0.085361
0.517859 0.227069 0.096732
0.560410 0.235515 0.106591
0.603422 0.244556 0.116940
0.645627 0.253452 0.127343
0.686487 0.261873 0.136840
0.725693 0.269302 0.146108
0.763104 0.274469 0.154698
0.797151 0.279756 0.162164
0.835770 0.283952 0.172236
0.871703 0.285853 0.182768
0.907921 0.289900 0.182451
0.945252 0.295165 0.183574
0.972855 0.301388 0.188096
0.011694 0.206870 0.001688
0.014380 0.206843 0.001664
0.054809 0.209189 0.001559
0.102792 0.213109 0.003280
0.153617 0.215909 0.009558
0.205497 0.218746 0.020430
0.256270 0.222588 0.031314
0.305128 0.227824 0.043791
0.350752 0.233792 0.055093
0.392535 0.238566 0.063968
0.435602 0.244464 0.074132
0.474978 0.249385 0.082264
0.516173 0.256908 0.089802
0.558422 0.265668 0.097387
0.602252 0.274204 0.108103
0.646464 0.283523 0.119181
0.687073 0.291593 0.128664
0.733503 0.299487 0.140760
0.773192 0.306731 0.150226
0.807479 0.311984 0.157709
0.852100 0.311332 0.172796
0.884412 0.316366 0.180725
0.922045 0.321462 0.179026
0.957549 0.327064 0.180312
0.981144 0.333254 0.185207
0.013013 0.247304 0.000718
0.015624 0.247428 0.000686
0.055118 0.249484 0.000595
0.103183 0.253476 0.002064
0.154906 0.257229 0.005190
0.206418 0.260108 0.014185
0.256685 0.262837 0.025668
0.305540 0.266268 0.036285
0.352655 0.270752 0.048002
0.397261 0.276668 0.058446
0.441871 0.282498 0.069669
0.485556 0.288505 0.080439
0.521883 0.292055 0.086756
0.562616 0.298557 0.094648
0.600217 0.304700 0.099509
0.642442 0.312280 0.109123
0.685735 0.320703 0.119016
0.737011 0.328220 0.134114
0.775212 0.336297 0.143162
0.815529 0.343378 0.153285
0.862082 0.342471 0.169823
0.894956 0.347588 0.178600
0.931544 0.353393 0.176994
0.968058 0.359008 0.178160
0.988151 0.365066 0.182786
0.014014 0.287609 0.000075
0.016577 0.287720 0.000051
0.055475 0.289837 -0.000070
0.103658 0.293415 0.001049
0.156079 0.297103 0.003595
0.208048 0.300813 0.010006
0.257909 0.303711 0.019758
0.305315 0.305961 0.030261
0.352858 0.309247 0.040335
0.399675 0.313473 0.051825
0.444622 0.319309 0.063067
0.488122 0.325257 0.073601
0.530607 0.330919 0.083449
0.570697 0.335777 0.092379
0.610557 0.341032 0.100382
0.646352 0.346441 0.103644
0.689163 0.353105 0.112757
0.733412 0.356550 0.123608
0.773187 0.364987 0.134409
0.818225 0.373011 0.145896
0.869442 0.372630 0.166182
0.904656 0.378168 0.175822
0.940483 0.384260 0.178314
0.975314 0.390333 0.175903
0.994367 0.396252 0.180318
0.014312 0.328377 -0.000323
0.016882 0.328531 -0.000341
0.055875 0.329913 -0.000411
0.104146 0.333547 0.000368
0.156644 0.337835 0.001743
0.209245 0.340842 0.007698
0.259511 0.343699 0.016452
0.306543 0.346040 0.025581
0.353479 0.349183 0.032804
0.399708 0.351828 0.044047
0.444628 0.355833 0.054147
0.486895 0.361052 0.063572
0.530430 0.367046 0.074419
0.572014 0.372465 0.083878
0.615507 0.378258 0.095403
0.657733 0.383714 0.105754
0.696337 0.390324 0.113269
0.739875 0.392886 0.122133
0.776246 0.397097 0.128435
0.823405 0.405046 0.140637
0.876338 0.403610 0.162048
0.911994 0.408769 0.171878
0.947469 0.415280 0.178876
0.980347 0.421560 0.174744
0.998792 0.428141 0.179277
0.015952 0.368370 -0.000625
0.018412 0.368537 -0.000625
0.056204 0.370195 -0.000527
0.104829 0.373635 0.000133
0.156805 0.378061 0.001087
0.209045 0.381399 0.004006
0.260009 0.383481 0.013362
0.308369 0.386157 0.022453
