luts/FUJI_VELVIA.cube
TITLE "Generated for krafta web app"
LUT_3D_SIZE 5
#INPUTGAMMA sRGB
#IMAGEPROFILE sRGB
#OUTPUTGAMMA sRGB
0.000000 0.000000 0.000000
0.303867 0.030802 0.016445
0.648322 0.066552 0.033584
0.902766 0.101654 0.051196
1.000000 0.128330 0.043115
0.000000 0.242325 0.000000
0.239519 0.235524 0.000010
0.610807 0.236673 0.004182
0.904613 0.269285 0.027669
1.000000 0.295066 0.010661
0.000000 0.509471 0.000000
0.109941 0.512441 0.000000
0.508848 0.504028 0.000000
0.846815 0.512639 0.000877
1.000000 0.509890 0.001205
0.000000 0.738126 0.000000
0.026096 0.752843 0.000000
0.451257 0.757384 0.000000
0.749676 0.749497 0.008073
1.000000 0.744531 0.009221
0.000000 0.972083 0.000000
0.012198 0.986497 0.000000
0.366398 0.985813 0.000000
0.674982 0.988753 0.000000
0.995517 0.993351 0.000000
0.060030 0.054210 0.379155
0.350775 0.078655 0.374211
0.687161 0.114214 0.378914
0.924699 0.129285 0.345901
1.000000 0.143051 0.307402
0.026831 0.255125 0.272212
0.264249 0.239724 0.249614
0.593161 0.242454 0.246634
0.880878 0.280116 0.265178
1.000000 0.315085 0.249682
0.000000 0.527089 0.140157
0.204294 0.509596 0.137449
0.534786 0.502140 0.183230
0.832627 0.512467 0.234980
1.000000 0.532849 0.205099
0.000000 0.759399 0.012820
0.082917 0.755167 0.024423
0.457273 0.756076 0.129231
0.770795 0.744565 0.226274
1.000000 0.734361 0.172255
0.000000 0.987491 0.000000
0.007031 0.984352 0.000000
0.339877 0.986764 -0.000962
0.666189 0.990593 0.046317
0.996481 0.995118 0.135671
0.124619 0.115242 0.809852
0.405866 0.140337 0.801987
0.694693 0.158949 0.764858
0.900915 0.152541 0.688663
1.000000 0.158789 0.641108
0.131616 0.290067 0.667889
0.319199 0.279576 0.628173
0.626699 0.295367 0.627233
0.861934 0.303707 0.595795
1.000000 0.330158 0.591019
0.046795 0.545206 0.585506
0.267589 0.522053 0.546218
0.516878 0.506629 0.513983
0.811584 0.525306 0.526630
1.000000 0.553169 0.511998
0.005976 0.782782 0.423319
0.199726 0.766614 0.405723
0.497193 0.747284 0.456651
0.756959 0.737997 0.514575
1.000000 0.739135 0.464985
0.000000 0.994763 0.253310
0.092999 0.994565 0.249571
0.334078 0.990109 0.232992
0.653739 0.992865 0.331580
0.981488 0.994555 0.405784
0.178419 0.169142 1.000090
0.414380 0.177654 1.000100
0.642596 0.168882 0.994640
0.859370 0.171900 0.975813
1.000000 0.177196 0.942028
0.126158 0.319481 0.974263
0.308872 0.317198 0.963351
0.590366 0.328614 0.941309
0.848446 0.333331 0.920531
1.000000 0.337843 0.896761
0.175209 0.576705 0.943728
0.391012 0.557053 0.899573
0.564638 0.546703 0.856120
0.813254 0.551225 0.830976
1.000000 0.564107 0.822414
0.077257 0.798535 0.826118
0.280204 0.778410 0.809366
0.538828 0.752637 0.777482
0.748242 0.739227 0.749082
1.000000 0.762865 0.748757
0.020755 0.999995 0.647195
0.195133 0.999995 0.636047
0.433076 0.998874 0.611792
0.586651 0.987244 0.504221
0.992655 0.995840 0.692823
0.185988 0.197295 1.000000
0.373348 0.193781 1.000000
0.618128 0.199482 1.000000
0.853948 0.211556 1.000000
1.000000 0.221950 1.000000
0.083083 0.348023 1.000000
0.317225 0.358835 1.000000
0.600319 0.364529 1.000000
0.868613 0.370487 1.000000
1.000000 0.375763 1.000000
0.311842 0.617958 1.000000
0.363975 0.586837 1.000000
0.579941 0.578559 1.000000
0.853140 0.584102 1.000000
1.000000 0.588049 1.000000
0.170747 0.836321 1.000000
0.417817 0.824061 1.000000
0.636421 0.792175 1.000000
0.771306 0.773710 1.000000
1.000000 0.779194 1.000000
0.096743 1.000000 0.999998
0.282460 0.999999 0.999990
0.529535 0.999997 0.999980
0.750790 1.000069 0.999773
0.999985 0.999987 0.999982
