luts/FUJI_ACROS.cube
#Generated for krafta web app
#Black and White LUTs
TITLE "Fuji XTrans III - Acros"
#LUT size
LUT_3D_SIZE 25
#LUT data points
0.003922 0.003922 0.003922
0.007843 0.007843 0.007843
0.011765 0.011765 0.011765
0.015686 0.015686 0.015686
0.019608 0.019608 0.019608
0.035294 0.035294 0.035294
0.047059 0.047059 0.047059
0.070588 0.070588 0.070588
0.105882 0.105882 0.101961
0.125490 0.125490 0.125490
0.160784 0.160784 0.160784
0.172549 0.172549 0.172549
0.172549 0.172549 0.172549
0.247059 0.247059 0.247059
0.301961 0.301961 0.301961
0.321569 0.321569 0.321569
0.341176 0.341176 0.341176
0.356863 0.356863 0.356863
0.356863 0.356863 0.356863
0.356863 0.356863 0.356863
0.380392 0.380392 0.380392
0.415686 0.415686 0.415686
0.415686 0.415686 0.415686
0.415686 0.415686 0.415686
0.415686 0.415686 0.415686
0.003922 0.003922 0.003922
0.007843 0.007843 0.007843
0.011765 0.011765 0.011765
0.019608 0.019608 0.019608
0.027451 0.027451 0.027451
0.039216 0.039216 0.039216
0.050980 0.050980 0.050980
0.082353 0.082353 0.082353
0.105882 0.105882 0.105882
0.133333 0.133333 0.133333
0.160784 0.160784 0.160784
0.188235 0.188235 0.188235
0.211765 0.211765 0.211765
0.258824 0.258824 0.258824
0.305882 0.305882 0.305882
0.321569 0.321569 0.321569
0.345098 0.345098 0.345098
0.356863 0.356863 0.356863
0.356863 0.356863 0.356863
0.380392 0.380392 0.380392
0.396078 0.396078 0.396078
0.407843 0.407843 0.407843
0.407843 0.407843 0.407843
0.407843 0.407843 0.407843
0.407843 0.407843 0.407843
0.007843 0.007843 0.007843
0.011765 0.011765 0.011765
0.015686 0.015686 0.015686
0.023529 0.023529 0.023529
0.035294 0.035294 0.035294
0.047059 0.047059 0.047059
0.062745 0.062745 0.062745
0.090196 0.090196 0.090196
0.117647 0.117647 0.117647
0.141176 0.141176 0.141176
0.164706 0.164706 0.164706
0.200000 0.200000 0.200000
0.231373 0.231373 0.231373
0.278431 0.278431 0.278431
0.305882 0.305882 0.305882
0.321569 0.321569 0.321569
0.341176 0.341176 0.341176
0.360784 0.360784 0.360784
0.372549 0.372549 0.372549
0.396078 0.396078 0.396078
0.403922 0.403922 0.403922
0.403922 0.403922 0.403922
0.403922 0.403922 0.403922
0.415686 0.415686 0.415686
0.427451 0.427451 0.427451
0.011765 0.011765 0.011765
0.015686 0.015686 0.011765
0.023529 0.023529 0.023529
0.031373 0.031373 0.031373
0.043137 0.043137 0.043137
0.058824 0.058824 0.058824
0.078431 0.078431 0.078431
0.098039 0.098039 0.098039
0.125490 0.125490 0.125490
0.149020 0.149020 0.149020
0.180392 0.180392 0.180392
0.200000 0.200000 0.200000
0.227451 0.227451 0.227451
0.266667 0.266667 0.266667
0.301961 0.301961 0.301961
0.321569 0.321569 0.321569
0.345098 0.345098 0.345098
0.368627 0.368627 0.368627
0.400000 0.400000 0.400000
0.403922 0.403922 0.403922
0.403922 0.403922 0.403922
0.403922 0.403922 0.403922
0.403922 0.403922 0.403922
0.431373 0.431373 0.431373
0.494118 0.494118 0.494118
0.023529 0.023529 0.023529
0.023529 0.023529 0.023529
0.035294 0.035294 0.035294
0.047059 0.047059 0.047059
0.066667 0.066667 0.066667
0.078431 0.078431 0.078431
0.090196 0.090196 0.090196
0.117647 0.117647 0.117647
0.145098 0.145098 0.145098
0.172549 0.172549 0.172549
0.196078 0.196078 0.196078
0.227451 0.227451 0.227451
0.250980 0.250980 0.250980
0.282353 0.282353 0.282353
0.309804 0.309804 0.309804
0.341176 0.341176 0.341176
0.364706 0.364706 0.364706
0.384314 0.384314 0.384314
0.403922 0.403922 0.403922
0.403922 0.403922 0.403922
0.403922 0.403922 0.403922
0.403922 0.403922 0.403922
0.443137 0.443137 0.443137
0.470588 0.470588 0.470588
0.498039 0.498039 0.498039
0.043137 0.043137 0.043137
0.047059 0.047059 0.047059
0.054902 0.054902 0.054902
0.066667 0.066667 0.066667
0.078431 0.078431 0.078431
0.094118 0.094118 0.094118
0.109804 0.109804 0.109804
0.141176 0.141176 0.141176
0.168627 0.168627 0.168627
0.192157 0.192157 0.192157
0.219608 0.219608 0.219608
0.247059 0.247059 0.247059
0.266667 0.266667 0.266667
0.298039 0.298039 0.298039
0.325490 0.325490 0.325490
0.360784 0.360784 0.360784
0.384314 0.384314 0.384314
0.403922 0.403922 0.403922
0.423529 0.423529 0.423529
0.431373 0.431373 0.431373
0.431373 0.431373 0.431373
0.435294 0.435294 0.435294
0.482353 0.482353 0.482353
0.501961 0.501961 0.501961
0.501961 0.501961 0.501961
0.086275 0.086275 0.086275
0.086275 0.086275 0.086275
0.082353 0.082353 0.082353
0.090196 0.090196 0.090196
0.094118 0.094118 0.094118
0.101961 0.101961 0.101961
0.125490 0.125490 0.125490
0.156863 0.156863 0.156863
0.188235 0.188235 0.188235
0.211765 0.211765 0.211765
0.243137 0.243137 0.243137
0.266667 0.266667 0.266667
0.286275 0.286275 0.286275
0.317647 0.317647 0.317647
0.341176 0.341176 0.341176
0.376471 0.376471 0.376471
0.396078 0.396078 0.396078
0.423529 0.423529 0.423529
0.450980 0.450980 0.450980
0.482353 0.482353 0.482353
0.490196 0.490196 0.490196
0.490196 0.490196 0.490196
0.498039 0.498039 0.498039
0.501961 0.501961 0.501961
0.501961 0.501961 0.501961
0.117647 0.117647 0.117647
0.117647 0.117647 0.117647
0.125490 0.125490 0.125490
0.125490 0.125490 0.125490
0.133333 0.133333 0.133333
0.141176 0.141176 0.141176
0.168627 0.168627 0.168627
0.200000 0.200000 0.200000
0.231373 0.231373 0.231373
0.235294 0.235294 0.235294
0.274510 0.274510 0.274510
0.301961 0.301961 0.301961
0.317647 0.317647 0.317647
0.341176 0.341176 0.341176
0.364706 0.364706 0.364706
0.396078 0.396078 0.396078
0.423529 0.423529 0.423529
0.439216 0.439216 0.439216
0.454902 0.454902 0.454902
0.486275 0.486275 0.486275
0.501961 0.501961 0.501961
0.501961 0.501961 0.501961
0.501961 0.501961 0.501961
0.501961 0.501961 0.501961
0.501961 0.501961 0.501961
0.133333 0.133333 0.133333
0.149020 0.149020 0.149020
0.164706 0.164706 0.164706
0.172549 0.172549 0.172549
0.184314 0.184314 0.184314
0.188235 0.188235 0.188235
0.207843 0.207843 0.207843
0.239216 0.239216 0.239216
0.262745 0.262745 0.262745
0.278431 0.278431 0.278431
0.301961 0.301961 0.301961
0.325490 0.325490 0.325490
0.345098 0.345098 0.345098
0.364706 0.364706 0.364706
0.396078 0.396078 0.396078
0.419608 0.419608 0.419608
0.447059 0.447059 0.447059
0.458824 0.458824 0.458824
0.470588 0.470588 0.470588
0.498039 0.498039 0.498039
0.505882 0.505882 0.505882
0.501961 0.501961 0.501961
0.501961 0.501961 0.501961
0.501961 0.501961 0.501961
0.501961 0.501961 0.501961
0.133333 0.133333 0.133333
0.172549 0.172549 0.172549
0.203922 0.203922 0.203922
0.207843 0.207843 0.207843
0.215686 0.215686 0.215686
0.227451 0.227451 0.227451
0.243137 0.243137 0.243137
0.286275 0.286275 0.286275
0.309804 0.309804 0.309804
0.321569 0.321569 0.321569
0.341176 0.341176 0.341176
0.356863 0.356863 0.356863
0.372549 0.372549 0.372549
0.392157 0.392157 0.392157
0.419608 0.419608 0.419608
0.443137 0.443137 0.443137
0.466667 0.466667 0.466667
0.494118 0.494118 0.494118
0.509804 0.509804 0.509804
0.513725 0.513725 0.513725
0.505882 0.505882 0.505882
0.501961 0.501961 0.501961
0.501961 0.501961 0.501961
0.501961 0.501961 0.501961
0.501961 0.501961 0.501961
0.176471 0.176471 0.176471
0.227451 0.227451 0.227451
0.250980 0.250980 0.250980
0.243137 0.243137 0.243137
0.250980 0.250980 0.250980
0.258824 0.258824 0.258824
0.274510 0.274510 0.274510
0.321569 0.321569 0.321569
0.345098 0.345098 0.345098
0.356863 0.356863 0.356863
0.376471 0.376471 0.376471
0.403922 0.403922 0.403922
0.403922 0.403922 0.403922
0.423529 0.423529 0.423529
0.447059 0.447059 0.447059
0.470588 0.470588 0.470588
0.490196 0.490196 0.490196
0.509804 0.509804 0.509804
0.533333 0.533333 0.533333
0.533333 0.533333 0.533333
0.525490 0.525490 0.525490
0.529412 0.529412 0.529412
0.549020 0.549020 0.549020
0.556863 0.556863 0.556863
0.576471 0.576471 0.576471
0.215686 0.215686 0.215686
0.250980 0.250980 0.250980
0.270588 0.270588 0.270588
0.270588 0.270588 0.270588
0.278431 0.278431 0.278431
0.290196 0.290196 0.290196
0.301961 0.301961 0.301961
0.352941 0.352941 0.352941
0.380392 0.380392 0.380392
0.392157 0.392157 0.392157
0.415686 0.415686 0.415686
0.435294 0.435294 0.435294
0.443137 0.443137 0.443137
0.462745 0.462745 0.462745
0.482353 0.482353 0.482353
0.498039 0.498039 0.498039
0.517647 0.517647 0.517647
0.541176 0.541176 0.541176
0.556863 0.556863 0.556863
0.552941 0.552941 0.552941
0.552941 0.552941 0.552941
0.552941 0.552941 0.552941
0.588235 0.588235 0.588235
0.603922 0.603922 0.603922
0.627451 0.627451 0.627451
0.266667 0.266667 0.266667
0.266667 0.266667 0.266667
0.270588 0.270588 0.270588
0.270588 0.270588 0.270588
0.278431 0.278431 0.278431
0.301961 0.301961 0.301961
0.345098 0.345098 0.345098
0.380392 0.380392 0.380392
0.403922 0.403922 0.403922
0.423529 0.423529 0.423529
0.439216 0.439216 0.439216
0.458824 0.458824 0.458824
0.478431 0.478431 0.478431
0.494118 0.494118 0.494118
0.517647 0.517647 0.517647
0.525490 0.525490 0.525490
0.541176 0.541176 0.541176
0.564706 0.564706 0.564706
0.584314 0.584314 0.584314
0.588235 0.588235 0.588235
0.588235 0.588235 0.588235
0.588235 0.588235 0.588235
0.607843 0.607843 0.607843
0.623529 0.623529 0.623529
0.623529 0.623529 0.623529
0.223529 0.223529 0.223529
0.254902 0.254902 0.254902
0.270588 0.270588 0.270588
0.270588 0.270588 0.270588
0.301961 0.301961 0.301961
0.325490 0.325490 0.325490
0.356863 0.356863 0.356863
0.384314 0.384314 0.384314
0.411765 0.411765 0.411765
0.447059 0.447059 0.447059
0.447059 0.447059 0.447059
0.474510 0.474510 0.474510
0.513725 0.513725 0.513725
0.525490 0.525490 0.525490
0.541176 0.541176 0.541176
0.556863 0.556863 0.556863
0.568627 0.568627 0.568627
0.588235 0.588235 0.588235
0.603922 0.603922 0.603922
0.607843 0.607843 0.607843
0.603922 0.603922 0.603922
0.607843 0.607843 0.607843
0.635294 0.635294 0.635294
0.650980 0.650980 0.650980
0.670588 0.670588 0.670588
0.196078 0.196078 0.196078
0.235294 0.235294 0.235294
0.270588 0.270588 0.270588
0.270588 0.270588 0.270588
0.329412 0.329412 0.329412
0.380392 0.380392 0.380392
0.356863 0.356863 0.356863
0.388235 0.388235 0.388235
0.427451 0.427451 0.427451
0.462745 0.462745 0.462745
0.454902 0.454902 0.454902
0.498039 0.498039 0.498039
0.549020 0.549020 0.549020
0.560784 0.560784 0.560784
0.564706 0.564706 0.564706
0.576471 0.576471 0.576471
0.603922 0.603922 0.603922
0.623529 0.623529 0.623529
0.635294 0.635294 0.635294
0.619608 0.619608 0.619608
0.619608 0.619608 0.619608
0.647059 0.647059 0.647059
0.658824 0.658824 0.658824
0.678431 0.678431 0.678431
0.690196 0.690196 0.690196
0.196078 0.196078 0.196078
0.247059 0.247059 0.247059
0.270588 0.270588 0.270588
0.270588 0.270588 0.270588
0.403922 0.403922 0.403922
0.427451 0.427451 0.427451
0.364706 0.364706 0.364706
0.415686 0.415686 0.415686
0.462745 0.462745 0.462745
0.462745 0.462745 0.462745
0.462745 0.462745 0.462745
0.498039 0.498039 0.498039
0.592157 0.592157 0.592157
0.596078 0.596078 0.596078
0.588235 0.588235 0.588235
0.580392 0.580392 0.580392
0.615686 0.615686 0.615686
0.647059 0.647059 0.647059
0.662745 0.662745 0.662745
0.631373 0.631373 0.631373
0.647059 0.647059 0.647059
0.690196 0.690196 0.690196
0.694118 0.694118 0.694118
0.694118 0.694118 0.694118
0.694118 0.694118 0.694118
0.309804 0.309804 0.309804
0.286275 0.286275 0.286275
0.270588 0.270588 0.270588
0.270588 0.270588 0.270588
0.380392 0.380392 0.380392
0.439216 0.439216 0.439216
0.368627 0.368627 0.368627
0.396078 0.396078 0.396078
0.435294 0.435294 0.435294
0.462745 0.462745 0.462745
0.486275 0.486275 0.486275
0.541176 0.541176 0.541176
0.592157 0.592157 0.592157
0.596078 0.596078 0.596078
0.607843 0.607843 0.607843
0.623529 0.623529 0.623529
0.635294 0.635294 0.635294
0.650980 0.650980 0.650980
0.662745 0.662745 0.662745
0.650980 0.650980 0.650980
0.666667 0.666667 0.666667
0.694118 0.694118 0.694118
0.694118 0.694118 0.694118
0.705882 0.705882 0.705882
0.729412 0.729412 0.729412
0.384314 0.384314 0.384314
0.317647 0.317647 0.317647
0.270588 0.270588 0.270588
0.270588 0.270588 0.270588
0.360784 0.360784 0.360784
0.403922 0.403922 0.403922
0.356863 0.356863 0.356863
0.380392 0.380392 0.380392
0.431373 0.431373 0.431373
0.486275 0.486275 0.486275
0.509804 0.509804 0.509804
0.556863 0.556863 0.556863
0.592157 0.592157 0.592157
0.596078 0.596078 0.596078
0.607843 0.607843 0.607843
0.627451 0.627451 0.627451
0.635294 0.635294 0.635294
0.650980 0.650980 0.650980
0.662745 0.662745 0.662745
0.674510 0.674510 0.674510
0.682353 0.682353 0.682353
0.694118 0.694118 0.694118
0.709804 0.709804 0.709804
0.729412 0.729412 0.729412
0.752941 0.752941 0.752941
0.384314 0.384314 0.384314
0.317647 0.317647 0.317647
0.270588 0.270588 0.270588
0.270588 0.270588 0.270588
0.309804 0.309804 0.309804
0.345098 0.345098 0.345098
0.352941 0.352941 0.352941
0.396078 0.396078 0.396078
0.450980 0.450980 0.450980
0.525490 0.525490 0.525490
0.529412 0.529412 0.529412
0.552941 0.552941 0.552941
0.584314 0.584314 0.584314
0.592157 0.592157 0.592157
0.596078 0.596078 0.596078
0.596078 0.596078 0.596078
0.623529 0.623529 0.623529
0.650980 0.650980 0.650980
0.662745 0.662745 0.662745
0.682353 0.682353 0.682353
0.694118 0.694118 0.694118
0.694118 0.694118 0.694118
0.733333 0.733333 0.733333
0.752941 0.752941 0.752941
0.752941 0.752941 0.752941
0.384314 0.384314 0.384314
0.305882 0.305882 0.305882
0.270588 0.270588 0.270588
0.270588 0.270588 0.270588
0.411765 0.411765 0.411765
0.490196 0.490196 0.490196
0.490196 0.490196 0.490196
0.494118 0.494118 0.494118
0.505882 0.505882 0.505882
0.529412 0.529412 0.529412
0.529412 0.529412 0.529412
0.545098 0.545098 0.545098
0.584314 0.584314 0.584314
0.592157 0.592157 0.592157
0.596078 0.596078 0.596078
0.596078 0.596078 0.596078
0.623529 0.623529 0.623529
0.650980 0.650980 0.650980
0.666667 0.666667 0.666667
0.682353 0.682353 0.682353
0.705882 0.705882 0.705882
0.733333 0.733333 0.733333
0.745098 0.745098 0.745098
0.752941 0.752941 0.752941
0.752941 0.752941 0.752941
0.392157 0.392157 0.392157
0.352941 0.352941 0.352941
0.309804 0.309804 0.309804
0.309804 0.309804 0.309804
0.466667 0.466667 0.466667
0.541176 0.541176 0.541176
0.541176 0.541176 0.541176
0.545098 0.545098 0.545098
0.552941 0.552941 0.552941
0.556863 0.556863 0.556863
0.556863 0.556863 0.556863
0.580392 0.580392 0.580392
0.603922 0.603922 0.603922
0.600000 0.600000 0.600000
0.600000 0.600000 0.600000
0.623529 0.623529 0.623529
0.639216 0.639216 0.639216
0.650980 0.650980 0.650980
0.662745 0.662745 0.662745
0.678431 0.678431 0.678431
0.705882 0.705882 0.705882
0.752941 0.752941 0.752941
0.752941 0.752941 0.752941
0.752941 0.752941 0.752941
0.752941 0.752941 0.752941
0.411765 0.411765 0.411765
0.411765 0.411765 0.411765
0.396078 0.396078 0.396078
0.364706 0.364706 0.364706
0.462745 0.462745 0.462745
0.541176 0.541176 0.541176
0.541176 0.541176 0.541176
0.545098 0.545098 0.545098
0.564706 0.564706 0.564706
0.592157 0.592157 0.592157
0.592157 0.592157 0.592157
0.607843 0.607843 0.607843
0.647059 0.647059 0.647059
0.619608 0.619608 0.619608
0.615686 0.615686 0.615686
0.658824 0.658824 0.658824
0.650980 0.650980 0.650980
0.650980 0.650980 0.650980
0.674510 0.674510 0.674510
0.666667 0.666667 0.666667
0.690196 0.690196 0.690196
0.752941 0.752941 0.752941
0.752941 0.752941 0.752941
0.752941 0.752941 0.752941
0.752941 0.752941 0.752941
0.411765 0.411765 0.411765
0.411765 0.411765 0.411765
0.396078 0.396078 0.396078
0.360784 0.360784 0.360784
0.462745 0.462745 0.462745
0.541176 0.541176 0.541176
0.541176 0.541176 0.541176
0.545098 0.545098 0.545098
0.564706 0.564706 0.564706
0.588235 0.588235 0.588235
0.592157 0.592157 0.592157
0.615686 0.615686 0.615686
0.647059 0.647059 0.647059
0.639216 0.639216 0.639216
0.650980 0.650980 0.650980
0.678431 0.678431 0.678431
0.674510 0.674510 0.674510
0.694118 0.694118 0.694118
0.721569 0.721569 0.721569
0.733333 0.733333 0.733333
0.745098 0.745098 0.745098
0.752941 0.752941 0.752941
0.752941 0.752941 0.752941
0.752941 0.752941 0.752941
0.752941 0.752941 0.752941
0.411765 0.411765 0.411765
0.411765 0.411765 0.411765
0.396078 0.396078 0.396078
0.364706 0.364706 0.364706
0.486275 0.486275 0.486275
0.541176 0.541176 0.541176
0.541176 0.541176 0.541176
0.545098 0.545098 0.545098
0.560784 0.560784 0.560784
0.588235 0.588235 0.588235
0.592157 0.592157 0.592157
0.607843 0.607843 0.607843
0.647059 0.647059 0.647059
0.654902 0.654902 0.654902
0.666667 0.666667 0.666667
0.686275 0.686275 0.686275
0.701961 0.701961 0.701961
0.725490 0.725490 0.725490
0.749020 0.749020 0.749020
0.764706 0.764706 0.764706
0.768627 0.768627 0.768627
0.760784 0.760784 0.760784
0.756863 0.756863 0.756863
0.756863 0.756863 0.756863
0.764706 0.764706 0.764706
0.411765 0.411765 0.411765
0.411765 0.411765 0.411765
0.396078 0.396078 0.396078
0.360784 0.360784 0.360784
0.486275 0.486275 0.486275
0.541176 0.541176 0.541176
0.541176 0.541176 0.541176
0.545098 0.545098 0.545098
0.560784 0.560784 0.560784
0.588235 0.588235 0.588235
0.592157 0.592157 0.592157
0.607843 0.607843 0.607843
0.647059 0.647059 0.647059
0.658824 0.658824 0.658824
0.674510 0.674510 0.674510
0.686275 0.686275 0.686275
0.725490 0.725490 0.725490
0.749020 0.749020 0.749020
0.749020 0.749020 0.749020
0.764706 0.764706 0.764706
0.772549 0.772549 0.772549
0.772549 0.772549 0.772549
0.760784 0.760784 0.760784
0.764706 0.764706 0.764706
0.788235 0.788235 0.788235
0.007843 0.007843 0.007843
0.007843 0.007843 0.007843
0.011765 0.011765 0.011765
0.015686 0.015686 0.015686
0.031373 0.031373 0.031373
0.047059 0.047059 0.047059
0.058824 0.058824 0.058824
0.086275 0.086275 0.086275
0.109804 0.109804 0.109804
0.129412 0.129412 0.129412
0.152941 0.152941 0.152941
0.192157 0.192157 0.192157
0.219608 0.219608 0.219608
0.258824 0.258824 0.258824
0.305882 0.305882 0.305882
0.329412 0.329412 0.329412
0.349020 0.349020 0.349020
0.372549 0.372549 0.372549
0.388235 0.388235 0.388235
0.396078 0.396078 0.396078
0.400000 0.400000 0.400000
0.415686 0.415686 0.415686
0.415686 0.415686 0.415686
0.415686 0.415686 0.415686
0.415686 0.415686 0.415686
0.007843 0.007843 0.007843
0.011765 0.011765 0.011765
0.015686 0.015686 0.015686
0.023529 0.023529 0.023529
0.035294 0.035294 0.035294
0.047059 0.047059 0.047059
0.062745 0.062745 0.062745
0.090196 0.090196 0.090196
0.113725 0.113725 0.113725
0.133333 0.133333 0.129412
0.160784 0.160784 0.160784
0.203922 0.203922 0.203922
0.227451 0.227451 0.227451
0.274510 0.274510 0.274510
0.305882 0.305882 0.305882
0.329412 0.329412 0.329412
0.349020 0.349020 0.349020
0.376471 0.376471 0.376471
0.388235 0.388235 0.388235
0.400000 0.400000 0.400000
0.411765 0.411765 0.411765
0.415686 0.415686 0.415686
0.415686 0.415686 0.415686
0.427451 0.427451 0.427451
0.447059 0.447059 0.447059
0.011765 0.011765 0.011765
0.015686 0.015686 0.015686
0.023529 0.023529 0.023529
0.027451 0.027451 0.027451
0.039216 0.039216 0.039216
0.054902 0.054902 0.054902
0.070588 0.070588 0.070588
0.090196 0.090196 0.090196
0.121569 0.121569 0.121569
0.141176 0.141176 0.141176
0.172549 0.172549 0.172549
0.211765 0.211765 0.211765
0.235294 0.235294 0.235294
0.270588 0.270588 0.270588
0.301961 0.301961 0.301961
0.329412 0.329412 0.329412
0.349020 0.349020 0.349020
0.380392 0.380392 0.380392
0.403922 0.403922 0.403922
0.407843 0.407843 0.407843
0.411765 0.411765 0.411765
0.411765 0.411765 0.411765
0.423529 0.423529 0.423529
0.439216 0.439216 0.439216
0.466667 0.466667 0.466667
0.019608 0.019608 0.019608
0.023529 0.023529 0.023529
0.031373 0.031373 0.031373
0.039216 0.039216 0.039216
0.050980 0.050980 0.050980
0.066667 0.066667 0.066667
0.078431 0.078431 0.078431
0.109804 0.109804 0.109804
0.133333 0.133333 0.133333
0.152941 0.152941 0.152941
0.176471 0.176471 0.176471
0.207843 0.207843 0.207843
0.235294 0.235294 0.235294
0.270588 0.270588 0.270588
0.301961 0.301961 0.301961
0.325490 0.325490 0.325490
0.352941 0.352941 0.352941
0.376471 0.376471 0.376471
0.407843 0.407843 0.407843
0.411765 0.411765 0.411765
0.411765 0.411765 0.411765
0.419608 0.419608 0.419608
0.439216 0.439216 0.439216
0.462745 0.462745 0.462745
0.486275 0.486275 0.486275
0.027451 0.027451 0.027451
0.035294 0.035294 0.035294
0.043137 0.043137 0.043137
0.050980 0.050980 0.050980
0.070588 0.070588 0.070588
0.078431 0.078431 0.078431
0.094118 0.094118 0.094118
0.121569 0.121569 0.121569
0.149020 0.149020 0.149020
0.168627 0.168627 0.168627
0.200000 0.200000 0.200000
0.227451 0.227451 0.227451
0.250980 0.250980 0.250980
0.286275 0.286275 0.286275
0.317647 0.317647 0.317647
0.341176 0.341176 0.341176
0.364706 0.364706 0.364706
0.388235 0.388235 0.388235
0.411765 0.411765 0.411765
0.411765 0.411765 0.411765
0.427451 0.427451 0.427451
0.435294 0.435294 0.435294
0.466667 0.466667 0.466667
0.486275 0.486275 0.486275
0.494118 0.494118 0.494118
0.050980 0.050980 0.050980
0.054902 0.054902 0.054902
0.058824 0.058824 0.058824
0.070588 0.070588 0.070588
0.082353 0.082353 0.082353
0.098039 0.098039 0.098039
0.113725 0.113725 0.113725
0.133333 0.133333 0.133333
0.168627 0.168627 0.168627
0.192157 0.192157 0.192157
0.215686 0.215686 0.215686
0.247059 0.247059 0.247059
0.270588 0.270588 0.270588
0.298039 0.298039 0.298039
0.333333 0.333333 0.333333
0.360784 0.360784 0.360784
0.380392 0.380392 0.380392
0.407843 0.407843 0.407843
0.423529 0.423529 0.423529
0.439216 0.439216 0.439216
0.447059 0.447059 0.447059
0.474510 0.474510 0.474510
0.490196 0.490196 0.490196
0.498039 0.498039 0.498039
0.494118 0.494118 0.494118
0.074510 0.074510 0.074510
0.086275 0.086275 0.086275
0.086275 0.086275 0.086275
0.094118 0.094118 0.094118
0.101961 0.101961 0.101961
0.109804 0.109804 0.109804
0.129412 0.129412 0.129412
0.160784 0.160784 0.160784
0.184314 0.184314 0.184314
0.211765 0.211765 0.211765
0.243137 0.243137 0.243137
0.270588 0.270588 0.270588
0.294118 0.294118 0.294118
0.317647 0.317647 0.317647
0.349020 0.349020 0.349020
0.376471 0.376471 0.376471
0.396078 0.396078 0.396078
0.419608 0.419608 0.419608
0.447059 0.447059 0.447059
0.474510 0.474510 0.474510
0.494118 0.494118 0.494118
0.490196 0.490196 0.490196
0.494118 0.494118 0.494118
0.494118 0.494118 0.494118
0.494118 0.494118 0.494118
0.117647 0.117647 0.117647
0.113725 0.113725 0.113725
0.121569 0.121569 0.121569
0.137255 0.137255 0.137255
0.137255 0.137255 0.137255
0.149020 0.149020 0.149020
0.164706 0.164706 0.164706
0.196078 0.196078 0.196078
0.227451 0.227451 0.227451
0.243137 0.243137 0.243137
0.266667 0.266667 0.266667
0.298039 0.298039 0.298039
0.317647 0.317647 0.317647
0.349020 0.349020 0.349020
0.376471 0.376471 0.376471
0.403922 0.403922 0.403922
0.423529 0.423529 0.423529
0.447059 0.447059 0.447059
0.462745 0.462745 0.462745
0.486275 0.486275 0.486275
0.498039 0.498039 0.498039
0.498039 0.498039 0.498039
0.498039 0.498039 0.498039
0.501961 0.501961 0.501961
0.498039 0.498039 0.498039
0.149020 0.149020 0.149020
0.156863 0.156863 0.156863
0.164706 0.164706 0.164706
0.176471 0.176471 0.176471
0.180392 0.180392 0.180392
0.188235 0.188235 0.188235
0.215686 0.215686 0.215686
0.239216 0.239216 0.239216
0.266667 0.266667 0.266667
0.282353 0.282353 0.282353
0.305882 0.305882 0.305882
0.337255 0.337255 0.337255
0.349020 0.349020 0.349020
0.372549 0.372549 0.372549
0.407843 0.407843 0.407843
0.427451 0.427451 0.427451
0.450980 0.450980 0.450980
0.474510 0.474510 0.474510
0.482353 0.482353 0.482353
0.505882 0.505882 0.505882
0.505882 0.505882 0.505882
0.501961 0.501961 0.501961
0.501961 0.501961 0.501961
0.517647 0.517647 0.517647
0.537255 0.537255 0.537255
0.168627 0.168627 0.168627
0.188235 0.188235 0.188235
0.200000 0.200000 0.200000
0.215686 0.215686 0.215686
0.219608 0.219608 0.219608
0.235294 0.235294 0.235294
0.247059 0.247059 0.247059
0.278431 0.278431 0.278431
0.305882 0.305882 0.305882
0.321569 0.321569 0.321569
0.341176 0.341176 0.341176
0.360784 0.360784 0.360784
0.384314 0.384314 0.384314
0.407843 0.407843 0.407843
0.431373 0.431373 0.431373
0.454902 0.454902 0.454902
0.474510 0.474510 0.474510
0.498039 0.498039 0.498039
0.517647 0.517647 0.517647
0.529412 0.529412 0.529412
0.525490 0.525490 0.525490
0.501961 0.501961 0.501961
0.501961 0.501961 0.501961
0.537255 0.537255 0.537255
0.568627 0.568627 0.568627
0.188235 0.188235 0.188235
0.231373 0.231373 0.231373
0.250980 0.250980 0.250980
0.247059 0.247059 0.247059
0.262745 0.262745 0.262745
0.274510 0.274510 0.274510
0.278431 0.278431 0.278431
0.313725 0.313725 0.313725
0.333333 0.333333 0.333333
