luts/Fujifilm_Provia_100F.cube
# Generated for krafta web app
# https://www.facebook.com/krafta.visio
# Preset: FUJ - Provia 100F
# Color profile : sRGB Color Space Profile
LUT_3D_SIZE 6
DOMAIN_MIN 0.0 0.0 0.0
DOMAIN_MAX 1.0 1.0 1.0
0.000000 0.000000 0.000000
0.275151 0.004181 0.003937
0.473091 0.009033 0.008331
0.664607 0.026184 0.024842
0.841398 0.062226 0.060548
1.000000 0.097902 0.096803
0.002472 0.258213 0.002625
0.249393 0.249210 0.008240
0.457740 0.235904 0.022858
0.653620 0.229801 0.044831
0.830045 0.226719 0.072694
1.000000 0.231937 0.104524
0.061006 0.448890 0.060700
0.238529 0.448981 0.064973
0.443549 0.443702 0.073548
0.639948 0.433783 0.084779
0.821836 0.423163 0.104463
0.999115 0.417823 0.127718
0.106264 0.622431 0.106874
0.237430 0.621485 0.108614
0.424048 0.620661 0.113832
0.618341 0.618494 0.123873
0.805417 0.610986 0.137667
0.986664 0.604364 0.157534
0.144747 0.787625 0.145357
0.248417 0.789090 0.148013
0.418341 0.791562 0.155917
0.604608 0.793606 0.167514
0.795468 0.795590 0.183597
0.976074 0.788418 0.196292
0.209445 0.973083 0.209720
0.279454 0.969696 0.202304
0.431189 0.970825 0.210880
0.608240 0.973388 0.226963
0.794003 0.977325 0.253758
0.982940 0.983062 0.293706
0.000519 0.000061 0.284550
0.260899 0.000122 0.261448
0.461616 0.028870 0.238865
0.652399 0.063508 0.233341
0.831052 0.090578 0.232242
1.000000 0.116152 0.236912
0.024750 0.254856 0.254765
0.247074 0.247074 0.247074
0.452766 0.239567 0.239536
0.648402 0.234714 0.234592
0.826474 0.233982 0.233707
1.000000 0.237217 0.236545
0.077241 0.445380 0.239322
0.239170 0.444038 0.239170
0.437842 0.437934 0.237461
0.632136 0.429603 0.235782
0.814450 0.421149 0.238010
0.994446 0.417578 0.244144
0.115663 0.621210 0.240330
0.240421 0.620447 0.240635
0.423621 0.618769 0.242008
0.615717 0.615717 0.244633
0.802152 0.609033 0.248905
0.985931 0.604700 0.257755
0.150027 0.789212 0.249943
0.251072 0.789700 0.251041
0.419593 0.791867 0.255741
0.605066 0.793637 0.262974
0.795529 0.795621 0.273503
0.976562 0.789059 0.278874
0.208133 0.973938 0.284428
0.278233 0.970855 0.278202
0.430884 0.971954 0.284245
0.608301 0.974182 0.296422
0.794095 0.977630 0.316381
0.983154 0.983276 0.349218
0.000244 0.000000 0.479500
0.237400 0.007691 0.464729
0.445441 0.034577 0.445533
0.642390 0.063600 0.433326
0.823514 0.099428 0.422980
1.000000 0.130953 0.419501
0.050782 0.243107 0.462226
0.237858 0.238132 0.452461
0.442206 0.234348 0.442451
0.637446 0.232212 0.431464
0.818479 0.238315 0.422644
0.995789 0.243046 0.417304
0.078004 0.437354 0.437293
0.236210 0.436469 0.436591
0.431525 0.431525 0.431525
0.624018 0.425940 0.425879
0.807797 0.421759 0.421515
0.991363 0.419257 0.418891
0.128054 0.617487 0.423804
0.246799 0.616938 0.424384
0.424506 0.615412 0.424537
0.612634 0.612787 0.424018
0.798886 0.607843 0.422614
0.984680 0.604883 0.422736
0.154879 0.789334 0.417060
0.254276 0.790097 0.418341
0.422095 0.792050 0.422187
0.606195 0.793545 0.426490
0.795743 0.795865 0.433417
0.976959 0.789273 0.429572
0.192142 0.975402 0.426490
0.264744 0.972686 0.421027
0.424079 0.973419 0.424231
0.606165 0.975799 0.432868
0.793942 0.978912 0.445533
0.984405 0.984527 0.467445
0.018128 0.016358 0.651392
0.222995 0.025788 0.645655
0.427710 0.048371 0.635645
0.624414 0.070771 0.624506
0.813870 0.098878 0.614405
0.996307 0.126772 0.606165
0.067353 0.232547 0.647456
0.230259 0.230228 0.640528
0.427436 0.229313 0.632136
0.622034 0.230137 0.622126
0.810086 0.235477 0.612390
0.990997 0.239017 0.602869
0.097353 0.425299 0.625360
0.236973 0.425360 0.624445
0.423529 0.423438 0.619562
0.614008 0.420783 0.614069
0.800839 0.418524 0.607233
0.988403 0.416724 0.603143
0.131655 0.611505 0.611353
0.246860 0.611261 0.611170
0.423621 0.610590 0.610681
0.607721 0.607843 0.607782
0.795712 0.605097 0.605127
0.985046 0.601740 0.601648
0.156558 0.789944 0.600793
0.254154 0.790555 0.601526
0.420081 0.792050 0.602960
0.605097 0.793515 0.605158
0.794278 0.794308 0.607538
0.979095 0.788602 0.600336
0.132174 0.977783 0.595605
0.218448 0.975708 0.589837
0.403479 0.976623 0.592065
0.597284 0.978668 0.597345
0.790951 0.981109 0.603937
0.986572 0.986694 0.618341
0.036622 0.036255 0.817899
0.214450 0.043183 0.815763
0.410651 0.057923 0.810636
0.607019 0.077028 0.805539
0.799619 0.097719 0.799619
0.989288 0.119753 0.794400
0.073365 0.222599 0.816770
0.221897 0.221897 0.813474
0.413092 0.223423 0.809751
0.606867 0.226474 0.804318
0.797696 0.230259 0.797665
0.985290 0.233463 0.791012
0.104707 0.414374 0.804929
0.232334 0.414160 0.804044
0.413092 0.413062 0.801297
0.602655 0.411444 0.797208
0.793515 0.411353 0.793576
0.984131 0.410407 0.790402
0.127596 0.602777 0.795773
0.240574 0.602991 0.795865
0.413245 0.601953 0.794827
0.600549 0.600641 0.793423
0.791745 0.599847 0.791745
0.983825 0.596735 0.789578
0.151583 0.790036 0.790097
0.250858 0.790524 0.790555
0.418463 0.791806 0.791775
0.603082 0.793057 0.793057
0.790707 0.790799 0.790707
0.983337 0.786252 0.786191
0.132143 0.979980 0.787533
0.221561 0.978424 0.784695
0.397284 0.979950 0.784878
0.585046 0.982116 0.783963
0.784421 0.984619 0.784482
0.989960 0.990082 0.793271
0.037232 0.036103 0.993317
0.207980 0.039521 0.992706
0.401007 0.049378 0.991150
0.596612 0.064942 0.989380
0.792142 0.086427 0.987945
0.986694 0.111727 0.986725
0.046540 0.209354 0.993072
0.209720 0.209415 0.992279
0.400824 0.209934 0.990143
0.595148 0.211276 0.987610
0.788693 0.212741 0.984436
0.981720 0.215396 0.981689
0.028321 0.398474 0.990326
0.205509 0.398901 0.990295
0.398688 0.398627 0.989227
0.593774 0.397986 0.987457
0.788205 0.396033 0.984833
0.983215 0.396887 0.983215
0.018860 0.593774 0.988617
0.197543 0.592981 0.988647
0.389136 0.590143 0.988739
0.588739 0.588830 0.987549
0.786923 0.587121 0.985901
0.984985 0.587549 0.984985
0.081147 0.791531 0.987457
0.214084 0.791226 0.987518
0.395941 0.790524 0.988037
0.587518 0.788754 0.988800
0.786038 0.786069 0.989105
0.989014 0.786496 0.989014
0.132876 0.988952 0.988952
0.226993 0.988525 0.988495
0.398383 0.988922 0.988922
0.585534 0.989807 0.989807
0.783017 0.991852 0.991791
0.996765 0.996765 0.996765
