luts/FUJI_NOSTALGIC_NEG.cube
TITLE "Generated for krafta web app"
LUT_3D_SIZE 9
#INPUTGAMMA sRGB
#IMAGEPROFILE sRGB
#OUTPUTGAMMA sRGB
0.000000 0.000000 0.000000
0.155529 0.021219 0.001437
0.281406 0.038837 -0.000010
0.465166 0.064380 0.000000
0.578019 0.079960 0.000000
0.665515 0.092696 0.000000
0.777883 0.109629 0.000000
0.867929 0.122253 0.000000
0.941467 0.131734 0.000000
0.000029 0.104174 0.001084
0.147405 0.127006 0.002034
0.276281 0.139503 -0.000054
0.461916 0.165708 0.000000
0.578041 0.179665 0.000000
0.669689 0.194248 0.000000
0.790485 0.210881 0.000000
0.883839 0.221939 0.000000
0.986767 0.214026 0.000000
0.000000 0.189737 -0.000037
0.127960 0.217251 -0.000018
0.270025 0.231348 0.003143
0.460903 0.249846 -0.000012
0.566060 0.261772 0.000000
0.649373 0.272312 0.000000
0.778804 0.288237 0.000000
0.887280 0.291147 0.000000
0.993236 0.289427 0.000000
0.000000 0.276746 0.000000
0.103536 0.303232 0.000009
0.252623 0.324936 0.007301
0.454489 0.343367 0.002332
0.566846 0.352680 0.000001
0.650074 0.360663 0.000000
0.755939 0.363332 0.000000
0.902710 0.366093 0.000000
0.995656 0.373039 0.000000
0.000000 0.384108 0.000000
0.063555 0.412697 0.000000
0.214837 0.439007 -0.000088
0.427159 0.464393 0.010787
0.546074 0.473331 0.003708
0.640924 0.481761 0.001416
0.776208 0.491710 0.001443
0.899230 0.488390 0.006452
0.973210 0.481708 0.000003
0.000000 0.447842 0.000000
0.039912 0.478934 0.000000
0.193865 0.507436 0.000000
0.408426 0.537743 0.009642
0.540784 0.551363 0.011005
0.644146 0.566504 0.013041
0.767263 0.583582 0.019458
0.876201 0.586497 0.022437
0.968436 0.571337 0.001720
0.000000 0.530009 0.000000
0.024237 0.567849 0.000000
0.183028 0.595430 0.000000
0.402505 0.632140 0.000049
0.528002 0.653873 0.005198
0.624501 0.671080 0.028584
0.752769 0.692308 0.036672
0.857799 0.701883 0.034188
0.956972 0.690624 0.008547
0.000000 0.612515 0.000000
0.032130 0.655810 0.000000
0.187388 0.678932 0.000000
0.385580 0.715903 -0.000076
0.491951 0.733280 -0.000050
0.583194 0.747369 0.000006
0.719860 0.770054 0.003364
0.838991 0.790292 0.007873
0.931931 0.806415 0.011779
0.000000 0.696639 -0.000002
0.061526 0.729725 -0.000001
0.186097 0.745985 0.000000
0.351347 0.781549 0.000000
0.468667 0.801310 0.000000
0.547464 0.807998 0.000043
0.675915 0.826612 0.000062
0.794727 0.847438 0.000000
0.893825 0.867622 0.000001
0.012530 0.047405 0.159140
0.161931 0.065724 0.137456
0.288680 0.082074 0.119660
0.472598 0.104675 0.092376
0.584177 0.119002 0.076810
0.669696 0.131280 0.067531
0.786006 0.145376 0.053429
0.874832 0.155527 0.042029
0.954455 0.160227 0.028597
0.018917 0.138501 0.157715
0.146436 0.142850 0.137831
0.241075 0.147362 0.122828
0.441508 0.175623 0.101998
0.566378 0.194287 0.091222
0.669966 0.207798 0.080015
0.792683 0.220857 0.064859
0.879675 0.231036 0.054237
0.951983 0.236229 0.036917
0.008817 0.222381 0.154015
0.144209 0.228892 0.133573
0.270373 0.239495 0.122288
0.408264 0.248374 0.115235
0.522637 0.263185 0.101964
0.611347 0.274565 0.093424
0.779973 0.291945 0.072065
0.900425 0.308365 0.059344
0.976550 0.315583 0.039703
0.000997 0.308071 0.142251
0.122529 0.315271 0.121098
0.256224 0.326707 0.117319
0.444251 0.341224 0.106382
0.563399 0.353146 0.106066
0.614821 0.355557 0.101771
0.777129 0.370278 0.081063
0.908580 0.390968 0.065653
0.979175 0.399221 0.038731
0.000000 0.415989 0.124311
0.083609 0.426033 0.102413
0.222436 0.442830 0.104269
0.434773 0.463121 0.112775
0.555468 0.473462 0.109610
0.650226 0.483522 0.108264
0.787634 0.502806 0.112262
0.892762 0.516679 0.084540
0.977572 0.497980 0.052548
0.000000 0.480802 0.112333
0.057247 0.492644 0.091673
0.211402 0.512442 0.101114
0.428940 0.543330 0.108601
0.560150 0.564669 0.123283
0.645175 0.580363 0.134248
0.766523 0.598871 0.139565
0.885331 0.590851 0.099224
0.979981 0.575687 0.058779
0.000000 0.565573 0.097181
0.045762 0.582051 0.081288
0.200333 0.608575 0.084942
0.417462 0.646699 0.089604
0.522551 0.662990 0.103623
0.617136 0.677754 0.109994
0.761185 0.702874 0.130735
0.867103 0.709422 0.127962
0.968282 0.695484 0.086692
0.000000 0.656593 0.076020
0.076380 0.676296 0.063241
0.201896 0.689962 0.048966
0.382143 0.726482 0.070940
0.496609 0.746054 0.086211
0.589602 0.759200 0.091336
0.726881 0.781487 0.099416
0.846004 0.801662 0.104494
0.938920 0.816582 0.124876
-0.000079 0.749524 0.055632
0.087165 0.754898 0.033562
0.160604 0.753450 0.035638
0.340436 0.789863 0.067713
0.453161 0.803194 0.065681
0.542951 0.814113 0.063735
0.675769 0.835248 0.067000
0.797566 0.857934 0.072404
0.903409 0.880950 0.086235
0.021559 0.087106 0.293597
0.165900 0.108260 0.275801
0.291982 0.124690 0.257133
0.476328 0.150191 0.232102
0.586628 0.162509 0.213930
0.671628 0.172384 0.199846
0.785989 0.184029 0.179325
0.879684 0.186881 0.157179
0.954738 0.187254 0.137126
0.039460 0.171087 0.279935
0.167430 0.167527 0.252231
0.277046 0.171399 0.233634
0.467481 0.199440 0.215335
0.589285 0.220165 0.205198
0.678684 0.232559 0.194759
0.801059 0.249993 0.180108
0.890748 0.257492 0.164033
0.954070 0.262636 0.148665
0.036455 0.252209 0.291961
0.169817 0.262542 0.266895
0.263139 0.260062 0.256128
0.384507 0.260693 0.232775
0.514296 0.280327 0.221249
0.636264 0.300414 0.211425
0.774194 0.319430 0.193131
0.886519 0.336346 0.177444
0.942637 0.342160 0.159915
0.026732 0.336652 0.291179
0.154889 0.346594 0.261381
0.265488 0.350212 0.249997
0.476624 0.373495 0.244371
0.501870 0.361915 0.236445
0.604289 0.375243 0.225263
0.794172 0.404490 0.204982
0.893960 0.424246 0.181021
0.959826 0.419631 0.149831
0.005278 0.447807 0.279086
0.123466 0.456222 0.252269
0.254063 0.463703 0.242232
0.435947 0.475741 0.235873
0.563116 0.491530 0.234962
0.662365 0.506281 0.236095
0.780784 0.544062 0.232969
0.894734 0.533003 0.189707
0.979770 0.526234 0.162335
0.000286 0.515458 0.268290
0.104522 0.522837 0.242595
0.221787 0.530629 0.230920
0.459825 0.571639 0.248608
0.561000 0.588070 0.258866
0.646975 0.600138 0.260794
0.771071 0.609009 0.246830
0.894673 0.603191 0.202689
0.984670 0.585023 0.160542
-0.000105 0.606518 0.246790
0.101468 0.622289 0.218101
0.232694 0.631408 0.202783
0.418809 0.658258 0.212873
0.540095 0.679280 0.225281
0.644467 0.697930 0.239738
0.769056 0.715471 0.259439
0.874910 0.717696 0.240836
0.973480 0.694237 0.193991
0.001647 0.708918 0.211532
0.128175 0.722021 0.183647
0.218224 0.715491 0.172638
0.375090 0.737798 0.196593
0.497199 0.755172 0.201618
0.598442 0.771217 0.206031
0.730059 0.791515 0.209051
0.854284 0.814095 0.223935
0.951212 0.823634 0.222471
0.025397 0.803323 0.181703
0.113571 0.790654 0.169617
0.164329 0.774767 0.169017
0.330346 0.794643 0.176383
0.448753 0.809266 0.170436
0.541137 0.821258 0.167167
0.672377 0.842696 0.168227
0.802563 0.869811 0.180808
0.912852 0.894602 0.192433
0.028796 0.126940 0.427603
0.169294 0.150384 0.411761
0.294898 0.168347 0.395044
0.477174 0.192242 0.366628
0.588001 0.207388 0.349888
0.672870 0.211300 0.330881
0.790600 0.210245 0.297837
0.888980 0.210645 0.272150
0.971586 0.214203 0.253262
0.042131 0.203353 0.409391
0.179154 0.203249 0.380823
0.303672 0.212064 0.363202
0.487183 0.247936 0.349302
0.607931 0.264336 0.334920
0.694734 0.272730 0.320665
0.809408 0.275474 0.296292
0.902907 0.280788 0.277519
0.969238 0.291785 0.265741
0.059021 0.283941 0.409083
0.188465 0.294832 0.396662
0.280885 0.282452 0.368421
0.463198 0.293398 0.341253
0.596597 0.325980 0.339646
0.695722 0.340949 0.330789
0.806832 0.349388 0.311035
0.890976 0.364157 0.295076
0.958562 0.363547 0.271925
0.051603 0.368526 0.425358
0.179600 0.379253 0.391081
0.311951 0.390549 0.384585
0.409224 0.376457 0.368571
0.520147 0.388796 0.355983
0.646666 0.408952 0.345890
0.798007 0.439023 0.328921
0.882330 0.442027 0.301505
0.947575 0.443130 0.281057
0.032578 0.479962 0.425116
0.158643 0.485324 0.391662
0.266872 0.486476 0.380644
0.445148 0.497767 0.363962
0.575070 0.515384 0.363494
0.667229 0.533380 0.365832
0.784463 0.555518 0.344960
0.895744 0.552062 0.314616
0.974597 0.551044 0.290764
0.015359 0.550017 0.418825
0.152862 0.556796 0.389212
0.288474 0.569400 0.377623
0.466490 0.594330 0.381121
0.568966 0.604909 0.374688
0.657792 0.615868 0.380594
0.779690 0.619065 0.359067
0.901267 0.613739 0.320036
0.985759 0.596181 0.282967
0.022506 0.648900 0.390228
0.169231 0.670329 0.359438
0.273220 0.668090 0.336915
0.437872 0.677685 0.346071
0.560888 0.697626 0.358247
0.654941 0.711111 0.363353
0.774427 0.726836 0.376025
0.883175 0.727447 0.354042
0.983906 0.691568 0.299120
0.056039 0.759501 0.348443
0.165335 0.759910 0.320552
0.239445 0.746547 0.319295
0.376306 0.747097 0.322113
0.503437 0.765417 0.325257
0.599890 0.780204 0.325952
0.744099 0.806791 0.341240
0.862887 0.827079 0.348648
0.959965 0.830062 0.348955
0.066657 0.840704 0.321025
0.117452 0.818875 0.315565
0.167469 0.796887 0.307871
0.327842 0.800591 0.293040
0.444242 0.814517 0.284451
0.534152 0.826645 0.280363
0.679676 0.855770 0.290795
0.810283 0.883296 0.304008
0.924715 0.909517 0.316967
0.035966 0.169259 0.566698
0.175384 0.190587 0.548684
0.298646 0.213078 0.535423
0.479364 0.233040 0.503395
0.593816 0.232685 0.472151
0.684337 0.232441 0.447084
0.806655 0.235097 0.416628
0.910174 0.241563 0.393328
0.990378 0.247656 0.374402
0.047798 0.239515 0.547368
0.184831 0.253633 0.532148
0.314543 0.268411 0.511344
0.508822 0.290524 0.485637
0.614630 0.293831 0.459477
0.692869 0.295591 0.440785
0.817472 0.303585 0.418445
0.920246 0.311135 0.398264
0.989783 0.319668 0.383971
0.081296 0.321493 0.543061
0.182720 0.318602 0.519555
0.319175 0.325049 0.497651
0.513588 0.355044 0.479922
0.613342 0.361122 0.461926
0.697937 0.365520 0.449703
0.815081 0.378150 0.428919
0.912366 0.386777 0.406776
0.987447 0.392988 0.388592
0.074971 0.400166 0.543997
0.213733 0.415589 0.527226
0.326969 0.422434 0.520533
0.499637 0.423195 0.490546
0.606656 0.430131 0.475672
0.686005 0.440324 0.464633
0.800292 0.459250 0.440147
0.902587 0.465129 0.420962
0.970704 0.474371 0.409064
0.072889 0.511189 0.565676
0.197146 0.508979 0.532258
0.307319 0.512033 0.517114
0.465099 0.522128 0.494133
0.583959 0.538538 0.494028
0.667410 0.556584 0.485075
0.793756 0.561882 0.461237
0.893095 0.575685 0.445678
0.965075 0.571307 0.425773
0.071907 0.581327 0.562216
0.205148 0.595584 0.540401
0.327677 0.603457 0.518282
0.481066 0.610547 0.495596
0.590940 0.622624 0.499402
0.661538 0.624932 0.496631
0.789276 0.628322 0.474572
0.900438 0.636067 0.448974
0.983856 0.623334 0.420690
0.081953 0.695337 0.541489
0.210714 0.706019 0.500639
0.318082 0.701408 0.485162
0.461416 0.699792 0.482535
0.581635 0.713405 0.490552
0.674692 0.728948 0.495524
0.780541 0.738533 0.498944
0.891997 0.734465 0.470071
0.992130 0.692573 0.413715
0.093041 0.798216 0.490329
0.197734 0.793370 0.471229
0.256968 0.775403 0.468427
0.393983 0.764212 0.453824
0.506588 0.775447 0.449582
0.604081 0.790944 0.452111
0.752780 0.820098 0.469116
0.874430 0.841998 0.481591
0.974342 0.835595 0.464002
0.089784 0.872454 0.469940
0.140025 0.847200 0.465502
0.210044 0.830634 0.450780
0.323649 0.806422 0.409282
0.435548 0.818967 0.400584
0.539838 0.838552 0.405046
0.680897 0.866585 0.414849
0.816814 0.896817 0.430841
0.939162 0.926644 0.448707
0.044646 0.212917 0.708811
0.181983 0.236110 0.695053
0.305828 0.251560 0.674527
0.492716 0.258591 0.630806
0.613335 0.259168 0.597698
0.705756 0.261943 0.573946
0.836041 0.269557 0.544327
0.938999 0.276539 0.520085
1.000002 0.280426 0.500549
0.055468 0.284966 0.698037
0.200723 0.300368 0.676412
0.331372 0.311866 0.655114
0.509943 0.316132 0.611511
0.625599 0.322217 0.590835
0.717686 0.328902 0.572554
0.844192 0.337882 0.547204
0.945876 0.345240 0.524453
1.000011 0.352094 0.503975
0.086677 0.361067 0.695500
0.213934 0.364367 0.668516
0.343339 0.374619 0.646876
0.505324 0.382594 0.613758
0.625205 0.394914 0.593160
0.714197 0.402275 0.577380
0.835528 0.410409 0.553275
0.942998 0.416946 0.528741
0.999729 0.424987 0.514395
0.106236 0.446585 0.703426
0.239841 0.449943 0.672916
0.358099 0.451245 0.649692
0.512969 0.458468 0.620823
0.615753 0.467086 0.606314
0.700499 0.474600 0.587989
0.822423 0.487784 0.564206
0.921920 0.495388 0.548625
0.990620 0.497481 0.538617
0.116450 0.542005 0.715766
0.240872 0.542924 0.683726
0.350858 0.551002 0.654906
0.492823 0.549479 0.629830
0.590926 0.557304 0.619541
0.676344 0.572300 0.606226
0.798706 0.591912 0.588905
0.899408 0.598946 0.576147
0.970940 0.600887 0.563445
0.123542 0.618447 0.716790
0.239322 0.625625 0.685647
0.353469 0.627183 0.649691
0.506978 0.630073 0.627175
0.595931 0.633667 0.622342
0.668304 0.638291 0.617904
0.792871 0.657624 0.602359
0.896322 0.663977 0.587982
0.971256 0.661214 0.568100
0.125360 0.733127 0.692409
0.245591 0.735718 0.652999
0.352510 0.731452 0.630655
0.502768 0.730505 0.624440
0.607017 0.736476 0.623111
0.687158 0.743662 0.624014
0.786612 0.749926 0.621205
0.898687 0.747171 0.596044
0.990906 0.724692 0.557324
0.131419 0.834090 0.643070
0.218436 0.822315 0.626313
0.302765 0.811074 0.619030
0.439059 0.800066 0.599570
0.530814 0.796885 0.588587
0.617444 0.806725 0.588413
0.767068 0.836476 0.604870
0.883601 0.856010 0.617949
0.986621 0.840124 0.583718
0.095748 0.893172 0.624371
0.171402 0.878401 0.613455
0.250416 0.864637 0.594148
0.359171 0.838061 0.550262
0.438353 0.830061 0.528346
0.536925 0.847750 0.532440
0.687373 0.880739 0.547041
0.829495 0.914259 0.567547
0.953615 0.944528 0.584664
0.053318 0.249961 0.827199
0.190003 0.270319 0.811993
0.315261 0.280669 0.789420
0.508403 0.281190 0.736486
0.636826 0.287499 0.707361
0.732915 0.291917 0.684529
0.861726 0.298484 0.653989
0.959782 0.306481 0.629179
0.999999 0.312698 0.607957
0.070501 0.322484 0.821529
0.207318 0.333729 0.797356
0.336665 0.335620 0.766223
0.522622 0.345830 0.728181
0.644498 0.355799 0.705054
0.737045 0.362873 0.686693
0.860204 0.369725 0.659376
0.961483 0.378943 0.632831
1.000000 0.390151 0.612413
0.081505 0.389484 0.816851
0.215780 0.399175 0.793303
0.329835 0.404241 0.771301
0.516770 0.421016 0.738649
0.636071 0.430636 0.716258
0.726882 0.435661 0.695678
0.854904 0.444931 0.663852
0.957545 0.453096 0.641441
0.999994 0.452818 0.629289
0.139928 0.482332 0.830932
0.239991 0.481373 0.800697
0.333472 0.484501 0.778634
0.514489 0.500352 0.748155
0.633361 0.510889 0.720159
0.720480 0.514166 0.699791
0.838964 0.516038 0.678351
0.938440 0.516798 0.662084
0.999470 0.519285 0.649398
0.148793 0.584580 0.848685
0.264965 0.594076 0.814747
0.366417 0.596277 0.795140
0.516369 0.603924 0.754771
0.622075 0.609978 0.735846
0.701466 0.611290 0.720929
0.813139 0.615716 0.700473
0.917501 0.619534 0.683789
0.992683 0.623900 0.672647
0.141532 0.649309 0.857849
0.251928 0.653739 0.823567
0.356246 0.657317 0.797767
0.523765 0.666777 0.764227
0.620284 0.673690 0.745735
0.697553 0.677453 0.731370
0.804012 0.682985 0.711222
0.904273 0.686432 0.696292
0.981693 0.689714 0.685579
0.135808 0.748729 0.841652
0.250857 0.745376 0.810744
0.362772 0.745850 0.785147
0.523238 0.746382 0.758542
0.619019 0.751036 0.747653
0.692777 0.756317 0.739296
0.794915 0.764240 0.726802
0.898531 0.769998 0.711770
0.986574 0.763432 0.688447
0.152726 0.853709 0.790268
0.250563 0.848719 0.756592
0.346451 0.843650 0.745349
0.484405 0.834529 0.727515
0.576067 0.831555 0.717549
0.656083 0.834399 0.714079
0.780789 0.849998 0.721180
0.892459 0.866607 0.728328
0.994385 0.844139 0.688209
0.126002 0.920548 0.752993
0.214087 0.909956 0.739382
0.293317 0.897001 0.718998
0.405508 0.875330 0.681741
0.478800 0.863909 0.658865
0.548814 0.862897 0.647536
0.697845 0.894800 0.663583
0.838396 0.928629 0.684173
0.968180 0.960850 0.705356
0.063371 0.293528 0.954317
0.197992 0.306277 0.931693
0.333638 0.310125 0.907985
0.540114 0.316144 0.862767
0.665596 0.323697 0.836325
0.757959 0.329207 0.815905
0.882964 0.337188 0.788072
0.976329 0.348616 0.763250
1.000000 0.362291 0.742747
0.082191 0.360323 0.946172
0.218750 0.364618 0.917934
0.346528 0.372100 0.899377
0.538769 0.385913 0.870051
0.657950 0.393166 0.844790
0.749112 0.399865 0.825251
0.878171 0.413545 0.795440
0.980732 0.430433 0.769728
1.000000 0.436499 0.754147
0.079921 0.426448 0.947646
0.208408 0.437588 0.928184
0.335885 0.447546 0.911848
0.526756 0.460586 0.881411
0.648206 0.468525 0.854226
0.745809 0.476975 0.830304
0.877495 0.489874 0.802993
0.966845 0.491502 0.785168
0.999999 0.486264 0.771641
0.146440 0.526888 0.968466
0.194835 0.517221 0.940888
0.330238 0.529809 0.923722
0.522085 0.537829 0.884008
0.642015 0.544776 0.857876
0.731909 0.548767 0.842630
0.849433 0.548637 0.823325
0.949792 0.547475 0.805300
0.999997 0.551174 0.789631
0.176943 0.642126 0.981474
0.288178 0.647407 0.964364
0.357184 0.635753 0.931152
0.503541 0.630418 0.898753
0.612598 0.634004 0.883007
0.700241 0.636877 0.867893
0.824640 0.642933 0.845976
0.935555 0.648995 0.826047
0.999997 0.653916 0.810101
0.163000 0.701567 0.988234
0.263805 0.703261 0.962969
0.375765 0.701823 0.942841
0.517340 0.699621 0.916902
0.603802 0.697514 0.892984
0.691275 0.701903 0.878019
0.813921 0.708250 0.856365
0.925605 0.713933 0.837348
0.999952 0.718954 0.821794
0.147341 0.777589 0.988030
0.265303 0.774368 0.968328
0.365969 0.775009 0.957073
0.523540 0.779225 0.924980
0.624953 0.784513 0.904694
0.700857 0.788381 0.886778
0.809067 0.793120 0.863951
0.910171 0.797513 0.848277
0.995318 0.801406 0.835050
0.161473 0.868077 0.970699
0.265202 0.869676 0.945621
0.365987 0.867250 0.927342
0.524413 0.868317 0.905401
0.621343 0.869224 0.892935
0.698299 0.870217 0.884104
0.807712 0.874214 0.870228
0.900904 0.882530 0.859737
0.992972 0.880825 0.840845
0.175031 0.954873 0.906530
0.261552 0.948481 0.893972
0.344716 0.940362 0.879384
0.469113 0.925689 0.851983
0.550442 0.919875 0.835462
0.622282 0.919394 0.825445
0.725448 0.922487 0.815862
0.855658 0.948964 0.830935
0.984195 0.980136 0.849621
0.073045 0.326004 1.000000
0.214404 0.333478 1.000123
0.360123 0.338611 0.991556
0.560699 0.346864 0.973487
0.681634 0.353198 0.951673
0.772150 0.361087 0.934108
0.900782 0.377345 0.909433
0.994687 0.396971 0.885304
1.000000 0.412569 0.867936
0.085995 0.386951 1.000000
0.226848 0.396777 0.999996
0.358796 0.406266 0.998183
0.552162 0.419351 0.983195
0.673062 0.429547 0.966193
0.771292 0.441914 0.945705
0.908711 0.461322 0.918028
0.992435 0.471666 0.898281
1.000000 0.466089 0.885646
0.071885 0.459024 1.000000
0.213602 0.470291 1.000000
0.352466 0.482207 0.999989
0.546560 0.494027 0.987726
0.675383 0.509145 0.972603
0.772467 0.519203 0.954971
0.891612 0.521601 0.933468
0.975899 0.516981 0.917204
1.000000 0.513652 0.904589
0.071510 0.543086 1.000000
0.196588 0.548925 1.000000
0.334073 0.556191 0.999998
0.546809 0.574439 0.990370
0.661074 0.579225 0.984072
0.743964 0.578962 0.973846
0.859683 0.576175 0.955608
0.963665 0.578427 0.938083
1.000000 0.583009 0.923792
0.205795 0.680275 1.000000
0.269986 0.667280 1.000000
0.328258 0.654198 0.999998
0.505699 0.658922 0.999996
0.619473 0.663272 0.999761
0.711454 0.667829 0.993319
0.838051 0.674554 0.979246
0.949582 0.680859 0.961945
0.999999 0.686598 0.947481
0.195872 0.741892 1.000000
0.290975 0.739542 1.000000
0.412957 0.742180 1.000000
0.488576 0.720692 0.999998
0.605028 0.726224 0.999995
0.698668 0.731448 0.999910
0.825057 0.738612 0.992110
0.937835 0.745427 0.975793
0.999997 0.750725 0.959909
0.186624 0.815145 1.000000
0.292544 0.813894 1.000000
0.389123 0.817256 1.000000
0.532008 0.823296 1.000000
0.620021 0.821856 0.999999
0.682011 0.813480 0.999996
0.808839 0.820096 1.000118
0.921308 0.826296 0.990213
0.999871 0.831622 0.973215
0.170959 0.887954 1.000000
0.261337 0.887531 1.000000
0.363236 0.886320 1.000000
0.524999 0.894077 1.000000
0.626677 0.899849 1.000000
0.707009 0.905126 0.999999
0.806801 0.908135 0.999994
0.903071 0.908705 0.996949
0.998559 0.913978 0.986018
0.172898 0.967600 1.000000
0.275971 0.969665 0.999999
0.380011 0.972931 0.999996
0.535284 0.977144 0.999990
0.631977 0.980697 0.999988
0.708368 0.983992 0.999986
0.814474 0.988559 0.999383
0.909827 0.994026 0.999099
0.999985 0.999986 0.999982
