luts/FUJI_PROVIA.cube
TITLE "Generated for krafta web app"
LUT_3D_SIZE 9
#INPUTGAMMA sRGB
#IMAGEPROFILE sRGB
#OUTPUTGAMMA sRGB
0.000000 0.000000 0.000000
0.141436 0.020633 0.020645
0.282856 0.044055 0.042644
0.418666 0.065377 0.061294
0.552341 0.089044 0.082608
0.691845 0.112578 0.102078
0.811287 0.134644 0.120054
0.917517 0.155254 0.138295
0.998267 0.174592 0.155005
0.000002 0.113232 0.000002
0.129107 0.119446 0.006565
0.278636 0.131922 0.026078
0.426906 0.153916 0.050863
0.564936 0.176709 0.071253
0.696816 0.197762 0.095463
0.824536 0.219341 0.108693
0.921359 0.237218 0.129738
0.999998 0.245047 0.146188
0.000000 0.226398 0.000000
0.094545 0.233424 0.000002
0.263811 0.238747 0.013567
0.411901 0.249762 0.031575
0.547427 0.264353 0.050359
0.702200 0.285819 0.076740
0.839310 0.303957 0.101525
0.953469 0.310248 0.125002
1.000000 0.325925 0.130848
0.000000 0.342589 0.000000
0.061471 0.347875 0.000000
0.232824 0.354462 0.000693
0.390340 0.358674 0.020359
0.539641 0.367142 0.035438
0.690242 0.382610 0.059019
0.816120 0.390975 0.077349
0.967595 0.392449 0.113677
1.000000 0.410498 0.117104
0.000000 0.459554 0.000000
0.032765 0.464441 0.000000
0.198515 0.473896 0.000001
0.356291 0.474394 0.008026
0.517072 0.478691 0.025915
0.673871 0.487737 0.043069
0.818748 0.496883 0.063194
0.961286 0.487774 0.093923
1.000000 0.498002 0.102366
0.000000 0.576969 0.000000
0.009657 0.582753 0.000000
0.155598 0.589199 0.000000
0.301256 0.593105 -0.000015
0.469211 0.594059 0.013488
0.643210 0.603337 0.029787
0.792953 0.612323 0.044803
0.937349 0.608789 0.051368
1.000000 0.615567 0.073194
0.000000 0.685323 0.000000
0.000102 0.687299 0.000000
0.090512 0.689426 0.000000
0.190104 0.688115 0.000000
0.356126 0.697525 0.000024
0.552645 0.708749 0.007750
0.724148 0.717810 0.028419
0.905631 0.728060 0.042404
0.999996 0.729935 0.038454
0.000000 0.781981 0.000000
0.000001 0.786717 0.000000
0.023613 0.782027 0.000000
0.145903 0.797843 0.000000
0.428035 0.832451 0.000000
0.689242 0.857600 -0.000047
0.784918 0.849568 -0.000277
0.795374 0.826402 0.001586
0.987060 0.841641 0.020350
0.000000 0.872971 0.000000
0.000000 0.875412 0.000000
0.009566 0.890130 0.000000
0.283589 0.934942 0.000000
0.592575 0.972313 0.000000
0.715147 0.971112 0.000000
0.830408 0.969255 0.000564
0.871608 0.954380 -0.000011
0.762885 0.915730 0.000000
0.042165 0.037846 0.143181
0.178041 0.058643 0.161189
0.319527 0.079596 0.178934
0.448535 0.099727 0.193919
0.582229 0.121576 0.210525
0.718933 0.143897 0.227662
0.832986 0.162631 0.240309
0.935060 0.177423 0.248825
0.999998 0.186381 0.247978
0.015622 0.131602 0.129964
0.124911 0.124249 0.116870
0.275569 0.134315 0.130439
0.429378 0.156173 0.158375
0.575978 0.178517 0.183065
0.705245 0.200775 0.202377
0.829951 0.220074 0.215544
0.926731 0.238758 0.230690
0.999996 0.260132 0.238390
-0.000497 0.243597 0.106381
0.103079 0.234191 0.094380
0.257320 0.237448 0.121136
0.396425 0.245985 0.141305
0.541005 0.259179 0.156101
0.718476 0.285598 0.185579
0.852404 0.303272 0.201317
0.947010 0.320481 0.216786
1.000000 0.342186 0.223091
0.000000 0.358136 0.076057
0.070322 0.348572 0.063209
0.228176 0.347896 0.091979
0.383229 0.354443 0.123300
0.541838 0.362853 0.151477
0.680538 0.374240 0.166364
0.840098 0.388323 0.195126
0.960056 0.410064 0.201200
1.000000 0.427617 0.207071
0.000000 0.474350 0.048135
0.045429 0.463856 0.039914
0.198609 0.468309 0.061543
0.355952 0.470691 0.094771
0.517907 0.478472 0.124101
0.675556 0.485403 0.154823
0.825225 0.489935 0.179844
0.956841 0.502881 0.178586
1.000000 0.517071 0.195684
0.000000 0.593050 0.026301
0.015397 0.585534 0.013309
0.159341 0.584523 0.039543
0.303653 0.588502 0.060393
0.467592 0.593589 0.096519
0.640397 0.604516 0.127034
0.787553 0.612601 0.147693
0.941527 0.609140 0.139412
1.000000 0.617985 0.179081
0.000000 0.699724 0.008809
0.006317 0.693953 0.001592
0.092336 0.694185 0.000906
0.196073 0.695421 0.001252
0.385911 0.709900 0.024136
0.621679 0.727762 0.064041
0.737171 0.724832 0.083100
0.906807 0.731770 0.127465
0.999995 0.731634 0.140008
0.000000 0.797448 -0.000607
0.000143 0.795763 -0.000045
0.040090 0.798753 0.000008
0.207599 0.818013 0.000149
0.479553 0.847011 -0.006395
0.688203 0.858628 0.070730
0.800074 0.853966 0.084555
0.799513 0.829785 0.032491
0.992645 0.843313 0.110048
0.000000 0.891237 0.000000
0.000337 0.895573 0.000000
0.141248 0.928553 -0.000624
0.446460 0.971298 0.043596
0.588770 0.976344 0.063506
0.712086 0.975957 0.073679
0.824805 0.973480 0.078274
0.866213 0.958598 0.065425
0.770173 0.921302 0.000005
0.084891 0.078779 0.296326
0.219559 0.102534 0.317665
0.357651 0.124258 0.334710
0.486647 0.145065 0.349463
0.618726 0.168051 0.366361
0.749784 0.188900 0.380755
0.856112 0.198602 0.382213
0.944574 0.197468 0.370720
0.999992 0.198097 0.358303
0.064518 0.155172 0.263206
0.151405 0.145934 0.240515
0.279003 0.149146 0.243959
0.430042 0.176175 0.274798
0.589278 0.202558 0.308367
0.714635 0.218214 0.321249
0.837080 0.235918 0.336537
0.933245 0.251574 0.341390
0.999996 0.272790 0.350695
0.031994 0.262967 0.265437
0.151031 0.257906 0.245316
0.253824 0.248908 0.242013
0.371220 0.252251 0.242895
0.560158 0.270722 0.272706
0.710028 0.292933 0.301439
0.827925 0.315787 0.317607
0.935631 0.338507 0.334962
0.999996 0.363343 0.342832
0.008761 0.375318 0.248007
0.118794 0.367742 0.222659
0.234161 0.359199 0.220692
0.385312 0.365974 0.247657
0.524636 0.371358 0.267699
0.696753 0.387574 0.292263
0.833000 0.404637 0.311282
0.947612 0.427265 0.321710
1.000000 0.451321 0.330558
-0.000150 0.493560 0.221884
0.085950 0.484177 0.200188
0.207373 0.472341 0.194162
0.358662 0.477102 0.222262
0.514683 0.484396 0.250859
0.673276 0.491728 0.279133
0.818482 0.504194 0.291082
0.946017 0.525798 0.298272
1.000000 0.538006 0.318891
0.000000 0.610811 0.186831
0.056806 0.600121 0.165404
0.175080 0.594948 0.147649
0.308796 0.597680 0.155357
0.478466 0.604401 0.208282
0.637632 0.610955 0.245786
0.788685 0.614705 0.257932
0.936636 0.624733 0.280015
1.000000 0.620017 0.303351
0.000000 0.714771 0.132177
0.027994 0.707914 0.094353
0.126330 0.709798 0.061823
0.274140 0.717389 0.072481
0.460868 0.729232 0.120401
0.645769 0.735130 0.199860
0.749474 0.730465 0.205044
0.903885 0.738117 0.251306
0.999998 0.730980 0.263652
0.000000 0.814915 0.047979
0.008666 0.813662 0.014496
0.124377 0.829641 0.011456
0.365482 0.854756 0.092006
0.564987 0.866350 0.192050
0.690385 0.862662 0.205752
0.800391 0.857440 0.211832
0.803068 0.834396 0.120345
0.998750 0.846884 0.220496
0.000000 0.913661 0.000000
0.065126 0.938130 0.002440
0.322258 0.974333 0.148377
0.454270 0.978604 0.174219
0.581327 0.980744 0.187782
0.703097 0.980346 0.190759
0.816291 0.978062 0.194393
0.880296 0.966791 0.198773
0.782641 0.928985 0.012249
0.132760 0.126839 0.464323
0.259390 0.147148 0.478997
0.401143 0.174686 0.500048
0.531597 0.196740 0.517919
0.658454 0.216599 0.529588
0.770621 0.224271 0.525547
0.859335 0.216334 0.503560
0.939949 0.210329 0.484181
0.999013 0.212472 0.474341
0.089002 0.186132 0.403367
0.198020 0.188550 0.402423
0.324058 0.194583 0.406411
0.467171 0.215423 0.428940
0.620141 0.249198 0.465615
0.740228 0.255520 0.467229
0.839756 0.257608 0.459134
0.935329 0.262518 0.457304
0.999996 0.284685 0.468673
0.087933 0.286579 0.402206
0.201570 0.283193 0.401453
0.280359 0.269946 0.367212
0.407010 0.271833 0.371619
0.574122 0.298615 0.410459
0.728171 0.319887 0.437877
0.840541 0.333338 0.445064
0.917157 0.357214 0.451411
0.999997 0.378820 0.468441
0.045962 0.397738 0.403662
0.173065 0.392188 0.378753
0.282432 0.384060 0.376314
0.376853 0.375150 0.371156
0.532129 0.388552 0.390234
0.684647 0.405632 0.413424
0.821876 0.421555 0.431901
0.931842 0.444736 0.444943
0.999421 0.473881 0.461635
0.024771 0.510075 0.392381
0.139179 0.502737 0.365737
0.253388 0.492977 0.354041
0.356301 0.487203 0.351092
0.509433 0.493776 0.377194
0.667384 0.503229 0.403467
0.808433 0.523648 0.408303
0.933017 0.541150 0.428649
0.999997 0.554946 0.446779
0.002824 0.631566 0.363656
0.096439 0.616411 0.335393
0.230094 0.614858 0.326344
0.351710 0.613748 0.324513
0.500664 0.617940 0.357170
0.638981 0.619118 0.376946
0.784228 0.626354 0.389399
0.931610 0.631723 0.421218
1.000000 0.639011 0.428391
-0.000096 0.732867 0.285163
0.073750 0.730116 0.253452
0.194713 0.730355 0.233937
0.363836 0.739990 0.275101
0.532107 0.744977 0.338229
0.666133 0.742594 0.363781
0.761601 0.735306 0.370342
0.905824 0.741239 0.384973
0.999999 0.732980 0.403715
0.000004 0.834401 0.175304
0.028192 0.835623 0.120299
0.242360 0.860815 0.223127
0.437844 0.873485 0.323460
0.559480 0.869980 0.336957
0.680403 0.864829 0.342631
0.792254 0.860609 0.346113
0.829282 0.842397 0.278243
1.001573 0.852437 0.363754
-0.000248 0.950032 0.132428
0.175735 0.972160 0.231167
0.325067 0.981607 0.299153
0.451471 0.983922 0.320830
0.570552 0.984565 0.323913
0.693722 0.984200 0.326968
0.806879 0.983175 0.330838
0.863181 0.970162 0.310180
0.813202 0.939780 0.117757
0.174191 0.170506 0.621379
0.304077 0.197422 0.645901
0.441984 0.221629 0.663116
0.569104 0.243975 0.677287
0.669665 0.244836 0.663621
0.760737 0.231149 0.634390
0.852902 0.225395 0.614744
0.942570 0.223678 0.601623
0.999992 0.224859 0.594824
0.129437 0.223804 0.559456
0.235103 0.224840 0.552994
0.396180 0.261370 0.593612
0.521945 0.271087 0.603760
0.631698 0.274517 0.594690
0.739271 0.270365 0.584842
0.837798 0.273274 0.577646
0.939300 0.276823 0.577835
1.000000 0.298313 0.592436
0.135358 0.315018 0.550607
0.210387 0.308417 0.519483
0.353166 0.310893 0.535101
0.504598 0.330782 0.563030
0.621541 0.337062 0.559234
0.734036 0.341184 0.557702
0.834065 0.348667 0.559889
0.940266 0.367726 0.573825
0.999999 0.389170 0.591695
0.106084 0.419376 0.537358
0.226994 0.417281 0.536895
0.330865 0.408730 0.531232
0.451933 0.410201 0.538849
0.601662 0.422917 0.552411
0.720751 0.426761 0.547954
0.818944 0.439189 0.546295
0.930541 0.461771 0.567442
0.999997 0.482415 0.584356
0.074137 0.532849 0.558019
0.180102 0.519962 0.529994
0.289790 0.510241 0.513195
0.394476 0.505466 0.505280
0.510692 0.506221 0.505743
0.659793 0.518625 0.520025
0.805674 0.535316 0.527143
0.916507 0.557423 0.557125
0.999992 0.577448 0.569562
0.050549 0.647323 0.538387
0.143998 0.639955 0.508405
0.281041 0.634250 0.497950
0.388791 0.627490 0.489665
0.503724 0.625520 0.486155
0.636106 0.625947 0.503032
0.783736 0.633562 0.515033
0.921845 0.646320 0.544176
0.999999 0.662283 0.553415
0.021060 0.755453 0.454303
0.112498 0.748633 0.425949
0.255159 0.746509 0.419183
0.412308 0.752264 0.469452
0.538669 0.749325 0.487217
0.656232 0.742671 0.499636
0.760305 0.740054 0.507246
0.901978 0.742750 0.527262
0.999999 0.743812 0.541154
0.011035 0.855531 0.356348
0.127893 0.866609 0.372590
0.310518 0.879492 0.452741
0.429750 0.877373 0.467091
0.549348 0.873110 0.473068
0.670839 0.867686 0.477217
0.782234 0.862198 0.484490
0.849717 0.849146 0.451682
1.000619 0.856706 0.505336
0.028725 0.970343 0.331671
0.196593 0.983565 0.428379
0.322653 0.987294 0.451201
0.439928 0.988510 0.457240
0.561454 0.988024 0.460487
0.684759 0.987326 0.464764
0.797587 0.987194 0.468433
0.909352 0.984413 0.469066
0.856267 0.952891 0.291654
0.216024 0.215367 0.779456
0.342095 0.242557 0.801807
0.470780 0.262864 0.812881
0.572404 0.264560 0.803888
0.659611 0.249781 0.771253
0.760552 0.241892 0.748109
0.858933 0.237686 0.733182
0.953346 0.235189 0.719774
1.000000 0.234922 0.714563
0.177902 0.271258 0.730433
0.297794 0.284291 0.738123
0.425734 0.292612 0.745611
0.524588 0.288706 0.729097
0.628365 0.285658 0.716282
0.741758 0.286615 0.708763
0.850199 0.287558 0.703371
0.958761 0.291347 0.701632
1.000000 0.307037 0.713134
0.169522 0.345659 0.702126
0.272090 0.345390 0.696353
0.394893 0.353088 0.694679
0.506355 0.355276 0.689339
0.613705 0.355249 0.681798
0.728958 0.362730 0.683108
0.843327 0.370590 0.688230
0.959839 0.378588 0.698024
1.000000 0.396602 0.711912
0.167219 0.451667 0.717051
0.277473 0.442001 0.700304
0.384169 0.436663 0.682421
0.507894 0.442983 0.683057
0.617508 0.441913 0.675582
0.716659 0.453353 0.671335
0.825698 0.459066 0.673847
0.947988 0.474265 0.691880
1.000000 0.492050 0.705600
0.122082 0.552275 0.726473
0.222053 0.541336 0.695404
0.339046 0.531592 0.676662
0.455723 0.531778 0.661402
0.579305 0.530249 0.653851
0.680019 0.541910 0.650874
0.798302 0.553308 0.657135
0.927266 0.569422 0.678535
0.999999 0.589794 0.693769
0.093065 0.667482 0.697747
0.186614 0.660248 0.676179
0.312795 0.648905 0.655370
0.423499 0.640751 0.639190
0.529730 0.635085 0.627845
0.636266 0.633835 0.629756
0.775273 0.649526 0.642237
0.906909 0.661620 0.665556
0.999994 0.686046 0.678517
0.060238 0.774531 0.620425
0.152191 0.765391 0.593360
0.296930 0.759152 0.600924
0.412640 0.755695 0.609919
0.534497 0.748542 0.619062
0.649642 0.745645 0.625947
0.754020 0.744454 0.632269
0.903011 0.747066 0.656502
0.999997 0.765946 0.667514
0.038357 0.874677 0.524704
0.182637 0.885226 0.580563
0.302998 0.884078 0.595345
0.420630 0.880672 0.603789
0.540131 0.875410 0.606927
0.662772 0.869143 0.612692
0.773238 0.862821 0.621598
0.865322 0.856147 0.607845
1.000013 0.860045 0.648898
0.099797 0.987771 0.566100
0.196335 0.990858 0.581889
0.312793 0.992452 0.589561
0.431892 0.990690 0.592946
0.552996 0.990982 0.596377
0.675405 0.991461 0.599635
0.788351 0.990952 0.602495
0.903752 0.989704 0.606666
0.899415 0.966281 0.477018
0.261451 0.264546 0.923762
0.367331 0.278499 0.931169
0.478287 0.284585 0.927295
0.560832 0.268998 0.900449
0.659018 0.259670 0.882749
0.765150 0.255215 0.865710
0.865744 0.253471 0.851477
0.966283 0.254437 0.844219
1.000000 0.258005 0.837136
0.221125 0.310395 0.872337
0.315510 0.312517 0.865566
0.414844 0.305483 0.847687
0.522804 0.305856 0.845863
0.631840 0.307425 0.841837
0.744979 0.312730 0.837821
0.860195 0.316861 0.836241
0.972202 0.321267 0.836727
1.000000 0.325217 0.838876
0.181226 0.376514 0.838229
0.282284 0.383466 0.842317
0.388426 0.381388 0.828060
0.497048 0.386041 0.825094
0.614266 0.394153 0.827222
0.741700 0.399663 0.829385
0.862416 0.401712 0.830401
0.976929 0.403988 0.831656
1.000000 0.406426 0.835990
0.235434 0.478700 0.875966
0.313585 0.473539 0.849766
0.394832 0.471023 0.819418
0.504152 0.475965 0.818298
0.605218 0.481385 0.816907
0.735771 0.485959 0.819138
0.855950 0.488753 0.820187
0.970601 0.491616 0.821983
1.000000 0.500135 0.830434
0.181661 0.586291 0.886616
0.283298 0.578926 0.864073
0.399801 0.571751 0.839410
0.478886 0.566623 0.803100
0.594168 0.572956 0.802856
0.716603 0.577780 0.802257
0.831502 0.580466 0.801432
0.951519 0.582519 0.804501
1.000000 0.598300 0.819798
0.126494 0.697091 0.899302
0.229864 0.686616 0.868248
0.346233 0.679533 0.844485
0.461300 0.672162 0.817671
0.577108 0.665658 0.792583
0.687856 0.666961 0.781452
0.793408 0.671567 0.778385
0.916963 0.678727 0.786308
0.999999 0.698012 0.805687
0.100711 0.796048 0.812115
0.190260 0.790392 0.810428
0.313164 0.776993 0.797226
0.422894 0.769994 0.789445
0.540500 0.759711 0.775163
0.651695 0.754217 0.767052
0.752613 0.751430 0.757334
0.892704 0.763612 0.773841
0.999993 0.787256 0.790193
0.079340 0.892544 0.715530
0.177038 0.891406 0.727158
0.293554 0.888793 0.734199
0.410736 0.882888 0.735386
0.531236 0.877679 0.738581
0.656428 0.869675 0.744085
0.764958 0.865796 0.749452
0.873801 0.861343 0.757798
0.999993 0.867937 0.779650
0.094777 0.994557 0.713973
0.191518 0.994173 0.720908
0.305500 0.994259 0.723449
0.422947 0.994667 0.726721
0.543507 0.995141 0.730435
0.667239 0.993989 0.734102
0.779339 0.993928 0.736598
0.893876 0.993856 0.739365
0.943773 0.978911 0.668841
0.282550 0.292656 1.000294
0.378319 0.302243 0.997902
0.472620 0.291026 0.982667
0.563417 0.280507 0.974841
0.663614 0.275119 0.969424
0.773345 0.276516 0.964564
0.876890 0.278677 0.958342
0.976705 0.285242 0.959067
1.000000 0.290875 0.963058
0.230087 0.333254 0.968130
0.315624 0.330751 0.963807
0.419077 0.329073 0.954928
0.527709 0.333167 0.954936
0.640915 0.337248 0.954112
0.763528 0.344430 0.955367
0.877481 0.350095 0.956472
0.990253 0.354564 0.960649
1.000000 0.359451 0.967120
0.200363 0.406622 0.950002
0.286329 0.408830 0.945091
0.400497 0.415427 0.947013
0.511864 0.423028 0.948755
0.633782 0.424708 0.949658
0.763382 0.427383 0.952764
0.884141 0.431273 0.954987
0.993929 0.435168 0.959705
1.000000 0.438562 0.966638
0.271669 0.510269 0.988554
0.276220 0.498958 0.939699
0.385840 0.506998 0.940138
0.504391 0.510146 0.941787
0.630017 0.512235 0.943725
0.756185 0.514902 0.945294
0.878782 0.517807 0.949781
0.991922 0.521464 0.954791
1.000000 0.525573 0.960831
0.240494 0.619276 0.995647
0.332801 0.612699 0.985223
0.418632 0.604403 0.962743
0.483573 0.600878 0.931575
0.610407 0.601958 0.932776
0.739010 0.604683 0.934964
0.859447 0.607849 0.938178
0.977849 0.611303 0.942672
1.000000 0.615097 0.948295
0.182022 0.728807 0.999315
0.276122 0.721880 0.993150
0.397625 0.714566 0.982473
0.525961 0.709016 0.966458
0.595396 0.693349 0.921441
0.705545 0.695580 0.916518
0.822982 0.699314 0.917546
0.949002 0.702780 0.922365
1.000000 0.706936 0.930176
0.132653 0.827471 1.000243
0.226173 0.819900 0.995496
0.345505 0.810897 0.982751
0.461778 0.801520 0.963526
0.581808 0.791861 0.941833
0.701434 0.783325 0.916764
0.794589 0.783417 0.899395
0.912600 0.787559 0.900545
0.999999 0.796993 0.912628
0.109401 0.920866 0.948684
0.202561 0.915789 0.943780
0.312776 0.908762 0.935161
0.425138 0.900265 0.924679
0.540038 0.891662 0.913742
0.660026 0.881078 0.899497
0.769108 0.872319 0.887348
0.873220 0.868895 0.878914
0.998853 0.886645 0.894984
0.097058 0.998619 0.862454
0.187853 0.998028 0.858408
0.300155 0.998224 0.858224
0.417070 0.997150 0.856566
0.536011 0.997355 0.858516
0.657492 0.997485 0.861182
0.769834 0.997224 0.863975
0.884639 0.995574 0.867491
0.978680 0.990436 0.840610
0.296010 0.316038 1.000000
0.377601 0.311520 1.000000
0.475895 0.302058 1.000000
0.572295 0.295409 1.000000
0.673979 0.291485 1.000000
0.784500 0.298677 1.000000
0.893541 0.306832 1.000000
0.997011 0.314724 1.000000
1.000000 0.320044 1.000000
0.233710 0.350356 1.000000
0.326330 0.352945 1.000000
0.443561 0.358225 1.000000
0.551576 0.361819 1.000000
0.664725 0.364506 1.000000
0.783615 0.370850 1.000000
0.902047 0.377318 1.000000
0.998907 0.383693 1.000000
1.000000 0.388967 1.000000
0.203866 0.431917 0.999998
0.294687 0.434392 0.999998
0.413607 0.441639 0.999999
0.537332 0.445965 1.000000
0.660200 0.449277 1.000000
0.786606 0.453578 1.000000
0.909057 0.458054 1.000000
0.999681 0.462752 1.000000
1.000000 0.467168 1.000000
0.242401 0.529578 1.000000
0.280850 0.525194 0.999998
0.400518 0.530270 0.999998
0.524568 0.532964 0.999999
0.653106 0.537098 1.000000
0.783072 0.541645 1.000000
0.907011 0.545734 1.000000
0.999347 0.550115 1.000000
1.000000 0.554948 1.000000
0.287430 0.641597 1.000000
0.378781 0.635562 1.000000
0.401787 0.622737 0.999999
0.502730 0.622004 0.999997
0.633153 0.626838 0.999998
0.764534 0.631765 0.999999
0.884555 0.636547 1.000000
0.993988 0.641539 1.000000
1.000000 0.645732 1.000000
0.230717 0.752526 1.000000
0.329817 0.746434 1.000000
0.471539 0.747375 1.000000
0.557380 0.732269 1.000000
0.596827 0.718449 0.999995
0.718416 0.723658 0.999996
0.839782 0.729019 0.999997
0.965490 0.733522 0.999998
1.000000 0.737654 1.000000
0.185282 0.854955 1.000000
0.288838 0.849854 1.000000
0.400000 0.838855 1.000000
0.512720 0.827853 1.000000
0.630849 0.818357 1.000000
0.683623 0.809505 0.999995
0.797067 0.813265 0.999992
0.927860 0.817254 0.999994
1.000000 0.820084 0.999997
0.139668 0.946700 1.000000
0.231141 0.940055 1.000000
0.342798 0.932138 1.000000
0.457501 0.924882 1.000000
0.577852 0.916631 1.000000
0.702273 0.908280 1.000000
0.806564 0.901319 0.999996
0.894283 0.898911 0.998882
0.999997 0.903514 0.999990
0.123878 0.999999 0.999994
0.214874 0.999998 0.999992
0.320908 0.999997 0.999989
0.431453 0.999996 0.999985
0.545263 0.999995 0.999984
0.660770 0.999994 0.999983
0.768484 0.999363 0.999677
0.878966 0.998275 0.998505
0.999984 0.999988 0.999981
