luts/Fujifilm_Provia_100F.cube
# Generated for krafta web app
# https://www.facebook.com/krafta.visio
# Preset: FUJ - Provia 100F
# Color profile : sRGB Color Space Profile
LUT_3D_SIZE 16
DOMAIN_MIN 0.0 0.0 0.0
DOMAIN_MAX 1.0 1.0 1.0
0.000000 0.000000 0.000000
0.095949 0.001587 0.001495
0.193698 0.002808 0.002686
0.275151 0.004181 0.003937
0.343847 0.005951 0.006195
0.410163 0.007141 0.006989
0.473091 0.009033 0.008331
0.538537 0.010651 0.011872
0.601526 0.018585 0.017121
0.664607 0.026184 0.024842
0.725978 0.037110 0.035309
0.784329 0.048707 0.048585
0.841398 0.062226 0.060548
0.899962 0.073793 0.073213
0.958556 0.086976 0.085298
1.000000 0.097902 0.096803
0.003784 0.103059 0.003296
0.100740 0.100679 0.004211
0.186954 0.102785 0.004761
0.267247 0.100587 0.004486
0.337865 0.096254 0.004944
0.404242 0.092012 0.006744
0.471077 0.090303 0.008148
0.536522 0.090608 0.014160
0.599023 0.092164 0.020294
0.662806 0.094636 0.028290
0.724086 0.098390 0.039796
0.782223 0.103395 0.052033
0.838987 0.109255 0.062470
0.897704 0.115816 0.074464
0.956603 0.124239 0.087068
1.000000 0.131991 0.098543
0.000061 0.188022 0.000000
0.098970 0.183627 0.001221
0.179751 0.179446 0.001678
0.256962 0.176028 0.002533
0.329412 0.170962 0.004303
0.399481 0.167514 0.008087
0.466957 0.164553 0.012757
0.532128 0.162509 0.018494
0.595148 0.161440 0.025940
0.659998 0.161410 0.034943
0.721004 0.162570 0.045014
0.779110 0.163272 0.056001
0.835630 0.165255 0.066712
0.895048 0.168643 0.078309
0.954284 0.173251 0.090272
1.000000 0.178592 0.101564
0.002472 0.258213 0.002625
0.094942 0.255161 0.004395
0.172457 0.252384 0.005097
0.249393 0.249210 0.008240
0.321538 0.244419 0.012268
0.390906 0.240146 0.016815
0.457740 0.235904 0.022858
0.523674 0.232914 0.028870
0.588983 0.231052 0.036408
0.653620 0.229801 0.044831
0.714229 0.228367 0.053803
0.772274 0.227115 0.063416
0.830045 0.226719 0.072694
0.888792 0.227695 0.083375
0.946929 0.229313 0.093416
1.000000 0.231937 0.104524
0.018372 0.321202 0.019043
0.096803 0.320653 0.020233
0.169589 0.320928 0.021698
0.243748 0.319310 0.024445
0.316777 0.316747 0.028412
0.387182 0.313176 0.032898
0.455055 0.308995 0.038605
0.522057 0.305730 0.045563
0.587915 0.302861 0.051575
0.653315 0.300847 0.058137
0.714076 0.297856 0.066316
0.773342 0.295415 0.075166
0.832578 0.294072 0.083436
0.892271 0.293767 0.094057
0.950805 0.293858 0.103578
1.000000 0.293614 0.112490
0.039918 0.385229 0.040558
0.103914 0.386084 0.042573
0.170260 0.386328 0.043732
0.240299 0.384955 0.046296
0.310063 0.382483 0.048371
0.379492 0.379675 0.052522
0.448463 0.376837 0.057038
0.516289 0.374273 0.061036
0.582269 0.371252 0.066102
0.647303 0.368505 0.070954
0.707729 0.364416 0.078584
0.767971 0.361181 0.086122
0.827451 0.358831 0.093660
0.887236 0.357519 0.102571
0.946044 0.356512 0.111696
1.000000 0.355505 0.119478
0.061006 0.448890 0.060700
0.113069 0.449775 0.062470
0.172305 0.450019 0.063172
0.238529 0.448981 0.064973
0.306554 0.447456 0.067262
0.375067 0.445594 0.070069
0.443549 0.443702 0.073548
0.511101 0.441321 0.076265
0.576074 0.437385 0.079957
0.639948 0.433783 0.084779
0.701106 0.429511 0.090974
0.761990 0.426184 0.097414
0.821836 0.423163 0.104463
0.881804 0.420996 0.111971
0.940978 0.419348 0.119844
0.999115 0.417823 0.127718
0.078279 0.510857 0.077913
0.121218 0.512779 0.079103
0.176455 0.513756 0.080110
0.239567 0.513390 0.081727
0.305211 0.511986 0.083375
0.371283 0.509331 0.085206
0.437110 0.506004 0.087068
0.502861 0.502983 0.089570
0.568109 0.499947 0.092409
0.631495 0.496254 0.096742
0.693385 0.492470 0.102419
0.754849 0.488991 0.108400
0.815091 0.485756 0.114626
0.874815 0.483009 0.120882
0.933989 0.480598 0.127962
0.994568 0.479957 0.136751
0.090455 0.563775 0.090211
0.127596 0.563989 0.090364
0.177005 0.564843 0.091646
0.235599 0.565087 0.093446
0.298955 0.564996 0.095399
0.363653 0.564416 0.097169
0.429450 0.563592 0.099977
0.495186 0.562402 0.102968
0.560967 0.561120 0.106722
0.626459 0.559747 0.110780
0.689845 0.557000 0.115450
0.752163 0.554192 0.121157
0.813169 0.550927 0.127413
0.873136 0.547906 0.133608
0.932677 0.545342 0.140658
0.990997 0.542565 0.146944
0.106264 0.622431 0.106874
0.137758 0.621759 0.106874
0.182773 0.621729 0.107088
0.237430 0.621485 0.108614
0.297276 0.621210 0.110323
0.359838 0.620813 0.111940
0.424048 0.620661 0.113832
0.488685 0.620081 0.116487
0.553765 0.619471 0.119539
0.618341 0.618494 0.123873
0.682795 0.617304 0.127443
0.744503 0.614130 0.132601
0.805417 0.610986 0.137667
0.866453 0.608698 0.143587
0.927092 0.606592 0.150729
0.986664 0.604364 0.157534
0.121981 0.679896 0.122469
0.149386 0.679561 0.122438
0.190066 0.679225 0.122774
0.241215 0.678889 0.123415
0.298192 0.678645 0.124788
0.358587 0.678248 0.126223
0.420783 0.677852 0.128695
0.483894 0.677302 0.130587
0.547478 0.676753 0.133913
0.611109 0.675776 0.136568
0.674495 0.674647 0.140322
0.737484 0.673182 0.143984
0.799100 0.670863 0.148287
0.860563 0.668910 0.154177
0.921508 0.667048 0.160983
0.981445 0.665034 0.168215
0.137484 0.737148 0.137575
0.161074 0.736782 0.137270
0.197910 0.736507 0.137606
0.245670 0.736080 0.138827
0.300175 0.735531 0.138979
0.358343 0.734981 0.140719
0.418738 0.734371 0.142336
0.480049 0.733730 0.144472
0.542626 0.733211 0.146395
0.605005 0.732418 0.149294
0.667750 0.731533 0.152834
0.730526 0.730556 0.155764
0.793271 0.729854 0.159823
0.855100 0.728420 0.165743
0.916625 0.727138 0.172732
0.978241 0.726558 0.181277
0.144747 0.787625 0.145357
0.167056 0.787747 0.145724
0.202060 0.788479 0.147097
0.248417 0.789090 0.148013
0.301457 0.790005 0.150759
0.358495 0.790677 0.152926
0.418341 0.791562 0.155917
0.479316 0.792172 0.159243
0.541833 0.793088 0.163455
0.604608 0.793606 0.167514
0.668208 0.794461 0.172122
0.731624 0.794888 0.177249
0.795468 0.795590 0.183597
0.858152 0.795163 0.188083
0.918395 0.792721 0.192874
0.976074 0.788418 0.196292
0.168032 0.852293 0.168429
0.183413 0.849241 0.164065
0.213199 0.848020 0.162600
0.255558 0.847837 0.163516
0.306432 0.848447 0.165408
0.361608 0.848966 0.167941
0.419806 0.849638 0.170687
0.479591 0.850309 0.174197
0.540978 0.851286 0.178866
0.602625 0.851652 0.182742
0.665156 0.852293 0.187716
0.727626 0.852506 0.192203
0.790341 0.852873 0.197848
0.852262 0.852415 0.202853
0.913390 0.851194 0.206882
0.972961 0.848692 0.211002
0.186221 0.911742 0.186923
0.199069 0.909178 0.182162
0.225559 0.907805 0.179721
0.264836 0.907408 0.179934
0.313115 0.907622 0.181643
0.366369 0.907958 0.183841
0.423194 0.908690 0.187533
0.481666 0.909148 0.190860
0.541833 0.909819 0.195010
0.602441 0.910185 0.199283
0.663996 0.910674 0.204654
0.725795 0.911131 0.209689
0.788235 0.911955 0.217075
0.850401 0.912322 0.223362
0.912169 0.912352 0.229892
0.972442 0.910857 0.233188
0.209445 0.973083 0.209720
0.219486 0.971069 0.204532
0.243015 0.969970 0.202304
0.279454 0.969696 0.202304
0.324987 0.969879 0.204196
0.376257 0.970214 0.206973
0.431189 0.970825 0.210880
0.488502 0.971466 0.214694
0.547753 0.972412 0.220523
0.608240 0.973388 0.226963
0.669551 0.974548 0.234897
0.731319 0.975708 0.242924
0.794003 0.977325 0.253758
0.856626 0.978912 0.264775
0.919768 0.980835 0.278141
0.982940 0.983062 0.293706
0.000000 0.000092 0.097169
0.105074 0.000488 0.104768
0.195285 0.000000 0.105348
0.275059 0.000000 0.097902
0.342290 0.000122 0.094118
0.406958 0.006043 0.092927
0.471199 0.014740 0.093050
0.535668 0.021302 0.094423
0.597894 0.030274 0.096071
0.661341 0.039643 0.099001
0.723140 0.049958 0.102968
0.781003 0.060670 0.107576
0.837522 0.070771 0.112978
0.895964 0.081086 0.119356
0.954314 0.092042 0.126284
1.000000 0.102266 0.133059
0.000000 0.104982 0.104952
0.101472 0.101472 0.101472
0.189548 0.097871 0.098146
0.267887 0.095766 0.095460
0.337285 0.094148 0.094209
0.403754 0.093751 0.093660
0.469886 0.094728 0.094850
0.534478 0.096132 0.095766
0.596948 0.098116 0.097749
0.661524 0.101320 0.100435
0.722805 0.105684 0.104341
0.780270 0.110323 0.108766
0.836393 0.114626 0.113893
0.894682 0.120180 0.120089
0.952819 0.127718 0.126375
1.000000 0.134981 0.133913
0.000000 0.190372 0.099519
0.098024 0.186282 0.098085
0.181857 0.181979 0.096162
0.259617 0.177554 0.095888
0.331640 0.173281 0.096132
0.400702 0.170504 0.096315
0.467323 0.167697 0.097780
0.532006 0.166171 0.099031
0.596429 0.165591 0.100649
0.660670 0.165835 0.103670
0.720607 0.165957 0.107515
0.777584 0.166873 0.111727
0.833860 0.168093 0.115663
0.892454 0.171603 0.121614
0.950835 0.175296 0.128664
1.000000 0.179660 0.135470
0.010163 0.261234 0.099855
0.099184 0.258213 0.099367
0.175784 0.254734 0.098360
0.251255 0.251347 0.098207
0.323522 0.246860 0.098909
0.392920 0.242832 0.099947
0.459937 0.239261 0.100649
0.526238 0.236545 0.102358
0.591424 0.234623 0.104402
0.655390 0.232883 0.107271
0.715480 0.230991 0.110811
0.772946 0.229618 0.115053
0.831357 0.229587 0.119570
0.889586 0.230442 0.125338
0.946807 0.231327 0.130831
1.000000 0.233310 0.137148
0.030945 0.321294 0.101289
0.101472 0.320317 0.102113
0.170962 0.318608 0.102205
0.242466 0.316136 0.101839
0.312902 0.312871 0.102907
0.382300 0.309606 0.103090
0.450019 0.306340 0.105043
0.517113 0.303807 0.106783
0.582574 0.301244 0.108553
0.647608 0.299199 0.111604
0.708797 0.296696 0.115328
0.768643 0.294682 0.119478
0.828489 0.293889 0.124849
0.888365 0.293614 0.130800
0.947143 0.293767 0.136782
1.000000 0.293675 0.143099
0.050385 0.384466 0.107332
0.107546 0.384405 0.108217
0.170932 0.383307 0.108492
0.239017 0.381567 0.108370
0.307897 0.379248 0.109010
0.376501 0.376654 0.109957
0.444282 0.373785 0.111849
0.511131 0.371099 0.113344
0.577142 0.368353 0.115175
0.641749 0.365881 0.118013
0.703090 0.362585 0.121828
0.763821 0.359960 0.125460
0.823606 0.357794 0.130648
0.883299 0.356420 0.135714
0.942199 0.355505 0.141665
1.000000 0.354833 0.147921
0.066651 0.448951 0.115541
0.116274 0.449287 0.115938
0.173983 0.448493 0.116396
0.238346 0.447059 0.116793
0.305516 0.444892 0.117433
0.372808 0.442634 0.118349
0.439918 0.440009 0.119753
0.506462 0.437415 0.121096
0.571893 0.434363 0.122103
0.635798 0.431098 0.124758
0.696773 0.427070 0.128725
0.757595 0.423865 0.132448
0.817594 0.421027 0.136751
0.877531 0.418982 0.141634
0.936797 0.417487 0.147189
0.996002 0.416571 0.153506
0.081544 0.509697 0.122316
0.123568 0.510674 0.123598
0.176547 0.510369 0.123476
0.238102 0.509300 0.123812
0.302861 0.507591 0.124483
0.368566 0.505364 0.125490
0.434424 0.502861 0.126680
0.500053 0.500145 0.128115
0.564935 0.497261 0.129763
0.628138 0.493660 0.132479
0.689876 0.489876 0.135409
0.751125 0.486763 0.139254
0.811673 0.483833 0.143679
0.871305 0.481056 0.148226
0.930449 0.478889 0.152438
0.990753 0.477882 0.158877
0.093141 0.565545 0.129061
0.129397 0.565362 0.129641
0.178134 0.565148 0.129732
0.236301 0.564691 0.130190
0.298528 0.563928 0.131655
0.362921 0.563043 0.132692
0.428565 0.562249 0.134279
0.494087 0.560906 0.136660
0.559380 0.559472 0.138766
0.624414 0.557885 0.141909
0.687556 0.555200 0.145815
0.749722 0.552392 0.150149
0.810605 0.549371 0.154208
0.871153 0.546746 0.158755
0.931365 0.544701 0.164492
0.990723 0.542687 0.170413
0.109102 0.622583 0.139254
0.139803 0.622156 0.139376
0.183780 0.621729 0.140200
0.237919 0.621393 0.140291
0.297642 0.621057 0.141848
0.359991 0.620417 0.142794
0.423590 0.619715 0.144137
0.487739 0.618708 0.146609
0.552270 0.617731 0.148440
0.616541 0.616571 0.151247
0.680354 0.615198 0.153780
0.742245 0.612207 0.157809
0.803464 0.609522 0.161776
0.864958 0.607599 0.166659
0.926085 0.606012 0.172854
0.986450 0.604364 0.178958
0.123415 0.680018 0.151186
0.150942 0.679957 0.151064
0.191287 0.679591 0.151064
0.242313 0.679042 0.151736
0.298619 0.678492 0.152529
0.358465 0.677638 0.153750
0.420264 0.676753 0.154726
0.482795 0.675898 0.156558
0.546227 0.675196 0.158755
0.609583 0.674098 0.160708
0.672694 0.672847 0.163638
0.735561 0.671351 0.166232
0.797208 0.669306 0.170199
0.858946 0.667597 0.175418
0.920256 0.666102 0.180850
0.980804 0.664515 0.186954
0.137972 0.736721 0.162417
0.162203 0.736507 0.162722
0.198795 0.735988 0.162783
0.246098 0.735531 0.162722
0.300023 0.735073 0.163485
0.358312 0.734432 0.164309
0.418524 0.733883 0.165621
0.479866 0.733150 0.166873
0.541863 0.732326 0.169223
0.604059 0.731289 0.171115
0.666468 0.730098 0.173190
0.728817 0.728969 0.176303
0.791287 0.727932 0.179019
0.852842 0.726497 0.183993
0.914214 0.725216 0.189242
0.976196 0.724819 0.196414
0.146517 0.788785 0.168429
0.168734 0.788846 0.169192
0.203281 0.789303 0.169802
0.249485 0.789700 0.170901
0.301946 0.790341 0.172763
0.358984 0.790829 0.175021
0.418677 0.791714 0.177493
0.479713 0.792264 0.180179
0.541894 0.792996 0.183902
0.604547 0.793393 0.187045
0.667933 0.794064 0.191653
0.731258 0.794491 0.195804
0.795102 0.795224 0.201602
0.857847 0.794858 0.205753
0.918303 0.792630 0.210452
0.976349 0.788693 0.213138
0.169253 0.852934 0.188693
0.184421 0.850126 0.184848
0.213840 0.848936 0.183780
0.256687 0.848661 0.184146
0.307164 0.849149 0.185977
0.362402 0.849485 0.187625
0.420203 0.849973 0.190219
0.479896 0.850462 0.193149
0.541131 0.851255 0.196689
0.602625 0.851499 0.200076
0.664973 0.852018 0.204593
0.727352 0.852232 0.209140
0.790127 0.852689 0.214450
0.852201 0.852354 0.218814
0.913481 0.851316 0.222782
0.973236 0.849058 0.226413
0.187198 0.912169 0.204471
0.199832 0.909789 0.200351
0.226505 0.908568 0.198276
0.265873 0.908171 0.198215
0.313970 0.908324 0.199924
0.367071 0.908598 0.201602
0.423682 0.909148 0.204532
0.482002 0.909514 0.207706
0.541894 0.909941 0.210819
0.602472 0.910185 0.214878
0.663813 0.910613 0.219455
0.725704 0.911040 0.224735
0.788083 0.911833 0.231022
0.850340 0.912261 0.237461
0.912261 0.912383 0.243534
0.972656 0.911040 0.246891
0.210117 0.973449 0.225162
0.220218 0.971527 0.220615
0.243503 0.970489 0.218051
0.280156 0.970184 0.218540
0.325414 0.970428 0.219821
0.376654 0.970764 0.222385
0.431586 0.971344 0.226017
0.488838 0.971893 0.229709
0.547936 0.972717 0.234775
0.608301 0.973602 0.240482
0.669581 0.974640 0.247684
0.731289 0.975647 0.255161
0.793729 0.977173 0.264622
0.856352 0.978637 0.275059
0.919493 0.980621 0.288060
0.982757 0.982879 0.303136
0.000366 0.000000 0.204807
0.109468 0.000000 0.200748
0.191531 0.000122 0.192172
0.268894 0.000244 0.183352
0.337499 0.000366 0.174533
0.401221 0.013794 0.169711
0.465278 0.028382 0.167819
0.529076 0.040558 0.167391
0.592035 0.046540 0.165988
0.656550 0.054414 0.166476
0.718624 0.062898 0.167025
0.776913 0.073213 0.168765
0.834104 0.081147 0.170260
0.893431 0.091035 0.173770
0.952422 0.100374 0.177523
1.000000 0.109010 0.181308
0.000000 0.102327 0.198489
0.099184 0.098878 0.191623
0.185336 0.096132 0.185153
0.262303 0.095399 0.179049
0.330907 0.096620 0.173556
0.397742 0.099763 0.171023
0.463661 0.101778 0.169406
0.528191 0.103700 0.167788
0.592309 0.105226 0.167117
0.657191 0.108400 0.167086
0.718654 0.111666 0.168399
0.776455 0.116762 0.169497
0.833341 0.120790 0.171176
0.892363 0.126925 0.173892
0.951019 0.133425 0.177646
1.000000 0.139681 0.181735
0.000000 0.186831 0.186526
0.098146 0.183078 0.183078
0.179477 0.179477 0.179477
0.255283 0.176455 0.176394
0.326543 0.174350 0.174350
0.395636 0.172457 0.172671
0.462287 0.170626 0.170626
0.527123 0.169253 0.168978
0.592554 0.168795 0.168673
0.656794 0.168826 0.169009
0.716793 0.169497 0.169589
0.773922 0.170718 0.170504
0.831235 0.172061 0.171786
0.890105 0.175448 0.175082
0.949035 0.178958 0.178439
1.000000 0.182956 0.182467
0.018402 0.258518 0.179232
0.103365 0.255467 0.177798
0.176272 0.252445 0.176394
0.249241 0.249485 0.174716
0.320562 0.245945 0.173404
0.389410 0.242710 0.171786
0.456336 0.239475 0.170718
0.523156 0.237797 0.170199
0.588128 0.235813 0.169924
0.652125 0.234165 0.169833
0.712154 0.232792 0.170382
0.769863 0.231693 0.171695
0.828885 0.231907 0.173861
0.887327 0.232578 0.176364
0.944732 0.233463 0.179232
1.000000 0.234958 0.182406
0.046479 0.318883 0.173983
0.107790 0.318181 0.173495
0.172763 0.316686 0.173007
0.242069 0.314336 0.172122
0.311345 0.311406 0.171267
0.380041 0.308446 0.170565
0.447425 0.305638 0.169802
0.514244 0.303349 0.169924
0.579706 0.300969 0.170047
0.644678 0.299138 0.170657
0.705837 0.296910 0.172152
0.766232 0.295659 0.174075
0.826566 0.294896 0.176608
0.886595 0.294865 0.179751
0.945708 0.295048 0.183566
1.000000 0.295140 0.186954
0.060273 0.383154 0.173892
0.113039 0.383154 0.173495
0.173190 0.381964 0.173190
0.239994 0.380072 0.173037
0.307469 0.377966 0.172488
0.375494 0.375402 0.172030
0.442512 0.372747 0.172152
0.509331 0.370275 0.172427
0.575128 0.367803 0.172519
0.639582 0.365301 0.173037
0.701106 0.362402 0.174624
0.761868 0.360204 0.177310
0.821988 0.358099 0.179660
0.881834 0.356970 0.182773
0.941009 0.356115 0.186038
0.999512 0.355657 0.189822
0.073457 0.447547 0.175448
0.119631 0.448005 0.175662
0.175357 0.447242 0.175845
0.239322 0.445869 0.175814
0.305333 0.443946 0.175296
0.372412 0.441840 0.175448
0.439216 0.439185 0.175143
0.505333 0.436561 0.175723
0.570428 0.433539 0.176028
0.634211 0.430457 0.176669
0.695155 0.426795 0.178225
0.756069 0.423651 0.180606
0.816159 0.421088 0.182528
0.876097 0.419104 0.185946
0.935698 0.417731 0.189090
0.995331 0.416999 0.193454
0.085481 0.508659 0.176852
0.125887 0.509728 0.177951
0.177737 0.509453 0.177737
0.238651 0.508507 0.177951
0.303105 0.506645 0.178073
0.368414 0.504540 0.177981
0.433967 0.501946 0.177798
0.499275 0.499367 0.178531
0.564080 0.496590 0.178927
0.627161 0.493080 0.180301
0.688838 0.489418 0.182193
0.750057 0.486397 0.184634
0.810483 0.483589 0.187076
0.870237 0.480964 0.189395
0.929534 0.478798 0.192416
0.989929 0.477913 0.196780
0.095155 0.565026 0.178958
0.131044 0.564782 0.179263
0.179507 0.564477 0.179507
0.236820 0.563958 0.179721
0.298955 0.563317 0.180331
0.363134 0.562402 0.180728
0.428229 0.561547 0.182162
0.493568 0.560266 0.183200
0.558740 0.558862 0.184604
0.623713 0.557305 0.186252
0.686732 0.554711 0.189273
0.748867 0.551995 0.192416
0.809689 0.549035 0.194736
0.870359 0.546654 0.198215
0.930877 0.544793 0.202182
0.990478 0.542931 0.206088
0.111330 0.622095 0.185245
0.141085 0.621820 0.185122
0.185061 0.621454 0.185214
0.238865 0.621118 0.185794
0.298375 0.620844 0.186435
0.360143 0.620203 0.187137
0.423743 0.619348 0.188235
0.487587 0.618433 0.189456
0.552087 0.617426 0.191135
0.616144 0.616266 0.192630
0.679774 0.614710 0.194614
0.741543 0.611841 0.197116
0.802823 0.609277 0.200168
0.864408 0.607477 0.203830
0.925750 0.606012 0.208072
0.986206 0.604547 0.212924
0.126955 0.679683 0.192416
0.153170 0.679774 0.192844
0.192844 0.679438 0.192935
0.243107 0.678981 0.192935
0.299351 0.678370 0.193454
0.358923 0.677516 0.194217
0.420447 0.676722 0.195010
0.483223 0.675837 0.195987
0.546288 0.674983 0.197818
0.609461 0.673793 0.199222
0.672419 0.672480 0.200778
0.735134 0.671046 0.202884
0.796841 0.669062 0.205966
0.858610 0.667506 0.209812
0.919982 0.666133 0.214267
0.980652 0.664637 0.218967
0.140291 0.736477 0.199924
0.163516 0.736324 0.200015
0.199802 0.735836 0.200046
0.247135 0.735378 0.200107
0.301152 0.734920 0.200931
0.358892 0.734401 0.201297
0.418921 0.733883 0.202518
0.480171 0.733059 0.203677
0.542016 0.732235 0.204807
0.604181 0.731106 0.206332
0.666377 0.729976 0.207889
0.728634 0.728786 0.209934
0.791043 0.727779 0.212100
0.852598 0.726375 0.215824
0.914000 0.725093 0.219608
0.976013 0.724727 0.225803
0.148196 0.789090 0.203769
0.170047 0.789151 0.204166
0.204654 0.789517 0.204593
0.250034 0.789914 0.205447
0.302739 0.790524 0.206973
0.359533 0.791012 0.208743
0.419013 0.791867 0.211337
0.479957 0.792355 0.213291
0.542260 0.793088 0.216587
0.604791 0.793484 0.219516
0.668055 0.794217 0.223148
0.731411 0.794644 0.226993
0.795285 0.795407 0.231724
0.857908 0.794949 0.235233
0.918303 0.792721 0.238712
0.976410 0.788846 0.240665
0.170382 0.853086 0.219608
0.185367 0.850401 0.216617
0.215061 0.849241 0.215579
0.257481 0.849027 0.215671
0.307988 0.849424 0.217136
0.362676 0.849760 0.218448
0.420508 0.850217 0.220676
0.480293 0.850736 0.223148
0.541375 0.851499 0.226658
0.602991 0.851713 0.229770
0.665217 0.852232 0.233188
0.727565 0.852415 0.237186
0.790341 0.852873 0.241672
0.852354 0.852506 0.245701
0.913634 0.851408 0.248600
0.973480 0.849180 0.251682
0.187503 0.912322 0.232547
0.199893 0.910033 0.228367
0.226505 0.908843 0.226932
0.266087 0.908446 0.226596
0.314122 0.908598 0.228061
0.367254 0.908904 0.229496
0.423896 0.909483 0.232456
0.482246 0.909789 0.234684
0.541894 0.910185 0.238102
0.602655 0.910369 0.241123
0.664027 0.910826 0.245304
0.725856 0.911223 0.249546
0.788357 0.912047 0.255497
0.850523 0.912444 0.260990
0.912444 0.912596 0.266606
0.972869 0.911254 0.269413
0.209415 0.973663 0.249760
0.219333 0.971771 0.244846
0.242679 0.970764 0.242924
0.279454 0.970489 0.242893
0.325200 0.970733 0.244816
0.376440 0.971069 0.246830
0.431342 0.971618 0.249851
0.488716 0.972168 0.253269
0.547967 0.972930 0.257877
0.608301 0.973816 0.263218
0.669673 0.974853 0.269871
0.731350 0.975860 0.276432
0.793881 0.977325 0.285405
0.856535 0.978790 0.295201
0.919677 0.980743 0.307286
0.982910 0.983032 0.321569
0.000519 0.000061 0.284550
0.102327 0.000000 0.280156
0.183932 0.000000 0.271061
0.260899 0.000122 0.261448
0.331090 0.001678 0.251438
0.396674 0.014740 0.243595
0.461616 0.028870 0.238865
0.525139 0.042542 0.236179
0.588190 0.054108 0.233921
0.652399 0.063508 0.233341
0.714473 0.071901 0.232761
0.773068 0.081514 0.232364
0.831052 0.090578 0.232242
0.891081 0.099519 0.233860
0.950347 0.108156 0.235752
1.000000 0.116152 0.236912
0.000000 0.098604 0.276310
0.096590 0.096345 0.269444
0.178927 0.095125 0.262364
0.255528 0.094453 0.255436
0.326055 0.095888 0.248142
0.394171 0.099367 0.243442
0.459815 0.102815 0.239445
0.523796 0.106050 0.236576
0.588373 0.109865 0.235142
0.653132 0.113069 0.234195
0.714382 0.117098 0.233555
0.772580 0.122438 0.232853
0.830503 0.127321 0.232578
0.889921 0.133028 0.234165
0.948943 0.138766 0.235569
1.000000 0.145327 0.237339
0.005219 0.181521 0.264439
0.100252 0.178897 0.259556
0.176608 0.176791 0.254887
0.251408 0.174899 0.251255
0.322606 0.173251 0.247471
0.391089 0.172519 0.243839
0.457496 0.171969 0.240543
0.523003 0.171176 0.238132
0.588281 0.171176 0.236362
0.652644 0.171115 0.235019
0.712734 0.172091 0.233616
0.770291 0.173861 0.232792
0.828489 0.175937 0.233097
0.887846 0.179141 0.233921
0.946990 0.182925 0.235874
1.000000 0.186526 0.237461
0.024750 0.254856 0.254765
0.103975 0.252323 0.252323
0.175631 0.249577 0.249393
0.247074 0.247074 0.247074
0.316930 0.244419 0.244297
0.385412 0.241978 0.241855
0.452766 0.239567 0.239536
0.519554 0.238010 0.237644
0.584375 0.236118 0.235966
0.648402 0.234714 0.234592
0.708553 0.234073 0.233463
0.766751 0.233402 0.232975
0.826474 0.233982 0.233707
0.885161 0.234958 0.234714
0.942870 0.235691 0.235508
1.000000 0.237217 0.236545
0.048890 0.316136 0.243717
0.109926 0.315343 0.243381
0.173220 0.313787 0.242527
0.241093 0.311803 0.241062
0.309422 0.309392 0.239292
0.377447 0.307042 0.237980
0.444709 0.304509 0.236301
0.511498 0.302617 0.235386
0.576928 0.300359 0.234348
0.641627 0.298955 0.233494
0.702815 0.297276 0.233646
0.763882 0.296452 0.234470
0.824460 0.296086 0.235264
0.884733 0.296391 0.237125
0.944091 0.296666 0.238987
1.000000 0.296757 0.240208
0.065797 0.381323 0.240726
0.116060 0.381048 0.240970
0.174350 0.379950 0.240299
0.239506 0.378302 0.239414
0.306279 0.376165 0.238132
0.373785 0.373907 0.237034
0.440650 0.371344 0.236179
0.507195 0.369177 0.235477
0.572747 0.366888 0.234867
0.637263 0.364630 0.234623
0.698756 0.362188 0.235019
0.759823 0.360327 0.235660
0.820005 0.358801 0.236515
0.880095 0.357763 0.238346
0.939574 0.357000 0.239994
0.998566 0.356725 0.242039
0.077241 0.445380 0.239322
0.121431 0.445899 0.239933
0.176303 0.445289 0.239567
0.239170 0.444038 0.239170
0.304631 0.442298 0.238468
0.371221 0.440314 0.238010
0.437842 0.437934 0.237461
0.503593 0.435279 0.236606
0.568536 0.432410 0.236149
0.632136 0.429603 0.235782
0.693233 0.426154 0.236210
0.754208 0.423529 0.237186
0.814450 0.421149 0.238010
0.874693 0.419471 0.239506
0.934478 0.418189 0.241337
0.994446 0.417578 0.244144
0.087221 0.507103 0.238224
