luts/FUJI_ETERNA_Cinema.cube
TITLE "Generated for krafta web app"
LUT_3D_SIZE 9
#INPUTGAMMA sRGB
#IMAGEPROFILE sRGB
#OUTPUTGAMMA sRGB
0.000000 0.000000 0.000000
0.154967 0.027415 0.020061
0.254588 0.045477 0.031849
0.354734 0.065010 0.044241
0.460508 0.086721 0.058174
0.569537 0.109938 0.072786
0.664592 0.131228 0.085761
0.759898 0.152061 0.097808
0.859949 0.173520 0.109486
0.012484 0.138515 0.002566
0.166998 0.156079 0.036559
0.268244 0.168084 0.051181
0.372192 0.187648 0.067531
0.481979 0.208275 0.082072
0.596720 0.232840 0.096334
0.697451 0.253090 0.109923
0.796877 0.269341 0.118738
0.915337 0.270512 0.115307
0.019774 0.223233 0.002323
0.169726 0.242427 0.034962
0.273860 0.252195 0.060689
0.381651 0.264840 0.076191
0.490410 0.279437 0.090173
0.602637 0.301855 0.108105
0.707727 0.321741 0.118577
0.807260 0.339791 0.129695
0.939893 0.335868 0.117553
0.027463 0.315347 0.001639
0.173635 0.334028 0.033097
0.277579 0.347357 0.060155
0.388045 0.356980 0.087677
0.500206 0.368406 0.102403
0.614510 0.383108 0.115904
0.718987 0.392441 0.124733
0.844237 0.397817 0.127451
0.967428 0.408727 0.122175
0.036448 0.416047 0.002875
0.178469 0.434694 0.028731
0.283833 0.448968 0.057153
0.394299 0.461722 0.088257
0.506364 0.468847 0.113526
0.621990 0.479292 0.129489
0.731963 0.489416 0.138392
0.856026 0.480303 0.133326
0.983928 0.488480 0.128730
0.046156 0.523885 0.002609
0.186242 0.542134 0.024397
0.293291 0.557320 0.055012
0.397471 0.568334 0.081685
0.508580 0.574762 0.119316
0.623341 0.585985 0.142207
0.726228 0.596469 0.162367
0.848295 0.602469 0.170570
0.980171 0.607446 0.161323
0.061611 0.619580 0.002205
0.199721 0.638992 0.024206
0.309623 0.654616 0.058514
0.416469 0.666037 0.088735
0.536541 0.684601 0.125817
0.653621 0.697927 0.162392
0.750986 0.709390 0.198062
0.842165 0.709458 0.200573
0.978256 0.712176 0.186258
0.082855 0.713071 0.004548
0.244078 0.745168 0.044261
0.366990 0.767067 0.089960
0.491917 0.790750 0.130511
0.625728 0.816429 0.175500
0.721211 0.821105 0.185532
0.802898 0.822807 0.196061
0.882908 0.821938 0.208124
0.973954 0.819555 0.212345
0.144490 0.830926 0.023005
0.346307 0.880784 0.100188
0.495085 0.917923 0.156999
0.617135 0.940970 0.194699
0.718586 0.952540 0.219868
0.788799 0.949062 0.218804
0.857468 0.947445 0.222243
0.934286 0.947880 0.228067
0.999898 0.948341 0.234816
0.056020 0.046409 0.161611
0.176903 0.058432 0.168928
0.261652 0.068572 0.175063
0.359680 0.086087 0.183130
0.467184 0.108920 0.195655
0.575026 0.130045 0.206699
0.670264 0.149980 0.215841
0.769878 0.173189 0.227988
0.865117 0.193841 0.236480
0.062087 0.173931 0.173661
0.166510 0.166618 0.167424
0.255801 0.173817 0.175939
0.365999 0.190361 0.190526
0.479405 0.210246 0.204864
0.593006 0.231566 0.218922
0.698957 0.248179 0.225393
0.789081 0.270252 0.235388
0.886468 0.291961 0.240306
0.067021 0.261003 0.181624
0.176355 0.250439 0.168863
0.272372 0.256766 0.182416
0.364668 0.263431 0.193980
0.463623 0.272600 0.205179
0.595961 0.298480 0.222380
0.713940 0.316047 0.230336
0.818597 0.336891 0.239473
0.914615 0.359924 0.243164
0.073276 0.352356 0.179796
0.185050 0.338674 0.167596
0.276014 0.341568 0.181904
0.383487 0.352218 0.198306
0.500516 0.366023 0.215226
0.602235 0.377191 0.228996
0.731371 0.394072 0.237175
0.841638 0.412640 0.245868
0.945331 0.433259 0.247522
0.079059 0.452529 0.174858
0.189699 0.439575 0.161589
0.285882 0.447236 0.179374
0.393235 0.452983 0.202324
0.513065 0.466536 0.222604
0.628298 0.477841 0.239445
0.737171 0.488021 0.252539
0.859559 0.504581 0.258466
0.974537 0.516068 0.256227
0.087426 0.558892 0.168067
0.196175 0.548606 0.153944
0.300772 0.556131 0.180960
0.407327 0.568685 0.204272
0.513178 0.577711 0.238982
0.620293 0.589737 0.261835
0.725692 0.603169 0.282779
0.852691 0.618011 0.285409
0.986709 0.609324 0.265573
0.103950 0.654445 0.162133
0.232416 0.655576 0.162054
0.338179 0.671092 0.194671
0.446074 0.686107 0.225990
0.573568 0.709391 0.271631
0.648252 0.704951 0.270411
0.746622 0.712886 0.301728
0.845638 0.715316 0.304995
0.984291 0.713799 0.288750
0.141807 0.750737 0.152777
0.290919 0.769853 0.191088
0.419947 0.797607 0.237908
0.547591 0.823604 0.278200
0.647795 0.832089 0.298023
0.730446 0.830605 0.304909
0.804095 0.829024 0.310037
0.876113 0.825233 0.320064
0.979385 0.824562 0.316775
0.231694 0.876442 0.188523
0.420037 0.922362 0.260184
0.538598 0.946420 0.298932
0.629363 0.956796 0.320676
0.700467 0.956362 0.322428
0.778985 0.954859 0.328059
0.852898 0.955353 0.331386
0.929482 0.955611 0.335220
0.999387 0.955728 0.341848
0.084862 0.071969 0.251896
0.202380 0.082819 0.258633
0.283030 0.092603 0.264129
0.363748 0.100283 0.268475
0.469874 0.122298 0.281238
0.576287 0.144757 0.291297
0.675719 0.166160 0.302358
0.768864 0.186524 0.309676
0.866304 0.207490 0.319026
0.092380 0.190388 0.251742
0.202787 0.190452 0.252409
0.296051 0.200313 0.261612
0.386149 0.210219 0.267530
0.491789 0.226505 0.280790
0.607343 0.245261 0.295506
0.706924 0.263924 0.309275
0.792982 0.284873 0.317820
0.883300 0.307097 0.323968
0.097109 0.278924 0.274136
0.205176 0.273153 0.263007
0.271415 0.267758 0.262487
0.358767 0.272442 0.270816
0.473288 0.288324 0.287982
0.599705 0.307888 0.301842
0.706598 0.329914 0.312525
0.808043 0.352106 0.321025
0.898395 0.376412 0.326495
0.101291 0.373785 0.284073
0.214246 0.360786 0.264240
0.279824 0.355150 0.261974
0.386754 0.366212 0.277971
0.488837 0.373658 0.293041
0.611733 0.390105 0.309718
0.726519 0.409144 0.319465
0.832756 0.427177 0.326597
0.928505 0.450260 0.332000
0.106977 0.472421 0.280230
0.217657 0.461063 0.264323
0.293075 0.453431 0.264046
0.399478 0.462780 0.281227
0.517913 0.477356 0.301522
0.633757 0.489079 0.318940
0.736985 0.505805 0.336875
0.853616 0.517990 0.337447
0.962494 0.529774 0.336556
0.116654 0.578523 0.274463
0.227722 0.564550 0.258358
0.321747 0.572920 0.271096
0.415640 0.579770 0.288863
0.527328 0.594504 0.330180
0.620627 0.598206 0.340560
0.728387 0.612639 0.358544
0.856439 0.622703 0.357569
0.988959 0.611900 0.336845
0.134374 0.671528 0.261660
0.258723 0.672575 0.256769
0.358472 0.684947 0.287430
0.469910 0.702646 0.318617
0.568946 0.712248 0.341503
0.665054 0.715287 0.358800
0.748782 0.717983 0.377466
0.844597 0.719470 0.383011
0.987364 0.718070 0.362043
0.170344 0.765300 0.243864
0.319735 0.786440 0.283828
0.457023 0.819401 0.335318
0.565007 0.835519 0.363967
0.647983 0.836254 0.374836
0.728180 0.834895 0.380883
0.798318 0.831018 0.387163
0.872636 0.828736 0.392991
0.982431 0.828766 0.389907
0.271764 0.898950 0.290762
0.452787 0.943781 0.357221
0.546604 0.958861 0.383495
0.619370 0.959757 0.393479
0.694664 0.960330 0.397618
0.775622 0.960810 0.401280
0.849552 0.960924 0.405477
0.926510 0.960929 0.410586
0.999605 0.960530 0.413548
0.119275 0.103792 0.366519
0.234538 0.115184 0.373616
0.311752 0.123451 0.377568
0.398635 0.136779 0.388055
0.486368 0.147080 0.394821
0.582656 0.163180 0.400605
0.674229 0.182483 0.406136
0.773003 0.201451 0.415480
0.875756 0.225004 0.426834
0.127933 0.216278 0.358922
0.251256 0.226667 0.366808
0.334286 0.233202 0.377550
0.428385 0.245709 0.387490
0.520717 0.255516 0.393861
0.625831 0.273702 0.408308
0.715487 0.288191 0.418532
0.806301 0.302995 0.425982
0.895054 0.326529 0.433995
0.138688 0.298803 0.372849
0.238139 0.297823 0.374427
0.316168 0.297710 0.373807
0.425942 0.314781 0.394347
0.534650 0.329614 0.407347
0.639575 0.343088 0.418284
0.725828 0.353264 0.422711
0.810377 0.373109 0.428019
0.900579 0.394708 0.435939
0.141772 0.394505 0.398066
0.251105 0.388561 0.382253
0.316267 0.384754 0.382245
0.384514 0.379246 0.385226
0.494797 0.392446 0.398072
0.618059 0.410188 0.412513
0.722758 0.425940 0.423800
0.819814 0.447078 0.430700
0.908655 0.468743 0.436930
0.146233 0.497040 0.410074
0.258296 0.484901 0.388245
0.325918 0.480523 0.384689
0.419958 0.487542 0.394462
0.527636 0.496782 0.409439
0.623625 0.499481 0.418316
0.736095 0.517008 0.430371
0.842389 0.536301 0.441754
0.945294 0.546124 0.438217
0.154058 0.605046 0.407670
0.262603 0.591910 0.386159
0.349840 0.597489 0.397205
0.423713 0.593089 0.400484
0.514525 0.598258 0.413897
0.622951 0.609309 0.437273
0.732320 0.623934 0.453795
0.858758 0.626583 0.449740
0.983021 0.633136 0.443307
0.175486 0.693601 0.385822
0.285941 0.690320 0.378769
0.395191 0.707330 0.409365
0.497698 0.717323 0.433894
0.583461 0.721493 0.444995
0.677222 0.724838 0.465596
0.743368 0.721435 0.474113
0.848940 0.724533 0.473388
0.990710 0.724245 0.458064
0.207497 0.785609 0.363613
0.372903 0.817514 0.412289
0.487048 0.839791 0.451934
0.565174 0.841984 0.464102
0.642021 0.841006 0.471679
0.721661 0.838675 0.476024
0.793745 0.835609 0.481973
0.867357 0.832936 0.489938
0.985674 0.834264 0.485834
0.337180 0.936569 0.426934
0.470370 0.961617 0.471589
0.538926 0.965084 0.483300
0.611306 0.966788 0.489685
0.689686 0.967610 0.494014
0.771166 0.967806 0.498282
0.844885 0.967320 0.503150
0.922654 0.967090 0.506921
0.999602 0.967382 0.509127
0.153039 0.135076 0.477912
0.267370 0.148174 0.486688
0.343322 0.156387 0.493842
0.427176 0.168124 0.501224
0.506442 0.175103 0.502107
0.596177 0.184778 0.506734
0.680790 0.196435 0.510919
0.782123 0.219433 0.522219
0.893192 0.244157 0.537308
0.161752 0.245003 0.474118
0.288743 0.258701 0.484796
0.368237 0.265939 0.492586
0.456192 0.275528 0.499708
0.543470 0.285267 0.506943
0.633023 0.293601 0.516177
0.719310 0.306776 0.524337
0.816688 0.323581 0.534712
0.915388 0.342605 0.544719
0.174764 0.327357 0.486824
0.278173 0.324504 0.480136
0.379860 0.341144 0.500859
0.473761 0.352278 0.510900
0.563431 0.361463 0.518737
0.652824 0.365682 0.525056
0.731335 0.376274 0.528226
0.826004 0.395231 0.539236
0.922175 0.412431 0.546446
0.182498 0.414694 0.496249
0.287497 0.417650 0.502808
0.353071 0.413062 0.502452
0.451644 0.425199 0.511388
0.558087 0.433677 0.520903
0.651411 0.438678 0.524563
0.730907 0.454930 0.530871
0.828363 0.469008 0.540429
0.923331 0.487484 0.546216
0.187826 0.521458 0.530771
0.286972 0.512903 0.509293
0.349425 0.506850 0.500328
0.435643 0.510148 0.504415
0.504448 0.501023 0.504113
0.623503 0.517203 0.517539
0.733869 0.534413 0.530376
0.830903 0.551501 0.543111
0.927449 0.570544 0.545209
0.202224 0.625030 0.531708
0.300352 0.619775 0.517421
0.377000 0.618195 0.519090
0.451455 0.614608 0.518429
0.530786 0.613705 0.515956
0.625947 0.620247 0.532019
0.737133 0.631705 0.541950
0.849952 0.639512 0.549353
0.967014 0.657149 0.550882
0.220385 0.719867 0.511745
0.321564 0.713181 0.497171
0.426949 0.727600 0.524293
0.510725 0.728906 0.536178
0.594114 0.729447 0.548630
0.671125 0.726735 0.556971
0.741098 0.727200 0.563663
0.851270 0.728329 0.564459
0.991664 0.734054 0.556122
0.252383 0.811464 0.485759
0.409857 0.842319 0.535927
0.486378 0.846832 0.552399
0.558895 0.846932 0.561325
0.636246 0.845217 0.566559
0.716685 0.841759 0.572087
0.788764 0.839237 0.577972
0.861733 0.836656 0.587493
0.989713 0.838930 0.579225
0.373593 0.963058 0.551639
0.464126 0.970824 0.573025
0.532411 0.972909 0.580684
0.606370 0.974296 0.585751
0.685677 0.973408 0.590757
0.766845 0.974087 0.594919
0.841033 0.974227 0.598215
0.919211 0.973742 0.601781
0.999244 0.973883 0.606041
0.185002 0.165741 0.588204
0.297655 0.180002 0.598074
0.371460 0.187706 0.604867
0.451376 0.196798 0.610139
0.537429 0.207275 0.613678
0.629229 0.218966 0.617347
0.714644 0.230936 0.624011
0.807165 0.244828 0.633500
0.913206 0.261157 0.646231
0.201266 0.277076 0.587053
0.318413 0.290107 0.602999
0.395902 0.296366 0.603185
0.478661 0.304370 0.615173
0.565989 0.313061 0.621964
0.657774 0.324413 0.631007
0.742984 0.334083 0.637873
0.837670 0.342751 0.645292
0.938587 0.359254 0.654693
0.207825 0.357150 0.607305
0.332022 0.369656 0.621187
0.413895 0.377523 0.626696
0.496276 0.383905 0.633392
0.579143 0.389410 0.634870
0.663402 0.398121 0.636682
0.749129 0.404009 0.640240
0.847615 0.411904 0.648433
0.948563 0.430196 0.657699
0.220025 0.451768 0.633489
0.322861 0.446276 0.622826
0.406349 0.452955 0.626788
0.496003 0.455590 0.630548
0.581152 0.459392 0.630455
0.663741 0.468820 0.635223
0.746442 0.475947 0.637101
0.847741 0.487811 0.647572
0.951389 0.507927 0.658556
0.223644 0.550854 0.657855
0.317065 0.539962 0.631352
0.391306 0.535296 0.622340
0.470590 0.533529 0.620704
0.564861 0.535524 0.623759
0.647464 0.546708 0.626265
0.736905 0.559320 0.635685
0.844392 0.569436 0.646890
0.948037 0.592011 0.657401
0.244718 0.653697 0.660815
0.336812 0.646174 0.643452
0.410369 0.636444 0.632319
0.484230 0.631801 0.623590
0.556324 0.629970 0.620810
0.629009 0.629864 0.622591
0.735984 0.650582 0.642101
0.842833 0.653509 0.646578
0.948301 0.680187 0.655943
0.257565 0.742522 0.632587
0.356842 0.735636 0.614860
0.438261 0.736359 0.623866
0.513920 0.735455 0.632031
0.589745 0.734175 0.637512
0.668435 0.731781 0.643978
0.739002 0.733527 0.650818
0.853120 0.736356 0.654836
0.982125 0.755035 0.659808
0.290697 0.835928 0.604955
0.411308 0.851888 0.638885
0.480771 0.852624 0.649556
0.553544 0.852122 0.655927
0.632225 0.848617 0.659950
0.712374 0.846602 0.664291
0.784744 0.843543 0.669908
0.858951 0.841344 0.678121
0.991612 0.843183 0.673691
0.369257 0.973506 0.655352
0.458599 0.978331 0.670655
0.528556 0.979191 0.676306
0.602893 0.979893 0.680576
0.681452 0.980620 0.684914
0.762792 0.981062 0.688992
0.837366 0.979950 0.692620
0.915381 0.980297 0.696166
0.999701 0.980618 0.699003
0.217270 0.197392 0.697438
0.325798 0.210993 0.710571
0.403217 0.221175 0.715256
0.482416 0.229919 0.720131
0.570644 0.241359 0.724725
0.665845 0.255564 0.732861
0.753547 0.268234 0.741660
0.847985 0.283973 0.757194
0.942193 0.294793 0.762723
0.238778 0.311439 0.711296
0.345293 0.320114 0.716232
0.423019 0.328813 0.724777
0.506470 0.339552 0.735618
0.595306 0.354236 0.749984
0.692533 0.368297 0.766225
0.780508 0.373936 0.769833
0.870570 0.377983 0.769365
0.966875 0.382127 0.768371
0.252417 0.396549 0.744793
0.364946 0.409045 0.758131
0.443229 0.416021 0.766186
0.522911 0.423974 0.769988
0.606957 0.431848 0.769975
0.700650 0.435936 0.769261
0.786853 0.439165 0.768260
0.879592 0.442031 0.769429
0.980415 0.447858 0.770679
0.264943 0.486684 0.766877
0.366777 0.484276 0.759061
0.443724 0.489345 0.766195
0.522613 0.495131 0.766906
0.608117 0.501253 0.765108
0.701520 0.506227 0.764842
0.788319 0.509218 0.764970
0.879156 0.512870 0.765099
0.985166 0.524540 0.771604
0.263653 0.582360 0.787055
0.363181 0.572460 0.768004
0.433175 0.568681 0.757192
0.511383 0.569847 0.749673
0.598005 0.576997 0.752528
0.690902 0.582115 0.753351
0.776259 0.586668 0.755297
0.868350 0.591806 0.757662
0.981954 0.609418 0.770242
0.266873 0.683625 0.807149
0.366724 0.673901 0.782691
0.433474 0.669399 0.770551
0.505876 0.664067 0.755534
0.585543 0.658680 0.741295
0.673063 0.662748 0.740727
0.755634 0.669192 0.743563
0.853624 0.678264 0.751701
0.970490 0.699032 0.766627
0.293662 0.771618 0.771988
0.378686 0.765687 0.766316
0.445237 0.758266 0.759892
0.515637 0.752758 0.753710
0.594656 0.744937 0.744908
0.670915 0.741938 0.741944
0.741666 0.742102 0.740110
0.850319 0.752220 0.752017
0.965690 0.776385 0.763467
0.317981 0.857784 0.727526
0.406680 0.858670 0.738763
0.474618 0.857633 0.744339
0.549517 0.854562 0.746625
0.627999 0.852289 0.750641
0.707957 0.850749 0.755311
0.781083 0.846574 0.760502
0.856473 0.845505 0.767313
0.993599 0.853425 0.767869
0.366104 0.979188 0.757622
0.455047 0.982805 0.766282
0.524822 0.984030 0.770339
0.598705 0.985732 0.774525
0.677898 0.986116 0.778788
0.759412 0.986685 0.782663
0.833776 0.986844 0.785872
0.911718 0.986942 0.789288
0.997457 0.986049 0.793719
0.250228 0.229783 0.808034
0.357574 0.244194 0.821088
0.434952 0.253661 0.827393
0.517050 0.266073 0.832295
0.608830 0.282762 0.846444
0.708356 0.303953 0.869251
0.797085 0.317071 0.880180
0.887869 0.330003 0.894296
0.983449 0.337807 0.897181
0.268816 0.342588 0.826396
0.376651 0.357912 0.845894
0.460295 0.373637 0.867850
0.548751 0.390139 0.887955
0.640874 0.403776 0.900887
0.733470 0.410424 0.900223
0.818304 0.414462 0.900786
0.908798 0.418147 0.900461
0.999312 0.422156 0.901135
0.297000 0.438880 0.882112
0.402588 0.452159 0.897836
0.480438 0.460593 0.903017
0.561894 0.468212 0.904775
0.648888 0.472353 0.904013
0.741698 0.474940 0.901791
0.827299 0.478039 0.900859
0.919216 0.481521 0.901194
1.000175 0.485059 0.902070
0.306540 0.523870 0.901654
0.406038 0.528584 0.900411
0.479255 0.535556 0.900280
0.561538 0.538733 0.899908
0.651314 0.541410 0.900293
0.745627 0.544425 0.901135
0.831927 0.547451 0.900309
0.922401 0.550434 0.899733
1.000108 0.554453 0.900823
0.308415 0.618164 0.918622
0.398417 0.611330 0.900216
0.471160 0.608947 0.892077
0.554615 0.613339 0.893355
0.644669 0.617036 0.893894
0.739135 0.619721 0.894460
0.826527 0.622698 0.896108
0.919507 0.626355 0.896517
1.000158 0.631923 0.896069
0.305284 0.719556 0.932551
0.397099 0.712257 0.916426
0.467348 0.706073 0.904857
0.543720 0.698644 0.892530
0.629087 0.696167 0.885009
0.723101 0.700431 0.884998
0.809714 0.704996 0.885475
0.902112 0.709815 0.885979
0.999147 0.716897 0.887502
0.307110 0.808275 0.944677
0.396657 0.800728 0.928718
0.466440 0.794643 0.917630
0.542947 0.787230 0.903074
0.623449 0.780195 0.888040
0.707390 0.774205 0.872313
0.789478 0.777744 0.871372
0.878949 0.783454 0.873149
0.993160 0.795647 0.881664
0.332379 0.894933 0.910117
0.418094 0.889521 0.904868
0.484876 0.883959 0.898032
0.555644 0.878411 0.891224
0.631077 0.872387 0.884591
0.711959 0.864141 0.874780
0.784834 0.857723 0.866644
0.860629 0.856834 0.864049
0.983774 0.874519 0.876713
0.366114 0.986591 0.868970
0.453435 0.987519 0.870432
0.521904 0.988305 0.871677
0.595428 0.989154 0.873580
0.673627 0.990685 0.877369
0.755311 0.992118 0.881143
0.830019 0.992637 0.884456
0.907404 0.993002 0.888019
0.997587 0.992572 0.891959
0.280447 0.260017 0.911687
0.387131 0.274371 0.921326
0.466628 0.287832 0.932500
0.555354 0.305908 0.951346
0.653409 0.328406 0.979856
0.747235 0.346579 0.996208
0.838329 0.363939 0.999125
0.927116 0.371082 0.999968
0.999998 0.376469 0.999987
0.304220 0.379546 0.950935
0.421096 0.404428 0.983817
0.504939 0.419790 0.991641
0.589795 0.431816 0.995368
0.676739 0.439183 0.998390
0.769755 0.445950 1.000002
0.857657 0.451326 0.999994
0.952233 0.455839 0.999995
1.000000 0.460632 0.999996
0.337578 0.479299 0.998485
0.439282 0.491095 0.998766
0.516089 0.498541 1.000321
0.598901 0.503164 1.000097
0.687177 0.506901 0.999993
0.781155 0.511413 0.999994
0.869453 0.514878 0.999995
0.964294 0.517946 0.999995
1.000000 0.521248 0.999997
0.345067 0.561265 0.999978
0.443995 0.568474 0.999994
0.520257 0.571007 0.999994
0.602214 0.573366 0.999993
0.691529 0.577500 0.999994
0.787104 0.580706 0.999994
0.875637 0.582655 0.999995
0.970830 0.585345 0.999996
1.000000 0.590698 0.999997
0.343220 0.650617 0.999996
0.437498 0.643968 0.999721
0.514691 0.646542 0.999993
0.599414 0.650189 0.999993
0.689304 0.652170 0.999994
0.784054 0.654314 0.999994
0.872519 0.657183 0.999995
0.966945 0.662366 0.999995
1.000000 0.669401 0.999996
0.342826 0.750402 0.999999
0.437141 0.742715 0.999996
0.508972 0.735840 0.999994
0.585683 0.729328 0.999992
0.675625 0.731038 0.999986
0.771025 0.735240 0.999993
0.859699 0.740817 0.999993
0.952315 0.746849 0.999994
1.000000 0.753796 0.999994
0.346819 0.839299 1.000000
0.437109 0.830989 0.999999
0.506932 0.823820 0.999996
0.581824 0.816523 0.999995
0.662464 0.809981 0.999838
0.752545 0.810314 1.000028
0.840414 0.815865 1.000003
0.932193 0.821320 0.999991
1.000000 0.827647 1.000054
0.352396 0.927995 1.000000
0.437130 0.921640 1.000000
0.505790 0.915864 0.999999
0.579292 0.910873 0.999997
0.659326 0.904680 0.999996
0.743539 0.897957 1.000025
0.821495 0.893547 0.999972
0.911346 0.896319 0.999065
0.999997 0.902668 0.998303
0.382577 0.999996 0.999991
0.466867 0.999995 0.999989
0.531566 0.999995 0.999988
0.602458 0.999994 0.999987
0.677630 0.999993 0.999986
0.755570 0.999992 0.999980
0.827613 0.998642 0.998326
0.904197 0.997863 0.997812
0.999989 0.999989 0.999987
