luts/FUJI_ACROS_Red_Filter.cube
#Generated for krafta web app
#Black and White LUTs
TITLE "Fuji XTrans III - Acros+R"
#LUT size
LUT_3D_SIZE 9
#LUT data points
0.003922 0.003922 0.003922
0.031373 0.031373 0.031373
0.113725 0.113725 0.113725
0.254902 0.254902 0.254902
0.333333 0.333333 0.333333
0.545098 0.545098 0.545098
0.588235 0.588235 0.588235
0.654902 0.654902 0.654902
0.654902 0.654902 0.654902
0.007843 0.007843 0.007843
0.039216 0.039216 0.039216
0.133333 0.133333 0.133333
0.274510 0.274510 0.274510
0.407843 0.407843 0.407843
0.545098 0.545098 0.545098
0.639216 0.639216 0.639216
0.647059 0.647059 0.647059
0.709804 0.709804 0.709804
0.047059 0.047059 0.047059
0.086275 0.086275 0.086275
0.160784 0.160784 0.160784
0.321569 0.321569 0.321569
0.443137 0.443137 0.443137
0.572549 0.572549 0.572549
0.670588 0.670588 0.670588
0.713725 0.713725 0.713725
0.721569 0.721569 0.721569
0.090196 0.090196 0.090196
0.188235 0.188235 0.188235
0.250980 0.250980 0.250980
0.372549 0.372549 0.372549
0.494118 0.494118 0.494118
0.603922 0.603922 0.603922
0.686275 0.686275 0.686275
0.721569 0.721569 0.721569
0.721569 0.721569 0.721569
0.231373 0.231373 0.231373
0.235294 0.235294 0.235294
0.329412 0.329412 0.329412
0.435294 0.435294 0.435294
0.549020 0.549020 0.549020
0.647059 0.647059 0.647059
0.717647 0.717647 0.717647
0.717647 0.717647 0.717647
0.768627 0.768627 0.768627
0.145098 0.145098 0.145098
0.239216 0.239216 0.239216
0.337255 0.337255 0.337255
0.466667 0.466667 0.466667
0.635294 0.635294 0.635294
0.670588 0.670588 0.670588
0.768627 0.768627 0.768627
0.792157 0.792157 0.792157
0.796078 0.796078 0.796078
0.298039 0.298039 0.298039
0.235294 0.235294 0.235294
0.329412 0.329412 0.329412
0.521569 0.521569 0.521569
0.607843 0.607843 0.607843
0.639216 0.639216 0.639216
0.772549 0.772549 0.772549
0.792157 0.792157 0.792157
0.862745 0.862745 0.862745
0.364706 0.364706 0.364706
0.305882 0.305882 0.305882
0.474510 0.474510 0.474510
0.572549 0.572549 0.572549
0.678431 0.678431 0.678431
0.705882 0.705882 0.705882
0.768627 0.768627 0.768627
0.862745 0.862745 0.862745
0.862745 0.862745 0.862745
0.364706 0.364706 0.364706
0.309804 0.309804 0.309804
0.474510 0.474510 0.474510
0.572549 0.572549 0.572549
0.678431 0.678431 0.678431
0.705882 0.705882 0.705882
0.807843 0.807843 0.807843
0.847059 0.847059 0.847059
0.874510 0.874510 0.874510
0.003922 0.003922 0.003922
0.011765 0.011765 0.011765
0.125490 0.125490 0.125490
0.192157 0.192157 0.192157
0.419608 0.419608 0.419608
0.623529 0.623529 0.623529
0.658824 0.658824 0.658824
0.658824 0.658824 0.658824
0.756863 0.756863 0.756863
0.007843 0.007843 0.007843
0.050980 0.050980 0.050980
0.129412 0.129412 0.129412
0.270588 0.270588 0.270588
0.415686 0.415686 0.415686
0.549020 0.549020 0.549020
0.654902 0.654902 0.654902
0.705882 0.705882 0.705882
0.764706 0.764706 0.764706
0.047059 0.047059 0.047059
0.090196 0.090196 0.090196
0.164706 0.164706 0.164706
0.301961 0.301961 0.301961
0.439216 0.439216 0.439216
0.568627 0.568627 0.568627
0.670588 0.670588 0.670588
0.717647 0.717647 0.717647
0.776471 0.776471 0.776471
0.137255 0.137255 0.137255
0.180392 0.180392 0.180392
0.243137 0.243137 0.243137
0.360784 0.360784 0.360784
0.482353 0.482353 0.482353
0.603922 0.603922 0.603922
0.694118 0.694118 0.694118
0.733333 0.733333 0.733333
0.800000 0.800000 0.800000
0.219608 0.219608 0.219608
0.290196 0.290196 0.290196
0.333333 0.333333 0.333333
0.439216 0.439216 0.439216
0.541176 0.541176 0.541176
0.643137 0.643137 0.643137
0.725490 0.725490 0.725490
0.768627 0.768627 0.768627
0.815686 0.815686 0.815686
0.298039 0.298039 0.298039
0.360784 0.360784 0.360784
0.376471 0.376471 0.376471
0.470588 0.470588 0.470588
0.607843 0.607843 0.607843
0.690196 0.690196 0.690196
0.752941 0.752941 0.752941
0.831373 0.831373 0.831373
0.890196 0.890196 0.890196
0.364706 0.364706 0.364706
0.364706 0.364706 0.364706
0.470588 0.470588 0.470588
0.568627 0.568627 0.568627
0.670588 0.670588 0.670588
0.705882 0.705882 0.705882
0.780392 0.780392 0.780392
0.862745 0.862745 0.862745
0.866667 0.866667 0.866667
0.380392 0.380392 0.380392
0.364706 0.364706 0.364706
0.474510 0.474510 0.474510
0.572549 0.572549 0.572549
0.678431 0.678431 0.678431
0.705882 0.705882 0.705882
0.807843 0.807843 0.807843
0.847059 0.847059 0.847059
0.874510 0.874510 0.874510
0.380392 0.380392 0.380392
0.364706 0.364706 0.364706
0.529412 0.529412 0.529412
0.580392 0.580392 0.580392
0.682353 0.682353 0.682353
0.705882 0.705882 0.705882
0.807843 0.807843 0.807843
0.874510 0.874510 0.874510
0.909804 0.909804 0.909804
0.000000 0.000000 0.000000
0.058824 0.058824 0.058824
0.231373 0.231373 0.231373
0.270588 0.270588 0.270588
0.427451 0.427451 0.427451
0.588235 0.588235 0.588235
0.678431 0.678431 0.678431
0.729412 0.729412 0.729412
0.796078 0.796078 0.796078
0.023529 0.023529 0.023529
0.066667 0.066667 0.066667
0.145098 0.145098 0.145098
0.286275 0.286275 0.286275
0.435294 0.435294 0.435294
0.568627 0.568627 0.568627
0.674510 0.674510 0.674510
0.721569 0.721569 0.721569
0.768627 0.768627 0.768627
0.070588 0.070588 0.070588
0.101961 0.101961 0.101961
0.184314 0.184314 0.184314
0.317647 0.317647 0.317647
0.450980 0.450980 0.450980
0.584314 0.584314 0.584314
0.690196 0.690196 0.690196
0.784314 0.784314 0.784314
0.815686 0.815686 0.815686
0.160784 0.160784 0.160784
0.188235 0.188235 0.188235
0.258824 0.258824 0.258824
0.372549 0.372549 0.372549
0.494118 0.494118 0.494118
0.611765 0.611765 0.611765
0.713725 0.713725 0.713725
0.792157 0.792157 0.792157
0.835294 0.835294 0.835294
0.290196 0.290196 0.290196
0.301961 0.301961 0.301961
0.349020 0.349020 0.349020
0.443137 0.443137 0.443137
0.552941 0.552941 0.552941
0.650980 0.650980 0.650980
0.741176 0.741176 0.741176
0.819608 0.819608 0.819608
0.854902 0.854902 0.854902
0.329412 0.329412 0.329412
0.349020 0.349020 0.349020
0.435294 0.435294 0.435294
0.509804 0.509804 0.509804
0.600000 0.600000 0.600000
0.690196 0.690196 0.690196
0.772549 0.772549 0.772549
0.843137 0.843137 0.843137
0.898039 0.898039 0.898039
0.333333 0.333333 0.333333
0.482353 0.482353 0.482353
0.474510 0.474510 0.474510
0.572549 0.572549 0.572549
0.650980 0.650980 0.650980
0.709804 0.709804 0.709804
0.807843 0.807843 0.807843
0.870588 0.870588 0.870588
0.913725 0.913725 0.913725
0.380392 0.380392 0.380392
0.403922 0.403922 0.403922
0.533333 0.533333 0.533333
0.580392 0.580392 0.580392
0.650980 0.650980 0.650980
0.713725 0.713725 0.713725
0.815686 0.815686 0.815686
0.909804 0.909804 0.909804
0.909804 0.909804 0.909804
0.380392 0.380392 0.380392
0.400000 0.400000 0.400000
0.533333 0.533333 0.533333
0.580392 0.580392 0.580392
0.650980 0.650980 0.650980
0.756863 0.756863 0.756863
0.839216 0.839216 0.839216
0.909804 0.909804 0.909804
0.909804 0.909804 0.909804
0.043137 0.043137 0.043137
0.090196 0.090196 0.090196
0.180392 0.180392 0.180392
0.298039 0.298039 0.298039
0.450980 0.450980 0.450980
0.588235 0.588235 0.588235
0.698039 0.698039 0.698039
0.796078 0.796078 0.796078
0.800000 0.800000 0.800000
0.043137 0.043137 0.043137
0.094118 0.094118 0.094118
0.176471 0.176471 0.176471
0.313725 0.313725 0.313725
0.450980 0.450980 0.450980
0.584314 0.584314 0.584314
0.698039 0.698039 0.698039
0.788235 0.788235 0.788235
0.831373 0.831373 0.831373
0.098039 0.098039 0.098039
0.129412 0.129412 0.129412
0.215686 0.215686 0.215686
0.341176 0.341176 0.341176
0.470588 0.470588 0.470588
0.596078 0.596078 0.596078
0.705882 0.705882 0.705882
0.792157 0.792157 0.792157
0.831373 0.831373 0.831373
0.188235 0.188235 0.188235
0.219608 0.219608 0.219608
0.286275 0.286275 0.286275
0.400000 0.400000 0.400000
0.513725 0.513725 0.513725
0.627451 0.627451 0.627451
0.725490 0.725490 0.725490
0.803922 0.803922 0.803922
0.847059 0.847059 0.847059
0.290196 0.290196 0.290196
0.313725 0.313725 0.313725
0.368627 0.368627 0.368627
0.462745 0.462745 0.462745
0.560784 0.560784 0.560784
0.662745 0.662745 0.662745
0.749020 0.749020 0.749020
0.827451 0.827451 0.827451
0.866667 0.866667 0.866667
0.345098 0.345098 0.345098
0.403922 0.403922 0.403922
0.454902 0.454902 0.454902
0.525490 0.525490 0.525490
0.615686 0.615686 0.615686
0.701961 0.701961 0.701961
0.784314 0.784314 0.784314
0.850980 0.850980 0.850980
0.894118 0.894118 0.894118
0.388235 0.388235 0.388235
0.490196 0.490196 0.490196
0.513725 0.513725 0.513725
0.572549 0.572549 0.572549
0.658824 0.658824 0.658824
0.741176 0.741176 0.741176
0.815686 0.815686 0.815686
0.882353 0.882353 0.882353
0.921569 0.921569 0.921569
0.494118 0.494118 0.494118
0.494118 0.494118 0.494118
0.576471 0.576471 0.576471
0.592157 0.592157 0.592157
0.674510 0.674510 0.674510
0.756863 0.756863 0.756863
0.843137 0.843137 0.843137
0.905882 0.905882 0.905882
0.937255 0.937255 0.937255
0.494118 0.494118 0.494118
0.494118 0.494118 0.494118
0.576471 0.576471 0.576471
0.588235 0.588235 0.588235
0.674510 0.674510 0.674510
0.756863 0.756863 0.756863
0.843137 0.843137 0.843137
0.925490 0.925490 0.925490
0.960784 0.960784 0.960784
0.117647 0.117647 0.117647
0.160784 0.160784 0.160784
0.219608 0.219608 0.219608
0.321569 0.321569 0.321569
0.462745 0.462745 0.462745
0.600000 0.600000 0.600000
0.709804 0.709804 0.709804
0.796078 0.796078 0.796078
0.850980 0.850980 0.850980
0.094118 0.094118 0.094118
0.137255 0.137255 0.137255
0.207843 0.207843 0.207843
0.329412 0.329412 0.329412
0.470588 0.470588 0.470588
0.596078 0.596078 0.596078
0.709804 0.709804 0.709804
0.796078 0.796078 0.796078
0.839216 0.839216 0.839216
0.121569 0.121569 0.121569
0.160784 0.160784 0.160784
0.235294 0.235294 0.235294
0.364706 0.364706 0.364706
0.490196 0.490196 0.490196
0.611765 0.611765 0.611765
0.717647 0.717647 0.717647
0.800000 0.800000 0.800000
0.843137 0.843137 0.843137
0.207843 0.207843 0.207843
0.243137 0.243137 0.243137
0.309804 0.309804 0.309804
0.419608 0.419608 0.419608
0.533333 0.533333 0.533333
0.639216 0.639216 0.639216
0.733333 0.733333 0.733333
0.815686 0.815686 0.815686
0.858824 0.858824 0.858824
0.309804 0.309804 0.309804
0.333333 0.333333 0.333333
0.392157 0.392157 0.392157
0.482353 0.482353 0.482353
0.576471 0.576471 0.576471
0.674510 0.674510 0.674510
0.764706 0.764706 0.764706
0.839216 0.839216 0.839216
0.878431 0.878431 0.878431
0.400000 0.400000 0.400000
0.423529 0.423529 0.423529
0.470588 0.470588 0.470588
0.541176 0.541176 0.541176
0.631373 0.631373 0.631373
0.709804 0.709804 0.709804
0.788235 0.788235 0.788235
0.862745 0.862745 0.862745
0.901961 0.901961 0.901961
0.447059 0.447059 0.447059
0.462745 0.462745 0.462745
0.525490 0.525490 0.525490
0.592157 0.592157 0.592157
0.670588 0.670588 0.670588
0.752941 0.752941 0.752941
0.823529 0.823529 0.823529
0.898039 0.898039 0.898039
0.968627 0.968627 0.968627
0.490196 0.490196 0.490196
0.505882 0.505882 0.505882
0.564706 0.564706 0.564706
0.607843 0.607843 0.607843
0.686275 0.686275 0.686275
0.776471 0.776471 0.776471
0.847059 0.847059 0.847059
0.925490 0.925490 0.925490
0.960784 0.960784 0.960784
0.490196 0.490196 0.490196
0.505882 0.505882 0.505882
0.564706 0.564706 0.564706
0.607843 0.607843 0.607843
0.686275 0.686275 0.686275
0.776471 0.776471 0.776471
0.925490 0.925490 0.925490
0.929412 0.929412 0.929412
0.960784 0.960784 0.960784
0.188235 0.188235 0.188235
0.223529 0.223529 0.223529
0.270588 0.270588 0.270588
0.345098 0.345098 0.345098
0.470588 0.470588 0.470588
0.600000 0.600000 0.600000
0.717647 0.717647 0.717647
0.803922 0.803922 0.803922
0.854902 0.854902 0.854902
0.164706 0.164706 0.164706
0.203922 0.203922 0.203922
0.250980 0.250980 0.250980
0.341176 0.341176 0.341176
0.474510 0.474510 0.474510
0.603922 0.603922 0.603922
0.717647 0.717647 0.717647
0.803922 0.803922 0.803922
0.850980 0.850980 0.850980
0.149020 0.149020 0.149020
0.196078 0.196078 0.196078
0.262745 0.262745 0.262745
0.388235 0.388235 0.388235
0.505882 0.505882 0.505882
0.623529 0.623529 0.623529
0.725490 0.725490 0.725490
0.811765 0.811765 0.811765
0.854902 0.854902 0.854902
0.223529 0.223529 0.223529
0.270588 0.270588 0.270588
0.333333 0.333333 0.333333
0.435294 0.435294 0.435294
0.541176 0.541176 0.541176
0.650980 0.650980 0.650980
0.741176 0.741176 0.741176
0.827451 0.827451 0.827451
0.870588 0.870588 0.870588
0.317647 0.317647 0.317647
0.356863 0.356863 0.356863
0.407843 0.407843 0.407843
0.498039 0.498039 0.498039
0.588235 0.588235 0.588235
0.682353 0.682353 0.682353
0.768627 0.768627 0.768627
0.850980 0.850980 0.850980
0.890196 0.890196 0.890196
0.415686 0.415686 0.415686
0.439216 0.439216 0.439216
0.490196 0.490196 0.490196
0.560784 0.560784 0.560784
0.639216 0.639216 0.639216
0.721569 0.721569 0.721569
0.800000 0.800000 0.800000
0.874510 0.874510 0.874510
0.909804 0.909804 0.909804
0.486275 0.486275 0.486275
0.505882 0.505882 0.505882
0.545098 0.545098 0.545098
0.607843 0.607843 0.607843
0.686275 0.686275 0.686275
0.756863 0.756863 0.756863
0.831373 0.831373 0.831373
0.898039 0.898039 0.898039
0.976471 0.976471 0.976471
0.529412 0.529412 0.529412
0.545098 0.545098 0.545098
0.576471 0.576471 0.576471
0.631373 0.631373 0.631373
0.709804 0.709804 0.709804
0.780392 0.780392 0.780392
0.909804 0.909804 0.909804
0.945098 0.945098 0.945098
0.996078 0.996078 0.996078
0.529412 0.529412 0.529412
0.545098 0.545098 0.545098
0.615686 0.615686 0.615686
0.631373 0.631373 0.631373
0.745098 0.745098 0.745098
0.823529 0.823529 0.823529
0.913725 0.913725 0.913725
0.945098 0.945098 0.945098
0.996078 0.996078 0.996078
0.266667 0.266667 0.266667
0.290196 0.290196 0.290196
0.329412 0.329412 0.329412
0.396078 0.396078 0.396078
0.490196 0.490196 0.490196
0.603922 0.603922 0.603922
0.721569 0.721569 0.721569
0.807843 0.807843 0.807843
0.854902 0.854902 0.854902
0.254902 0.254902 0.254902
0.278431 0.278431 0.278431
0.313725 0.313725 0.313725
0.380392 0.380392 0.380392
0.486275 0.486275 0.486275
0.611765 0.611765 0.611765
0.725490 0.725490 0.725490
0.819608 0.819608 0.819608
0.866667 0.866667 0.866667
0.192157 0.192157 0.192157
0.239216 0.239216 0.239216
0.298039 0.298039 0.298039
0.400000 0.400000 0.400000
0.517647 0.517647 0.517647
0.631373 0.631373 0.631373
0.733333 0.733333 0.733333
0.819608 0.819608 0.819608
0.862745 0.862745 0.862745
0.243137 0.243137 0.243137
0.301961 0.301961 0.301961
0.352941 0.352941 0.352941
0.450980 0.450980 0.450980
0.556863 0.556863 0.556863
0.662745 0.662745 0.662745
0.756863 0.756863 0.756863
0.831373 0.831373 0.831373
0.874510 0.874510 0.874510
0.329412 0.329412 0.329412
0.380392 0.380392 0.380392
0.427451 0.427451 0.427451
0.509804 0.509804 0.509804
0.600000 0.600000 0.600000
0.694118 0.694118 0.694118
0.776471 0.776471 0.776471
0.854902 0.854902 0.854902
0.898039 0.898039 0.898039
0.427451 0.427451 0.427451
0.458824 0.458824 0.458824
0.501961 0.501961 0.501961
0.568627 0.568627 0.568627
0.650980 0.650980 0.650980
0.729412 0.729412 0.729412
0.803922 0.803922 0.803922
0.878431 0.878431 0.878431
0.921569 0.921569 0.921569
0.505882 0.505882 0.505882
0.525490 0.525490 0.525490
0.564706 0.564706 0.564706
0.631373 0.631373 0.631373
0.698039 0.698039 0.698039
0.768627 0.768627 0.768627
0.843137 0.843137 0.843137
0.905882 0.905882 0.905882
0.988235 0.988235 0.988235
0.537255 0.537255 0.537255
0.552941 0.552941 0.552941
0.615686 0.615686 0.615686
0.713725 0.713725 0.713725
0.745098 0.745098 0.745098
0.823529 0.823529 0.823529
0.862745 0.862745 0.862745
0.949020 0.949020 0.949020
1.000000 1.000000 1.000000
0.654902 0.654902 0.654902
0.596078 0.596078 0.596078
0.619608 0.619608 0.619608
0.717647 0.717647 0.717647
0.745098 0.745098 0.745098
0.823529 0.823529 0.823529
0.921569 0.921569 0.921569
0.949020 0.949020 0.949020
1.000000 1.000000 1.000000
0.352941 0.352941 0.352941
0.368627 0.368627 0.368627
0.400000 0.400000 0.400000
0.454902 0.458824 0.454902
0.533333 0.533333 0.533333
0.631373 0.631373 0.631373
0.733333 0.733333 0.733333
0.811765 0.811765 0.811765
0.862745 0.862745 0.862745
0.341176 0.341176 0.341176
0.364706 0.364706 0.364706
0.392157 0.392157 0.392157
0.443137 0.443137 0.443137
0.525490 0.525490 0.525490
0.627451 0.627451 0.627451
0.733333 0.733333 0.733333
0.827451 0.827451 0.827451
0.862745 0.862745 0.862745
0.262745 0.262745 0.262745
0.313725 0.313725 0.313725
0.352941 0.352941 0.352941
0.419608 0.419608 0.419608
0.529412 0.529412 0.529412
0.643137 0.643137 0.643137
0.745098 0.745098 0.745098
0.827451 0.827451 0.827451
0.870588 0.870588 0.870588
0.266667 0.266667 0.266667
0.333333 0.333333 0.333333
0.380392 0.380392 0.380392
0.470588 0.470588 0.470588
0.568627 0.568627 0.568627
0.670588 0.670588 0.670588
0.756863 0.756863 0.756863
0.839216 0.839216 0.839216
0.878431 0.878431 0.878431
0.352941 0.352941 0.352941
0.407843 0.407843 0.407843
0.447059 0.447059 0.447059
0.525490 0.525490 0.525490
0.615686 0.615686 0.615686
0.701961 0.701961 0.701961
0.780392 0.780392 0.780392
0.858824 0.858824 0.858824
0.909804 0.909804 0.909804
0.439216 0.439216 0.439216
0.482353 0.482353 0.482353
0.521569 0.521569 0.521569
0.584314 0.584314 0.584314
0.662745 0.662745 0.662745
0.741176 0.741176 0.741176
0.811765 0.811765 0.811765
0.886275 0.886275 0.886275
0.933333 0.933333 0.933333
0.521569 0.521569 0.521569
0.549020 0.549020 0.549020
0.580392 0.580392 0.580392
0.639216 0.639216 0.639216
0.705882 0.705882 0.705882
0.780392 0.780392 0.780392
0.850980 0.850980 0.850980
0.913725 0.913725 0.913725
0.996078 0.996078 0.996078
0.654902 0.654902 0.654902
0.576471 0.576471 0.576471
0.631373 0.631373 0.631373
0.694118 0.694118 0.694118
0.752941 0.752941 0.752941
0.823529 0.823529 0.823529
0.878431 0.878431 0.878431
0.956863 0.956863 0.956863
1.000000 1.000000 1.000000
0.654902 0.654902 0.654902
0.615686 0.615686 0.615686
0.631373 0.631373 0.631373
0.690196 0.690196 0.690196
0.752941 0.752941 0.752941
0.827451 0.827451 0.827451
0.886275 0.886275 0.886275
0.956863 0.956863 0.956863
1.000000 1.000000 1.000000
0.427451 0.427451 0.427451
0.439216 0.439216 0.439216
0.470588 0.470588 0.470588
0.513725 0.513725 0.513725
0.580392 0.580392 0.580392
0.662745 0.662745 0.662745
0.737255 0.737255 0.737255
0.823529 0.823529 0.823529
0.823529 0.823529 0.823529
0.427451 0.427451 0.427451
0.462745 0.462745 0.462745
0.490196 0.490196 0.490196
0.533333 0.533333 0.533333
0.592157 0.592157 0.592157
0.666667 0.666667 0.666667
0.737255 0.737255 0.737255
0.831373 0.831373 0.831373
0.831373 0.831373 0.831373
0.356863 0.356863 0.356863
0.427451 0.427451 0.427451
0.458824 0.458824 0.458824
0.505882 0.505882 0.505882
0.576471 0.576471 0.576471
0.666667 0.666667 0.666667
0.745098 0.745098 0.745098
0.839216 0.839216 0.839216
0.839216 0.839216 0.839216
0.290196 0.290196 0.290196
0.321569 0.321569 0.321569
0.411765 0.411765 0.411765
0.498039 0.498039 0.498039
0.588235 0.588235 0.588235
0.686275 0.686275 0.686275
0.768627 0.768627 0.768627
0.854902 0.854902 0.854902
0.894118 0.894118 0.894118
0.352941 0.352941 0.352941
0.364706 0.364706 0.364706
0.470588 0.470588 0.470588
0.549020 0.549020 0.549020
0.639216 0.639216 0.639216
0.725490 0.725490 0.725490
0.796078 0.796078 0.796078
0.882353 0.882353 0.882353
0.909804 0.909804 0.909804
0.454902 0.454902 0.454902
0.466667 0.466667 0.466667
0.501961 0.501961 0.501961
0.611765 0.611765 0.611765
0.686275 0.686275 0.686275
0.764706 0.764706 0.764706
0.831373 0.831373 0.831373
0.905882 0.905882 0.905882
0.941176 0.941176 0.941176
0.545098 0.545098 0.545098
0.560784 0.560784 0.560784
0.592157 0.592157 0.592157
0.662745 0.662745 0.662745
0.733333 0.733333 0.733333
0.807843 0.807843 0.807843
0.874510 0.874510 0.874510
0.937255 0.937255 0.937255
0.968627 0.968627 0.968627
0.584314 0.584314 0.584314
0.607843 0.607843 0.607843
0.635294 0.635294 0.635294
0.686275 0.686275 0.686275
0.745098 0.745098 0.745098
0.831373 0.831373 0.831373
0.901961 0.901961 0.901961
0.980392 0.980392 0.980392
0.988235 0.988235 0.988235
0.654902 0.654902 0.654902
0.607843 0.607843 0.607843
0.635294 0.635294 0.635294
0.690196 0.690196 0.690196
0.780392 0.780392 0.780392
0.862745 0.862745 0.862745
0.929412 0.929412 0.929412
0.980392 0.980392 0.980392
0.988235 0.988235 0.988235
