luts/Fujifilm_Superia_800.cube
# Generated for krafta web app
# https://www.facebook.com/krafta.visio
# Preset: FUJ - Superia 800
# Color profile : sRGB Color Space Profile
LUT_3D_SIZE 6
DOMAIN_MIN 0.0 0.0 0.0
DOMAIN_MAX 1.0 1.0 1.0
0.000000 0.000000 0.000000
0.249516 0.004150 0.003937
0.449775 0.008942 0.009644
0.644282 0.024201 0.024506
0.828458 0.058198 0.056794
1.000000 0.095338 0.093812
0.004334 0.240574 0.004486
0.234958 0.234928 0.009339
0.440406 0.226108 0.020844
0.637232 0.223148 0.042176
0.820615 0.223270 0.069337
1.000000 0.230838 0.102815
0.056092 0.435187 0.056489
0.230045 0.435370 0.060121
0.432227 0.432197 0.068605
0.629053 0.425879 0.081025
0.815305 0.419165 0.100679
0.998260 0.417304 0.126894
0.103304 0.617121 0.104524
0.234745 0.616571 0.106172
0.420600 0.616205 0.111238
0.614954 0.615045 0.121675
0.804288 0.610163 0.136629
0.990295 0.607141 0.161715
0.152682 0.794583 0.152773
0.253635 0.795224 0.155367
0.421912 0.796353 0.161624
0.607965 0.797330 0.172030
0.798276 0.798398 0.186862
0.984588 0.796323 0.210330
0.240787 0.984466 0.241093
0.307073 0.983032 0.238956
0.450294 0.983703 0.246738
0.622919 0.985138 0.262669
0.805692 0.987579 0.288487
0.991272 0.991424 0.329870
0.000183 0.000000 0.255589
0.241123 0.000153 0.241459
0.442176 0.025269 0.227726
0.635798 0.058381 0.225956
0.820981 0.084443 0.227787
1.000000 0.112856 0.234836
0.019074 0.238468 0.238468
0.233677 0.233677 0.233677
0.436866 0.229740 0.229526
0.633478 0.227970 0.227939
0.817929 0.229862 0.229679
0.999115 0.236027 0.235752
0.070649 0.432837 0.231662
0.231540 0.432044 0.231724
0.428290 0.428351 0.231144
0.623529 0.423194 0.231571
0.809995 0.418219 0.235447
0.994751 0.417853 0.244114
0.112123 0.616236 0.236973
0.237400 0.615839 0.237613
0.420783 0.614832 0.239414
0.613031 0.613123 0.242802
0.801877 0.608850 0.248997
0.989563 0.607721 0.261540
0.158053 0.795132 0.255833
0.256870 0.795315 0.256779
0.423438 0.796353 0.260685
0.608484 0.797208 0.266789
0.798306 0.798367 0.276799
0.984619 0.796689 0.291112
0.244175 0.984741 0.311345
0.309483 0.983459 0.309758
0.451881 0.984100 0.315526
0.623896 0.985443 0.327642
0.806210 0.987640 0.348119
0.991394 0.991516 0.382910
0.000336 0.000183 0.452766
0.225650 0.007263 0.443305
0.431281 0.029694 0.431098
0.628931 0.060060 0.423804
0.815610 0.093141 0.418006
1.000000 0.127382 0.417670
0.042359 0.230869 0.442359
0.227634 0.227939 0.436194
0.429664 0.226474 0.429816
0.626062 0.226871 0.423224
0.812192 0.234257 0.418494
0.995331 0.242557 0.416846
0.074342 0.427314 0.427344
0.230014 0.426947 0.427008
0.424018 0.424018 0.424018
0.617670 0.420996 0.420935
0.805051 0.419379 0.419257
0.992401 0.420294 0.419959
0.124239 0.613611 0.420661
0.243381 0.613367 0.421332
0.421942 0.612451 0.421881
0.610986 0.611048 0.422370
0.799405 0.608270 0.423224
0.988281 0.608698 0.427344
0.169223 0.794736 0.423529
0.263066 0.795132 0.424384
0.426856 0.796078 0.427070
0.609674 0.796902 0.430640
0.798459 0.798520 0.437171
0.984314 0.797299 0.442206
0.243381 0.985290 0.449744
0.307897 0.984161 0.447791
0.451057 0.984680 0.451179
0.624048 0.986114 0.459113
0.806516 0.988251 0.472023
0.992065 0.992187 0.495064
0.014313 0.014130 0.634363
0.216434 0.021729 0.630518
0.419257 0.042084 0.623957
0.616571 0.066651 0.616632
0.808835 0.094148 0.610346
0.995758 0.125216 0.605646
0.056519 0.224369 0.632136
0.223056 0.222965 0.627314
0.419501 0.223545 0.621881
0.615351 0.225742 0.615290
0.806241 0.232639 0.609155
0.992157 0.240818 0.603967
0.089784 0.419135 0.617700
0.231510 0.419379 0.617060
0.418708 0.418555 0.613947
0.610620 0.417731 0.610529
0.800015 0.417639 0.606439
0.990265 0.419623 0.605371
0.128542 0.609491 0.609491
0.244877 0.609369 0.609308
0.421973 0.609186 0.609125
0.607568 0.607752 0.607660
0.796994 0.606653 0.606561
0.988434 0.606714 0.606592
0.171603 0.794583 0.605951
0.263676 0.794949 0.606317
0.425788 0.795712 0.607233
0.608820 0.796658 0.608881
0.797452 0.797543 0.611383
0.985779 0.796872 0.611658
0.214725 0.986572 0.613642
0.283085 0.985748 0.611078
0.438117 0.986328 0.613275
0.617975 0.987640 0.618006
0.804440 0.989471 0.625330
0.993317 0.993408 0.640223
0.033143 0.030762 0.810910
0.211490 0.037629 0.809476
0.407813 0.052766 0.806058
0.604669 0.073243 0.802670
0.798917 0.096803 0.798886
0.990845 0.122866 0.795773
0.065095 0.218112 0.810269
0.218204 0.218235 0.808072
0.410010 0.220218 0.805539
0.604913 0.224338 0.801938
0.797665 0.230106 0.797635
0.988586 0.238529 0.794156
0.098054 0.411994 0.802396
0.228977 0.411994 0.801785
0.411719 0.411841 0.800015
0.602716 0.411658 0.797299
0.795102 0.413306 0.795163
0.987701 0.416175 0.794125
0.130282 0.603693 0.796719
0.242405 0.603967 0.796689
0.415076 0.603388 0.796048
0.602747 0.602838 0.795315
0.794614 0.603296 0.794614
0.987854 0.603388 0.794522
0.169253 0.794369 0.794400
0.261936 0.794644 0.794614
0.424567 0.795285 0.795285
0.607416 0.796323 0.796292
0.795468 0.795590 0.795468
0.988647 0.794736 0.794644
0.214481 0.987671 0.798886
0.283757 0.987091 0.797665
0.432929 0.988037 0.797879
0.608698 0.989563 0.797665
0.799374 0.991485 0.799405
0.995209 0.995331 0.808225
0.038911 0.037507 0.994049
0.208499 0.042359 0.993622
0.402167 0.053285 0.992584
0.598383 0.072694 0.991485
0.794736 0.097230 0.990661
0.989960 0.127993 0.989960
0.050294 0.210330 0.993927
0.211215 0.210910 0.993347
0.402533 0.212497 0.991974
0.598016 0.216892 0.990661
0.793301 0.223697 0.989044
0.987732 0.234257 0.987732
0.049744 0.401373 0.992096
0.211460 0.401892 0.992096
0.402655 0.402564 0.991516
0.598016 0.404089 0.990600
0.793423 0.406226 0.989288
0.988556 0.411292 0.988556
0.075013 0.598474 0.991302
0.214725 0.597894 0.991302
0.398596 0.595727 0.991424
0.595911 0.596002 0.990875
0.793149 0.596826 0.990143
0.989837 0.599542 0.989837
0.145357 0.797269 0.991180
0.245762 0.796963 0.991272
0.412848 0.796353 0.991547
0.598077 0.794797 0.992035
0.792996 0.793057 0.992401
0.992737 0.795041 0.992737
0.231449 0.993866 0.993866
0.297826 0.993744 0.993713
0.439796 0.994049 0.994049
0.612116 0.994690 0.994659
0.799222 0.995972 0.995911
0.998901 0.998901 0.998901
