luts/FUJI_NOSTALGIC_NEG.cube
TITLE "Generated for krafta web app"
LUT_3D_SIZE 5
#INPUTGAMMA sRGB
#IMAGEPROFILE sRGB
#OUTPUTGAMMA sRGB
0.000000 0.000000 0.000000
0.281406 0.038837 -0.000010
0.578019 0.079960 0.000000
0.777883 0.109629 0.000000
0.941467 0.131734 0.000000
0.000000 0.189737 -0.000037
0.270025 0.231348 0.003143
0.566060 0.261772 0.000000
0.778804 0.288237 0.000000
0.993236 0.289427 0.000000
0.000000 0.384108 0.000000
0.214837 0.439007 -0.000088
0.546074 0.473331 0.003708
0.776208 0.491710 0.001443
0.973210 0.481708 0.000003
0.000000 0.530009 0.000000
0.183028 0.595430 0.000000
0.528002 0.653873 0.005198
0.752769 0.692308 0.036672
0.956972 0.690624 0.008547
0.000000 0.696639 -0.000002
0.186097 0.745985 0.000000
0.468667 0.801310 0.000000
0.675915 0.826612 0.000062
0.893825 0.867622 0.000001
0.021559 0.087106 0.293597
0.291982 0.124690 0.257133
0.586628 0.162509 0.213930
0.785989 0.184029 0.179325
0.954738 0.187254 0.137126
0.036455 0.252209 0.291961
0.263139 0.260062 0.256128
0.514296 0.280327 0.221249
0.774194 0.319430 0.193131
0.942637 0.342160 0.159915
0.005278 0.447807 0.279086
0.254063 0.463703 0.242232
0.563116 0.491530 0.234962
0.780784 0.544062 0.232969
0.979770 0.526234 0.162335
-0.000105 0.606518 0.246790
0.232694 0.631408 0.202783
0.540095 0.679280 0.225281
0.769056 0.715471 0.259439
0.973480 0.694237 0.193991
0.025397 0.803323 0.181703
0.164329 0.774767 0.169017
0.448753 0.809266 0.170436
0.672377 0.842696 0.168227
0.912852 0.894602 0.192433
0.035966 0.169259 0.566698
0.298646 0.213078 0.535423
0.593816 0.232685 0.472151
0.806655 0.235097 0.416628
0.990378 0.247656 0.374402
0.081296 0.321493 0.543061
0.319175 0.325049 0.497651
0.613342 0.361122 0.461926
0.815081 0.378150 0.428919
0.987447 0.392988 0.388592
0.072889 0.511189 0.565676
0.307319 0.512033 0.517114
0.583959 0.538538 0.494028
0.793756 0.561882 0.461237
0.965075 0.571307 0.425773
0.081953 0.695337 0.541489
0.318082 0.701408 0.485162
0.581635 0.713405 0.490552
0.780541 0.738533 0.498944
0.992130 0.692573 0.413715
0.089784 0.872454 0.469940
0.210044 0.830634 0.450780
0.435548 0.818967 0.400584
0.680897 0.866585 0.414849
0.939162 0.926644 0.448707
0.053318 0.249961 0.827199
0.315261 0.280669 0.789420
0.636826 0.287499 0.707361
0.861726 0.298484 0.653989
0.999999 0.312698 0.607957
0.081505 0.389484 0.816851
0.329835 0.404241 0.771301
0.636071 0.430636 0.716258
0.854904 0.444931 0.663852
0.999994 0.452818 0.629289
0.148793 0.584580 0.848685
0.366417 0.596277 0.795140
0.622075 0.609978 0.735846
0.813139 0.615716 0.700473
0.992683 0.623900 0.672647
0.135808 0.748729 0.841652
0.362772 0.745850 0.785147
0.619019 0.751036 0.747653
0.794915 0.764240 0.726802
0.986574 0.763432 0.688447
0.126002 0.920548 0.752993
0.293317 0.897001 0.718998
0.478800 0.863909 0.658865
0.697845 0.894800 0.663583
0.968180 0.960850 0.705356
0.073045 0.326004 1.000000
0.360123 0.338611 0.991556
0.681634 0.353198 0.951673
0.900782 0.377345 0.909433
1.000000 0.412569 0.867936
0.071885 0.459024 1.000000
0.352466 0.482207 0.999989
0.675383 0.509145 0.972603
0.891612 0.521601 0.933468
1.000000 0.513652 0.904589
0.205795 0.680275 1.000000
0.328258 0.654198 0.999998
0.619473 0.663272 0.999761
0.838051 0.674554 0.979246
0.999999 0.686598 0.947481
0.186624 0.815145 1.000000
0.389123 0.817256 1.000000
0.620021 0.821856 0.999999
0.808839 0.820096 1.000118
0.999871 0.831622 0.973215
0.172898 0.967600 1.000000
0.380011 0.972931 0.999996
0.631977 0.980697 0.999988
0.814474 0.988559 0.999383
0.999985 0.999986 0.999982
