luts/FUJI_REALA_ACE.cube
TITLE "Generated for krafta web app"
LUT_3D_SIZE 25
#INPUTGAMMA sRGB
#IMAGEPROFILE sRGB
#OUTPUTGAMMA sRGB
0.000000 0.000000 0.000000
0.049378 0.004564 0.004321
0.099316 0.009381 0.008933
0.139773 0.013925 0.013374
0.175998 0.018118 0.017447
0.211559 0.022534 0.021835
0.247654 0.026691 0.026014
0.287655 0.030287 0.029457
0.327065 0.034203 0.033259
0.366014 0.038734 0.037736
0.405643 0.043437 0.042372
0.447051 0.048779 0.047639
0.494698 0.054984 0.054030
0.548581 0.060567 0.059432
0.599277 0.066344 0.065158
0.645139 0.071923 0.070743
0.688695 0.077124 0.075903
0.726423 0.081696 0.080400
0.758044 0.086008 0.084618
0.790775 0.089267 0.087683
0.818728 0.092257 0.090450
0.845454 0.095024 0.093050
0.872158 0.097520 0.095404
0.899373 0.099624 0.097481
0.927219 0.100864 0.099180
0.002295 0.036989 0.001042
0.054568 0.045893 0.002870
0.102166 0.049870 0.008236
0.144325 0.053729 0.013520
0.180478 0.056980 0.017779
0.215489 0.060404 0.022196
0.251492 0.064304 0.027046
0.289126 0.068265 0.031467
0.329544 0.071691 0.034597
0.368824 0.075706 0.038241
0.407798 0.079574 0.043482
0.449729 0.084490 0.048804
0.497166 0.090577 0.055042
0.549059 0.096220 0.061419
0.602949 0.101682 0.065024
0.649143 0.107148 0.070237
0.692397 0.112458 0.075062
0.728356 0.117059 0.080043
0.759871 0.120837 0.084186
0.793863 0.123313 0.086542
0.822818 0.125808 0.088573
0.849236 0.128090 0.090376
0.875455 0.130129 0.092165
0.903077 0.131675 0.094174
0.933142 0.131749 0.096169
0.004664 0.072966 0.000516
0.056114 0.082989 0.001547
0.107598 0.090306 0.006255
0.149659 0.094279 0.012345
0.186745 0.097617 0.017203
0.222469 0.101041 0.021952
0.258945 0.104759 0.026972
0.295405 0.108601 0.031755
0.331620 0.113232 0.036102
0.371267 0.117356 0.039138
0.412777 0.121248 0.042252
0.454747 0.125865 0.048400
0.502247 0.130743 0.054724
0.550967 0.136292 0.061882
0.602782 0.141778 0.066121
0.652449 0.146024 0.068519
0.694966 0.150024 0.073632
0.731000 0.153382 0.078328
0.762662 0.156315 0.082205
0.792768 0.159305 0.086035
0.822825 0.161068 0.087261
0.851207 0.162314 0.087841
0.878573 0.163490 0.088989
0.908338 0.163652 0.090844
0.943083 0.160700 0.093700
0.006298 0.106912 -0.000054
0.056931 0.116645 0.000412
0.110903 0.124614 0.004973
0.154920 0.129662 0.010263
0.192999 0.133638 0.015652
0.228911 0.136929 0.020959
0.264887 0.140621 0.025676
0.301772 0.144237 0.030180
0.338521 0.148763 0.034736
0.376111 0.153807 0.039026
0.416809 0.158173 0.041978
0.459201 0.162252 0.046994
0.507111 0.166867 0.054225
0.557503 0.171941 0.060862
0.602981 0.178371 0.067862
0.651157 0.182851 0.069422
0.696453 0.186628 0.072289
0.734058 0.190084 0.075901
0.765855 0.192530 0.079715
0.798867 0.194001 0.083411
0.823380 0.196243 0.087371
0.848073 0.198276 0.089440
0.878544 0.198701 0.089259
0.916448 0.195845 0.088843
0.958943 0.188399 0.090897
0.008215 0.136957 0.000000
0.057290 0.146872 -0.000047
0.111001 0.155884 0.002869
0.156291 0.161849 0.008186
0.195936 0.166481 0.013510
0.232496 0.169974 0.019208
0.268663 0.173266 0.023904
0.306607 0.176592 0.028536
0.344545 0.180799 0.033552
0.382576 0.185202 0.038305
0.420073 0.190111 0.043052
0.463112 0.194430 0.046428
0.511408 0.199389 0.053481
0.561804 0.204107 0.059937
0.610428 0.209190 0.065538
0.650939 0.215452 0.070337
0.695973 0.219598 0.072695
0.735385 0.223164 0.074762
0.768477 0.224642 0.077455
0.803399 0.224570 0.081149
0.830553 0.225498 0.084837
0.852119 0.228189 0.089016
0.882341 0.228017 0.090984
0.927725 0.222353 0.089482
0.965726 0.218598 0.089855
0.010103 0.165671 0.000000
0.058100 0.175593 -0.000103
0.111642 0.185930 0.001237
0.157236 0.192494 0.006365
0.196764 0.196870 0.011472
0.234346 0.200937 0.016477
0.271750 0.204876 0.021972
0.310403 0.208397 0.026861
0.348462 0.211981 0.032201
0.386810 0.216401 0.036956
0.426581 0.219847 0.041752
0.467367 0.225036 0.046615
0.516628 0.229991 0.052239
0.566235 0.234299 0.058337
0.615040 0.239454 0.063915
0.658217 0.244859 0.068131
0.698632 0.249912 0.072775
0.736904 0.252691 0.075789
0.772813 0.253577 0.076252
0.807139 0.253373 0.079792
0.835459 0.253774 0.083600
0.860540 0.255457 0.087797
0.894976 0.253864 0.090242
0.941580 0.247612 0.089525
0.973408 0.246690 0.088781
0.011692 0.194325 0.000000
0.058850 0.204242 0.000005
0.112667 0.215696 -0.000495
0.158065 0.222862 0.003057
0.197972 0.227604 0.008387
0.236058 0.231970 0.013074
0.274679 0.236172 0.019230
0.314467 0.239754 0.025686
0.353237 0.242969 0.031052
0.392100 0.246320 0.036138
0.431885 0.250120 0.040867
0.473494 0.255144 0.045515
0.522065 0.260322 0.050315
0.571358 0.264632 0.056341
0.619607 0.270082 0.062183
0.664629 0.274410 0.066584
0.704759 0.278930 0.070900
0.742312 0.280846 0.074460
0.778491 0.281343 0.075616
0.812265 0.281501 0.079125
0.839696 0.282622 0.082843
0.870187 0.282457 0.087011
0.910452 0.279285 0.089124
0.954412 0.275303 0.087833
0.978554 0.275978 0.087651
0.013482 0.224462 0.000000
0.059925 0.233817 0.000000
0.113565 0.244984 -0.000029
0.159085 0.253218 -0.000037
0.199294 0.259306 0.002204
0.237669 0.264504 0.006563
0.276469 0.269005 0.013129
0.316336 0.272012 0.022710
0.356193 0.275583 0.028822
0.396016 0.279273 0.033437
0.436699 0.282527 0.038084
0.479329 0.286811 0.043707
0.526409 0.291654 0.048622
0.576370 0.296442 0.054397
0.624872 0.301862 0.060076
0.669162 0.305454 0.064719
0.711930 0.308324 0.069038
0.749482 0.310040 0.072433
0.783119 0.310940 0.075403
0.816820 0.311292 0.078358
0.844722 0.313636 0.081704
0.881733 0.310867 0.086144
0.926050 0.306156 0.088241
0.963232 0.305784 0.086313
0.983804 0.306704 0.086765
0.015517 0.254905 0.000000
0.061129 0.264313 0.000000
0.113922 0.275429 0.000000
0.159636 0.284335 -0.000325
0.200280 0.290590 0.001921
0.238966 0.295254 0.006806
0.277892 0.300101 0.011518
0.317942 0.304591 0.016495
0.358482 0.308522 0.025334
0.400128 0.312959 0.031444
0.441229 0.315640 0.036970
0.483381 0.318663 0.042653
0.530856 0.323858 0.047685
0.581311 0.328836 0.052647
0.629834 0.333828 0.057984
0.674102 0.336805 0.062480
0.716222 0.339672 0.066552
0.753740 0.341299 0.069932
0.790634 0.340699 0.073704
0.823031 0.342500 0.077098
0.850701 0.345337 0.080749
0.890834 0.341407 0.085279
0.932644 0.337084 0.091287
0.959569 0.339714 0.095700
0.983241 0.339532 0.090973
0.017716 0.285893 0.000000
0.062438 0.295195 0.000000
0.114875 0.306580 0.000000
0.160894 0.315298 -0.000028
0.201482 0.322340 -0.000417
0.239850 0.327736 0.003738
0.278805 0.332069 0.011994
0.318834 0.337483 0.015520
0.359656 0.342271 0.020685
0.401542 0.346941 0.027616
0.443847 0.350161 0.034948
0.486989 0.353038 0.040788
0.535721 0.357746 0.046015
0.586458 0.362377 0.051193
0.634564 0.366260 0.055496
0.678835 0.369076 0.059800
0.721159 0.371483 0.063904
0.759825 0.372500 0.067805
0.797226 0.372573 0.072504
0.828577 0.375118 0.076508
0.861145 0.375841 0.080541
0.901952 0.371980 0.085462
0.939525 0.369123 0.091263
0.963461 0.371628 0.094770
0.987814 0.371630 0.089834
0.020168 0.318026 0.000000
0.063567 0.326334 0.000000
0.116127 0.337839 0.000000
0.161470 0.347252 0.000000
0.201736 0.354392 -0.000226
0.240172 0.360371 0.000875
0.279105 0.366046 0.006072
0.319590 0.370780 0.014859
0.360722 0.375429 0.019903
0.402199 0.379989 0.023618
0.444540 0.384364 0.029802
0.489368 0.389048 0.037435
0.538789 0.393146 0.043355
0.589895 0.396576 0.048794
0.638260 0.399596 0.053680
0.683409 0.402113 0.057245
0.726632 0.404494 0.061752
0.767643 0.405333 0.066793
0.804010 0.406050 0.071485
0.834549 0.408876 0.075555
0.871846 0.407581 0.079912
0.913383 0.403734 0.085056
0.947148 0.402376 0.090889
0.968765 0.404663 0.093872
0.994582 0.404334 0.086894
0.022408 0.351763 0.000000
0.064788 0.359706 0.000000
0.117724 0.370544 0.000000
0.162853 0.379705 0.000000
0.202964 0.387381 0.000005
0.241297 0.394716 -0.000288
0.280362 0.401547 0.000963
0.321017 0.406235 0.008466
0.361591 0.409226 0.019768
0.403334 0.414137 0.023234
0.446057 0.419138 0.025934
0.491898 0.424375 0.032810
0.542944 0.429185 0.040904
0.594135 0.431963 0.046558
0.642801 0.434393 0.051971
0.688874 0.436564 0.056210
0.733226 0.439576 0.060557
0.775449 0.440385 0.066166
0.811608 0.441479 0.070781
0.840773 0.444633 0.075279
0.881804 0.441554 0.079568
0.923959 0.437811 0.084690
0.955158 0.437241 0.089694
0.975393 0.438879 0.090796
0.999224 0.438682 0.083535
0.024466 0.390865 0.000000
0.066777 0.398486 0.000000
0.118838 0.408907 0.000000
0.164354 0.417971 0.000000
0.204453 0.426012 0.000000
0.242794 0.433411 -0.000043
0.281603 0.440257 -0.000017
0.322324 0.445890 0.002474
0.362968 0.450172 0.011511
0.404677 0.454981 0.019807
0.447502 0.459822 0.024412
0.492710 0.464626 0.028164
0.543579 0.469014 0.034907
0.596764 0.472886 0.043144
0.647254 0.475323 0.049715
0.694059 0.477825 0.055058
0.739389 0.480681 0.060054
0.781648 0.481994 0.064328
0.817257 0.483374 0.068342
0.847740 0.485989 0.072298
0.890781 0.481399 0.075883
0.929219 0.478781 0.079540
0.956777 0.479750 0.082883
0.979150 0.480408 0.084302
0.999118 0.480669 0.081730
0.027940 0.432674 0.000000
0.069149 0.440069 0.000000
0.119659 0.450737 0.000000
0.165558 0.459668 0.000000
0.206074 0.467113 0.000000
0.244391 0.473927 0.000003
0.282928 0.480824 -0.000060
0.323430 0.487899 0.000016
0.364406 0.494100 0.002713
0.406516 0.498293 0.012136
0.448817 0.502839 0.020081
0.493592 0.507357 0.024267
0.544292 0.511380 0.028759
0.598245 0.516075 0.035441
0.650183 0.520478 0.045149
0.697357 0.523542 0.051264
0.742470 0.526151 0.055733
0.783232 0.527593 0.059421
0.818897 0.528081 0.060578
0.850283 0.530223 0.062460
0.891785 0.526892 0.066029
0.928136 0.524948 0.068419
0.953999 0.526970 0.073155
0.974495 0.530952 0.082723
0.992572 0.534348 0.088983
0.031864 0.474325 0.000000
0.072377 0.481690 0.000000
0.122006 0.492178 0.000000
0.167242 0.501119 0.000000
0.207431 0.508325 0.000000
0.245930 0.515100 0.000000
0.285207 0.522359 0.000001
0.326033 0.529579 -0.000048
0.366931 0.536312 0.000076
0.408250 0.542156 0.002892
0.450511 0.545927 0.012712
0.495103 0.548827 0.022421
0.545685 0.552666 0.027253
0.599668 0.557181 0.029530
0.651507 0.561783 0.033306
0.699394 0.565765 0.041436
0.745145 0.569100 0.046234
0.784319 0.570410 0.047781
0.819210 0.570327 0.047747
0.851345 0.572491 0.049748
0.890467 0.571062 0.052996
0.924845 0.570157 0.054721
0.950920 0.573520 0.061548
0.972409 0.580776 0.076670
0.990036 0.586649 0.085124
0.035394 0.512865 0.000000
0.076205 0.519800 0.000000
0.124892 0.530615 0.000000
0.170640 0.539200 0.000000
0.211880 0.546776 0.000000
0.250834 0.554141 0.000000
0.290569 0.561208 0.000000
0.331634 0.568096 0.000000
0.372447 0.574817 -0.000009
0.413651 0.581465 -0.000083
0.455877 0.587627 0.002153
0.500376 0.589582 0.016884
0.551008 0.592727 0.025584
0.603831 0.597191 0.028439
0.654420 0.601425 0.029652
0.700832 0.604997 0.031180
0.745956 0.607774 0.035019
0.784923 0.610120 0.037199
0.818506 0.610145 0.036180
0.850618 0.612519 0.039142
0.886714 0.612640 0.042775
0.919854 0.612646 0.043715
0.946987 0.617671 0.053161
0.969860 0.628096 0.074533
0.989754 0.633808 0.080528
0.042896 0.550002 0.000000
0.082862 0.556993 0.000000
0.131226 0.567790 0.000000
0.177618 0.577613 0.000000
0.219237 0.585072 0.000000
0.258836 0.591760 0.000000
0.298720 0.598790 0.000000
0.340071 0.605869 0.000000
0.381181 0.612944 0.000000
0.422803 0.619733 -0.000019
0.465205 0.626199 0.000013
0.510053 0.631117 0.003282
0.560014 0.633103 0.017527
0.612448 0.637152 0.023899
0.660389 0.640683 0.024395
0.706441 0.644348 0.025663
0.748588 0.648338 0.027805
0.785294 0.652992 0.035208
0.817835 0.657356 0.042372
0.850169 0.661311 0.048012
0.884653 0.663907 0.053994
0.917490 0.665967 0.057674
0.945706 0.669534 0.064840
0.969518 0.674831 0.076603
0.991056 0.678336 0.075962
0.051800 0.583957 0.000000
0.090977 0.590986 0.000000
0.139190 0.601687 0.000000
0.186528 0.611611 0.000000
0.228626 0.619544 0.000000
0.268967 0.626467 0.000000
0.310045 0.633850 0.000000
0.353477 0.642020 0.000000
0.396138 0.649723 0.000000
0.439315 0.657315 -0.000009
0.483827 0.664931 0.000037
0.528876 0.672184 0.001497
0.575966 0.676700 0.013129
0.629022 0.682891 0.029844
0.676549 0.689673 0.036328
0.717210 0.693860 0.039801
0.758454 0.698731 0.045054
0.792846 0.703174 0.052960
0.821933 0.706136 0.059172
0.851869 0.709277 0.064283
0.883833 0.711508 0.067630
0.915082 0.713134 0.069419
0.943392 0.716148 0.074811
0.968983 0.719944 0.081791
0.992687 0.718503 0.072241
0.059901 0.613429 0.000000
0.099089 0.619350 0.000000
0.148509 0.630474 0.000000
0.199139 0.642259 0.000000
0.243601 0.651710 0.000000
0.285690 0.659723 0.000000
0.328219 0.667431 0.000000
0.372504 0.675476 0.000000
0.415806 0.683129 0.000000
0.460134 0.691220 0.000000
0.504209 0.698717 -0.000060
0.549192 0.705961 0.000723
0.596078 0.712602 0.007373
0.649424 0.721076 0.024503
0.697742 0.729004 0.031415
0.723060 0.728393 0.030550
0.769502 0.737703 0.047156
0.809055 0.745415 0.063104
0.834553 0.746362 0.066958
0.859377 0.747936 0.071895
0.886121 0.750124 0.075615
0.914474 0.751894 0.078350
0.942772 0.753733 0.082070
0.969791 0.755261 0.083317
0.994593 0.752950 0.069923
0.067556 0.638706 0.000000
0.112696 0.648422 0.000000
0.165073 0.661136 0.000000
0.216517 0.673230 0.000000
0.262188 0.683164 0.000000
0.305687 0.691720 0.000000
0.349418 0.699742 0.000000
0.395118 0.708484 0.000000
0.440501 0.717629 0.000001
0.485608 0.726461 -0.000034
0.530138 0.734836 0.000193
0.575047 0.743007 0.003544
0.623004 0.751037 0.010408
0.674496 0.759749 0.020319
0.722868 0.767171 0.027283
0.751557 0.767207 0.030267
0.785243 0.770218 0.038473
0.826397 0.778181 0.059921
0.851974 0.778455 0.061962
0.874962 0.779460 0.072213
0.897387 0.781045 0.077516
0.919660 0.782664 0.079773
0.943886 0.784196 0.081725
0.970992 0.785005 0.080342
0.995841 0.783280 0.067047
0.079509 0.665077 0.000000
0.127685 0.676611 0.000000
0.182622 0.690750 0.000000
0.236022 0.703557 0.000000
0.283481 0.713992 0.000000
0.328489 0.723418 0.000000
0.373712 0.732714 0.000000
0.421033 0.742744 0.000000
0.467900 0.753348 -0.000005
0.513046 0.763182 0.000005
0.557044 0.772109 0.000611
0.601128 0.780485 0.005182
0.653691 0.791535 0.016713
0.706720 0.801639 0.026963
0.752624 0.808358 0.035481
0.783222 0.807133 0.034366
0.813553 0.807266 0.035874
0.848134 0.811667 0.047570
0.873518 0.812582 0.049975
0.894393 0.812780 0.061830
0.915398 0.813844 0.067426
0.933769 0.814389 0.072535
0.952209 0.814476 0.078240
0.974591 0.814991 0.077663
0.996522 0.815478 0.063396
0.095177 0.692870 0.000000
0.144980 0.705335 0.000000
0.201914 0.720260 0.000000
0.257635 0.734406 0.000000
0.306879 0.745758 0.000000
0.353495 0.756303 0.000000
0.400043 0.766976 0.000000
0.448506 0.777959 0.000000
0.496061 0.789147 -0.000017
0.542153 0.799327 0.000079
0.585827 0.807914 0.001236
0.629737 0.816031 0.005824
0.684112 0.828170 0.019647
0.732577 0.836164 0.029229
0.773594 0.840461 0.035353
0.804611 0.839347 0.030916
0.835281 0.839723 0.030596
0.865328 0.842159 0.036400
0.890062 0.843578 0.040220
0.911791 0.844287 0.049601
0.933223 0.845523 0.054890
0.952240 0.846043 0.060277
0.967650 0.845866 0.067922
0.981540 0.846276 0.071992
0.998091 0.848209 0.060671
0.115223 0.721921 0.000000
0.167629 0.736107 0.000000
0.226107 0.751732 0.000000
0.283263 0.766882 0.000000
0.333709 0.779471 0.000000
0.381530 0.790948 0.000000
0.428971 0.802043 0.000000
0.477950 0.812858 0.000003
0.527021 0.824625 -0.000057
0.574949 0.834737 0.000076
0.619228 0.842901 0.002688
0.662512 0.850021 0.008139
0.712829 0.859532 0.020036
0.750672 0.861886 0.023259
0.788067 0.863830 0.026006
0.821236 0.865615 0.027032
0.851518 0.866685 0.029948
0.881898 0.869700 0.038947
0.905500 0.870593 0.042388
0.927798 0.872147 0.046470
0.948368 0.873617 0.050361
0.968116 0.874979 0.052615
0.982926 0.875865 0.056886
0.990877 0.876399 0.063243
0.999852 0.878063 0.060896
0.142932 0.753722 0.000000
0.197945 0.769466 0.000000
0.257431 0.786205 0.000000
0.315445 0.801482 0.000000
0.366618 0.814655 0.000000
0.414631 0.826324 0.000000
0.462421 0.836753 0.000000
0.512473 0.847455 -0.000022
0.564506 0.860600 0.000075
0.613467 0.871482 0.001697
0.657359 0.879479 0.007334
0.697804 0.884691 0.014881
0.742075 0.890436 0.024927
0.775673 0.890461 0.024726
0.813358 0.893320 0.031283
0.848607 0.896743 0.040348
0.880715 0.897769 0.048381
0.908060 0.899475 0.052621
0.929074 0.899407 0.052394
0.946396 0.899576 0.050894
0.963927 0.900325 0.052085
0.979119 0.901186 0.054121
0.991125 0.902156 0.055585
0.999190 0.903267 0.056782
1.000022 0.904127 0.058967
0.176185 0.788480 0.000000
0.232319 0.805275 0.000000
0.292343 0.821584 0.000000
0.351452 0.836979 -0.000005
0.403115 0.849687 0.000000
0.450683 0.860253 0.000000
0.497584 0.869872 0.000000
0.549650 0.882378 0.000078
0.602498 0.895919 0.001041
0.651676 0.906518 0.009945
0.691459 0.912384 0.018963
0.730416 0.916770 0.025350
0.771150 0.920934 0.030963
0.804566 0.922809 0.035023
0.839917 0.925364 0.043881
0.871690 0.926796 0.050953
0.898644 0.926186 0.051934
0.920069 0.925802 0.048579
0.937941 0.925170 0.044585
0.957476 0.925870 0.044836
0.975057 0.926273 0.048271
0.988322 0.927066 0.051674
0.996605 0.928280 0.054009
1.000337 0.929569 0.056445
1.000000 0.930814 0.056688
0.002068 0.006242 0.048865
0.051001 0.010535 0.050504
0.097780 0.014922 0.053071
0.140894 0.019611 0.057824
0.177833 0.023300 0.061029
0.213385 0.027055 0.064376
0.250036 0.030876 0.067800
0.288150 0.034790 0.070999
0.327359 0.038576 0.074258
0.365026 0.043200 0.078159
0.403799 0.047784 0.082048
0.445692 0.052970 0.086592
0.494844 0.058358 0.092260
0.548455 0.063736 0.097372
0.598716 0.069285 0.102875
0.644518 0.074523 0.108127
0.687353 0.079675 0.113186
0.723135 0.084451 0.117879
0.754510 0.088358 0.121707
0.788110 0.090884 0.123997
0.817289 0.093106 0.126147
0.844142 0.095422 0.128300
0.870772 0.097877 0.130484
0.897968 0.100358 0.132752
0.925042 0.102733 0.135021
0.008375 0.047211 0.049008
0.051620 0.047543 0.048397
0.095861 0.049638 0.050096
0.135614 0.053681 0.054351
0.171392 0.057659 0.058488
0.207470 0.060770 0.061536
0.244973 0.063589 0.064026
0.282486 0.067511 0.067670
0.320062 0.071004 0.071241
0.357494 0.075446 0.075604
0.396077 0.080292 0.080245
0.438901 0.085274 0.085163
0.487335 0.090626 0.090926
0.541622 0.095640 0.095815
0.590269 0.101652 0.101399
0.633311 0.108525 0.106769
0.674586 0.113821 0.112698
0.710429 0.118393 0.118004
0.741946 0.122338 0.122293
0.780717 0.123390 0.122810
0.811496 0.125430 0.124380
0.842709 0.126787 0.125681
0.874143 0.128004 0.127044
0.902251 0.130054 0.129473
0.931919 0.130835 0.131708
0.010991 0.084137 0.040401
0.055139 0.083986 0.041531
0.102078 0.088610 0.046894
0.142116 0.091015 0.051183
0.178191 0.094633 0.055187
0.212026 0.098818 0.058707
0.246232 0.103329 0.061713
0.284676 0.108103 0.064325
0.323313 0.111605 0.068548
0.361240 0.115556 0.073034
0.400732 0.119733 0.078343
0.443627 0.123860 0.083452
0.492191 0.128849 0.088712
0.541599 0.134425 0.095174
0.591862 0.139596 0.100077
0.635754 0.144664 0.105718
0.678307 0.148711 0.110798
0.714971 0.152160 0.115558
0.747466 0.155044 0.118928
0.779035 0.158220 0.122413
0.807820 0.160718 0.124869
0.841973 0.161350 0.125021
0.879458 0.160197 0.124778
0.913425 0.159082 0.126680
0.941907 0.160359 0.129268
0.012635 0.117534 0.030630
0.056407 0.117811 0.032284
0.107487 0.122879 0.043553
0.147900 0.125579 0.048077
0.183608 0.129068 0.051546
0.218801 0.133012 0.055431
0.253450 0.137556 0.059489
0.289214 0.142979 0.063698
0.327175 0.147546 0.066197
0.366830 0.151515 0.070055
0.406016 0.155384 0.075494
0.447429 0.159993 0.080621
0.496059 0.165624 0.086062
0.546950 0.170473 0.092170
0.594892 0.175754 0.098331
0.639721 0.180408 0.103766
0.682608 0.184566 0.108452
0.720088 0.187917 0.112422
0.752936 0.190717 0.115805
0.786588 0.192959 0.119333
0.813964 0.195311 0.123218
0.846308 0.195465 0.125418
0.884461 0.193631 0.125478
0.921538 0.192265 0.125452
0.951443 0.193517 0.128592
0.014336 0.148030 0.023020
0.057394 0.148022 0.024381
0.108916 0.154119 0.036882
0.151005 0.158732 0.043720
0.188190 0.162459 0.048435
0.224101 0.165313 0.053412
0.260394 0.168391 0.058231
0.297234 0.172748 0.062877
0.331597 0.178348 0.066572
0.370665 0.183826 0.068305
0.411154 0.187648 0.072765
0.452622 0.192041 0.078551
0.499880 0.197390 0.084582
0.550277 0.202736 0.089529
0.599353 0.208137 0.094903
0.644947 0.212914 0.100364
0.687237 0.216897 0.105544
0.724265 0.220252 0.109866
0.758248 0.222579 0.113400
0.793968 0.223423 0.117131
0.822503 0.225412 0.120576
0.855160 0.224558 0.125104
0.892113 0.222696 0.127594
0.927930 0.223214 0.126329
0.961194 0.223298 0.127460
0.015957 0.176591 0.016444
0.058138 0.176944 0.017441
0.110003 0.184072 0.029106
0.153271 0.189324 0.038969
0.191091 0.193062 0.045304
0.227161 0.195858 0.050022
0.263896 0.199514 0.055409
0.301981 0.203437 0.059873
0.339464 0.207531 0.064604
0.374714 0.213305 0.069538
0.415258 0.218321 0.071432
0.457941 0.222696 0.076076
0.504734 0.227781 0.082128
0.554168 0.233598 0.087574
0.603635 0.239185 0.092693
0.649142 0.243572 0.097818
0.692364 0.247024 0.103174
0.729143 0.250286 0.107863
0.763549 0.252152 0.111745
0.800236 0.252234 0.115355
0.831236 0.252857 0.118944
0.865552 0.251748 0.123775
0.903242 0.250390 0.126656
0.938559 0.251010 0.125591
0.969457 0.251368 0.126347
0.017261 0.205395 0.010617
0.058531 0.205673 0.011179
0.110972 0.213450 0.021972
0.155969 0.219387 0.032183
0.194870 0.224139 0.038106
0.231379 0.227781 0.044823
0.267391 0.230138 0.053641
0.305669 0.233925 0.059142
0.344045 0.237104 0.064609
0.382753 0.240812 0.070191
0.419249 0.246509 0.074504
0.462725 0.252450 0.074884
0.510366 0.258084 0.079936
0.559285 0.263983 0.086203
0.607987 0.269585 0.091569
0.653607 0.273677 0.096236
0.697094 0.276923 0.101492
0.734950 0.279662 0.106127
0.769403 0.281261 0.110226
0.806147 0.281159 0.113908
0.845188 0.279854 0.118023
0.878787 0.279600 0.123647
0.911641 0.279797 0.126390
0.948962 0.279840 0.124241
0.974787 0.280758 0.125534
0.019033 0.234999 0.006423
0.059398 0.235937 0.006700
0.111696 0.244530 0.014746
0.157779 0.250535 0.026300
0.197697 0.255049 0.034622
0.234353 0.259798 0.039565
0.271364 0.263642 0.047048
0.309271 0.265821 0.057669
0.347975 0.269541 0.062797
0.387257 0.273289 0.067657
0.426743 0.277619 0.072389
0.466491 0.283772 0.076824
0.515696 0.290542 0.077322
0.565915 0.295346 0.084431
0.613211 0.300763 0.091054
0.658206 0.304685 0.095240
0.701740 0.308121 0.099914
0.740027 0.310776 0.104426
0.776528 0.311849 0.108908
0.811755 0.311511 0.113093
0.867379 0.317535 0.117397
0.898718 0.315607 0.123395
0.919628 0.309901 0.126958
0.958301 0.310888 0.125204
0.980399 0.311748 0.124819
0.020644 0.265491 0.004585
0.060976 0.265922 0.004630
0.112488 0.275019 0.009237
0.157655 0.282610 0.017463
0.197476 0.287787 0.027093
0.234864 0.291973 0.036062
0.272431 0.296334 0.042712
0.311822 0.300618 0.049651
0.350633 0.302609 0.061400
0.390496 0.306131 0.066282
0.430882 0.310091 0.071120
0.473242 0.313529 0.077737
0.520157 0.320911 0.080893
0.571455 0.327325 0.083219
0.619818 0.331825 0.089580
0.663036 0.336161 0.094801
0.706516 0.339796 0.098516
0.744860 0.342451 0.103115
0.784290 0.342364 0.108251
0.819877 0.343820 0.112512
0.862730 0.339821 0.117948
0.898359 0.339530 0.123689
0.928608 0.343093 0.130342
0.960724 0.344859 0.135243
0.982490 0.344175 0.128174
0.022660 0.296496 0.003521
0.062420 0.296862 0.003133
0.113912 0.305611 0.006181
0.159262 0.313375 0.012871
0.199324 0.319228 0.021034
0.237205 0.323919 0.030397
0.274895 0.328515 0.038363
0.314233 0.333480 0.045185
0.353980 0.337675 0.052313
0.392810 0.339574 0.064747
0.434170 0.343956 0.069426
0.477632 0.347187 0.076008
0.525758 0.351894 0.083686
0.576446 0.359577 0.084168
0.625110 0.364507 0.087596
0.670269 0.367748 0.093261
0.712008 0.371756 0.098630
0.752594 0.374250 0.102786
0.792102 0.374506 0.107876
0.829278 0.375113 0.113082
0.871917 0.371893 0.118607
0.907250 0.371873 0.124185
0.936401 0.374907 0.130291
0.965881 0.376476 0.133856
0.988463 0.376115 0.126877
0.025061 0.328179 0.002522
0.064021 0.328740 0.002185
0.114629 0.337601 0.002786
0.160277 0.345315 0.009491
0.200806 0.351779 0.017022
0.238666 0.357108 0.024183
0.277239 0.361616 0.032648
0.317396 0.367040 0.039103
0.357796 0.371356 0.046965
