luts/FUJI_VELVIA.cube
TITLE "Generated for krafta web app"
LUT_3D_SIZE 9
#INPUTGAMMA sRGB
#IMAGEPROFILE sRGB
#OUTPUTGAMMA sRGB
0.000000 0.000000 0.000000
0.117988 0.010517 0.004965
0.303867 0.030802 0.016445
0.480919 0.051005 0.027103
0.648322 0.066552 0.033584
0.784136 0.083819 0.042237
0.902766 0.101654 0.051196
0.997973 0.113864 0.047541
1.000000 0.128330 0.043115
0.000977 0.086182 0.000008
0.099370 0.085122 0.002327
0.294972 0.091277 0.007102
0.478678 0.109866 0.018789
0.641594 0.126024 0.028820
0.783151 0.141079 0.037098
0.907363 0.156255 0.045168
0.997462 0.169002 0.041181
1.000000 0.180258 0.030509
0.000000 0.242325 0.000000
0.035931 0.242215 0.000000
0.239519 0.235524 0.000010
0.441823 0.238126 0.000054
0.610807 0.236673 0.004182
0.765082 0.253078 0.016036
0.904613 0.269285 0.027669
0.992156 0.282861 0.026828
1.000000 0.295066 0.010661
0.000000 0.385093 0.000000
0.002812 0.383885 0.000000
0.180284 0.380316 0.000000
0.379971 0.375248 0.000000
0.551493 0.379722 0.000000
0.738246 0.386721 0.007434
0.885908 0.375814 0.004118
0.991704 0.392965 0.015069
1.000000 0.406645 0.001858
0.000000 0.509471 0.000000
-0.000300 0.509592 0.000000
0.109941 0.512441 0.000000
0.330344 0.506702 0.000000
0.508848 0.504028 0.000000
0.673182 0.506290 0.000000
0.846815 0.512639 0.000877
0.985338 0.498333 0.006239
1.000000 0.509890 0.001205
0.000000 0.624753 0.000000
-0.000001 0.625832 0.000000
0.056415 0.632605 0.000000
0.283825 0.630127 0.000000
0.472668 0.626240 0.000000
0.645342 0.623163 0.000000
0.808643 0.621196 0.001415
0.961578 0.620637 0.023071
1.000000 0.621110 0.003933
0.000000 0.738126 0.000000
0.000000 0.744171 0.000000
0.026096 0.752843 0.000000
0.250159 0.757881 0.000000
0.451257 0.757384 0.000000
0.601448 0.750050 -0.000041
0.749676 0.749497 0.008073
0.924612 0.746595 0.043936
1.000000 0.744531 0.009221
0.000000 0.863216 0.000000
0.000000 0.873105 0.000000
0.024971 0.885761 0.000000
0.230733 0.892037 0.000000
0.410413 0.892980 0.000000
0.559414 0.889642 0.000000
0.725621 0.888032 -0.000051
0.901810 0.886858 0.001805
0.999996 0.887142 0.018528
0.000000 0.972083 0.000000
0.000000 0.978007 0.000000
0.012198 0.986497 0.000000
0.192715 0.986601 0.000000
0.366398 0.985813 0.000000
0.515373 0.986658 0.000000
0.674982 0.988753 0.000000
0.854155 0.991476 0.000000
0.995517 0.993351 0.000000
0.021500 0.018240 0.135024
0.132829 0.026862 0.133008
0.314852 0.044824 0.135732
0.494468 0.063095 0.140128
0.651850 0.079321 0.143550
0.785586 0.093554 0.143735
0.908961 0.112551 0.150461
0.997959 0.121461 0.136408
1.000000 0.135447 0.129383
0.012138 0.091945 0.105588
0.091117 0.081940 0.086585
0.277417 0.092436 0.093005
0.460838 0.112632 0.108545
0.618394 0.130622 0.119950
0.759969 0.147549 0.130445
0.897623 0.157669 0.124241
0.994758 0.171855 0.116175
1.000000 0.186991 0.112157
-0.000022 0.246897 0.032729
0.055885 0.237009 0.022364
0.258217 0.235573 0.049511
0.440086 0.233658 0.075241
0.583697 0.237951 0.067483
0.741182 0.254780 0.087165
0.892256 0.271217 0.094835
0.994030 0.287065 0.095337
1.000000 0.301862 0.082179
0.000000 0.388420 0.001406
0.010121 0.378355 0.000759
0.178876 0.374949 0.000906
0.390825 0.372117 0.017284
0.585537 0.378670 0.055790
0.713945 0.369104 0.059313
0.869149 0.385125 0.083592
0.992089 0.399177 0.074531
1.000000 0.413132 0.058494
0.000000 0.514963 -0.000102
0.000081 0.508225 -0.000067
0.124090 0.505145 -0.000113
0.340190 0.504935 0.001900
0.531941 0.502600 0.024340
0.693988 0.502244 0.039302
0.848511 0.498559 0.064794
0.971073 0.513093 0.076997
1.000000 0.518746 0.049092
0.000000 0.630922 -0.000001
-0.000034 0.625177 0.000000
0.083529 0.625764 -0.000009
0.291997 0.625234 -0.000053
0.484779 0.623455 0.005367
0.648445 0.615216 0.040501
0.803333 0.610624 0.070001
0.960511 0.621688 0.073213
1.000000 0.619762 0.039589
0.000000 0.746976 0.000000
0.000000 0.743257 0.000000
0.034337 0.751575 0.000001
0.267155 0.756409 -0.000066
0.461129 0.757417 0.024802
0.596789 0.752675 0.029991
0.765109 0.748821 0.070675
0.925179 0.745067 0.099474
1.000000 0.741166 0.054176
0.000000 0.872971 0.000000
0.000000 0.874011 0.000000
0.037523 0.888094 0.000000
0.234674 0.892156 -0.000002
0.406994 0.889943 0.000167
0.565862 0.887322 0.002255
0.727040 0.886286 0.012835
0.899177 0.885751 0.039177
0.999996 0.884714 0.077982
0.000000 0.978543 0.000000
0.000000 0.979964 0.000000
0.012346 0.985367 0.000000
0.186738 0.985695 0.000000
0.357684 0.985432 0.000000
0.507179 0.987389 0.000000
0.672631 0.989650 0.000004
0.853423 0.991597 0.000100
0.994784 0.993570 0.019050
0.060030 0.054210 0.379155
0.169318 0.064428 0.379627
0.350775 0.078655 0.374211
0.528346 0.095394 0.373509
0.687161 0.114214 0.378914
0.821112 0.124779 0.369987
0.924699 0.129285 0.345901
0.999203 0.135102 0.325473
1.000000 0.143051 0.307402
0.036862 0.108187 0.311455
0.119597 0.097382 0.288025
0.297710 0.105521 0.289324
0.480795 0.124860 0.303321
0.644046 0.142493 0.314709
0.778069 0.158793 0.317469
0.894547 0.168127 0.307204
0.994381 0.182217 0.296314
1.000000 0.197075 0.289925
0.026831 0.255125 0.272212
0.131694 0.252400 0.248120
0.264249 0.239724 0.249614
0.401859 0.226795 0.218009
0.593161 0.242454 0.246634
0.744331 0.262598 0.265588
0.880878 0.280116 0.265178
0.991706 0.298908 0.263236
1.000000 0.315085 0.249682
-0.000867 0.396629 0.215447
0.062593 0.390958 0.187762
0.252171 0.384478 0.183340
0.481577 0.391582 0.243321
0.554031 0.372125 0.221318
0.720102 0.382941 0.239341
0.862721 0.395840 0.244708
0.987843 0.410727 0.234888
1.000000 0.428533 0.224968
0.000000 0.527089 0.140157
0.025129 0.518813 0.123710
0.204294 0.509596 0.137449
0.381367 0.505536 0.164311
0.534786 0.502140 0.183230
0.686064 0.501132 0.205033
0.832627 0.512467 0.234980
0.967922 0.525856 0.229672
1.000000 0.532849 0.205099
0.000000 0.644509 0.068490
0.002154 0.634729 0.063850
0.098717 0.623154 0.051867
0.309168 0.625625 0.103593
0.513308 0.626479 0.196392
0.638705 0.616937 0.197387
0.795738 0.616331 0.225092
0.958508 0.624896 0.210090
1.000000 0.621666 0.167714
0.000000 0.759399 0.012820
-0.000293 0.754724 0.004033
0.082917 0.755167 0.024423
0.285737 0.756298 0.076712
0.457273 0.756076 0.129231
0.625335 0.750340 0.187552
0.770795 0.744565 0.226274
0.922322 0.744633 0.236348
1.000000 0.734361 0.172255
0.000000 0.888445 -0.000085
-0.000041 0.889309 -0.000122
0.053316 0.888003 0.000380
0.229919 0.887069 0.014379
0.402742 0.885778 0.045623
0.558059 0.884833 0.080891
0.720291 0.884673 0.125486
0.894455 0.883544 0.173053
0.999997 0.879848 0.203301
0.000000 0.987491 0.000000
0.000000 0.986679 0.000000
0.007031 0.984352 0.000000
0.172859 0.985137 0.000000
0.339877 0.986764 -0.000962
0.499539 0.988970 0.003422
0.666189 0.990593 0.046317
0.848025 0.992822 0.099680
0.996481 0.995118 0.135671
0.094309 0.085850 0.610211
0.198788 0.095014 0.608246
0.381513 0.112979 0.607402
0.559487 0.129228 0.605973
0.699475 0.140423 0.592765
0.817638 0.146952 0.571647
0.924415 0.146845 0.540859
0.993420 0.144591 0.502790
1.000000 0.150984 0.481329
0.062670 0.134398 0.549166
0.156435 0.131874 0.531934
0.327569 0.130390 0.507852
0.512713 0.157675 0.530148
0.657749 0.173960 0.531032
0.781257 0.185766 0.520023
0.897874 0.186841 0.499335
0.991298 0.188348 0.472237
1.000000 0.207111 0.468608
0.098136 0.272538 0.480232
0.194672 0.270541 0.474462
0.263503 0.247454 0.426962
0.435910 0.245095 0.416623
0.603248 0.271064 0.445817
0.752515 0.286140 0.456347
0.881080 0.293456 0.446924
0.975428 0.311600 0.437136
1.000000 0.325612 0.434966
0.041284 0.409202 0.440981
0.138841 0.403719 0.406549
0.356096 0.407815 0.436111
0.368949 0.373234 0.379874
0.554013 0.384417 0.397564
0.701922 0.396020 0.406222
0.849321 0.405456 0.409673
0.979751 0.423847 0.407445
1.000000 0.441145 0.396387
0.013530 0.535106 0.388104
0.080145 0.530704 0.363002
0.218824 0.512583 0.339245
0.364643 0.505666 0.341680
0.522492 0.503562 0.360787
0.673578 0.505878 0.377808
0.821615 0.517372 0.387580
0.966745 0.533743 0.391706
1.000000 0.540038 0.362392
-0.000183 0.652299 0.317645
0.032432 0.644529 0.296959
0.189798 0.638629 0.298875
0.348174 0.631197 0.316852
0.490931 0.626635 0.332072
0.634335 0.621068 0.367750
0.786279 0.623631 0.384778
0.957540 0.629086 0.366151
1.000000 0.634218 0.336447
0.000001 0.772729 0.215377
0.018861 0.768843 0.200335
0.163636 0.761462 0.230898
0.320137 0.756309 0.256960
0.484159 0.750582 0.306776
0.632239 0.745782 0.351428
0.765938 0.739945 0.390952
0.925053 0.742012 0.374200
1.000000 0.731354 0.320047
0.000000 0.897141 0.101435
0.002212 0.894585 0.104936
0.101693 0.892066 0.125008
0.226145 0.885034 0.129568
0.391899 0.883741 0.173310
0.552933 0.883062 0.226073
0.714878 0.881975 0.278275
0.891182 0.879375 0.342512
0.999995 0.876201 0.352699
0.000000 0.991139 0.044050
-0.000110 0.990857 0.051302
0.053747 0.990080 0.058767
0.165132 0.986600 0.047076
0.327379 0.988033 0.083056
0.498790 0.989738 0.143960
0.662909 0.991589 0.197904
0.830703 0.993830 0.238807
0.987562 0.994674 0.272332
0.124619 0.115242 0.809852
0.225305 0.123621 0.805622
0.405866 0.140337 0.801987
0.574870 0.158560 0.800990
0.694693 0.158949 0.764858
0.791488 0.151964 0.719858
0.900915 0.152541 0.688663
0.983952 0.154461 0.658829
1.000000 0.158789 0.641108
0.089916 0.155407 0.730147
0.188125 0.163988 0.732241
0.368165 0.177033 0.738490
0.532798 0.191365 0.737144
0.661464 0.194029 0.709557
0.773000 0.193393 0.679385
0.881163 0.194294 0.653300
0.981562 0.200003 0.629157
1.000000 0.214120 0.625537
0.131616 0.290067 0.667889
0.162217 0.280629 0.641166
0.319199 0.279576 0.628173
0.494696 0.296130 0.639361
0.626699 0.295367 0.627233
0.745746 0.298092 0.609815
0.861934 0.303707 0.595795
0.983546 0.318251 0.596712
1.000000 0.330158 0.591019
0.097703 0.419330 0.611178
0.220547 0.423269 0.608752
0.360256 0.411897 0.604367
0.469295 0.405712 0.581740
0.613725 0.408022 0.578173
0.725177 0.409512 0.565740
0.832551 0.421483 0.560370
0.971942 0.435558 0.563257
1.000000 0.445204 0.547888
0.046795 0.545206 0.585506
0.130742 0.533631 0.555769
0.267589 0.522053 0.546218
0.400795 0.513070 0.531588
0.516878 0.506629 0.513983
0.662015 0.513755 0.517156
0.811584 0.525306 0.526630
0.958933 0.540187 0.530508
1.000000 0.553169 0.511998
0.032777 0.664334 0.545799
0.094974 0.657258 0.518603
0.252997 0.645513 0.508895
0.395178 0.637636 0.512090
0.501451 0.626803 0.484248
0.630824 0.622467 0.504809
0.783579 0.624290 0.506167
0.948851 0.635588 0.503626
1.000000 0.647749 0.488432
0.005976 0.782782 0.423319
0.067812 0.775950 0.403110
0.199726 0.766614 0.405723
0.364434 0.755643 0.438522
0.497193 0.747284 0.456651
0.643863 0.742869 0.503491
0.756959 0.737997 0.514575
0.921277 0.737673 0.499809
1.000000 0.739135 0.464985
0.000015 0.902473 0.296333
0.023358 0.901696 0.301820
0.144271 0.897620 0.319928
0.274390 0.890774 0.321208
0.393412 0.882683 0.318156
0.550886 0.880816 0.366875
0.719748 0.879147 0.430689
0.886779 0.875331 0.488854
0.999996 0.872666 0.481069
0.000000 0.994763 0.253310
0.002947 0.995304 0.255764
0.092999 0.994565 0.249571
0.219282 0.992435 0.241977
0.334078 0.990109 0.232992
0.492378 0.990640 0.282056
0.653739 0.992865 0.331580
0.805302 0.993177 0.344137
0.981488 0.994555 0.405784
0.150983 0.140976 0.956353
0.250662 0.151884 0.964322
0.424516 0.168253 0.962407
0.561656 0.167818 0.933284
0.665493 0.161531 0.890914
0.772037 0.159855 0.862870
0.882496 0.161572 0.832274
0.980331 0.161589 0.803142
1.000000 0.164575 0.784530
0.117383 0.181826 0.899983
0.214104 0.190459 0.899643
0.382801 0.202026 0.902794
0.523240 0.202111 0.873149
0.634239 0.199139 0.846614
0.749824 0.202033 0.822200
0.865882 0.205722 0.797774
0.982804 0.209086 0.774820
1.000000 0.219080 0.768812
0.133484 0.303877 0.833335
0.168034 0.297129 0.817197
0.344017 0.303349 0.812997
0.485344 0.304564 0.792960
0.608434 0.305565 0.770526
0.729829 0.311795 0.754048
0.850742 0.317724 0.742913
0.988333 0.322605 0.741372
1.000000 0.333956 0.736412
0.159469 0.437977 0.792958
0.256378 0.431181 0.771895
0.374089 0.424880 0.755989
0.487171 0.419559 0.735912
0.613985 0.417715 0.720571
0.709005 0.426615 0.704685
0.831051 0.430629 0.698767
0.979887 0.439796 0.703533
1.000000 0.451377 0.697699
0.101889 0.553595 0.766906
0.184937 0.543019 0.738241
0.326170 0.532456 0.707540
0.460844 0.524401 0.689159
0.575804 0.519748 0.673303
0.675154 0.527501 0.660990
0.797472 0.538028 0.665722
0.956603 0.546784 0.666091
1.000000 0.560410 0.659676
0.072148 0.672272 0.726805
0.142468 0.664817 0.700298
0.286023 0.648129 0.671239
0.420086 0.635679 0.641428
0.527429 0.627394 0.627206
0.625674 0.622685 0.621086
0.769886 0.637312 0.643288
0.938339 0.642598 0.632262
1.000000 0.659643 0.625248
0.031648 0.788530 0.604704
0.105995 0.779922 0.580359
0.249786 0.765115 0.578080
0.388960 0.756144 0.589324
0.511847 0.747699 0.595520
0.638748 0.740993 0.617704
0.748403 0.736905 0.624274
0.921061 0.738400 0.612449
1.000000 0.750982 0.601950
0.006053 0.908169 0.476272
0.065846 0.907130 0.489389
0.188401 0.903045 0.501813
0.318860 0.896907 0.500071
0.440143 0.887167 0.498119
0.551411 0.877266 0.498063
0.725174 0.876711 0.567238
0.882696 0.872914 0.609646
0.999996 0.869129 0.596500
-0.000075 0.999922 0.438428
0.029314 0.999965 0.443431
0.147513 0.999544 0.442502
0.270633 0.996406 0.427240
0.377915 0.993765 0.411766
0.484025 0.991725 0.405056
0.627796 0.992234 0.423463
0.779662 0.990653 0.439119
0.982856 0.995579 0.535151
0.178419 0.169142 1.000090
0.270739 0.178364 0.999997
0.414380 0.177654 1.000100
0.528998 0.169706 0.995909
0.642596 0.168882 0.994640
0.750683 0.170833 0.986494
0.859370 0.171900 0.975813
0.978700 0.173349 0.961056
1.000000 0.177196 0.942028
0.141882 0.207480 0.998956
0.229791 0.212369 0.999154
0.371278 0.210287 0.995315
0.501325 0.211012 0.982064
0.618912 0.214071 0.972639
0.725590 0.217683 0.965332
0.848891 0.221370 0.954493
0.976693 0.225193 0.940894
1.000000 0.229292 0.926759
0.126158 0.319481 0.974263
0.184534 0.318960 0.966948
0.308872 0.317198 0.963351
0.459583 0.322177 0.952798
0.590366 0.328614 0.941309
0.715028 0.331965 0.930824
0.848446 0.333331 0.920531
0.987009 0.335171 0.907528
1.000000 0.337843 0.896761
0.225169 0.452872 0.936606
0.295447 0.449194 0.941105
0.308814 0.434118 0.916415
0.447302 0.435744 0.902300
0.580090 0.442233 0.897227
0.707944 0.443677 0.895477
0.840112 0.445350 0.881359
0.981094 0.447359 0.865516
1.000000 0.454757 0.860560
0.175209 0.576705 0.943728
0.255457 0.569924 0.921005
0.391012 0.557053 0.899573
0.463231 0.545610 0.870934
0.564638 0.546703 0.856120
0.682186 0.549087 0.843115
0.813254 0.551225 0.830976
0.959398 0.553505 0.821017
1.000000 0.564107 0.822414
0.109856 0.690926 0.939801
0.192618 0.680889 0.904947
0.327002 0.669336 0.878630
0.464231 0.656800 0.846484
0.583019 0.647340 0.815864
0.662643 0.645399 0.797360
0.779923 0.649004 0.785790
0.932924 0.653077 0.783201
1.000000 0.665491 0.784954
0.077257 0.798535 0.826118
0.148086 0.792070 0.816224
0.280204 0.778410 0.809366
0.415732 0.766296 0.795568
0.538828 0.752637 0.777482
0.644838 0.745215 0.766217
0.748242 0.739227 0.749082
0.906944 0.747164 0.752653
1.000000 0.762865 0.748757
0.045365 0.915858 0.685503
0.113646 0.914790 0.696378
0.238656 0.910212 0.701661
0.371478 0.901080 0.695077
0.487668 0.891572 0.687962
0.593537 0.882912 0.682634
0.727260 0.874102 0.705586
0.878227 0.869504 0.745141
0.999997 0.869192 0.719622
0.020755 0.999995 0.647195
0.078166 0.999995 0.647230
0.195133 0.999995 0.636047
0.317830 1.000001 0.619839
0.433076 0.998874 0.611792
0.521506 0.995634 0.578605
0.586651 0.987244 0.504221
0.762453 0.987642 0.556097
0.992655 0.995840 0.692823
0.191896 0.187585 1.000000
0.268301 0.188637 1.000000
0.389971 0.181313 1.000000
0.507695 0.180133 1.000000
0.622532 0.182754 1.000000
0.733867 0.187534 1.000000
0.849128 0.191370 1.000000
0.971545 0.196698 0.999999
1.000000 0.201734 1.000065
0.149215 0.223129 1.000000
0.208223 0.222008 1.000000
0.337678 0.221276 1.000000
0.479397 0.228077 1.000000
0.605271 0.234674 1.000000
0.725833 0.239388 1.000000
0.847461 0.244716 0.999998
0.977553 0.249436 1.000080
1.000000 0.252804 1.000144
0.084855 0.331172 1.000000
0.162538 0.333469 1.000001
0.308139 0.339964 1.000039
0.451792 0.343960 1.000086
0.589453 0.348062 1.000130
0.721207 0.350330 1.000125
0.854853 0.351825 1.000188
0.992774 0.355326 1.000336
1.000000 0.357134 1.000295
0.243467 0.474757 1.000061
0.240991 0.463583 1.000120
0.282234 0.455231 1.000324
0.431675 0.457669 1.000282
0.576458 0.459134 1.000113
0.716656 0.461238 0.999804
0.854335 0.462807 0.999529
0.993773 0.464916 0.999207
1.000000 0.467481 0.998066
0.248086 0.601563 1.000052
0.320879 0.594915 1.000268
0.395674 0.578854 0.999615
0.413732 0.560528 0.997823
0.560411 0.562958 0.997433
0.695723 0.563987 0.997420
0.834789 0.566106 0.996353
0.983042 0.567996 0.994820
1.000000 0.570221 0.989117
0.175541 0.714746 1.000142
0.249130 0.707686 1.000307
0.381966 0.692405 0.999766
0.521111 0.678554 0.996558
0.558646 0.662002 0.979452
0.665240 0.660662 0.976714
0.802837 0.662858 0.973401
0.953583 0.664639 0.965490
1.000000 0.669030 0.957846
0.114900 0.821648 1.000142
0.186903 0.814649 0.999784
0.323024 0.802278 0.999004
0.474043 0.789649 0.990747
0.592703 0.775421 0.971468
0.689291 0.763533 0.947429
0.763095 0.758000 0.930897
0.912202 0.761750 0.920007
1.000000 0.768662 0.917443
0.082475 0.937028 0.957554
0.152420 0.933087 0.956481
0.277313 0.923756 0.944625
0.411928 0.911655 0.927556
0.530045 0.900375 0.910117
0.643091 0.887958 0.895479
0.756376 0.877155 0.886765
0.870348 0.870222 0.873867
0.999994 0.880643 0.871640
0.065779 0.999998 0.858560
0.130319 0.999998 0.853302
0.248307 0.999996 0.839953
0.371284 0.999995 0.822171
0.479233 0.999994 0.806570
0.565111 0.999758 0.767430
0.652409 0.995382 0.726050
0.778469 0.989168 0.728428
0.997266 0.997328 0.847900
0.185988 0.197295 1.000000
0.243607 0.193175 1.000000
0.373348 0.193781 1.000000
0.502480 0.195743 1.000000
0.618128 0.199482 1.000000
0.734652 0.205312 1.000000
0.853948 0.211556 1.000000
0.979964 0.217765 1.000000
1.000000 0.221950 1.000000
0.133535 0.233898 1.000000
0.205123 0.237131 1.000000
0.350891 0.243106 1.000000
0.485838 0.247850 1.000000
0.610497 0.253142 1.000000
0.731760 0.258806 1.000000
0.855897 0.264054 1.000000
0.994497 0.269295 1.000000
1.000000 0.272875 1.000000
0.083083 0.348023 1.000000
0.163963 0.350377 1.000000
0.317225 0.358835 1.000000
0.465737 0.362161 1.000000
0.600319 0.364529 1.000000
0.734128 0.367739 1.000000
0.868613 0.370487 1.000000
0.997672 0.373356 1.000000
1.000000 0.375763 1.000000
0.196184 0.485825 1.000000
0.196483 0.475000 1.000000
0.298426 0.471038 1.000000
0.455259 0.472986 1.000000
0.599884 0.476199 1.000000
0.731891 0.478668 1.000000
0.868620 0.481063 1.000000
0.997729 0.483602 1.000000
1.000000 0.485616 1.000000
0.311842 0.617958 1.000000
0.354795 0.608242 1.000000
0.363975 0.586837 1.000000
0.434774 0.575343 1.000000
0.579941 0.578559 1.000000
0.714874 0.581639 1.000000
0.853140 0.584102 1.000000
0.993112 0.586229 1.000000
1.000000 0.588049 1.000000
0.235696 0.729997 1.000000
0.306629 0.719861 1.000000
0.438803 0.705978 1.000000
0.533191 0.692111 1.000000
0.550874 0.675447 1.000000
0.684537 0.677687 1.000000
0.817862 0.679286 1.000000
0.965300 0.681711 1.000000
1.000000 0.685019 1.000000
0.170747 0.836321 1.000000
0.248232 0.830012 1.000000
0.417817 0.824061 1.000000
0.543990 0.808144 1.000000
0.636421 0.792175 1.000000
0.666778 0.776177 1.000000
0.771306 0.773710 1.000000
0.917925 0.776001 1.000000
1.000000 0.779194 1.000000
0.114083 0.955765 1.000000
0.186168 0.949836 1.000000
0.310711 0.940524 1.000000
0.448041 0.929670 1.000000
0.572489 0.918281 1.000000
0.690283 0.907495 1.000000
0.802090 0.896498 1.000000
0.869862 0.884460 0.999998
0.999996 0.890103 0.999996
0.096743 1.000000 0.999998
0.165678 1.000000 0.999997
0.282460 0.999999 0.999990
0.411480 0.999998 0.999983
0.529535 0.999997 0.999980
0.639499 0.999996 0.999977
0.750790 1.000069 0.999773
0.873244 0.998644 0.998828
0.999985 0.999987 0.999982
