luts/FUJI_ETERNA_Cinema.cube
TITLE "Generated for krafta web app"
LUT_3D_SIZE 25
#INPUTGAMMA sRGB
#IMAGEPROFILE sRGB
#OUTPUTGAMMA sRGB
0.000000 0.000000 0.000000
0.058495 0.009654 0.007329
0.116212 0.020099 0.014932
0.154967 0.027415 0.020061
0.187360 0.033680 0.024368
0.221391 0.039496 0.027969
0.254588 0.045477 0.031849
0.288852 0.051949 0.036051
0.321831 0.058342 0.040017
0.354734 0.065010 0.044241
0.388723 0.071977 0.048960
0.424346 0.078994 0.053372
0.460508 0.086721 0.058174
0.497758 0.094750 0.063284
0.535110 0.102415 0.068091
0.569537 0.109938 0.072786
0.603263 0.117372 0.077460
0.635009 0.124534 0.081812
0.664592 0.131228 0.085761
0.694468 0.137911 0.089767
0.727096 0.144996 0.093934
0.759898 0.152061 0.097808
0.791891 0.159349 0.101902
0.825658 0.167253 0.106513
0.859949 0.173520 0.109486
0.004944 0.051140 0.001580
0.063283 0.058754 0.013352
0.118585 0.066455 0.022157
0.160517 0.072857 0.027752
0.193922 0.077962 0.031966
0.224601 0.083682 0.036181
0.257466 0.089816 0.040180
0.293304 0.096249 0.044074
0.328140 0.102447 0.048211
0.361636 0.108503 0.052836
0.395755 0.114880 0.057428
0.432132 0.122011 0.062396
0.470714 0.129354 0.066763
0.507959 0.136833 0.071950
0.544583 0.144414 0.077045
0.579456 0.151816 0.081604
0.613388 0.158944 0.085984
0.645892 0.165719 0.090135
0.676570 0.172201 0.094162
0.705946 0.178474 0.097991
0.737703 0.185246 0.101974
0.770422 0.192237 0.106007
0.802641 0.199285 0.110057
0.836722 0.206734 0.114122
0.875075 0.209112 0.113958
0.009074 0.099852 0.002027
0.065367 0.107346 0.012989
0.123644 0.113679 0.026479
0.165112 0.118618 0.032804
0.199197 0.122723 0.037148
0.230556 0.126335 0.041267
0.261888 0.133011 0.046903
0.295648 0.140441 0.052054
0.333183 0.147301 0.056197
0.370824 0.154179 0.060772
0.404998 0.160112 0.065608
0.440628 0.166859 0.070751
0.477816 0.176075 0.077662
0.517263 0.183299 0.081461
0.555982 0.190807 0.085575
0.591689 0.197848 0.090332
0.625774 0.204327 0.094992
0.657392 0.210943 0.099799
0.689446 0.217375 0.103183
0.719503 0.223452 0.106606
0.752159 0.229596 0.110200
0.785647 0.235928 0.113868
0.818624 0.240826 0.116686
0.853917 0.245391 0.118854
0.901496 0.241417 0.114395
0.012484 0.138515 0.002566
0.066752 0.145001 0.010863
0.124737 0.152152 0.025448
0.166998 0.156079 0.036559
0.202395 0.160153 0.042390
0.235012 0.163928 0.046884
0.268244 0.168084 0.051181
0.301963 0.173620 0.056364
0.336125 0.180608 0.062391
0.372192 0.187648 0.067531
0.408399 0.193862 0.070727
0.443107 0.199797 0.075712
0.481979 0.208275 0.082072
0.519868 0.218121 0.089605
0.559564 0.225655 0.092530
0.596720 0.232840 0.096334
0.631624 0.239636 0.101179
0.664348 0.246715 0.106396
0.697451 0.253090 0.109923
0.728474 0.259083 0.112953
0.762791 0.264239 0.115499
0.796877 0.269341 0.118738
0.842384 0.279215 0.121152
0.892007 0.272270 0.114669
0.915337 0.270512 0.115307
0.015291 0.168064 0.002929
0.068068 0.174301 0.009533
0.125430 0.182458 0.024604
0.167530 0.186890 0.035784
0.202983 0.189804 0.045263
0.237383 0.193647 0.051173
0.271641 0.197642 0.055538
0.306564 0.202195 0.060198
0.340703 0.207424 0.065384
0.374393 0.212917 0.070489
0.409572 0.219063 0.075350
0.445894 0.224818 0.078961
0.484335 0.232211 0.084688
0.523506 0.241068 0.091581
0.558610 0.250982 0.098704
0.597625 0.258333 0.101620
0.634051 0.265289 0.105012
0.670018 0.272221 0.109674
0.700349 0.279754 0.115291
0.733005 0.285297 0.118017
0.769581 0.290253 0.119193
0.802380 0.296279 0.122448
0.852759 0.296587 0.119417
0.907656 0.296560 0.114723
0.925287 0.293265 0.115949
0.017598 0.195576 0.002708
0.069117 0.201562 0.008469
0.126290 0.209826 0.023741
0.168471 0.214994 0.035168
0.203691 0.217898 0.044928
0.238112 0.220977 0.053240
0.272957 0.224497 0.058884
0.309034 0.228660 0.063258
0.343821 0.233121 0.067752
0.378469 0.238348 0.072969
0.413867 0.244450 0.078351
0.449954 0.249502 0.082077
0.486030 0.254108 0.087024
0.527415 0.263040 0.093697
0.561959 0.272462 0.100764
0.597452 0.280631 0.106150
0.637308 0.288629 0.108309
0.673457 0.295299 0.112921
0.705598 0.300520 0.116795
0.736445 0.305392 0.120075
0.769588 0.311435 0.123522
0.803340 0.320329 0.126850
0.858418 0.313010 0.118051
0.905461 0.310505 0.113693
0.932809 0.314317 0.116657
0.019774 0.223233 0.002323
0.070290 0.228848 0.007811
0.127612 0.237097 0.023282
0.169726 0.242427 0.034962
0.205207 0.246205 0.044010
0.239152 0.249264 0.052580
0.273860 0.252195 0.060689
0.310426 0.255872 0.066962
0.346520 0.260236 0.071526
0.381651 0.264840 0.076191
0.417768 0.270331 0.081080
0.454468 0.275251 0.085383
0.490410 0.279437 0.090173
0.530790 0.286550 0.096121
0.566897 0.294307 0.102083
0.602637 0.301855 0.108105
0.637472 0.310356 0.112431
0.674057 0.317781 0.116017
0.707727 0.321741 0.118577
0.739900 0.325154 0.121134
0.771553 0.331618 0.126151
0.807260 0.339791 0.129695
0.865085 0.330573 0.117387
0.907351 0.328688 0.113765
0.939893 0.335868 0.117553
0.022185 0.253524 0.001953
0.071773 0.258868 0.007380
0.129094 0.266777 0.022703
0.171014 0.272405 0.034620
0.206511 0.276200 0.044141
0.240542 0.279888 0.051875
0.275237 0.283223 0.061275
0.311895 0.286618 0.070086
0.348325 0.290286 0.076044
0.384249 0.294425 0.080492
0.420693 0.298834 0.084615
0.458189 0.304123 0.089360
0.496043 0.309239 0.094367
0.534268 0.314293 0.099481
0.571805 0.320171 0.104741
0.608636 0.325953 0.109531
0.638789 0.333279 0.115720
0.673814 0.341301 0.119340
0.709128 0.344899 0.121336
0.744206 0.347219 0.122614
0.777302 0.353648 0.127396
0.817755 0.357327 0.129287
0.875914 0.350742 0.116589
0.916430 0.353288 0.115085
0.948123 0.359737 0.118820
0.024770 0.284268 0.001706
0.073378 0.289776 0.006989
0.130262 0.297747 0.021503
0.172110 0.303330 0.033761
0.207393 0.307203 0.044683
0.241492 0.310986 0.052774
0.276625 0.314904 0.061091
0.313053 0.318250 0.070763
0.349605 0.321393 0.079230
0.386444 0.325057 0.084619
0.423283 0.329503 0.089186
0.459952 0.333929 0.093741
0.499189 0.339122 0.098663
0.537399 0.343807 0.103382
0.574980 0.348929 0.108501
0.609476 0.353799 0.112906
0.645547 0.358557 0.116833
0.676882 0.365474 0.122533
0.713776 0.367261 0.123432
0.749212 0.370782 0.125006
0.784919 0.377167 0.128806
0.832453 0.376243 0.126860
0.887704 0.372596 0.116677
0.925411 0.377739 0.116674
0.957485 0.384207 0.120827
0.027463 0.315347 0.001639
0.075079 0.320850 0.006793
0.131685 0.328727 0.020552
0.173635 0.334028 0.033097
0.208576 0.338661 0.042003
0.242560 0.343511 0.050444
0.277579 0.347357 0.060155
0.314134 0.350154 0.071317
0.350896 0.353204 0.080987
0.388045 0.356980 0.087677
0.425529 0.360843 0.093665
0.462525 0.364685 0.098150
0.500206 0.368406 0.102403
0.539013 0.372852 0.106593
0.577391 0.377783 0.111162
0.614510 0.383108 0.115904
0.650536 0.388020 0.120257
0.685086 0.393054 0.124557
0.718987 0.392441 0.124733
0.752585 0.396459 0.127401
0.792753 0.401367 0.130256
0.844237 0.397817 0.127451
0.893814 0.396877 0.121614
0.934022 0.402486 0.118801
0.967428 0.408727 0.122175
0.030319 0.347404 0.002098
0.077249 0.352327 0.006735
0.133432 0.360303 0.019661
0.175116 0.366030 0.031612
0.210144 0.370463 0.041660
0.244376 0.375142 0.050331
0.279230 0.380091 0.058613
0.315765 0.383746 0.069128
0.352547 0.386348 0.080636
0.389696 0.389588 0.089754
0.426914 0.393152 0.096102
0.463982 0.396028 0.102155
0.502967 0.400018 0.107379
0.542141 0.404223 0.111533
0.579781 0.408454 0.115556
0.617517 0.413522 0.119469
0.653655 0.417984 0.123104
0.691424 0.421255 0.126049
0.726538 0.422526 0.127768
0.758183 0.426270 0.131322
0.799297 0.427178 0.131995
0.851630 0.421063 0.127394
0.896064 0.422241 0.127033
0.942155 0.427477 0.120900
0.974390 0.434187 0.124365
0.033162 0.380654 0.002355
0.079031 0.385566 0.006375
0.135052 0.393330 0.018800
0.176865 0.398917 0.030542
0.212132 0.403583 0.040574
0.246349 0.408299 0.049251
0.281292 0.413107 0.057898
0.318097 0.418071 0.067259
0.354879 0.421840 0.077817
0.391599 0.424174 0.089302
0.428778 0.427171 0.098798
0.466556 0.430488 0.105017
0.505507 0.433320 0.111612
0.544774 0.436763 0.116452
0.582976 0.440722 0.120266
0.619897 0.445073 0.123479
0.656070 0.449517 0.126875
0.694625 0.452061 0.129433
0.730431 0.454267 0.132049
0.763005 0.458175 0.135656
0.806141 0.455748 0.133906
0.856287 0.447336 0.127916
0.899430 0.447669 0.126681
0.949937 0.453298 0.122177
0.979323 0.460635 0.126628
0.036448 0.416047 0.002875
0.081555 0.420835 0.006394
0.136493 0.429136 0.017302
0.178469 0.434694 0.028731
0.214118 0.439425 0.038769
0.248395 0.443774 0.048101
0.283833 0.448968 0.057153
0.321064 0.454104 0.067555
0.357686 0.458262 0.077825
0.394299 0.461722 0.088257
0.430625 0.463340 0.101101
0.467261 0.465958 0.107062
0.506364 0.468847 0.113526
0.545907 0.471631 0.120336
0.585136 0.475412 0.125765
0.621990 0.479292 0.129489
0.658490 0.484095 0.132705
0.695387 0.487175 0.135568
0.731963 0.489416 0.138392
0.763588 0.492720 0.141433
0.807574 0.487568 0.137580
0.856026 0.480303 0.133326
0.900039 0.482177 0.132463
0.954043 0.483288 0.125198
0.983928 0.488480 0.128730
0.039464 0.452870 0.002840
0.084242 0.457217 0.006430
0.139165 0.465027 0.016713
0.180592 0.471436 0.026607
0.216520 0.476174 0.037106
0.251653 0.481019 0.047269
0.287392 0.486378 0.056359
0.324332 0.490929 0.067133
0.360295 0.494650 0.077571
0.395927 0.498356 0.085894
0.431096 0.500452 0.096727
0.466273 0.501041 0.108518
0.505909 0.504558 0.114948
0.545984 0.507743 0.121788
0.586242 0.511569 0.129363
0.624204 0.515516 0.135391
0.660817 0.519829 0.139309
0.696776 0.523549 0.142667
0.731766 0.526071 0.145608
0.763021 0.529372 0.149023
0.803648 0.525386 0.146502
0.851261 0.520451 0.144513
0.898147 0.522850 0.142803
0.950457 0.524356 0.136633
0.982826 0.528574 0.140207
0.043087 0.489167 0.002979
0.087141 0.493355 0.006360
0.141501 0.501162 0.015544
0.183357 0.507653 0.025408
0.219315 0.512889 0.035393
0.254707 0.517905 0.045657
0.290334 0.522820 0.055433
0.326384 0.527459 0.064842
0.361240 0.531528 0.073622
0.395697 0.534624 0.082658
0.430653 0.536124 0.093700
0.467509 0.537772 0.106008
0.505975 0.540217 0.115015
0.546853 0.543825 0.123727
0.588176 0.548476 0.131620
0.625570 0.552145 0.139465
0.661729 0.555676 0.145668
0.695219 0.559181 0.150090
0.728718 0.561607 0.153308
0.759142 0.564687 0.156854
0.799733 0.563699 0.157230
0.849094 0.562107 0.157614
0.894573 0.564299 0.158001
0.946890 0.566430 0.149764
0.981415 0.569188 0.151560
0.046156 0.523885 0.002609
0.089728 0.527991 0.005734
0.143943 0.535669 0.014275
0.186242 0.542134 0.024397
0.222115 0.547418 0.034192
0.257569 0.552556 0.044548
0.293291 0.557320 0.055012
0.329103 0.561566 0.064708
0.363364 0.565081 0.073291
0.397471 0.568334 0.081685
0.432594 0.571805 0.090400
0.468900 0.574204 0.101906
0.508580 0.574762 0.119316
0.548841 0.578654 0.126845
0.585783 0.581689 0.133731
0.623341 0.585985 0.142207
0.658436 0.589308 0.149877
0.692327 0.592763 0.156845
0.726228 0.596469 0.162367
0.758658 0.600899 0.167241
0.799468 0.602273 0.169222
0.848295 0.602469 0.170570
0.891111 0.604075 0.173495
0.939163 0.606184 0.168037
0.980171 0.607446 0.161323
0.049183 0.557004 0.002118
0.092610 0.561241 0.004871
0.147785 0.569447 0.012478
0.190488 0.576407 0.023344
0.227413 0.582112 0.034074
0.262688 0.586767 0.044661
0.298391 0.591157 0.055446
0.332722 0.594370 0.064902
0.365195 0.596805 0.072959
0.399932 0.600366 0.081730
0.436923 0.604989 0.091154
0.474919 0.609723 0.100912
0.513865 0.612206 0.114002
0.547743 0.610582 0.128898
0.587283 0.615290 0.137037
0.624555 0.619944 0.146973
0.660469 0.624165 0.155405
0.693681 0.627819 0.163175
0.726687 0.631857 0.170853
0.759279 0.636212 0.177482
0.798998 0.638735 0.180733
0.846423 0.639875 0.181659
0.889872 0.640820 0.183600
0.938809 0.643594 0.176894
0.979387 0.644371 0.170664
0.054732 0.589108 0.002123
0.097486 0.593335 0.004289
0.153456 0.602334 0.012637
0.196664 0.609444 0.024113
0.232145 0.614461 0.034380
0.266087 0.618850 0.044260
0.298667 0.621985 0.053690
0.335034 0.625878 0.064830
0.373304 0.630821 0.076195
0.410767 0.635716 0.086035
0.447350 0.640305 0.095701
0.478369 0.642047 0.103722
0.519641 0.646880 0.118362
0.557776 0.648538 0.134163
0.596808 0.652337 0.147182
0.633115 0.656873 0.155680
0.667700 0.661053 0.164000
0.701748 0.665155 0.173304
0.733726 0.669094 0.180970
0.762942 0.671814 0.186327
0.798220 0.673967 0.190091
0.844192 0.675989 0.191979
0.888615 0.676468 0.193322
0.937771 0.679689 0.184519
0.978899 0.679314 0.178660
0.061611 0.619580 0.002205
0.103371 0.624034 0.004287
0.158904 0.633215 0.013670
0.199721 0.638992 0.024206
0.236230 0.643875 0.036041
0.272609 0.649315 0.047208
0.309623 0.654616 0.058514
0.349709 0.660400 0.070988
0.385389 0.664085 0.081045
0.416469 0.666037 0.088735
0.456293 0.672630 0.101023
0.494407 0.678103 0.112468
0.536541 0.684601 0.125817
0.575978 0.688969 0.138243
0.616041 0.692843 0.153047
0.653621 0.697927 0.162392
0.686661 0.701877 0.174560
0.718632 0.705366 0.187246
0.750986 0.709390 0.198062
0.776253 0.709477 0.199331
0.803174 0.708544 0.198311
0.842165 0.709458 0.200573
0.887009 0.709974 0.201547
0.936678 0.713282 0.191351
0.978256 0.712176 0.186258
0.067776 0.648211 0.003193
0.110119 0.652358 0.005603
0.164829 0.661239 0.014745
0.209630 0.668842 0.028024
0.247852 0.674368 0.040991
0.287006 0.680858 0.054005
0.327459 0.687757 0.067285
0.364749 0.692360 0.079004
0.397501 0.694898 0.088374
0.432314 0.698980 0.098252
0.471429 0.705463 0.110540
0.511349 0.711960 0.122673
0.554862 0.719434 0.135968
0.598066 0.726342 0.148347
0.639890 0.731868 0.161593
0.676660 0.736406 0.170011
0.708450 0.739420 0.179302
0.737094 0.741149 0.190650
0.767580 0.743791 0.199081
0.791243 0.742587 0.204592
0.814566 0.740406 0.207341
0.846642 0.740260 0.208219
0.885569 0.740498 0.208939
0.935069 0.743645 0.197058
0.977307 0.742080 0.193437
0.073123 0.679391 0.004202
0.119478 0.685113 0.006788
0.177870 0.696075 0.019101
0.229580 0.706982 0.036756
0.270368 0.713983 0.050842
0.304971 0.717857 0.063371
0.345385 0.724629 0.077614
0.382178 0.729390 0.089657
0.416852 0.733491 0.100440
0.458906 0.741380 0.113630
0.497124 0.747388 0.125175
0.538044 0.754283 0.139176
0.584181 0.762939 0.154563
0.630621 0.771269 0.168393
0.669120 0.775887 0.176063
0.700497 0.777444 0.179315
0.730393 0.778947 0.182615
0.757994 0.779623 0.189476
0.785077 0.780341 0.192815
0.808114 0.778968 0.202732
0.832520 0.777551 0.210843
0.861157 0.777247 0.210548
0.892267 0.777013 0.210684
0.933401 0.778596 0.203461
0.976100 0.777093 0.201781
0.082855 0.713071 0.004548
0.134712 0.722780 0.008514
0.202868 0.739290 0.029784
0.244078 0.745168 0.044261
0.289223 0.754717 0.060513
0.324710 0.759272 0.074237
0.366990 0.767067 0.089960
0.410823 0.775811 0.105038
0.450516 0.782932 0.117691
0.491917 0.790750 0.130511
0.535631 0.799435 0.144508
0.582679 0.809129 0.162823
0.625728 0.816429 0.175500
0.665692 0.821776 0.185078
0.696068 0.822416 0.187013
0.721211 0.821105 0.185532
0.749096 0.821789 0.189043
0.778164 0.822996 0.194148
0.802898 0.822807 0.196061
0.826344 0.822019 0.200840
0.853454 0.821944 0.205977
0.882908 0.821938 0.208124
0.910998 0.821352 0.209357
0.938052 0.820544 0.211742
0.973954 0.819555 0.212345
0.102431 0.751462 0.005113
0.161319 0.764755 0.018500
0.215789 0.774064 0.037660
0.263418 0.783687 0.054262
0.307698 0.793168 0.070318
0.351878 0.802681 0.086858
0.399665 0.813836 0.104935
0.447315 0.824651 0.122162
0.492766 0.834500 0.137914
0.538060 0.843954 0.152705
0.578826 0.850967 0.163827
0.620426 0.857970 0.177068
0.657071 0.861983 0.183476
0.690720 0.864423 0.188881
0.722690 0.866866 0.194929
0.749159 0.867057 0.197528
0.776870 0.867875 0.202303
0.803173 0.867657 0.207612
0.824892 0.866629 0.208417
0.847298 0.866419 0.209452
0.873421 0.866939 0.211662
0.901555 0.866947 0.214916
0.928143 0.866332 0.218424
0.953452 0.865930 0.220556
0.978951 0.865807 0.223158
0.131563 0.795968 0.013353
0.170828 0.798925 0.025888
0.246987 0.817872 0.054938
0.302879 0.831574 0.074516
0.351011 0.843199 0.090099
0.392764 0.851824 0.106780
0.443466 0.864360 0.128044
0.496193 0.877595 0.148153
0.541069 0.887207 0.162940
0.580737 0.893810 0.174052
0.617217 0.898351 0.181452
0.654118 0.903431 0.191026
0.690934 0.908259 0.200869
0.723855 0.910687 0.207900
0.753563 0.911995 0.213313
0.776306 0.910614 0.213370
0.799439 0.909910 0.214061
0.821999 0.908949 0.215171
0.843015 0.908005 0.215102
0.865270 0.908024 0.215875
0.890905 0.908475 0.217586
0.918577 0.908308 0.220620
0.945426 0.908005 0.224208
0.971848 0.908091 0.226738
0.989839 0.908041 0.229098
0.144490 0.830926 0.023005
0.217474 0.849802 0.050557
0.298642 0.871303 0.082339
0.346307 0.880784 0.100188
0.396071 0.893398 0.118113
0.447929 0.906834 0.138772
0.495085 0.917923 0.156999
0.539745 0.927641 0.172830
0.581095 0.935780 0.185236
0.617135 0.940970 0.194699
0.647491 0.943205 0.200078
0.682980 0.948210 0.210182
0.718586 0.952540 0.219868
0.742655 0.950711 0.220012
0.766313 0.949495 0.220409
0.788799 0.949062 0.218804
0.810799 0.948168 0.218482
0.833900 0.947376 0.220550
0.857468 0.947445 0.222243
0.880699 0.947653 0.223678
0.906068 0.947811 0.225749
0.934286 0.947880 0.228067
0.961946 0.947802 0.231026
0.985013 0.947816 0.234721
0.999898 0.948341 0.234816
0.022922 0.017811 0.061573
0.070249 0.022525 0.063304
0.119686 0.029075 0.067152
0.160571 0.036169 0.071971
0.193378 0.042121 0.075226
0.225444 0.047772 0.078207
0.258403 0.053697 0.081511
0.292365 0.060005 0.085102
0.325437 0.066229 0.088492
0.358648 0.072528 0.091866
0.392635 0.079131 0.095595
0.428351 0.085941 0.099137
0.463942 0.092931 0.102949
0.502726 0.100497 0.107500
0.539083 0.108090 0.111944
0.572271 0.115179 0.115822
0.605317 0.122177 0.119712
0.637783 0.129142 0.123713
0.668377 0.135624 0.127359
0.698858 0.142232 0.131204
0.731452 0.149155 0.135014
0.763258 0.155657 0.138136
0.795735 0.162951 0.141956
0.830339 0.170752 0.146348
0.861534 0.178353 0.150061
0.022987 0.064917 0.064712
0.066427 0.063141 0.061943
0.117363 0.068352 0.068234
0.158677 0.074646 0.073490
0.193009 0.080529 0.077519
0.227111 0.086291 0.080994
0.259915 0.092064 0.084571
0.294005 0.098543 0.088985
0.328327 0.104788 0.093065
0.362398 0.110432 0.096348
0.397152 0.116888 0.100637
0.433849 0.123790 0.105044
0.471101 0.130948 0.109420
0.508635 0.138658 0.114102
0.544208 0.146135 0.119005
0.577854 0.153389 0.123615
0.616199 0.159421 0.126356
0.650786 0.166245 0.130092
0.681261 0.172697 0.133883
0.709888 0.178998 0.137611
0.740691 0.185955 0.141804
0.775392 0.192474 0.144814
0.810664 0.198955 0.147248
0.845090 0.205665 0.150292
0.877178 0.212100 0.152916
0.026986 0.114170 0.066025
0.069367 0.110398 0.063160
0.125118 0.115702 0.071639
0.163437 0.118770 0.076596
0.194336 0.121408 0.080317
0.224607 0.126425 0.084758
0.259513 0.132681 0.088650
0.296046 0.138968 0.092584
0.331603 0.145632 0.097574
0.368700 0.153153 0.102908
0.404718 0.159514 0.106740
0.440019 0.166448 0.111657
0.479685 0.175050 0.117410
0.517226 0.182236 0.122234
0.554092 0.189253 0.126470
0.588603 0.195997 0.131096
0.622662 0.203186 0.135997
0.656909 0.210126 0.140014
0.689736 0.216266 0.142580
0.719192 0.222192 0.145946
0.750787 0.228662 0.150260
0.789897 0.233170 0.151314
0.829400 0.236445 0.150966
0.863657 0.241410 0.153032
0.892779 0.247839 0.155710
0.029815 0.152370 0.064908
0.071851 0.148714 0.061753
0.127666 0.153992 0.071671
0.169496 0.157269 0.079471
0.203425 0.160339 0.084133
0.234801 0.162807 0.088053
0.263146 0.166284 0.092335
0.296250 0.171645 0.096391
0.331764 0.177359 0.100009
0.366610 0.183381 0.104951
0.404834 0.191725 0.111322
0.442600 0.198928 0.115376
0.484514 0.207880 0.121685
0.525173 0.215782 0.127020
0.561610 0.222613 0.131508
0.596913 0.229488 0.136245
0.631207 0.236305 0.140724
0.663715 0.243594 0.145359
0.695223 0.249970 0.148687
0.725762 0.256091 0.152014
0.762605 0.260202 0.153876
0.804765 0.262896 0.152868
0.842627 0.264733 0.151717
0.874671 0.270296 0.154413
0.904844 0.277544 0.157968
0.032014 0.182194 0.064038
0.073197 0.178367 0.059858
0.129186 0.183044 0.070854
0.171140 0.187289 0.078608
0.205933 0.189815 0.085993
0.240112 0.193310 0.090836
0.273279 0.196577 0.095593
0.306238 0.201084 0.101043
0.337170 0.205256 0.104890
0.369247 0.209477 0.107464
0.404983 0.215674 0.112855
0.439708 0.222945 0.118688
0.484132 0.232295 0.123784
0.525094 0.240206 0.129229
0.565712 0.248033 0.134801
0.600713 0.254826 0.139585
0.635467 0.261715 0.143892
0.670210 0.268731 0.147929
0.701104 0.275801 0.152488
0.731342 0.281578 0.156424
0.767265 0.284937 0.158049
0.814603 0.285669 0.154828
0.853404 0.287670 0.152565
0.884785 0.293629 0.154904
0.913425 0.299732 0.158160
0.033742 0.209536 0.063006
0.074306 0.205921 0.057785
0.130112 0.210121 0.069609
0.172434 0.214265 0.079024
0.207781 0.217725 0.085591
0.241588 0.220483 0.092710
0.276604 0.223922 0.098327
0.311547 0.227661 0.103382
0.344771 0.231928 0.108500
0.377926 0.236789 0.112709
0.410942 0.241320 0.115923
0.445327 0.246734 0.121325
0.478644 0.253686 0.126514
0.524651 0.263303 0.131612
0.564784 0.270375 0.136800
0.603102 0.277348 0.141739
0.638363 0.284547 0.146728
0.674489 0.291928 0.151254
0.705235 0.298145 0.155420
0.738331 0.302286 0.157735
0.775829 0.305128 0.159150
0.818530 0.306061 0.157907
0.858951 0.308922 0.154193
0.891601 0.314903 0.155648
0.921290 0.321519 0.159218
0.035628 0.237055 0.061922
0.075566 0.233641 0.056324
0.130720 0.238203 0.067896
0.173317 0.242099 0.079211
0.208981 0.245563 0.086531
0.242962 0.248643 0.093581
0.277522 0.251580 0.100536
0.313757 0.254910 0.106239
0.349258 0.258605 0.111175
0.383955 0.263263 0.116464
0.417812 0.267969 0.120118
0.453651 0.273274 0.124267
0.484774 0.278073 0.129668
0.523625 0.286687 0.135247
0.563307 0.293730 0.138858
0.601468 0.300084 0.143610
0.639026 0.306887 0.148647
0.675025 0.314616 0.154075
0.707256 0.321236 0.158435
0.744454 0.323235 0.159025
0.784855 0.324142 0.159107
0.825170 0.326261 0.159100
0.865727 0.330424 0.155251
0.899282 0.336943 0.156808
0.929963 0.343791 0.160688
0.037825 0.267035 0.061065
0.077099 0.264034 0.055191
0.131494 0.268487 0.065838
0.174233 0.272601 0.078088
0.209988 0.275911 0.087458
0.244214 0.279562 0.093610
0.278798 0.282717 0.101714
0.314822 0.285491 0.109469
0.350720 0.288447 0.114688
0.386344 0.291820 0.119365
0.421795 0.296103 0.124333
0.459181 0.302073 0.128206
0.496900 0.307183 0.132854
0.528501 0.313013 0.138994
0.565648 0.320723 0.142983
0.599976 0.325998 0.146132
0.638515 0.331995 0.150764
0.673730 0.338953 0.156211
0.709150 0.345555 0.160763
0.750071 0.347332 0.160649
0.794233 0.346291 0.159160
0.835298 0.348221 0.158802
0.874965 0.354241 0.155987
0.908713 0.361267 0.158367
0.939937 0.368123 0.162401
0.040017 0.297898 0.060566
0.078786 0.294788 0.053982
0.132614 0.299355 0.063854
0.175527 0.303303 0.075950
0.211006 0.306946 0.086003
0.245182 0.311248 0.093331
0.280324 0.314803 0.100935
0.316469 0.317576 0.110382
0.352196 0.320252 0.118664
0.387811 0.322897 0.123443
0.422995 0.325304 0.127842
0.459273 0.329252 0.132491
0.500072 0.336044 0.136087
0.539394 0.341419 0.141025
0.572464 0.348484 0.148013
0.604821 0.354250 0.150395
0.640362 0.359778 0.154222
0.675286 0.365150 0.158466
0.711817 0.368887 0.161806
0.754776 0.371964 0.161755
0.801731 0.370756 0.159946
0.844304 0.371572 0.159941
0.883033 0.379161 0.158474
0.917878 0.385856 0.160108
0.949990 0.392391 0.163279
0.042292 0.328961 0.059724
0.080778 0.325729 0.053028
0.133490 0.330680 0.062136
0.176522 0.334649 0.074536
0.212580 0.338278 0.085211
0.247214 0.342492 0.092841
0.282190 0.346719 0.099543
0.318835 0.350094 0.108305
0.354872 0.352595 0.118600
0.389983 0.354959 0.126958
0.425843 0.357452 0.131746
0.461977 0.359728 0.136116
0.498648 0.362446 0.140494
0.539816 0.369657 0.143517
0.577810 0.374530 0.148660
0.613081 0.382749 0.156246
0.647517 0.389182 0.158353
0.682505 0.394151 0.162229
0.714040 0.395489 0.164201
0.754971 0.394505 0.163174
0.804602 0.393263 0.161124
0.849631 0.397056 0.164038
0.888796 0.404300 0.164473
0.927203 0.410682 0.162263
0.959925 0.417281 0.166632
0.044987 0.360435 0.058495
0.082491 0.357770 0.051770
0.135120 0.362204 0.060926
0.177029 0.367477 0.072177
0.213439 0.371526 0.082360
0.248991 0.375124 0.092861
0.284698 0.379216 0.101221
0.321258 0.383288 0.108907
0.357222 0.386295 0.117686
