luts/FUJI_PRO_NEG_Hi.cube
TITLE "Generated for krafta web app"
LUT_3D_SIZE 9
#INPUTGAMMA sRGB
#IMAGEPROFILE sRGB
#OUTPUTGAMMA sRGB
0.000000 0.000000 0.000000
0.095638 0.017553 0.019712
0.237675 0.047056 0.051468
0.370110 0.076176 0.081841
0.502744 0.101699 0.108021
0.619778 0.128253 0.134801
0.739263 0.158509 0.161770
0.845506 0.171401 0.177275
0.937771 0.188905 0.194213
0.005450 0.083468 0.000802
0.101799 0.090571 0.007159
0.245210 0.111546 0.041671
0.384143 0.139043 0.075801
0.514997 0.165932 0.105818
0.637946 0.191609 0.133927
0.753515 0.214047 0.159691
0.860286 0.225761 0.181516
0.957380 0.241145 0.191699
0.010850 0.205855 0.000000
0.102850 0.213081 0.000220
0.256612 0.222707 0.025637
0.392571 0.239215 0.057772
0.517604 0.257707 0.085085
0.647287 0.283719 0.115179
0.773702 0.306541 0.145731
0.884716 0.315855 0.176425
0.981402 0.332619 0.181021
0.013404 0.327684 0.000000
0.104411 0.333471 -0.000016
0.260274 0.344002 0.012916
0.401833 0.352388 0.039251
0.530958 0.367776 0.067851
0.657485 0.384763 0.098559
0.774682 0.396326 0.123538
0.912440 0.408039 0.167558
0.999079 0.427400 0.174552
0.018585 0.446666 0.000000
0.105328 0.452008 0.000000
0.260360 0.465319 -0.000096
0.402788 0.470367 0.025920
0.535801 0.479037 0.046627
0.669424 0.493023 0.082661
0.795800 0.505178 0.115631
0.926919 0.506073 0.156998
0.999990 0.521703 0.168615
0.022039 0.562667 0.000000
0.104708 0.566891 0.000000
0.246728 0.576936 0.000000
0.378571 0.580659 0.010206
0.519735 0.587857 0.036464
0.664543 0.595223 0.050691
0.793398 0.604293 0.077164
0.917938 0.618755 0.117764
0.999996 0.629487 0.142206
0.023636 0.669025 0.000000
0.091328 0.669562 0.000000
0.185270 0.671390 0.000000
0.278648 0.669919 -0.000003
0.407285 0.673665 0.004736
0.558755 0.691468 0.032461
0.754084 0.716991 0.054807
0.909988 0.730586 0.085135
0.999994 0.739577 0.104473
0.025683 0.757297 0.000000
0.066103 0.758977 0.000000
0.112424 0.749005 0.000000
0.227916 0.758176 0.000000
0.394049 0.783032 0.000000
0.515244 0.795873 -0.000002
0.636687 0.806508 -0.000265
0.824627 0.823389 0.018458
0.994227 0.842936 0.064118
0.016104 0.831675 0.000000
0.021834 0.827978 0.000000
0.087257 0.835330 0.000000
0.271092 0.863801 0.000000
0.470720 0.898805 0.000000
0.530257 0.902048 0.000000
0.550036 0.895446 0.000000
0.570044 0.886596 0.000000
0.797943 0.912011 0.000003
0.022328 0.026940 0.105984
0.112970 0.042809 0.121778
0.252050 0.069474 0.147588
0.389535 0.096296 0.175386
0.510480 0.119720 0.196432
0.626852 0.146170 0.220678
0.746416 0.169215 0.243431
0.846490 0.182441 0.252361
0.932293 0.199066 0.261218
0.028692 0.099610 0.101365
0.093648 0.093099 0.092044
0.230672 0.109798 0.118382
0.372481 0.139849 0.154282
0.502569 0.167997 0.186016
0.632650 0.193432 0.212285
0.744593 0.212530 0.232254
0.838347 0.231526 0.248061
0.941968 0.250012 0.255005
0.027483 0.220298 0.078663
0.104160 0.213013 0.075505
0.245680 0.223552 0.108556
0.374982 0.231328 0.138335
0.496565 0.248996 0.159396
0.636477 0.278160 0.193008
0.773398 0.301603 0.222314
0.879947 0.323777 0.242271
0.975113 0.342311 0.246151
0.030213 0.340433 0.055890
0.107102 0.333564 0.053085
0.249044 0.340398 0.083961
0.386816 0.350802 0.116718
0.529210 0.365561 0.156539
0.649703 0.375937 0.183043
0.790347 0.396882 0.219923
0.902083 0.422133 0.230933
0.993842 0.437812 0.239552
0.033741 0.459512 0.035195
0.106243 0.454413 0.029648
0.250980 0.459630 0.058121
0.397844 0.470661 0.092693
0.535933 0.478951 0.138081
0.665857 0.490536 0.172386
0.793240 0.497105 0.204922
0.920232 0.514223 0.219431
1.000008 0.533877 0.235311
0.036603 0.575483 0.016811
0.107395 0.569815 0.015373
0.247278 0.572069 0.043538
0.377555 0.579817 0.071625
0.517102 0.586713 0.100608
0.657787 0.591015 0.132431
0.783497 0.596312 0.157246
0.917465 0.622410 0.187085
0.999996 0.632993 0.222571
0.040835 0.679715 0.004957
0.107173 0.674381 0.003915
0.191940 0.674391 0.008237
0.280293 0.672138 0.010638
0.437398 0.689489 0.047610
0.560444 0.698959 0.060047
0.752999 0.720147 0.111084
0.908894 0.733523 0.156089
0.999993 0.741520 0.182896
0.046254 0.766499 -0.000006
0.086379 0.761919 0.000151
0.144765 0.758592 -0.000064
0.280239 0.776012 0.000256
0.440875 0.797540 0.002265
0.566902 0.808969 0.012475
0.656108 0.812799 0.033888
0.824383 0.825715 0.075611
0.996655 0.844876 0.140394
0.023822 0.840031 0.000000
0.031118 0.836562 0.000000
0.150178 0.854438 0.000000
0.336069 0.885982 -0.000371
0.487673 0.910215 -0.000429
0.530832 0.908863 0.001140
0.536924 0.898314 -0.000274
0.557462 0.889262 -0.000091
0.802527 0.917304 0.015792
0.055575 0.069898 0.266023
0.143898 0.086301 0.281763
0.281370 0.110303 0.302299
0.418653 0.139564 0.332122
0.544185 0.163834 0.354650
0.655905 0.183640 0.369957
0.755163 0.193632 0.372380
0.851487 0.203980 0.372807
0.935074 0.215149 0.371182
0.054977 0.123977 0.231060
0.115959 0.116785 0.216651
0.244892 0.128845 0.232883
0.389165 0.160577 0.275472
0.520557 0.187620 0.306441
0.636917 0.211738 0.333890
0.745827 0.229458 0.349549
0.849186 0.247743 0.359752
0.936700 0.266495 0.365295
0.074107 0.243483 0.241201
0.149224 0.240657 0.228425
0.238471 0.231369 0.226912
0.347896 0.230988 0.233398
0.509939 0.261295 0.271438
0.645591 0.293057 0.313943
0.755546 0.316246 0.334896
0.860972 0.339615 0.354174
0.950351 0.358252 0.356511
0.066991 0.361418 0.225576
0.145267 0.357722 0.214137
0.246045 0.347899 0.208747
0.387470 0.359936 0.245815
0.511567 0.367677 0.273557
0.655475 0.391048 0.305355
0.775541 0.414227 0.334278
0.892156 0.437566 0.345050
0.982193 0.456117 0.350998
0.063721 0.481927 0.202713
0.141056 0.475834 0.193045
0.256039 0.462947 0.192638
0.394109 0.472559 0.228012
0.527598 0.483978 0.261654
0.656325 0.495347 0.293401
0.784187 0.510387 0.315132
0.906281 0.538842 0.325751
0.996160 0.551156 0.349395
0.068899 0.595733 0.175216
0.144045 0.587089 0.167259
0.256135 0.580142 0.159151
0.375737 0.584995 0.181079
0.517744 0.595204 0.223184
0.650471 0.599995 0.254918
0.778107 0.613469 0.278596
0.912624 0.633515 0.309228
0.999993 0.636039 0.344258
0.079776 0.692927 0.127599
0.146617 0.687664 0.110998
0.233507 0.687765 0.100310
0.349182 0.694563 0.116244
0.484929 0.707880 0.157228
0.612726 0.714786 0.186976
0.764983 0.726447 0.244095
0.903141 0.740844 0.277805
0.999994 0.742531 0.302659
0.080803 0.778733 0.062558
0.112809 0.774603 0.045945
0.217486 0.784133 0.045263
0.365339 0.802961 0.072851
0.504424 0.817732 0.118271
0.604802 0.823890 0.143804
0.664932 0.819462 0.145556
0.826048 0.830261 0.194856
0.999452 0.849315 0.256025
0.037483 0.856764 0.001966
0.098704 0.863790 -0.000522
0.249735 0.889274 0.024566
0.414068 0.916593 0.087522
0.493312 0.922782 0.089263
0.517125 0.915068 0.065113
0.525988 0.903963 0.041847
0.561391 0.896948 0.033622
0.810426 0.925192 0.105258
0.088158 0.113877 0.435944
0.175669 0.133499 0.455774
0.314174 0.159272 0.479308
0.445202 0.183207 0.498229
0.561544 0.203322 0.513937
0.667146 0.217437 0.519489
0.763520 0.220910 0.507904
0.846721 0.222834 0.494040
0.930718 0.231899 0.492114
0.078199 0.160013 0.395429
0.149263 0.159928 0.389492
0.278489 0.171714 0.398817
0.420660 0.206495 0.440731
0.544018 0.231842 0.469899
0.655097 0.251439 0.485487
0.757147 0.258831 0.485090
0.850986 0.264931 0.480404
0.937491 0.285542 0.490453
0.124102 0.272519 0.393184
0.193033 0.271997 0.390835
0.258377 0.254249 0.358600
0.385209 0.262078 0.370346
0.528232 0.300470 0.426496
0.658146 0.327663 0.463049
0.762574 0.340143 0.469938
0.858470 0.357810 0.478829
0.945748 0.378064 0.489843
0.122711 0.390674 0.399029
0.201942 0.387237 0.381476
0.295163 0.378636 0.375889
0.375102 0.367598 0.373067
0.513427 0.387490 0.401569
0.640415 0.411197 0.435965
0.760897 0.430971 0.460202
0.868495 0.451892 0.472225
0.952782 0.475044 0.484144
0.116079 0.504205 0.383686
0.189866 0.502498 0.371114
0.298308 0.488899 0.358339
0.384560 0.481964 0.359029
0.515283 0.492949 0.390772
0.644368 0.507021 0.421870
0.771681 0.533251 0.434819
0.889905 0.552585 0.459894
0.985355 0.563796 0.478957
0.115026 0.614352 0.356886
0.183139 0.606238 0.342445
0.305795 0.604858 0.338633
0.405409 0.604642 0.349989
0.523856 0.610556 0.374494
0.644074 0.612878 0.392401
0.770068 0.630057 0.415064
0.903724 0.641694 0.456770
1.000091 0.652166 0.470409
0.125647 0.710865 0.294215
0.195819 0.707208 0.281244
0.298748 0.709224 0.280735
0.422004 0.717928 0.309198
0.537326 0.722983 0.331332
0.658963 0.729534 0.362476
0.775046 0.734308 0.399661
0.899485 0.745865 0.419215
0.999994 0.746028 0.450589
0.130195 0.794330 0.209416
0.168582 0.794074 0.192328
0.302799 0.812646 0.227837
0.433013 0.827274 0.270248
0.547125 0.835302 0.300869
0.615813 0.832091 0.297128
0.676280 0.827879 0.287669
0.845946 0.839595 0.355491
1.001141 0.856544 0.407129
0.112018 0.885947 0.137793
0.189305 0.898856 0.163942
0.338519 0.924891 0.230006
0.439998 0.936010 0.254500
0.487796 0.932150 0.236161
0.511447 0.922990 0.201179
0.539965 0.914917 0.172614
0.583022 0.909221 0.155019
0.831410 0.936917 0.250289
0.119975 0.157742 0.596023
0.202963 0.174484 0.610234
0.341304 0.202229 0.635848
0.469779 0.227172 0.655895
0.570924 0.232315 0.645207
0.662330 0.230632 0.624641
0.755586 0.235526 0.615401
0.848249 0.242232 0.610241
0.939150 0.251315 0.611813
0.106009 0.197629 0.550624
0.182556 0.205650 0.557626
0.321639 0.229239 0.581329
0.451760 0.254843 0.608924
0.559290 0.262747 0.606078
0.656962 0.268045 0.598416
0.751105 0.276348 0.594653
0.854489 0.285625 0.598367
0.946528 0.304439 0.611943
0.149122 0.300407 0.531146
0.189849 0.293915 0.515602
0.312119 0.303392 0.526704
0.450054 0.329847 0.561726
0.558411 0.339680 0.569917
0.663564 0.348465 0.576571
0.761067 0.359704 0.581011
0.864868 0.376395 0.594115
0.956352 0.395487 0.613002
0.172594 0.415546 0.534777
0.249088 0.416833 0.529531
0.334301 0.406019 0.523360
0.448724 0.416520 0.539223
0.566952 0.429418 0.556923
0.665809 0.438658 0.563818
0.759563 0.451213 0.567143
0.869751 0.471644 0.590803
0.960697 0.488446 0.605375
0.158798 0.528507 0.538935
0.227820 0.518813 0.518478
0.327922 0.508796 0.504895
0.419877 0.503575 0.501840
0.509849 0.503776 0.508980
0.634370 0.522424 0.532774
0.765801 0.545808 0.547542
0.869385 0.565352 0.579766
0.964286 0.580802 0.590281
0.157997 0.635750 0.520241
0.219152 0.629032 0.505108
0.337185 0.625046 0.501170
0.434381 0.620211 0.499991
0.528701 0.618739 0.498784
0.635761 0.622844 0.513918
0.765438 0.637910 0.534368
0.889510 0.654413 0.571422
0.993435 0.670548 0.583789
0.173988 0.732022 0.457385
0.240326 0.726126 0.443624
0.353665 0.727216 0.451510
0.462591 0.730280 0.466591
0.572370 0.734503 0.487006
0.677793 0.736519 0.511037
0.768855 0.739685 0.526115
0.889856 0.748290 0.554536
0.999995 0.756941 0.578124
0.185530 0.816565 0.376287
0.242028 0.821914 0.377553
0.360610 0.834985 0.413118
0.474068 0.844382 0.442216
0.559740 0.843489 0.447736
0.627597 0.839921 0.439887
0.714611 0.839001 0.448756
0.866952 0.848877 0.503616
1.000460 0.861780 0.542136
0.190903 0.918099 0.336563
0.266248 0.931324 0.370304
0.379283 0.946803 0.407403
0.448506 0.947230 0.401184
0.489172 0.940468 0.374382
0.532532 0.933948 0.351524
0.576988 0.928649 0.330913
0.624920 0.923885 0.310906
0.863741 0.949789 0.404489
0.148573 0.197379 0.740182
0.229836 0.215055 0.757057
0.363251 0.239589 0.774683
0.469611 0.244516 0.763309
0.559756 0.241864 0.738567
0.656577 0.246496 0.728390
0.755883 0.253211 0.724065
0.854074 0.259125 0.720456
0.948739 0.267003 0.724733
0.132808 0.231351 0.688354
0.212994 0.247386 0.704819
0.345581 0.267847 0.728521
0.453252 0.273002 0.716573
0.549897 0.275663 0.709316
0.656242 0.285328 0.708281
0.758242 0.294611 0.708112
0.863753 0.304767 0.711810
0.958241 0.319711 0.724844
0.169619 0.328842 0.670077
0.202728 0.323095 0.656049
0.341759 0.340847 0.676025
0.450655 0.349252 0.678016
0.559238 0.358790 0.680894
0.663923 0.370831 0.685634
0.765638 0.381585 0.693650
0.877784 0.393216 0.709834
0.973686 0.409158 0.725417
0.226826 0.450106 0.688025
0.294547 0.442476 0.668989
0.379984 0.439407 0.663513
0.469944 0.444049 0.661569
0.587020 0.453739 0.674201
0.668941 0.463712 0.671604
0.766854 0.472817 0.680155
0.882144 0.489094 0.702713
0.979994 0.505315 0.718330
0.191149 0.549573 0.682690
0.258756 0.539745 0.659792
0.364121 0.533700 0.647659
0.467955 0.533855 0.643920
0.560969 0.535930 0.643273
0.652876 0.549070 0.648437
0.759254 0.564886 0.661043
0.875743 0.580821 0.689870
0.977508 0.598832 0.704437
0.190000 0.654579 0.665878
0.250189 0.648842 0.653159
0.361928 0.638703 0.636786
0.462841 0.632935 0.626119
0.550120 0.629782 0.621351
0.631046 0.631075 0.625132
0.757022 0.653172 0.646503
0.873311 0.666354 0.677291
0.976076 0.687737 0.689371
0.213847 0.748711 0.603966
0.277212 0.740799 0.588834
0.384001 0.736890 0.590338
0.484094 0.739278 0.602315
0.585327 0.739143 0.616787
0.674748 0.741109 0.627056
0.757772 0.744312 0.635420
0.885140 0.753201 0.669412
0.998792 0.773437 0.684865
0.235262 0.836145 0.531373
0.291941 0.842459 0.544399
0.393458 0.851109 0.569409
0.492431 0.854033 0.583163
0.571224 0.850873 0.580002
0.657524 0.848948 0.584496
0.759790 0.849997 0.604374
0.876983 0.855284 0.637184
1.000069 0.865763 0.669019
0.251961 0.945168 0.522321
0.314354 0.955517 0.544084
0.396190 0.960103 0.550327
0.456730 0.956043 0.533121
0.513780 0.951252 0.516151
0.565659 0.947147 0.497499
0.621998 0.943369 0.483315
0.688581 0.941217 0.475695
0.901562 0.962712 0.553435
0.177692 0.238736 0.881181
0.251989 0.251904 0.892063
0.363887 0.257620 0.881785
0.458297 0.254501 0.858843
0.558878 0.258993 0.854348
0.658788 0.266007 0.847661
0.755711 0.272704 0.843329
0.858638 0.280656 0.843792
0.952169 0.290377 0.845964
0.161556 0.271939 0.838930
0.233134 0.280419 0.845535
0.346241 0.284665 0.836918
0.449789 0.291188 0.831565
0.556041 0.300927 0.830631
0.654979 0.310152 0.829586
0.759113 0.320188 0.834154
0.866503 0.331249 0.840113
0.969187 0.341940 0.847710
0.170342 0.355586 0.809367
0.220900 0.357259 0.804176
0.323243 0.362468 0.804471
0.444842 0.375557 0.810362
0.555843 0.388654 0.815388
0.664934 0.398849 0.821437
0.774528 0.407751 0.829545
0.885786 0.417284 0.837469
0.991553 0.427414 0.847899
0.282386 0.481273 0.837724
0.328140 0.477339 0.826162
0.358462 0.461860 0.792151
0.477118 0.474422 0.800688
0.575617 0.483719 0.805096
0.673735 0.489909 0.809235
0.785294 0.498978 0.819698
0.896909 0.509233 0.828225
0.998251 0.522827 0.842737
0.251613 0.587525 0.839395
0.312436 0.583584 0.830179
0.423425 0.577237 0.810898
0.486270 0.567515 0.787261
0.580295 0.574257 0.787940
0.684064 0.583287 0.794213
0.785050 0.591379 0.799604
0.892891 0.599483 0.810188
0.996652 0.617098 0.830168
0.200012 0.692440 0.852865
0.273165 0.684041 0.831119
0.391466 0.677642 0.806333
0.499842 0.670869 0.788560
0.596978 0.665825 0.774675
0.684823 0.669677 0.772285
0.772779 0.676711 0.775479
0.879437 0.687578 0.791537
0.991856 0.707091 0.813065
0.233411 0.776641 0.782482
0.287620 0.774985 0.780575
0.388709 0.766690 0.771944
0.486263 0.761809 0.766657
0.585173 0.754379 0.755472
0.672114 0.751923 0.752439
0.752397 0.752383 0.752503
0.873125 0.768486 0.779149
0.985270 0.790403 0.795595
0.273938 0.858920 0.704469
0.324577 0.861653 0.713495
0.416022 0.863270 0.722911
0.507285 0.861597 0.724132
0.593784 0.860037 0.725188
0.689292 0.857649 0.733371
0.777252 0.858563 0.741652
0.880672 0.861782 0.764322
0.999848 0.873290 0.790857
0.288639 0.968129 0.694326
0.339614 0.971530 0.700469
0.414327 0.969898 0.694098
0.486690 0.967985 0.683869
0.553379 0.965848 0.672695
0.622861 0.963117 0.664620
0.689651 0.961568 0.656394
0.766620 0.961521 0.654081
0.945787 0.976921 0.710412
0.192690 0.265327 0.981471
0.256698 0.270874 0.974790
0.360810 0.269960 0.964413
0.461434 0.274311 0.961968
0.560456 0.281184 0.955612
0.661978 0.290986 0.951945
0.760939 0.300819 0.954315
0.865261 0.312089 0.959735
0.966919 0.323305 0.969375
0.175131 0.296208 0.944394
0.232855 0.299466 0.939983
0.336629 0.304882 0.935999
0.450494 0.317143 0.942024
0.552513 0.327727 0.942734
0.661174 0.339593 0.948677
0.767550 0.352123 0.953415
0.877312 0.363471 0.961419
0.985854 0.375420 0.973748
0.150904 0.374086 0.916276
0.221486 0.382152 0.921958
0.337435 0.394987 0.928338
0.448014 0.405945 0.932623
0.559259 0.415322 0.938047
0.670565 0.424933 0.944785
0.782056 0.434793 0.953334
0.899643 0.447332 0.963892
0.999684 0.458524 0.975943
0.296471 0.510960 0.966891
0.285482 0.493244 0.935640
0.345667 0.489833 0.920740
0.456682 0.498282 0.924818
0.570179 0.506781 0.931121
0.682097 0.516211 0.939164
0.794810 0.526442 0.948311
0.911592 0.537849 0.959119
0.999996 0.549749 0.972229
0.308833 0.627888 0.976447
0.373392 0.623319 0.966944
0.441348 0.608603 0.943913
0.455889 0.586306 0.911151
0.572798 0.596677 0.919210
0.685185 0.606263 0.926204
0.796888 0.616212 0.936633
0.913653 0.627035 0.949124
0.999997 0.638977 0.961156
0.260663 0.730161 0.978136
0.324981 0.725568 0.972188
0.435822 0.717067 0.956778
0.553571 0.709144 0.943711
0.608101 0.693657 0.913994
0.682129 0.692994 0.907853
0.790573 0.702682 0.917876
0.903927 0.712806 0.928981
0.999995 0.725357 0.942193
0.213934 0.825016 0.983983
0.277453 0.820430 0.977905
0.395427 0.813532 0.961855
0.513341 0.805305 0.945004
0.616573 0.795334 0.926491
0.716503 0.787509 0.907256
0.787117 0.785431 0.896036
0.890307 0.794962 0.903238
0.999130 0.808466 0.920404
0.257670 0.904383 0.926117
0.316064 0.902501 0.922414
0.410265 0.897852 0.916872
0.511861 0.890771 0.906671
0.606260 0.885105 0.899812
0.700026 0.877756 0.890828
0.788878 0.871470 0.883148
0.872988 0.870088 0.879186
0.993505 0.889488 0.900528
0.305921 0.981609 0.853581
0.358354 0.982515 0.851795
0.443261 0.982806 0.848205
0.530792 0.983023 0.843433
0.612907 0.981764 0.839400
0.688766 0.981518 0.834909
0.763652 0.981068 0.831504
0.850179 0.981711 0.835593
0.981392 0.989534 0.864271
0.193212 0.281182 1.000000
0.246303 0.280066 1.000000
0.360664 0.287191 0.999998
0.465839 0.293891 0.999999
0.562939 0.301765 0.999995
0.667357 0.313875 1.000000
0.769703 0.326147 1.000000
0.876898 0.338785 1.000000
0.988071 0.351975 1.000000
0.167312 0.312199 0.999996
0.232796 0.319480 0.999998
0.346354 0.330566 0.999997
0.461405 0.342810 0.999998
0.566619 0.353366 0.999998
0.671821 0.365121 1.000000
0.777685 0.376998 1.000000
0.894727 0.391070 1.000000
1.000186 0.404292 1.000000
0.152521 0.396818 0.997384
0.219925 0.402932 0.999875
0.336606 0.416182 0.999995
0.458066 0.428533 0.999996
0.575001 0.439749 0.999998
0.686537 0.450348 1.000000
0.799333 0.461834 1.000000
0.916779 0.474161 1.000000
0.999998 0.486403 1.000000
0.257780 0.520779 1.000068
0.246301 0.503528 0.998874
0.337989 0.506830 0.998704
0.459765 0.517556 0.999995
0.583447 0.530720 0.999997
0.698750 0.542153 0.999999
0.813680 0.553654 1.000000
0.931751 0.565546 1.000000
1.000000 0.577670 1.000000
0.360682 0.654588 1.000000
0.413146 0.647235 1.000000
0.411674 0.618355 1.000044
0.455131 0.605444 0.998498
0.577034 0.618101 0.999994
0.700007 0.631417 0.999997
0.815597 0.643066 1.000000
0.933685 0.654875 1.000000
1.000000 0.666565 1.000000
0.308178 0.757756 1.000000
0.375214 0.752599 1.000000
0.489289 0.744564 1.000000
0.605982 0.741895 1.000000
0.573134 0.705401 0.998035
0.684426 0.715005 0.999995
0.800334 0.726707 0.999997
0.917362 0.738775 0.999999
0.999998 0.751133 1.000000
0.264188 0.853656 1.000000
0.335506 0.850364 1.000000
0.474004 0.850927 1.000000
0.570775 0.836693 1.000000
0.665857 0.824933 0.999999
0.698041 0.804005 0.999939
0.780223 0.805588 1.000008
0.895153 0.816949 0.999995
1.000014 0.829207 0.999999
0.251963 0.941288 1.000000
0.313582 0.937606 1.000000
0.413494 0.931725 1.000000
0.523604 0.925097 1.000000
0.630234 0.918493 0.999999
0.734765 0.911800 0.999997
0.823906 0.903607 1.000027
0.875847 0.893387 0.997254
0.998696 0.909532 1.000019
0.301297 0.999994 0.999987
0.358645 0.999995 0.999986
0.450339 0.999929 0.999724
0.548861 0.999258 0.998325
0.641631 0.999211 0.998249
0.729897 0.999572 0.999107
0.816395 0.997697 0.997524
0.904230 0.997850 0.997860
0.999987 0.999988 0.999983
