luts/FUJI_ACROS_Yellow_Filter.cube
#Generated for krafta web app
#Black and White LUTs
TITLE "Fuji XTrans III - Acros+Ye"
#LUT size
LUT_3D_SIZE 25
#LUT data points
0.003922 0.003922 0.003922
0.007843 0.007843 0.007843
0.015686 0.015686 0.015686
0.023529 0.023529 0.023529
0.039216 0.039216 0.039216
0.058824 0.058824 0.058824
0.086275 0.086275 0.086275
0.113725 0.113725 0.113725
0.152941 0.152941 0.152941
0.188235 0.188235 0.188235
0.227451 0.227451 0.227451
0.250980 0.250980 0.250980
0.250980 0.250980 0.250980
0.368627 0.368627 0.368627
0.427451 0.427451 0.427451
0.447059 0.447059 0.447059
0.478431 0.478431 0.478431
0.490196 0.490196 0.490196
0.490196 0.490196 0.490196
0.490196 0.490196 0.490196
0.517647 0.517647 0.517647
0.549020 0.549020 0.549020
0.552941 0.552941 0.552941
0.552941 0.552941 0.552941
0.552941 0.552941 0.552941
0.007843 0.007843 0.007843
0.007843 0.007843 0.007843
0.019608 0.019608 0.019608
0.027451 0.027451 0.027451
0.043137 0.043137 0.043137
0.062745 0.062745 0.062745
0.086275 0.086275 0.086275
0.121569 0.121569 0.121569
0.152941 0.152941 0.152941
0.196078 0.196078 0.196078
0.235294 0.235294 0.235294
0.266667 0.266667 0.266667
0.294118 0.294118 0.294118
0.364706 0.364706 0.364706
0.427451 0.427451 0.427451
0.447059 0.447059 0.447059
0.478431 0.478431 0.478431
0.490196 0.490196 0.490196
0.494118 0.494118 0.494118
0.509804 0.509804 0.509804
0.529412 0.529412 0.529412
0.545098 0.545098 0.545098
0.545098 0.545098 0.545098
0.545098 0.545098 0.545098
0.545098 0.545098 0.545098
0.007843 0.007843 0.007843
0.011765 0.011765 0.011765
0.019608 0.019608 0.019608
0.031373 0.031373 0.031373
0.047059 0.047059 0.047059
0.070588 0.070588 0.070588
0.090196 0.090196 0.090196
0.129412 0.129412 0.129412
0.168627 0.168627 0.168627
0.200000 0.200000 0.200000
0.243137 0.243137 0.243137
0.278431 0.278431 0.278431
0.321569 0.321569 0.321569
0.388235 0.388235 0.388235
0.427451 0.427451 0.427451
0.447059 0.447059 0.447059
0.474510 0.474510 0.474510
0.494118 0.494118 0.494118
0.505882 0.505882 0.505882
0.529412 0.529412 0.529412
0.541176 0.541176 0.541176
0.541176 0.541176 0.541176
0.541176 0.541176 0.541176
0.552941 0.552941 0.552941
0.564706 0.564706 0.564706
0.007843 0.007843 0.007843
0.011765 0.011765 0.011765
0.023529 0.023529 0.023529
0.039216 0.039216 0.039216
0.062745 0.062745 0.062745
0.078431 0.078431 0.078431
0.101961 0.101961 0.101961
0.133333 0.133333 0.133333
0.176471 0.176471 0.176471
0.211765 0.211765 0.211765
0.250980 0.250980 0.250980
0.294118 0.294118 0.294118
0.325490 0.325490 0.325490
0.376471 0.376471 0.376471
0.423529 0.423529 0.423529
0.450980 0.450980 0.450980
0.474510 0.474510 0.474510
0.501961 0.501961 0.501961
0.533333 0.533333 0.533333
0.541176 0.541176 0.541176
0.541176 0.541176 0.541176
0.541176 0.541176 0.541176
0.541176 0.541176 0.541176
0.564706 0.564706 0.564706
0.619608 0.619608 0.619608
0.015686 0.015686 0.015686
0.019608 0.019608 0.019608
0.031373 0.031373 0.031373
0.050980 0.050980 0.050980
0.078431 0.078431 0.078431
0.098039 0.098039 0.098039
0.121569 0.121569 0.121569
0.152941 0.152941 0.152941
0.200000 0.200000 0.200000
0.223529 0.223529 0.223529
0.274510 0.274510 0.274510
0.313725 0.313725 0.313725
0.341176 0.341176 0.341176
0.380392 0.380392 0.380392
0.423529 0.423529 0.423529
0.462745 0.462745 0.462745
0.486275 0.486275 0.486275
0.517647 0.517647 0.517647
0.541176 0.541176 0.541176
0.541176 0.541176 0.541176
0.541176 0.541176 0.541176
0.541176 0.541176 0.541176
0.572549 0.572549 0.572549
0.607843 0.607843 0.607843
0.619608 0.619608 0.619608
0.035294 0.035294 0.035294
0.039216 0.039216 0.039216
0.050980 0.050980 0.050980
0.066667 0.066667 0.066667
0.086275 0.086275 0.086275
0.109804 0.109804 0.109804
0.129412 0.129412 0.129412
0.176471 0.176471 0.176471
0.211765 0.211765 0.211765
0.247059 0.247059 0.247059
0.290196 0.290196 0.290196
0.329412 0.329412 0.329412
0.356863 0.356863 0.356863
0.392157 0.392157 0.392157
0.439216 0.439216 0.439216
0.474510 0.474510 0.474510
0.498039 0.498039 0.498039
0.529412 0.529412 0.529412
0.549020 0.549020 0.549020
0.560784 0.560784 0.560784
0.568627 0.568627 0.568627
0.568627 0.568627 0.568627
0.603922 0.603922 0.603922
0.623529 0.623529 0.623529
0.623529 0.623529 0.623529
0.062745 0.062745 0.062745
0.066667 0.066667 0.066667
0.078431 0.078431 0.078431
0.094118 0.094118 0.094118
0.094118 0.094118 0.094118
0.109804 0.109804 0.109804
0.141176 0.141176 0.141176
0.192157 0.192157 0.192157
0.235294 0.235294 0.235294
0.270588 0.270588 0.270588
0.301961 0.301961 0.301961
0.341176 0.341176 0.341176
0.368627 0.368627 0.368627
0.403922 0.403922 0.403922
0.450980 0.450980 0.450980
0.482353 0.482353 0.482353
0.505882 0.505882 0.505882
0.537255 0.537255 0.537255
0.568627 0.568627 0.568627
0.607843 0.607843 0.607843
0.611765 0.611765 0.611765
0.611765 0.611765 0.611765
0.619608 0.619608 0.619608
0.623529 0.623529 0.623529
0.623529 0.623529 0.623529
0.101961 0.101961 0.101961
0.101961 0.101961 0.101961
0.109804 0.109804 0.109804
0.121569 0.121569 0.121569
0.129412 0.129412 0.129412
0.145098 0.145098 0.145098
0.184314 0.184314 0.184314
0.223529 0.223529 0.223529
0.254902 0.254902 0.254902
0.278431 0.278431 0.278431
0.329412 0.329412 0.329412
0.364706 0.364706 0.364706
0.388235 0.388235 0.388235
0.423529 0.423529 0.423529
0.462745 0.462745 0.462745
0.501961 0.501961 0.501961
0.525490 0.525490 0.525490
0.545098 0.545098 0.545098
0.572549 0.572549 0.572549
0.607843 0.607843 0.607843
0.623529 0.623529 0.623529
0.623529 0.623529 0.623529
0.623529 0.623529 0.623529
0.623529 0.623529 0.623529
0.623529 0.623529 0.623529
0.113725 0.113725 0.113725
0.141176 0.141176 0.141176
0.149020 0.149020 0.149020
0.156863 0.156863 0.156863
0.180392 0.180392 0.180392
0.196078 0.196078 0.196078
0.219608 0.219608 0.219608
0.262745 0.262745 0.262745
0.298039 0.298039 0.298039
0.309804 0.309804 0.309804
0.356863 0.356863 0.356863
0.384314 0.384314 0.384314
0.407843 0.407843 0.407843
0.447059 0.447059 0.447059
0.478431 0.478431 0.478431
0.509804 0.509804 0.509804
0.537255 0.537255 0.537255
0.568627 0.568627 0.568627
0.580392 0.580392 0.580392
0.607843 0.607843 0.607843
0.619608 0.619608 0.619608
0.623529 0.623529 0.623529
0.623529 0.623529 0.623529
0.623529 0.623529 0.623529
0.623529 0.623529 0.623529
0.113725 0.113725 0.113725
0.172549 0.172549 0.172549
0.196078 0.196078 0.196078
0.196078 0.196078 0.196078
0.207843 0.207843 0.207843
0.223529 0.223529 0.223529
0.243137 0.243137 0.243137
0.290196 0.290196 0.290196
0.329412 0.329412 0.329412
0.341176 0.341176 0.341176
0.380392 0.380392 0.380392
0.411765 0.411765 0.411765
0.435294 0.435294 0.435294
0.466667 0.466667 0.466667
0.490196 0.490196 0.490196
0.525490 0.525490 0.525490
0.552941 0.552941 0.552941
0.580392 0.580392 0.580392
0.600000 0.600000 0.600000
0.603922 0.603922 0.603922
0.611765 0.611765 0.611765
0.623529 0.623529 0.623529
0.623529 0.623529 0.623529
0.623529 0.623529 0.623529
0.623529 0.623529 0.623529
0.156863 0.156863 0.156863
0.211765 0.211765 0.211765
0.239216 0.239216 0.239216
0.239216 0.239216 0.239216
0.243137 0.243137 0.243137
0.262745 0.262745 0.262745
0.274510 0.274510 0.274510
0.321569 0.321569 0.321569
0.356863 0.356863 0.356863
0.372549 0.372549 0.372549
0.411765 0.411765 0.411765
0.435294 0.435294 0.435294
0.462745 0.462745 0.462745
0.490196 0.490196 0.490196
0.513725 0.513725 0.513725
0.541176 0.541176 0.541176
0.568627 0.568627 0.568627
0.592157 0.592157 0.592157
0.615686 0.615686 0.615686
0.611765 0.611765 0.611765
0.615686 0.615686 0.615686
0.619608 0.619608 0.619608
0.643137 0.643137 0.643137
0.674510 0.674510 0.674510
0.678431 0.678431 0.678431
0.203922 0.203922 0.203922
0.231373 0.231373 0.231373
0.254902 0.254902 0.254902
0.254902 0.254902 0.254902
0.266667 0.266667 0.266667
0.282353 0.282353 0.282353
0.305882 0.305882 0.305882
0.345098 0.345098 0.345098
0.384314 0.384314 0.384314
0.400000 0.400000 0.400000
0.431373 0.431373 0.431373
0.466667 0.466667 0.466667
0.486275 0.486275 0.486275
0.517647 0.517647 0.517647
0.541176 0.541176 0.541176
0.564706 0.564706 0.564706
0.588235 0.588235 0.588235
0.607843 0.607843 0.607843
0.635294 0.635294 0.635294
0.631373 0.631373 0.631373
0.635294 0.635294 0.635294
0.639216 0.639216 0.639216
0.666667 0.666667 0.666667
0.694118 0.694118 0.694118
0.709804 0.709804 0.709804
0.250980 0.250980 0.250980
0.254902 0.254902 0.254902
0.254902 0.254902 0.254902
0.254902 0.254902 0.254902
0.270588 0.270588 0.270588
0.294118 0.294118 0.294118
0.341176 0.341176 0.341176
0.380392 0.380392 0.380392
0.407843 0.407843 0.407843
0.431373 0.431373 0.431373
0.450980 0.450980 0.450980
0.478431 0.478431 0.478431
0.509804 0.509804 0.509804
0.537255 0.537255 0.537255
0.564706 0.564706 0.564706
0.584314 0.584314 0.584314
0.603922 0.603922 0.603922
0.627451 0.627451 0.627451
0.654902 0.654902 0.654902
0.654902 0.654902 0.654902
0.654902 0.654902 0.654902
0.654902 0.654902 0.654902
0.686275 0.686275 0.686275
0.698039 0.698039 0.698039
0.698039 0.698039 0.698039
0.196078 0.196078 0.196078
0.231373 0.231373 0.231373
0.254902 0.254902 0.254902
0.254902 0.254902 0.254902
0.290196 0.290196 0.290196
0.317647 0.317647 0.317647
0.341176 0.341176 0.341176
0.380392 0.380392 0.380392
0.419608 0.419608 0.419608
0.447059 0.447059 0.447059
0.462745 0.462745 0.462745
0.498039 0.498039 0.498039
0.549020 0.549020 0.549020
0.556863 0.556863 0.556863
0.572549 0.572549 0.572549
0.607843 0.607843 0.607843
0.631373 0.631373 0.631373
0.643137 0.643137 0.643137
0.666667 0.666667 0.666667
0.670588 0.670588 0.670588
0.670588 0.670588 0.670588
0.670588 0.670588 0.670588
0.698039 0.698039 0.698039
0.721569 0.721569 0.721569
0.741176 0.741176 0.741176
0.172549 0.172549 0.172549
0.219608 0.219608 0.219608
0.254902 0.254902 0.254902
0.254902 0.254902 0.254902
0.325490 0.325490 0.325490
0.352941 0.352941 0.352941
0.345098 0.345098 0.345098
0.400000 0.400000 0.400000
0.439216 0.439216 0.439216
0.462745 0.462745 0.462745
0.466667 0.466667 0.466667
0.513725 0.513725 0.513725
0.580392 0.580392 0.580392
0.580392 0.580392 0.580392
0.600000 0.600000 0.600000
0.619608 0.619608 0.619608
0.643137 0.643137 0.643137
0.670588 0.670588 0.670588
0.686275 0.686275 0.686275
0.678431 0.678431 0.678431
0.678431 0.678431 0.678431
0.694118 0.694118 0.694118
0.721569 0.721569 0.721569
0.733333 0.733333 0.733333
0.752941 0.752941 0.752941
0.172549 0.172549 0.172549
0.227451 0.227451 0.227451
0.254902 0.254902 0.254902
0.254902 0.254902 0.254902
0.380392 0.380392 0.380392
0.411765 0.411765 0.411765
0.352941 0.352941 0.352941
0.411765 0.411765 0.411765
0.462745 0.462745 0.462745
0.466667 0.466667 0.466667
0.466667 0.466667 0.466667
0.505882 0.505882 0.505882
0.615686 0.615686 0.615686
0.615686 0.615686 0.615686
0.615686 0.615686 0.615686
0.623529 0.623529 0.623529
0.654902 0.654902 0.654902
0.690196 0.690196 0.690196
0.713725 0.713725 0.713725
0.686275 0.686275 0.686275
0.701961 0.701961 0.701961
0.741176 0.741176 0.741176
0.741176 0.741176 0.741176
0.741176 0.741176 0.741176
0.741176 0.741176 0.741176
0.274510 0.274510 0.274510
0.262745 0.262745 0.262745
0.254902 0.254902 0.254902
0.254902 0.254902 0.254902
0.384314 0.384314 0.384314
0.411765 0.411765 0.411765
0.352941 0.352941 0.352941
0.384314 0.384314 0.384314
0.435294 0.435294 0.435294
0.462745 0.462745 0.462745
0.494118 0.494118 0.494118
0.549020 0.549020 0.549020
0.611765 0.611765 0.611765
0.615686 0.615686 0.615686
0.627451 0.627451 0.627451
0.662745 0.662745 0.662745
0.674510 0.674510 0.674510
0.690196 0.690196 0.690196
0.713725 0.713725 0.713725
0.701961 0.701961 0.701961
0.717647 0.717647 0.717647
0.741176 0.741176 0.741176
0.741176 0.741176 0.741176
0.760784 0.760784 0.760784
0.780392 0.780392 0.780392
0.345098 0.345098 0.345098
0.282353 0.282353 0.282353
0.254902 0.254902 0.254902
0.254902 0.254902 0.254902
0.341176 0.341176 0.341176
0.384314 0.384314 0.384314
0.345098 0.345098 0.345098
0.372549 0.372549 0.372549
0.419608 0.419608 0.419608
0.490196 0.490196 0.490196
0.513725 0.513725 0.513725
0.560784 0.560784 0.560784
0.607843 0.607843 0.607843
0.611765 0.611765 0.611765
0.631373 0.631373 0.631373
0.650980 0.650980 0.650980
0.674510 0.674510 0.674510
0.694118 0.694118 0.694118
0.713725 0.713725 0.713725
0.717647 0.717647 0.717647
0.729412 0.729412 0.729412
0.741176 0.741176 0.741176
0.760784 0.760784 0.760784
0.780392 0.780392 0.780392
0.807843 0.807843 0.807843
0.345098 0.345098 0.345098
0.282353 0.282353 0.282353
0.254902 0.254902 0.254902
0.254902 0.254902 0.254902
0.294118 0.294118 0.294118
0.333333 0.333333 0.333333
0.341176 0.341176 0.341176
0.380392 0.380392 0.380392
0.431373 0.431373 0.431373
0.521569 0.521569 0.521569
0.529412 0.529412 0.529412
0.556863 0.556863 0.556863
0.592157 0.592157 0.592157
0.607843 0.607843 0.607843
0.615686 0.615686 0.615686
0.615686 0.615686 0.615686
0.654902 0.654902 0.654902
0.694118 0.694118 0.694118
0.713725 0.713725 0.713725
0.733333 0.733333 0.733333
0.741176 0.741176 0.741176
0.741176 0.741176 0.741176
0.788235 0.788235 0.788235
0.807843 0.807843 0.807843
0.807843 0.807843 0.807843
0.345098 0.345098 0.345098
0.282353 0.282353 0.282353
0.254902 0.254902 0.254902
0.254902 0.254902 0.254902
0.392157 0.392157 0.392157
0.462745 0.462745 0.462745
0.458824 0.458824 0.458824
0.474510 0.474510 0.474510
0.505882 0.505882 0.505882
0.529412 0.529412 0.529412
0.529412 0.529412 0.529412
0.556863 0.556863 0.556863
0.596078 0.596078 0.596078
0.607843 0.607843 0.607843
0.615686 0.615686 0.615686
0.615686 0.615686 0.615686
0.654902 0.654902 0.654902
0.690196 0.690196 0.690196
0.713725 0.713725 0.713725
0.733333 0.733333 0.733333
0.760784 0.760784 0.760784
0.784314 0.784314 0.784314
0.800000 0.800000 0.800000
0.807843 0.807843 0.807843
0.807843 0.807843 0.807843
0.364706 0.364706 0.364706
0.329412 0.329412 0.329412
0.305882 0.305882 0.305882
0.290196 0.290196 0.290196
0.411765 0.411765 0.411765
0.509804 0.509804 0.509804
0.509804 0.509804 0.509804
0.521569 0.521569 0.521569
0.533333 0.533333 0.533333
0.545098 0.545098 0.545098
0.545098 0.545098 0.545098
0.576471 0.576471 0.576471
0.615686 0.615686 0.615686
0.615686 0.615686 0.615686
0.619608 0.619608 0.619608
0.643137 0.643137 0.643137
0.666667 0.666667 0.666667
0.694118 0.694118 0.694118
0.713725 0.713725 0.713725
0.725490 0.725490 0.725490
0.752941 0.752941 0.752941
0.807843 0.807843 0.807843
0.807843 0.807843 0.807843
0.807843 0.807843 0.807843
0.807843 0.807843 0.807843
0.392157 0.392157 0.392157
0.392157 0.392157 0.392157
0.372549 0.372549 0.372549
0.337255 0.337255 0.337255
0.435294 0.435294 0.435294
0.509804 0.509804 0.509804
0.513725 0.513725 0.513725
0.517647 0.517647 0.517647
0.541176 0.541176 0.541176
0.580392 0.580392 0.580392
0.584314 0.584314 0.584314
0.607843 0.607843 0.607843
0.662745 0.662745 0.662745
0.635294 0.635294 0.635294
0.635294 0.635294 0.635294
0.682353 0.682353 0.682353
0.682353 0.682353 0.682353
0.690196 0.690196 0.690196
0.713725 0.713725 0.713725
0.713725 0.713725 0.713725
0.752941 0.752941 0.752941
0.807843 0.807843 0.807843
0.807843 0.807843 0.807843
0.807843 0.807843 0.807843
0.807843 0.807843 0.807843
0.392157 0.392157 0.392157
0.392157 0.392157 0.392157
0.372549 0.372549 0.372549
0.337255 0.337255 0.337255
0.458824 0.458824 0.458824
0.509804 0.509804 0.509804
0.509804 0.509804 0.509804
0.521569 0.521569 0.521569
0.549020 0.549020 0.549020
0.584314 0.584314 0.584314
0.584314 0.584314 0.584314
0.607843 0.607843 0.607843
0.662745 0.662745 0.662745
0.654902 0.654902 0.654902
0.670588 0.670588 0.670588
0.694118 0.694118 0.694118
0.698039 0.698039 0.698039
0.717647 0.717647 0.717647
0.756863 0.756863 0.756863
0.772549 0.772549 0.772549
0.788235 0.788235 0.788235
0.807843 0.807843 0.807843
0.807843 0.807843 0.807843
0.807843 0.807843 0.807843
0.807843 0.807843 0.807843
0.392157 0.392157 0.392157
0.392157 0.392157 0.392157
0.372549 0.372549 0.372549
0.337255 0.337255 0.337255
0.435294 0.435294 0.435294
0.509804 0.509804 0.509804
0.509804 0.509804 0.509804
0.521569 0.521569 0.521569
0.549020 0.549020 0.549020
0.584314 0.584314 0.584314
0.584314 0.584314 0.584314
0.607843 0.607843 0.607843
0.662745 0.662745 0.662745
0.666667 0.666667 0.666667
0.674510 0.674510 0.674510
0.694118 0.694118 0.694118
0.729412 0.729412 0.729412
0.745098 0.745098 0.745098
0.776471 0.776471 0.776471
0.796078 0.796078 0.796078
0.807843 0.807843 0.807843
0.807843 0.807843 0.807843
0.807843 0.807843 0.807843
0.811765 0.811765 0.811765
0.815686 0.815686 0.815686
0.392157 0.392157 0.392157
0.392157 0.392157 0.392157
0.372549 0.372549 0.372549
0.337255 0.337255 0.337255
0.435294 0.435294 0.435294
0.509804 0.509804 0.509804
0.509804 0.509804 0.509804
0.521569 0.521569 0.521569
0.549020 0.549020 0.549020
0.580392 0.580392 0.580392
0.584314 0.584314 0.584314
0.607843 0.607843 0.607843
0.666667 0.666667 0.666667
0.666667 0.666667 0.666667
0.678431 0.678431 0.678431
0.694118 0.694118 0.694118
0.745098 0.745098 0.745098
0.776471 0.776471 0.776471
0.780392 0.780392 0.780392
0.796078 0.796078 0.796078
0.807843 0.807843 0.807843
0.807843 0.807843 0.807843
0.807843 0.807843 0.807843
0.815686 0.815686 0.815686
0.827451 0.827451 0.827451
0.003922 0.003922 0.003922
0.007843 0.007843 0.007843
0.015686 0.015686 0.015686
0.023529 0.023529 0.023529
0.043137 0.043137 0.043137
0.062745 0.062745 0.062745
0.086275 0.086275 0.086275
0.121569 0.121569 0.121569
0.156863 0.156863 0.156863
0.188235 0.188235 0.188235
0.235294 0.235294 0.235294
0.270588 0.270588 0.270588
0.309804 0.309804 0.309804
0.364706 0.364706 0.364706
0.419608 0.419608 0.419608
0.454902 0.454902 0.454902
0.486275 0.486275 0.486275
0.509804 0.509804 0.509804
0.525490 0.525490 0.525490
0.533333 0.533333 0.533333
0.537255 0.537255 0.537255
0.549020 0.549020 0.549020
0.552941 0.552941 0.552941
0.552941 0.552941 0.552941
0.552941 0.552941 0.552941
0.007843 0.007843 0.007843
0.011765 0.011765 0.011765
0.019608 0.019608 0.019608
0.027451 0.027451 0.027451
0.043137 0.043137 0.043137
0.062745 0.062745 0.062745
0.086275 0.086275 0.086275
0.125490 0.125490 0.125490
0.160784 0.160784 0.160784
0.192157 0.192157 0.192157
0.243137 0.243137 0.243137
0.286275 0.286275 0.286275
0.329412 0.329412 0.329412
0.384314 0.384314 0.384314
0.427451 0.427451 0.427451
0.454902 0.454902 0.454902
0.486275 0.486275 0.486275
0.505882 0.505882 0.505882
0.529412 0.529412 0.529412
0.541176 0.541176 0.541176
0.541176 0.541176 0.541176
0.549020 0.549020 0.549020
0.549020 0.549020 0.549020
0.560784 0.560784 0.560784
0.568627 0.568627 0.568627
0.011765 0.011765 0.011765
0.015686 0.015686 0.015686
0.023529 0.023529 0.023529
0.035294 0.035294 0.035294
0.054902 0.054902 0.054902
0.070588 0.070588 0.070588
0.098039 0.098039 0.098039
0.129412 0.129412 0.129412
0.160784 0.160784 0.160784
0.203922 0.203922 0.203922
0.243137 0.243137 0.243137
0.294118 0.294118 0.294118
0.333333 0.333333 0.333333
0.384314 0.384314 0.384314
0.427451 0.427451 0.427451
0.454902 0.454902 0.454902
0.486275 0.486275 0.486275
0.509804 0.509804 0.509804
0.537255 0.537255 0.537255
0.545098 0.545098 0.545098
0.549020 0.549020 0.549020
0.549020 0.549020 0.549020
0.556863 0.556863 0.556863
0.580392 0.580392 0.580392
0.592157 0.592157 0.592157
0.015686 0.015686 0.015686
0.019608 0.019608 0.019608
0.031373 0.031373 0.031373
0.043137 0.043137 0.043137
0.062745 0.062745 0.062745
0.082353 0.082353 0.082353
0.101961 0.101961 0.101961
0.133333 0.133333 0.133333
0.172549 0.172549 0.172549
0.207843 0.207843 0.207843
0.247059 0.247059 0.247059
0.298039 0.298039 0.298039
0.329412 0.329412 0.329412
0.384314 0.384314 0.384314
0.419608 0.419608 0.419608
0.454902 0.454902 0.454902
0.478431 0.478431 0.478431
0.509804 0.509804 0.509804
0.545098 0.545098 0.545098
0.545098 0.545098 0.545098
0.549020 0.549020 0.549020
0.545098 0.545098 0.545098
0.568627 0.568627 0.568627
0.603922 0.603922 0.603922
0.611765 0.611765 0.611765
0.023529 0.023529 0.023529
0.027451 0.027451 0.027451
0.043137 0.043137 0.043137
0.050980 0.050980 0.050980
0.070588 0.070588 0.070588
0.094118 0.094118 0.094118
0.113725 0.113725 0.113725
0.152941 0.152941 0.152941
0.196078 0.196078 0.196078
0.223529 0.223529 0.223529
0.270588 0.270588 0.270588
0.301961 0.301961 0.301961
0.341176 0.341176 0.341176
0.384314 0.384314 0.384314
0.423529 0.423529 0.423529
0.466667 0.466667 0.466667
0.486275 0.486275 0.486275
0.521569 0.521569 0.521569
0.545098 0.545098 0.545098
0.545098 0.545098 0.545098
0.556863 0.556863 0.556863
0.568627 0.568627 0.568627
0.596078 0.596078 0.596078
0.615686 0.615686 0.615686
0.619608 0.619608 0.619608
0.035294 0.035294 0.035294
0.047059 0.047059 0.047059
0.058824 0.058824 0.058824
0.070588 0.070588 0.070588
0.086275 0.086275 0.086275
0.109804 0.109804 0.109804
0.125490 0.125490 0.125490
0.172549 0.172549 0.172549
0.211765 0.211765 0.211765
0.247059 0.247059 0.247059
0.286275 0.286275 0.286275
0.325490 0.325490 0.325490
0.356863 0.356863 0.356863
0.400000 0.400000 0.400000
0.431373 0.431373 0.431373
0.470588 0.470588 0.470588
0.498039 0.498039 0.498039
0.529412 0.529412 0.529412
0.552941 0.552941 0.552941
0.564706 0.564706 0.564706
0.580392 0.580392 0.580392
0.600000 0.600000 0.600000
0.611765 0.611765 0.611765
0.619608 0.619608 0.619608
0.619608 0.619608 0.619608
0.066667 0.066667 0.066667
0.066667 0.066667 0.066667
0.078431 0.078431 0.078431
0.090196 0.090196 0.090196
0.101961 0.101961 0.101961
0.117647 0.117647 0.117647
0.152941 0.152941 0.152941
0.188235 0.188235 0.188235
0.231373 0.231373 0.231373
0.262745 0.262745 0.262745
0.294118 0.294118 0.294118
0.333333 0.333333 0.333333
0.372549 0.372549 0.372549
0.403922 0.403922 0.403922
0.450980 0.450980 0.450980
0.482353 0.482353 0.482353
0.513725 0.513725 0.513725
0.537255 0.537255 0.537255
0.564706 0.564706 0.564706
0.596078 0.596078 0.596078
0.611765 0.611765 0.611765
0.615686 0.615686 0.615686
0.619608 0.619608 0.619608
0.619608 0.619608 0.619608
0.619608 0.619608 0.619608
0.094118 0.094118 0.094118
0.098039 0.098039 0.098039
0.109804 0.109804 0.109804
0.125490 0.125490 0.125490
0.141176 0.141176 0.141176
0.152941 0.152941 0.152941
0.188235 0.188235 0.188235
0.219608 0.219608 0.219608
0.254902 0.254902 0.254902
0.286275 0.286275 0.286275
0.325490 0.325490 0.325490
0.360784 0.360784 0.360784
0.388235 0.388235 0.388235
0.427451 0.427451 0.427451
0.458824 0.458824 0.458824
0.494118 0.494118 0.494118
0.521569 0.521569 0.521569
0.552941 0.552941 0.552941
0.572549 0.572549 0.572549
0.607843 0.607843 0.607843
0.619608 0.619608 0.619608
0.619608 0.619608 0.619608
0.619608 0.619608 0.619608
0.619608 0.619608 0.619608
0.619608 0.619608 0.619608
0.129412 0.129412 0.129412
0.137255 0.137255 0.137255
0.152941 0.152941 0.152941
0.164706 0.164706 0.164706
0.168627 0.168627 0.168627
0.196078 0.196078 0.196078
0.223529 0.223529 0.223529
0.250980 0.250980 0.250980
0.290196 0.290196 0.290196
0.309804 0.309804 0.309804
0.349020 0.349020 0.349020
0.388235 0.388235 0.388235
0.415686 0.415686 0.415686
0.443137 0.443137 0.443137
0.482353 0.482353 0.482353
0.513725 0.513725 0.513725
0.541176 0.541176 0.541176
0.568627 0.568627 0.568627
0.588235 0.588235 0.588235
0.611765 0.611765 0.611765
0.623529 0.623529 0.623529
0.623529 0.623529 0.623529
0.623529 0.623529 0.623529
0.627451 0.627451 0.627451
0.647059 0.647059 0.647059
0.145098 0.145098 0.145098
0.168627 0.168627 0.168627
0.188235 0.188235 0.188235
0.196078 0.196078 0.196078
0.211765 0.211765 0.211765
0.227451 0.227451 0.227451
0.247059 0.247059 0.247059
0.282353 0.282353 0.282353
0.317647 0.317647 0.317647
0.341176 0.341176 0.341176
0.376471 0.376471 0.376471
0.407843 0.407843 0.407843
0.431373 0.431373 0.431373
0.470588 0.470588 0.470588
0.498039 0.498039 0.498039
0.529412 0.529412 0.529412
0.560784 0.560784 0.560784
0.584314 0.584314 0.584314
0.603922 0.603922 0.603922
0.623529 0.623529 0.623529
0.627451 0.627451 0.627451
0.623529 0.623529 0.623529
0.623529 0.623529 0.623529
0.639216 0.639216 0.639216
0.686275 0.686275 0.686275
0.168627 0.168627 0.168627
0.196078 0.196078 0.196078
0.223529 0.223529 0.223529
0.231373 0.231373 0.231373
0.250980 0.250980 0.250980
0.258824 0.258824 0.258824
0.274510 0.274510 0.274510
0.317647 0.317647 0.317647
0.349020 0.349020 0.349020
