luts/Fujifilm_Superia_800.cube
# Generated for krafta web app
# https://www.facebook.com/krafta.visio
# Preset: FUJ - Superia 800
# Color profile : sRGB Color Space Profile
LUT_3D_SIZE 16
DOMAIN_MIN 0.0 0.0 0.0
DOMAIN_MAX 1.0 1.0 1.0
0.000000 0.000000 0.000000
0.085603 0.001038 0.001495
0.172122 0.002686 0.002411
0.249516 0.004150 0.003937
0.318700 0.006043 0.006043
0.385260 0.008423 0.008026
0.449775 0.008942 0.009644
0.515740 0.011902 0.011444
0.579980 0.017884 0.017029
0.644282 0.024201 0.024506
0.707881 0.035157 0.033082
0.768582 0.046632 0.044800
0.828458 0.058198 0.056794
0.889250 0.070283 0.069642
0.950072 0.082765 0.082155
1.000000 0.095338 0.093812
0.003571 0.090364 0.003479
0.088685 0.089326 0.004883
0.168582 0.091341 0.004974
0.245090 0.090608 0.005280
0.314916 0.088136 0.006531
0.381781 0.086152 0.007050
0.448463 0.085145 0.009155
0.514427 0.086366 0.013855
0.578363 0.087648 0.020050
0.643122 0.090730 0.027100
0.706508 0.095003 0.036286
0.767178 0.099855 0.048829
0.826780 0.105776 0.059541
0.887663 0.112764 0.071809
0.948730 0.120638 0.083894
1.000000 0.129488 0.096315
0.003143 0.170199 0.002777
0.089540 0.167666 0.003662
0.165377 0.165225 0.004211
0.239445 0.163241 0.004669
0.310033 0.159976 0.006317
0.379004 0.157961 0.008942
0.446113 0.156405 0.012879
0.511833 0.155184 0.018402
0.576074 0.154604 0.025177
0.641352 0.155978 0.032837
0.704524 0.157534 0.042023
0.764981 0.158999 0.053285
0.824430 0.161593 0.064332
0.885893 0.165377 0.074922
0.947112 0.170321 0.087098
1.000000 0.176272 0.099001
0.004334 0.240574 0.004486
0.087495 0.238712 0.006012
0.161715 0.236790 0.007385
0.234958 0.234928 0.009339
0.305394 0.231815 0.012299
0.373724 0.228946 0.016541
0.440406 0.226108 0.020844
0.506401 0.224491 0.027008
0.572015 0.223484 0.034516
0.637232 0.223148 0.042176
0.699916 0.222751 0.051575
0.760342 0.222568 0.060700
0.820615 0.223270 0.069337
0.881529 0.224704 0.080385
0.941955 0.227420 0.090333
1.000000 0.230838 0.102815
0.017670 0.305119 0.017853
0.091279 0.304784 0.018555
0.160372 0.305119 0.019898
0.231785 0.304173 0.022492
0.302556 0.302647 0.025666
0.371710 0.300237 0.030579
0.439094 0.297551 0.035035
0.505669 0.295415 0.041871
0.571649 0.293706 0.047395
0.637354 0.292729 0.054383
0.700038 0.291081 0.062013
0.761288 0.289708 0.071138
0.822568 0.289464 0.079713
0.884062 0.289982 0.089570
0.944701 0.291051 0.100130
1.000000 0.292149 0.110323
0.036835 0.370306 0.036866
0.097597 0.370947 0.038087
0.161868 0.371221 0.039521
0.230076 0.370489 0.041840
0.298528 0.368872 0.043946
0.367071 0.367102 0.048524
0.435065 0.365332 0.051942
0.502129 0.363653 0.057252
0.568139 0.361761 0.061738
0.633631 0.360143 0.067781
0.695827 0.357610 0.073945
0.757717 0.355627 0.082216
0.819028 0.354467 0.090333
0.880552 0.354070 0.099031
0.941436 0.354070 0.108370
1.000000 0.354314 0.118196
0.056092 0.435187 0.056489
0.107393 0.435828 0.057343
0.165591 0.436011 0.058717
0.230045 0.435370 0.060121
0.296880 0.434455 0.062440
0.364508 0.433387 0.065217
0.432227 0.432197 0.068605
0.499245 0.430732 0.072236
0.564324 0.428199 0.076112
0.629053 0.425879 0.081025
0.691463 0.423102 0.087221
0.753689 0.420935 0.093751
0.815305 0.419165 0.100679
0.876860 0.418128 0.109377
0.937896 0.417609 0.118044
0.998260 0.417304 0.126894
0.073884 0.498726 0.073701
0.117311 0.500023 0.074189
0.170535 0.500725 0.075349
0.232425 0.500694 0.076570
0.297093 0.499763 0.078859
0.362707 0.498054 0.080262
0.428290 0.496010 0.083009
0.494057 0.494118 0.086000
0.559380 0.492256 0.089052
0.623529 0.489754 0.093751
0.686305 0.487190 0.099031
0.748928 0.484810 0.105501
0.810666 0.482765 0.111666
0.872068 0.481331 0.119112
0.933074 0.480140 0.126986
0.995087 0.480293 0.136629
0.087434 0.556237 0.087739
0.124422 0.556298 0.087587
0.173587 0.556939 0.088167
0.231449 0.557214 0.090364
0.293889 0.557244 0.092409
0.358190 0.556939 0.094270
0.423774 0.556420 0.096254
0.489265 0.555688 0.099519
0.554955 0.554955 0.103609
0.620356 0.554192 0.107576
0.684260 0.552239 0.112978
0.747311 0.550317 0.118868
0.809506 0.548272 0.125246
0.871061 0.546410 0.132235
0.932219 0.545037 0.140108
0.992706 0.543847 0.148959
0.103304 0.617121 0.104524
0.134768 0.616724 0.104463
0.179782 0.616663 0.104982
0.234745 0.616571 0.106172
0.294285 0.616449 0.107576
0.356786 0.616236 0.108675
0.420600 0.616205 0.111238
0.485176 0.615808 0.114199
0.550164 0.615564 0.117678
0.614954 0.615045 0.121675
0.679683 0.614374 0.125246
0.742306 0.612177 0.131014
0.804288 0.610163 0.136629
0.866514 0.608667 0.143923
0.928374 0.607660 0.152041
0.990295 0.607141 0.161715
0.120882 0.677180 0.120119
0.147555 0.676967 0.120729
0.188571 0.676722 0.121370
0.239689 0.676570 0.121798
0.296757 0.676417 0.122744
0.357061 0.676204 0.124605
0.419379 0.676020 0.127138
0.482429 0.675715 0.129335
0.546197 0.675410 0.132815
0.610132 0.674830 0.136172
0.674067 0.674220 0.139742
0.737636 0.673304 0.143526
0.800137 0.671778 0.149569
0.862791 0.670802 0.156832
0.925353 0.670222 0.164981
0.987549 0.669947 0.175326
0.136995 0.737057 0.137667
0.161074 0.736782 0.137270
0.197848 0.736629 0.138186
0.246128 0.736355 0.138399
0.300603 0.736110 0.139559
0.359014 0.735805 0.141024
0.419471 0.735500 0.142977
0.481300 0.735225 0.145693
0.543938 0.735012 0.147921
0.606928 0.734615 0.151553
0.670283 0.734218 0.155337
0.733639 0.733822 0.159457
0.797147 0.733516 0.164096
0.860044 0.732937 0.171298
0.922881 0.732723 0.179812
0.985779 0.733059 0.191440
0.152682 0.794583 0.152773
0.173953 0.794644 0.153323
0.208194 0.794949 0.154421
0.253635 0.795224 0.155367
0.306249 0.795651 0.156680
0.362585 0.795926 0.159060
0.421912 0.796353 0.161624
0.483040 0.796658 0.164401
0.545220 0.797055 0.168032
0.607965 0.797330 0.172030
0.671138 0.797757 0.176638
0.734646 0.798001 0.181094
0.798276 0.798398 0.186862
0.861479 0.798337 0.192386
0.923644 0.797482 0.200351
0.984588 0.796323 0.210330
0.177890 0.858885 0.177768
0.194217 0.857511 0.176089
0.223545 0.856931 0.176059
0.265537 0.856840 0.176394
0.315007 0.857145 0.178317
0.369390 0.857389 0.180209
0.427039 0.857694 0.183047
0.486519 0.858030 0.185977
0.547539 0.858518 0.189700
0.609064 0.858732 0.193454
0.671443 0.859068 0.198611
0.733974 0.859251 0.203494
0.796780 0.859556 0.209323
0.859373 0.859464 0.214878
0.921599 0.859129 0.220798
0.983246 0.858671 0.230533
0.204379 0.921050 0.204318
0.218326 0.919890 0.202609
0.243870 0.919280 0.201999
0.281743 0.919097 0.202274
0.327825 0.919219 0.204196
0.379736 0.919402 0.206363
0.435218 0.919738 0.209415
0.493019 0.920012 0.212497
0.552422 0.920378 0.216373
0.612848 0.920623 0.220829
0.674098 0.920928 0.225864
0.735805 0.921263 0.231937
0.798093 0.921843 0.238468
0.860258 0.922210 0.246036
0.922362 0.922484 0.253880
0.983734 0.922210 0.260929
0.240787 0.984466 0.241093
0.251835 0.983581 0.239078
0.273594 0.983154 0.238407
0.307073 0.983032 0.238956
0.349340 0.983154 0.240726
0.397742 0.983337 0.243656
0.450294 0.983703 0.246738
0.506004 0.984070 0.250980
0.563775 0.984588 0.256474
0.622919 0.985138 0.262669
0.683162 0.985840 0.269780
0.744045 0.986572 0.277836
0.805692 0.987579 0.288487
0.867399 0.988617 0.299779
0.929381 0.989899 0.313481
0.991272 0.991424 0.329870
0.000061 0.000275 0.085847
0.090883 0.000916 0.090944
0.173556 0.000000 0.091951
0.249912 0.000214 0.087892
0.317845 0.000458 0.085939
0.383459 0.007050 0.085786
0.448524 0.014160 0.086946
0.513909 0.020325 0.088808
0.577478 0.027802 0.091432
0.642023 0.036713 0.094759
0.705806 0.045655 0.098604
0.766171 0.056153 0.103426
0.825681 0.066682 0.108736
0.886351 0.076905 0.115541
0.947021 0.088716 0.122621
1.000000 0.100099 0.130587
0.000000 0.091615 0.091798
0.089601 0.089601 0.089601
0.170840 0.087800 0.087831
0.245670 0.087129 0.086763
0.314946 0.086854 0.086397
0.381353 0.087404 0.086915
0.447852 0.088594 0.088563
0.513176 0.090669 0.090364
0.577081 0.093080 0.092622
0.642237 0.096620 0.095979
0.705623 0.100557 0.100618
0.765774 0.105501 0.105104
0.824949 0.110689 0.109773
0.885466 0.117067 0.116243
0.945953 0.124544 0.123659
1.000000 0.132692 0.131685
0.000000 0.172000 0.089631
0.089113 0.169406 0.088808
0.166873 0.166934 0.088319
0.241215 0.164279 0.088197
0.311467 0.161746 0.088930
0.379858 0.160098 0.089540
0.446418 0.158846 0.091127
0.511711 0.158419 0.093263
0.576867 0.158602 0.095796
0.641779 0.159609 0.099123
0.704158 0.160678 0.102327
0.763943 0.162173 0.106844
0.823178 0.164492 0.112276
0.883970 0.168215 0.118502
0.944610 0.172702 0.125948
1.000000 0.178073 0.134066
0.010620 0.242557 0.091127
0.090700 0.240543 0.090791
0.163668 0.238346 0.090639
0.236210 0.236515 0.090700
0.306676 0.233555 0.092439
0.375097 0.230961 0.092866
0.441840 0.228672 0.094972
0.508141 0.227237 0.097353
0.573693 0.226291 0.099245
0.638361 0.225711 0.102510
0.700740 0.225101 0.106111
0.760739 0.225101 0.110597
0.821439 0.225620 0.116091
0.882048 0.227329 0.121859
0.941741 0.229282 0.128847
1.000000 0.232151 0.136263
0.027008 0.305211 0.094240
0.094911 0.304723 0.095186
0.162020 0.303563 0.094942
0.230716 0.302037 0.095949
0.300023 0.300053 0.096742
0.368414 0.297887 0.098329
0.435523 0.295842 0.099611
0.502342 0.294224 0.101534
0.567864 0.292821 0.104402
0.633417 0.291783 0.107362
0.696254 0.290715 0.110903
0.757870 0.289616 0.115755
0.819547 0.289616 0.121187
0.881193 0.290288 0.127382
0.942077 0.291203 0.134371
1.000000 0.292576 0.141665
0.044038 0.369879 0.101167
0.101472 0.369818 0.101045
0.162936 0.369146 0.102083
0.229435 0.368139 0.102815
0.297154 0.366644 0.103639
0.364996 0.365087 0.104921
0.432197 0.363195 0.106569
0.498665 0.361547 0.108492
0.564538 0.359808 0.110750
0.629847 0.358434 0.113893
0.692470 0.356451 0.118013
0.754788 0.354986 0.122042
0.816312 0.353979 0.127596
0.877714 0.353582 0.133272
0.938659 0.353674 0.139406
0.998962 0.354223 0.146670
0.062226 0.435187 0.109712
0.109957 0.435492 0.110445
0.167300 0.434882 0.110018
0.230320 0.433967 0.111269
0.296361 0.432776 0.112093
0.363012 0.431342 0.113466
0.429725 0.429786 0.114473
0.496010 0.428107 0.116915
0.561334 0.426184 0.118990
0.626032 0.424170 0.121584
0.688411 0.421424 0.125063
0.750607 0.419471 0.129213
0.812222 0.417853 0.133730
0.873777 0.416938 0.139620
0.934997 0.416358 0.145815
0.996033 0.416541 0.153048
0.076356 0.497932 0.118105
0.118532 0.498634 0.118318
0.170748 0.498512 0.119081
0.231662 0.497841 0.119051
0.295567 0.496803 0.120302
0.360845 0.495338 0.121675
0.426490 0.493751 0.122927
0.492012 0.492134 0.124514
0.557183 0.490394 0.126314
0.621118 0.488014 0.129183
0.683894 0.485389 0.133242
0.746304 0.483314 0.137240
0.808225 0.481483 0.141787
0.869596 0.479957 0.147219
0.930724 0.478920 0.152804
0.992981 0.479347 0.161074
0.089418 0.557488 0.125551
0.125734 0.557305 0.125978
0.174563 0.557214 0.126589
0.231846 0.556939 0.127291
0.294285 0.556420 0.128115
0.357946 0.555993 0.129274
0.423102 0.555505 0.131319
0.488533 0.554681 0.133516
0.553735 0.553826 0.136110
0.618952 0.552911 0.138796
0.682551 0.550988 0.142916
0.745602 0.549096 0.147616
0.807706 0.547143 0.152041
0.869596 0.545647 0.157900
0.931334 0.544640 0.164675
0.992554 0.543969 0.171969
0.105867 0.617212 0.136965
0.137148 0.616938 0.136660
0.181003 0.616693 0.137209
0.235233 0.616480 0.137575
0.294743 0.616266 0.139071
0.356786 0.615930 0.140688
0.420356 0.615534 0.141848
0.484504 0.614954 0.144381
0.549126 0.614343 0.146944
0.613703 0.613672 0.149325
0.677913 0.612940 0.152499
0.740627 0.610834 0.156588
0.802945 0.609064 0.161715
0.865415 0.608026 0.167575
0.927764 0.607294 0.174472
0.990082 0.607263 0.183017
0.122164 0.677272 0.149142
0.149325 0.677211 0.149660
0.189670 0.676967 0.149416
0.240482 0.676661 0.150057
0.297276 0.676326 0.151125
0.357366 0.675776 0.151980
0.419104 0.675227 0.153445
0.482033 0.674708 0.155337
0.545556 0.674281 0.158328
0.609155 0.673701 0.160494
0.672816 0.672938 0.163546
0.736324 0.672053 0.166598
0.799161 0.670954 0.171603
0.861997 0.670222 0.178164
0.924743 0.669856 0.185580
0.987152 0.669764 0.194583
0.137972 0.736721 0.162417
0.162203 0.736568 0.162539
0.198795 0.736294 0.162936
0.246616 0.736080 0.163088
0.300603 0.735866 0.164065
0.359045 0.735531 0.165164
0.419471 0.735256 0.166964
0.481331 0.734890 0.168917
0.543694 0.734554 0.171084
0.606592 0.734035 0.173678
0.669734 0.733516 0.176547
0.732906 0.733059 0.179873
0.796231 0.732631 0.184085
0.859007 0.732082 0.189883
0.921752 0.731807 0.197726
0.984802 0.732296 0.208072
0.153780 0.795071 0.175662
0.175357 0.795102 0.175906
0.209262 0.795315 0.176303
0.254398 0.795438 0.177066
0.306584 0.795773 0.178592
0.363165 0.795987 0.180453
0.422492 0.796414 0.182559
0.483253 0.796628 0.185336
0.545403 0.796994 0.188083
0.607935 0.797177 0.191958
0.671138 0.797543 0.195895
0.734463 0.797818 0.199863
0.798062 0.798245 0.205356
0.861326 0.798184 0.210056
0.923491 0.797513 0.217746
0.984710 0.796445 0.226261
0.178805 0.859159 0.197177
0.195438 0.857877 0.195834
0.224613 0.857328 0.195438
0.266117 0.857237 0.196109
0.315587 0.857450 0.197543
0.369970 0.857633 0.199161
0.427436 0.857847 0.201328
0.486793 0.858091 0.204044
0.547723 0.858457 0.207645
0.609125 0.858640 0.211185
0.671382 0.858915 0.215396
0.733913 0.859129 0.219669
0.796750 0.859464 0.224979
0.859342 0.859434 0.230930
0.921599 0.859190 0.235966
0.983368 0.858793 0.245243
0.204959 0.921233 0.220981
0.219303 0.920134 0.219333
0.244968 0.919585 0.218936
0.282475 0.919432 0.219394
0.328618 0.919524 0.220584
0.380133 0.919677 0.222629
0.435615 0.919951 0.225101
0.493233 0.920165 0.228214
0.552636 0.920409 0.231601
0.612940 0.920592 0.235996
0.674159 0.920897 0.240299
0.735866 0.921202 0.246067
0.798032 0.921752 0.252232
0.860227 0.922179 0.259495
0.922393 0.922515 0.266972
0.983825 0.922271 0.273442
0.241764 0.984588 0.254856
0.252873 0.983764 0.253086
0.274449 0.983368 0.252354
0.307897 0.983246 0.253239
0.349859 0.983368 0.254704
0.398230 0.983581 0.257450
0.450874 0.983917 0.260258
0.506279 0.984253 0.264286
0.563989 0.984710 0.269352
0.623133 0.985229 0.274907
0.683314 0.985870 0.281529
0.744167 0.986542 0.289616
0.805661 0.987488 0.299077
0.867338 0.988495 0.309911
0.929290 0.989807 0.323156
0.991211 0.991363 0.339086
0.000427 0.000000 0.179263
0.094270 0.000092 0.176699
0.171786 0.000122 0.172122
0.246128 0.000031 0.166934
0.314977 0.001129 0.161959
0.379553 0.012421 0.158999
0.444556 0.024811 0.158877
0.509514 0.034821 0.158846
0.573571 0.041321 0.158816
0.638727 0.049714 0.160037
0.702541 0.057618 0.161746
0.763272 0.067079 0.163912
0.823148 0.076295 0.165896
0.884520 0.086244 0.169680
0.945586 0.096407 0.174472
1.000000 0.106294 0.178805
0.000000 0.090761 0.176059
0.088380 0.088197 0.171908
0.168307 0.086915 0.168124
0.242405 0.086946 0.164645
0.310674 0.088624 0.161715
0.377447 0.091981 0.160494
0.443641 0.094545 0.159792
0.508904 0.096773 0.159976
0.573816 0.099458 0.159945
0.639216 0.102602 0.160861
0.702541 0.107240 0.162722
0.762966 0.111849 0.164614
0.822660 0.116426 0.166903
0.883757 0.122805 0.170718
0.944610 0.130190 0.174777
1.000000 0.137301 0.179721
0.000000 0.169741 0.169711
0.089235 0.167330 0.167575
0.165347 0.165347 0.165347
0.238346 0.163729 0.163821
0.308293 0.162753 0.162661
0.376287 0.162081 0.161929
0.442939 0.161349 0.161196
0.508293 0.161166 0.160891
0.574182 0.161654 0.161654
0.639002 0.162722 0.162448
0.701472 0.164034 0.163882
0.761349 0.165743 0.165591
0.821256 0.168185 0.167849
0.882261 0.171786 0.171389
0.943236 0.176181 0.175570
1.000000 0.180911 0.180392
0.015381 0.240757 0.166018
0.094118 0.238895 0.165103
0.164187 0.237003 0.164157
0.235080 0.235233 0.163516
0.304570 0.233066 0.162844
0.372473 0.231144 0.162448
0.439307 0.229252 0.162356
0.506065 0.228397 0.162539
0.571252 0.227634 0.163180
0.636072 0.227054 0.164126
0.698360 0.226841 0.165377
0.758541 0.226810 0.167056
0.819669 0.227909 0.170108
0.880369 0.229343 0.173068
0.940307 0.231235 0.176852
1.000000 0.233982 0.181521
0.038209 0.303655 0.163943
0.100282 0.303105 0.163546
0.163546 0.302251 0.163485
0.230930 0.300786 0.162966
0.299077 0.299107 0.162692
0.366613 0.297246 0.162631
0.433692 0.295598 0.163210
0.500206 0.294194 0.163821
0.565850 0.293004 0.164492
0.631220 0.292119 0.165530
0.694179 0.291173 0.167117
0.756130 0.290776 0.169680
0.818173 0.290745 0.172641
0.879911 0.291539 0.176822
0.941039 0.292638 0.180911
1.000000 0.293828 0.185763
0.053773 0.368963 0.165347
0.106142 0.368933 0.165133
0.165225 0.368292 0.165499
0.230289 0.367132 0.165469
0.297093 0.365728 0.165560
0.364202 0.364294 0.165530
0.430762 0.362524 0.166171
0.497414 0.360998 0.166812
0.563104 0.359533 0.167819
0.628168 0.358129 0.169009
0.691005 0.356573 0.170901
0.753292 0.355291 0.173159
0.815091 0.354437 0.176120
0.876677 0.354070 0.180056
0.937774 0.354284 0.183932
0.998444 0.354955 0.189242
0.068879 0.434241 0.168215
0.113649 0.434607 0.168704
0.168887 0.434180 0.168917
0.231113 0.433326 0.169162
0.296544 0.432074 0.168948
0.362890 0.430671 0.169589
0.429175 0.429267 0.169986
0.495094 0.427588 0.170809
0.560327 0.425696 0.171450
0.624872 0.423743 0.172610
0.687221 0.421332 0.175113
0.749477 0.419440 0.177401
0.811154 0.417975 0.180362
0.872801 0.417090 0.184115
0.934142 0.416785 0.188449
0.995483 0.417121 0.193729
0.081056 0.497261 0.171511
0.120516 0.498054 0.172274
0.172396 0.497871 0.172183
0.232700 0.497261 0.172549
0.295811 0.496223 0.173159
0.360723 0.494789 0.173342
0.426062 0.493141 0.173861
0.491524 0.491585 0.174838
0.556481 0.489845 0.175448
0.620325 0.487648 0.177584
0.683101 0.485145 0.179324
0.745480 0.483162 0.182132
0.807401 0.481453 0.185275
0.868742 0.480049 0.188876
0.930114 0.479164 0.193027
0.992493 0.479561 0.198947
0.091920 0.557092 0.175204
0.127901 0.556939 0.175113
0.175601 0.556756 0.175448
0.232731 0.556390 0.176272
0.294194 0.556023 0.176791
0.358251 0.555474 0.177554
0.422766 0.555016 0.178653
0.488075 0.554314 0.180087
0.553338 0.553429 0.182010
0.618341 0.552514 0.183780
0.681971 0.550713 0.187076
0.744869 0.548913 0.190127
0.807065 0.546990 0.193179
0.869078 0.545586 0.197574
0.930877 0.544823 0.202365
0.992279 0.544244 0.208103
0.108370 0.616907 0.182071
0.138796 0.616693 0.182040
0.182284 0.616510 0.182406
0.236362 0.616297 0.182681
0.295445 0.616114 0.183780
0.357153 0.615747 0.184421
0.420630 0.615229 0.185855
0.484443 0.614710 0.187411
0.548974 0.614160 0.189212
0.613428 0.613458 0.190799
0.677516 0.612543 0.192813
0.740139 0.610651 0.196262
0.802487 0.608972 0.199680
0.865049 0.607935 0.204166
0.927428 0.607446 0.209873
0.989899 0.607416 0.216617
0.124361 0.677028 0.190433
0.150942 0.677089 0.191104
0.191348 0.676844 0.191012
0.241337 0.676600 0.191623
0.297887 0.676204 0.192233
0.357794 0.675685 0.192905
0.419409 0.675135 0.194064
0.482216 0.674678 0.195132
0.545617 0.674189 0.197086
0.609155 0.673457 0.198764
0.672541 0.672694 0.201083
0.735958 0.671809 0.203494
0.798795 0.670832 0.207706
0.861723 0.670161 0.212467
0.924529 0.669917 0.218448
0.986999 0.669917 0.225711
0.140078 0.736568 0.200320
0.164248 0.736416 0.200046
0.200259 0.736141 0.200290
0.247715 0.735958 0.200473
0.301610 0.735744 0.201266
0.359655 0.735439 0.202396
0.419989 0.735195 0.203494
0.481544 0.734829 0.204898
0.543847 0.734463 0.206577
0.606714 0.733944 0.208682
0.669795 0.733394 0.210941
0.732876 0.732937 0.213901
0.796048 0.732540 0.216892
0.858854 0.731991 0.221958
0.921538 0.731807 0.228275
0.984619 0.732326 0.237034
0.155886 0.795132 0.209964
0.177066 0.795163 0.210269
0.210636 0.795315 0.210849
0.255375 0.795499 0.211551
0.307256 0.795804 0.212833
0.363836 0.795987 0.214084
0.422919 0.796414 0.215946
0.483528 0.796658 0.218326
0.545678 0.796994 0.220768
0.608148 0.797208 0.223606
0.671199 0.797604 0.226902
0.734585 0.797848 0.230930
0.798184 0.798276 0.235019
0.861234 0.798215 0.239445
0.923461 0.797513 0.245579
0.984710 0.796536 0.253269
0.180423 0.859190 0.228000
0.196933 0.857969 0.226352
0.226047 0.857450 0.226291
0.267247 0.857359 0.226474
0.316472 0.857572 0.227878
0.370611 0.857664 0.229587
0.427924 0.857908 0.231357
0.487282 0.858183 0.233738
0.547997 0.858549 0.236484
0.609491 0.858701 0.239719
0.671626 0.859007 0.243565
0.734096 0.859190 0.247410
0.796811 0.859525 0.252445
0.859403 0.859495 0.257084
0.921630 0.859190 0.261784
0.983398 0.858946 0.269688
0.206607 0.921233 0.248325
0.220432 0.920195 0.246281
0.245731 0.919677 0.245823
0.283391 0.919524 0.246220
0.329229 0.919615 0.247868
0.380774 0.919768 0.249516
0.436011 0.920073 0.251774
0.493660 0.920256 0.254276
0.552941 0.920500 0.257115
0.613245 0.920653 0.260838
0.674403 0.920958 0.265110
0.736019 0.921294 0.270268
0.798215 0.921843 0.275822
0.860410 0.922240 0.282139
0.922454 0.922606 0.289189
0.983856 0.922393 0.295201
0.242435 0.984680 0.277867
0.253422 0.983886 0.275883
0.275242 0.983429 0.275303
0.308568 0.983337 0.276097
0.350591 0.983520 0.277531
0.398779 0.983703 0.280034
0.451179 0.984009 0.282902
0.506706 0.984344 0.286381
0.564385 0.984771 0.290806
0.623438 0.985321 0.296422
0.683650 0.985962 0.302708
0.744411 0.986603 0.309972
0.805844 0.987549 0.318883
0.867460 0.988556 0.328893
0.929412 0.989868 0.341527
0.991272 0.991424 0.356725
0.000183 0.000000 0.255589
0.090944 0.000031 0.252842
0.167178 0.000153 0.247257
0.241123 0.000153 0.241459
0.310613 0.002686 0.235050
0.376806 0.013275 0.230320
0.442176 0.025269 0.227726
0.506798 0.036988 0.226200
0.570916 0.047944 0.225650
0.635798 0.058381 0.225956
0.699702 0.066011 0.226413
0.760464 0.075929 0.227024
0.820981 0.084443 0.227787
0.882780 0.094240 0.229892
0.944060 0.103883 0.232395
1.000000 0.112856 0.234836
0.000000 0.088014 0.250675
0.087190 0.086885 0.246464
0.164431 0.086244 0.242069
0.237919 0.086763 0.238010
0.307469 0.088350 0.233371
0.375158 0.091768 0.230564
0.441169 0.095521 0.228305
0.505882 0.099611 0.227298
0.571130 0.103853 0.226780
0.636316 0.107698 0.226993
0.699702 0.111238 0.226780
0.760220 0.117281 0.227237
0.820645 0.122103 0.228183
0.881956 0.128847 0.229892
0.943084 0.135256 0.232486
1.000000 0.142397 0.235050
0.004242 0.166415 0.243748
0.090150 0.164858 0.240726
0.163607 0.163760 0.237797
0.235966 0.162631 0.235996
0.305425 0.162417 0.233158
0.373297 0.162570 0.231266
0.439673 0.162783 0.229679
0.505455 0.163241 0.228733
0.571130 0.164065 0.228092
0.636103 0.165011 0.227573
0.698543 0.166567 0.227420
0.758633 0.168795 0.227695
0.819211 0.171786 0.228702
0.880583 0.175509 0.230228
0.941772 0.179751 0.232975
1.000000 0.184573 0.235782
0.019074 0.238468 0.238468
0.094881 0.236759 0.236912
0.164157 0.235111 0.235111
0.233677 0.233677 0.233677
0.302007 0.232273 0.232120
0.369726 0.230900 0.230838
0.436866 0.229740 0.229526
0.503410 0.229099 0.228977
0.568750 0.228183 0.228183
0.633478 0.227970 0.227939
0.695796 0.228122 0.227817
0.756344 0.228733 0.228031
0.817929 0.229862 0.229679
0.878782 0.231540 0.231327
0.938933 0.233494 0.233097
0.999115 0.236027 0.235752
0.041321 0.301823 0.231876
0.102266 0.301244 0.231601
0.164065 0.300389 0.231083
0.230564 0.299260 0.230564
0.297704 0.297704 0.229526
0.365057 0.296269 0.228946
0.431769 0.294835 0.228550
0.498421 0.293950 0.228122
0.563897 0.292851 0.227817
0.629175 0.292210 0.228122
0.691981 0.291600 0.228367
0.754482 0.291508 0.229801
0.816617 0.292027 0.231571
0.878538 0.293034 0.233799
0.939788 0.294194 0.236362
0.999786 0.295628 0.239139
0.059754 0.367590 0.230900
0.109316 0.367468 0.231144
0.166506 0.366857 0.230838
0.230381 0.365850 0.230503
0.296422 0.364569 0.229862
0.363104 0.363195 0.229374
0.429664 0.361669 0.229282
0.495888 0.360418 0.228946
0.561456 0.359106 0.229221
0.626612 0.358007 0.229343
0.689448 0.356603 0.230289
0.751827 0.355688 0.231846
0.813626 0.355016 0.233402
0.875364 0.355016 0.235691
0.936675 0.355352 0.238254
0.997620 0.356207 0.241245
0.070649 0.432837 0.231662
0.115694 0.433143 0.231907
0.169314 0.432837 0.231662
0.231540 0.432044 0.231724
0.296178 0.430915 0.231327
0.362188 0.429694 0.231083
0.428290 0.428351 0.231144
0.493904 0.426703 0.230991
0.559045 0.424964 0.231235
0.623529 0.423194 0.231571
0.685878 0.420996 0.232639
0.748104 0.419532 0.234043
0.809995 0.418219 0.235447
0.871672 0.417670 0.238071
0.933196 0.417334 0.240696
0.994751 0.417853 0.244114
0.082734 0.496162 0.232059
