luts/FUJI_ACROS.cube
#Generated for krafta web app
#Black and White LUTs
TITLE "Fuji XTrans III - Acros"
#LUT size
LUT_3D_SIZE 9
#LUT data points
0.003922 0.003922 0.003922
0.015686 0.015686 0.015686
0.047059 0.047059 0.047059
0.125490 0.125490 0.125490
0.172549 0.172549 0.172549
0.321569 0.321569 0.321569
0.356863 0.356863 0.356863
0.415686 0.415686 0.415686
0.415686 0.415686 0.415686
0.011765 0.011765 0.011765
0.031373 0.031373 0.031373
0.078431 0.078431 0.078431
0.149020 0.149020 0.149020
0.227451 0.227451 0.227451
0.321569 0.321569 0.321569
0.400000 0.400000 0.400000
0.403922 0.403922 0.403922
0.494118 0.494118 0.494118
0.086275 0.086275 0.086275
0.090196 0.090196 0.090196
0.125490 0.125490 0.125490
0.211765 0.211765 0.211765
0.286275 0.286275 0.286275
0.376471 0.376471 0.376471
0.450980 0.450980 0.450980
0.490196 0.490196 0.490196
0.501961 0.501961 0.501961
0.133333 0.133333 0.133333
0.207843 0.207843 0.207843
0.243137 0.243137 0.243137
0.321569 0.321569 0.321569
0.372549 0.372549 0.372549
0.443137 0.443137 0.443137
0.509804 0.509804 0.509804
0.501961 0.501961 0.501961
0.501961 0.501961 0.501961
0.266667 0.266667 0.266667
0.270588 0.270588 0.270588
0.345098 0.345098 0.345098
0.423529 0.423529 0.423529
0.478431 0.478431 0.478431
0.525490 0.525490 0.525490
0.584314 0.584314 0.584314
0.588235 0.588235 0.588235
0.623529 0.623529 0.623529
0.196078 0.196078 0.196078
0.270588 0.270588 0.270588
0.364706 0.364706 0.364706
0.462745 0.462745 0.462745
0.592157 0.592157 0.592157
0.580392 0.580392 0.580392
0.662745 0.662745 0.662745
0.690196 0.690196 0.690196
0.694118 0.694118 0.694118
0.384314 0.384314 0.384314
0.270588 0.270588 0.270588
0.352941 0.352941 0.352941
0.525490 0.525490 0.525490
0.584314 0.584314 0.584314
0.596078 0.596078 0.596078
0.662745 0.662745 0.662745
0.694118 0.694118 0.694118
0.752941 0.752941 0.752941
0.411765 0.411765 0.411765
0.364706 0.364706 0.364706
0.541176 0.541176 0.541176
0.592157 0.592157 0.592157
0.647059 0.647059 0.647059
0.658824 0.658824 0.658824
0.674510 0.674510 0.674510
0.752941 0.752941 0.752941
0.752941 0.752941 0.752941
0.411765 0.411765 0.411765
0.360784 0.360784 0.360784
0.541176 0.541176 0.541176
0.588235 0.588235 0.588235
0.647059 0.647059 0.647059
0.686275 0.686275 0.686275
0.749020 0.749020 0.749020
0.772549 0.772549 0.772549
0.788235 0.788235 0.788235
0.011765 0.011765 0.011765
0.015686 0.015686 0.015686
0.086275 0.086275 0.086275
0.113725 0.113725 0.113725
0.247059 0.247059 0.247059
0.384314 0.384314 0.384314
0.419608 0.419608 0.419608
0.419608 0.419608 0.419608
0.513725 0.513725 0.513725
0.031373 0.031373 0.031373
0.047059 0.047059 0.047059
0.094118 0.094118 0.094118
0.164706 0.164706 0.164706
0.247059 0.247059 0.247059
0.341176 0.341176 0.341176
0.415686 0.415686 0.415686
0.474510 0.474510 0.474510
0.525490 0.525490 0.525490
0.098039 0.098039 0.098039
0.101961 0.101961 0.101961
0.145098 0.145098 0.145098
0.215686 0.215686 0.215686
0.294118 0.294118 0.294118
0.380392 0.380392 0.380392
0.454902 0.454902 0.454902
0.490196 0.490196 0.490196
0.560784 0.560784 0.560784
0.200000 0.200000 0.200000
0.219608 0.219608 0.219608
0.254902 0.254902 0.254902
0.317647 0.317647 0.317647
0.388235 0.388235 0.388235
0.466667 0.466667 0.466667
0.521569 0.521569 0.521569
0.552941 0.552941 0.552941
0.627451 0.627451 0.627451
0.278431 0.278431 0.278431
0.356863 0.356863 0.356863
0.360784 0.360784 0.360784
0.423529 0.423529 0.423529
0.486275 0.486275 0.486275
0.549020 0.549020 0.549020
0.596078 0.596078 0.596078
0.623529 0.623529 0.623529
0.662745 0.662745 0.662745
0.380392 0.380392 0.380392
0.411765 0.411765 0.411765
0.419608 0.419608 0.419608
0.474510 0.474510 0.474510
0.584314 0.584314 0.584314
0.623529 0.623529 0.623529
0.666667 0.666667 0.666667
0.721569 0.721569 0.721569
0.768627 0.768627 0.768627
0.411765 0.411765 0.411765
0.415686 0.415686 0.415686
0.537255 0.537255 0.537255
0.588235 0.588235 0.588235
0.639216 0.639216 0.639216
0.662745 0.662745 0.662745
0.701961 0.701961 0.701961
0.752941 0.752941 0.752941
0.752941 0.752941 0.752941
0.482353 0.482353 0.482353
0.415686 0.415686 0.415686
0.541176 0.541176 0.541176
0.588235 0.588235 0.588235
0.650980 0.650980 0.650980
0.690196 0.690196 0.690196
0.749020 0.749020 0.749020
0.772549 0.772549 0.772549
0.788235 0.788235 0.788235
0.482353 0.482353 0.482353
0.423529 0.423529 0.423529
0.603922 0.603922 0.603922
0.627451 0.627451 0.627451
0.650980 0.650980 0.650980
0.686275 0.686275 0.686275
0.749020 0.749020 0.749020
0.792157 0.792157 0.792157
0.835294 0.835294 0.835294
0.043137 0.043137 0.043137
0.086275 0.086275 0.086275
0.164706 0.164706 0.164706
0.215686 0.215686 0.215686
0.301961 0.301961 0.301961
0.380392 0.380392 0.380392
0.462745 0.462745 0.462745
0.490196 0.490196 0.490196
0.549020 0.549020 0.549020
0.074510 0.074510 0.074510
0.090196 0.090196 0.090196
0.129412 0.129412 0.129412
0.211765 0.211765 0.211765
0.286275 0.286275 0.286275
0.376471 0.376471 0.376471
0.447059 0.447059 0.447059
0.486275 0.486275 0.486275
0.529412 0.529412 0.529412
0.137255 0.137255 0.137255
0.145098 0.145098 0.145098
0.184314 0.184314 0.184314
0.258824 0.258824 0.258824
0.337255 0.337255 0.337255
0.415686 0.415686 0.415686
0.486275 0.486275 0.486275
0.560784 0.560784 0.560784
0.588235 0.588235 0.588235
0.239216 0.239216 0.239216
0.247059 0.247059 0.247059
0.286275 0.286275 0.286275
0.349020 0.349020 0.349020
0.419608 0.419608 0.419608
0.490196 0.490196 0.490196
0.545098 0.545098 0.545098
0.600000 0.600000 0.600000
0.615686 0.615686 0.615686
0.376471 0.376471 0.376471
0.368627 0.368627 0.368627
0.396078 0.396078 0.396078
0.450980 0.450980 0.450980
0.505882 0.505882 0.505882
0.564706 0.564706 0.564706
0.615686 0.615686 0.615686
0.666667 0.666667 0.666667
0.670588 0.670588 0.670588
0.435294 0.435294 0.435294
0.427451 0.427451 0.427451
0.494118 0.494118 0.494118
0.537255 0.537255 0.537255
0.588235 0.588235 0.588235
0.639216 0.639216 0.639216
0.690196 0.690196 0.690196
0.729412 0.729412 0.729412
0.768627 0.768627 0.768627
0.435294 0.435294 0.435294
0.560784 0.560784 0.560784
0.541176 0.541176 0.541176
0.619608 0.619608 0.619608
0.662745 0.662745 0.662745
0.686275 0.686275 0.686275
0.749020 0.749020 0.749020
0.788235 0.788235 0.788235
0.827451 0.827451 0.827451
0.490196 0.490196 0.490196
0.474510 0.474510 0.474510
0.603922 0.603922 0.603922
0.627451 0.627451 0.627451
0.666667 0.666667 0.666667
0.694118 0.694118 0.694118
0.749020 0.749020 0.749020
0.835294 0.835294 0.835294
0.823529 0.823529 0.823529
0.494118 0.494118 0.494118
0.478431 0.478431 0.478431
0.603922 0.603922 0.603922
0.623529 0.623529 0.623529
0.666667 0.666667 0.666667
0.745098 0.745098 0.745098
0.792157 0.792157 0.792157
0.835294 0.835294 0.835294
0.835294 0.835294 0.835294
0.137255 0.137255 0.137255
0.160784 0.160784 0.160784
0.215686 0.215686 0.215686
0.266667 0.266667 0.266667
0.360784 0.360784 0.360784
0.423529 0.423529 0.423529
0.494118 0.494118 0.494118
0.572549 0.572549 0.572549
0.576471 0.576471 0.576471
0.133333 0.133333 0.133333
0.156863 0.156863 0.156863
0.200000 0.200000 0.200000
0.270588 0.270588 0.270588
0.349020 0.349020 0.349020
0.423529 0.423529 0.423529
0.494118 0.494118 0.494118
0.549020 0.549020 0.549020
0.607843 0.607843 0.607843
0.200000 0.200000 0.200000
0.219608 0.219608 0.219608
0.250980 0.250980 0.250980
0.321569 0.321569 0.321569
0.388235 0.388235 0.388235
0.458824 0.458824 0.458824
0.525490 0.525490 0.525490
0.584314 0.584314 0.584314
0.600000 0.600000 0.600000
0.298039 0.298039 0.298039
0.309804 0.309804 0.309804
0.345098 0.345098 0.345098
0.400000 0.400000 0.400000
0.458824 0.458824 0.458824
0.525490 0.525490 0.525490
0.580392 0.580392 0.580392
0.627451 0.627451 0.627451
0.654902 0.654902 0.654902
0.403922 0.403922 0.403922
0.407843 0.407843 0.407843
0.435294 0.435294 0.435294
0.486275 0.486275 0.486275
0.537255 0.537255 0.537255
0.592157 0.592157 0.592157
0.647059 0.647059 0.647059
0.690196 0.690196 0.690196
0.713725 0.713725 0.713725
0.458824 0.458824 0.458824
0.505882 0.505882 0.505882
0.533333 0.533333 0.533333
0.568627 0.568627 0.568627
0.615686 0.615686 0.615686
0.662745 0.662745 0.662745
0.709804 0.709804 0.709804
0.749020 0.749020 0.749020
0.772549 0.772549 0.772549
0.513725 0.513725 0.513725
0.584314 0.584314 0.584314
0.596078 0.596078 0.596078
0.631373 0.631373 0.631373
0.678431 0.678431 0.678431
0.721569 0.721569 0.721569
0.764706 0.764706 0.764706
0.807843 0.807843 0.807843
0.835294 0.835294 0.835294
0.588235 0.588235 0.588235
0.588235 0.588235 0.588235
0.662745 0.662745 0.662745
0.674510 0.674510 0.674510
0.717647 0.717647 0.717647
0.752941 0.752941 0.752941
0.796078 0.796078 0.796078
0.839216 0.839216 0.839216
0.862745 0.862745 0.862745
0.588235 0.588235 0.588235
0.588235 0.588235 0.588235
0.670588 0.670588 0.670588
0.674510 0.674510 0.674510
0.717647 0.717647 0.717647
0.752941 0.752941 0.752941
0.807843 0.807843 0.807843
0.882353 0.882353 0.882353
0.905882 0.905882 0.905882
0.219608 0.219608 0.219608
0.243137 0.243137 0.243137
0.286275 0.286275 0.286275
0.341176 0.341176 0.341176
0.407843 0.407843 0.407843
0.474510 0.474510 0.474510
0.541176 0.541176 0.541176
0.600000 0.600000 0.600000
0.631373 0.631373 0.631373
0.219608 0.219608 0.219608
0.254902 0.254902 0.254902
0.298039 0.298039 0.298039
0.352941 0.352941 0.352941
0.415686 0.415686 0.415686
0.482353 0.482353 0.482353
0.545098 0.545098 0.545098
0.600000 0.600000 0.600000
0.619608 0.619608 0.619608
0.262745 0.262745 0.262745
0.298039 0.298039 0.298039
0.341176 0.341176 0.341176
0.388235 0.388235 0.388235
0.447059 0.447059 0.447059
0.509804 0.509804 0.509804
0.568627 0.568627 0.568627
0.619608 0.619608 0.619608
0.654902 0.654902 0.654902
0.352941 0.352941 0.352941
0.380392 0.380392 0.380392
0.407843 0.407843 0.407843
0.462745 0.462745 0.462745
0.513725 0.513725 0.513725
0.564706 0.564706 0.564706
0.615686 0.615686 0.615686
0.666667 0.666667 0.666667
0.690196 0.690196 0.690196
0.450980 0.450980 0.450980
0.466667 0.466667 0.466667
0.494118 0.494118 0.494118
0.533333 0.533333 0.533333
0.580392 0.580392 0.580392
0.627451 0.627451 0.627451
0.678431 0.678431 0.678431
0.717647 0.717647 0.717647
0.741176 0.741176 0.741176
0.537255 0.537255 0.537255
0.549020 0.549020 0.549020
0.568627 0.568627 0.568627
0.603922 0.603922 0.603922
0.647059 0.647059 0.647059
0.690196 0.690196 0.690196
0.729412 0.729412 0.729412
0.772549 0.772549 0.772549
0.796078 0.796078 0.796078
0.592157 0.592157 0.592157
0.588235 0.588235 0.588235
0.635294 0.635294 0.635294
0.666667 0.666667 0.666667
0.705882 0.705882 0.705882
0.745098 0.745098 0.745098
0.784314 0.784314 0.784314
0.831373 0.831373 0.831373
0.890196 0.890196 0.890196
0.631373 0.631373 0.631373
0.623529 0.623529 0.623529
0.674510 0.674510 0.674510
0.694118 0.694118 0.694118
0.733333 0.733333 0.733333
0.780392 0.780392 0.780392
0.819608 0.819608 0.819608
0.882353 0.882353 0.882353
0.905882 0.905882 0.905882
0.635294 0.635294 0.635294
0.627451 0.627451 0.627451
0.678431 0.678431 0.678431
0.694118 0.694118 0.694118
0.733333 0.733333 0.733333
0.780392 0.780392 0.780392
0.882353 0.882353 0.882353
0.882353 0.882353 0.882353
0.905882 0.905882 0.905882
0.294118 0.294118 0.294118
0.321569 0.321569 0.321569
0.352941 0.352941 0.352941
0.407843 0.407843 0.407843
0.470588 0.470588 0.470588
0.529412 0.529412 0.529412
0.596078 0.596078 0.596078
0.643137 0.643137 0.643137
0.694118 0.694118 0.694118
0.305882 0.305882 0.305882
0.341176 0.341176 0.341176
0.376471 0.376471 0.376471
0.423529 0.423529 0.423529
0.478431 0.478431 0.478431
0.537255 0.537255 0.537255
0.596078 0.596078 0.596078
0.647059 0.647059 0.647059
0.678431 0.678431 0.678431
0.341176 0.341176 0.341176
0.392157 0.392157 0.392157
0.423529 0.423529 0.423529
0.462745 0.462745 0.462745
0.513725 0.513725 0.513725
0.564706 0.564706 0.564706
0.615686 0.615686 0.615686
0.666667 0.666667 0.666667
0.690196 0.690196 0.690196
0.415686 0.415686 0.415686
0.454902 0.454902 0.454902
0.478431 0.478431 0.478431
0.517647 0.517647 0.517647
0.564706 0.564706 0.564706
0.611765 0.611765 0.611765
0.658824 0.658824 0.658824
0.701961 0.701961 0.701961
0.725490 0.725490 0.725490
0.501961 0.501961 0.501961
0.521569 0.521569 0.521569
0.545098 0.545098 0.545098
0.580392 0.580392 0.580392
0.623529 0.623529 0.623529
0.666667 0.666667 0.666667
0.705882 0.705882 0.705882
0.749020 0.749020 0.749020
0.772549 0.772549 0.772549
0.584314 0.584314 0.584314
0.596078 0.596078 0.596078
0.615686 0.615686 0.615686
0.647059 0.647059 0.647059
0.686275 0.686275 0.686275
0.721569 0.721569 0.721569
0.760784 0.760784 0.760784
0.800000 0.800000 0.800000
0.823529 0.823529 0.823529
0.650980 0.650980 0.650980
0.662745 0.662745 0.662745
0.674510 0.674510 0.674510
0.701961 0.701961 0.701961
0.737255 0.737255 0.737255
0.772549 0.772549 0.772549
0.811765 0.811765 0.811765
0.854902 0.854902 0.854902
0.913725 0.913725 0.913725
0.694118 0.694118 0.694118
0.694118 0.694118 0.694118
0.705882 0.705882 0.705882
0.729412 0.729412 0.729412
0.768627 0.768627 0.768627
0.807843 0.807843 0.807843
0.890196 0.890196 0.890196
0.905882 0.905882 0.905882
0.960784 0.960784 0.960784
0.690196 0.690196 0.690196
0.694118 0.694118 0.694118
0.772549 0.772549 0.772549
0.733333 0.733333 0.733333
0.831373 0.831373 0.831373
0.866667 0.866667 0.866667
0.890196 0.890196 0.890196
0.909804 0.909804 0.909804
0.960784 0.960784 0.960784
0.376471 0.376471 0.376471
0.396078 0.396078 0.396078
0.427451 0.427451 0.427451
0.478431 0.478431 0.478431
0.533333 0.533333 0.533333
0.592157 0.592157 0.592157
0.647059 0.647059 0.647059
0.694118 0.694118 0.694118
0.725490 0.725490 0.725490
0.384314 0.384314 0.384314
0.427451 0.427451 0.427451
0.454902 0.454902 0.454902
0.498039 0.498039 0.498039
0.549020 0.549020 0.549020
0.603922 0.603922 0.603922
0.650980 0.650980 0.650980
0.698039 0.698039 0.698039
0.729412 0.729412 0.729412
0.423529 0.423529 0.423529
0.474510 0.474510 0.474510
0.498039 0.498039 0.498039
0.533333 0.533333 0.533333
0.572549 0.572549 0.572549
0.619608 0.619608 0.619608
0.670588 0.670588 0.670588
0.709804 0.709804 0.709804
0.733333 0.733333 0.733333
0.478431 0.478431 0.478431
0.525490 0.525490 0.525490
0.545098 0.545098 0.545098
0.576471 0.576471 0.576471
0.615686 0.615686 0.615686
0.662745 0.662745 0.662745
0.701961 0.701961 0.701961
0.741176 0.741176 0.741176
0.764706 0.764706 0.764706
0.552941 0.552941 0.552941
0.584314 0.584314 0.584314
0.603922 0.603922 0.603922
0.631373 0.631373 0.631373
0.670588 0.670588 0.670588
0.705882 0.705882 0.705882
0.741176 0.741176 0.741176
0.780392 0.780392 0.780392
0.807843 0.807843 0.807843
0.631373 0.631373 0.631373
0.647059 0.647059 0.647059
0.666667 0.666667 0.666667
0.690196 0.690196 0.690196
0.721569 0.721569 0.721569
0.752941 0.752941 0.752941
0.788235 0.788235 0.788235
0.827451 0.827451 0.827451
0.850980 0.850980 0.850980
0.694118 0.694118 0.694118
0.701961 0.701961 0.701961
0.717647 0.717647 0.717647
0.741176 0.741176 0.741176
0.772549 0.772549 0.772549
0.803922 0.803922 0.803922
0.839216 0.839216 0.839216
0.874510 0.874510 0.874510
0.941176 0.941176 0.941176
0.721569 0.721569 0.721569
0.729412 0.729412 0.729412
0.776471 0.776471 0.776471
0.823529 0.823529 0.823529
0.835294 0.835294 0.835294
0.870588 0.870588 0.870588
0.866667 0.866667 0.866667
0.929412 0.929412 0.929412
0.968627 0.968627 0.968627
0.827451 0.827451 0.827451
0.772549 0.772549 0.772549
0.776471 0.776471 0.776471
0.827451 0.827451 0.827451
0.835294 0.835294 0.835294
0.870588 0.870588 0.870588
0.913725 0.913725 0.913725
0.929412 0.929412 0.929412
0.968627 0.968627 0.968627
0.458824 0.458824 0.458824
0.478431 0.478431 0.478431
0.505882 0.505882 0.505882
0.552941 0.552941 0.552941
0.596078 0.596078 0.596078
0.654902 0.654902 0.654902
0.701961 0.701961 0.701961
0.745098 0.745098 0.745098
0.749020 0.749020 0.749020
0.466667 0.466667 0.466667
0.513725 0.513725 0.513725
0.537255 0.537255 0.537255
0.576471 0.576471 0.576471
0.623529 0.623529 0.623529
0.670588 0.670588 0.670588
0.713725 0.713725 0.713725
0.752941 0.752941 0.752941
0.749020 0.749020 0.749020
0.501961 0.501961 0.501961
0.552941 0.552941 0.552941
0.576471 0.576471 0.576471
0.603922 0.603922 0.603922
0.647059 0.647059 0.647059
0.682353 0.682353 0.682353
0.721569 0.721569 0.721569
0.756863 0.756863 0.756863
0.772549 0.772549 0.772549
0.545098 0.545098 0.545098
0.596078 0.596078 0.596078
0.611765 0.611765 0.611765
0.647059 0.647059 0.647059
0.678431 0.678431 0.678431
0.709804 0.709804 0.709804
0.745098 0.745098 0.745098
0.784314 0.784314 0.784314
0.784314 0.784314 0.784314
0.611765 0.611765 0.611765
0.647059 0.647059 0.647059
0.662745 0.662745 0.662745
0.690196 0.690196 0.690196
0.721569 0.721569 0.721569
0.752941 0.752941 0.752941
0.784314 0.784314 0.784314
0.815686 0.815686 0.815686
0.862745 0.862745 0.862745
0.678431 0.678431 0.678431
0.701961 0.701961 0.701961
0.713725 0.713725 0.713725
0.733333 0.733333 0.733333
0.764706 0.764706 0.764706
0.792157 0.792157 0.792157
0.823529 0.823529 0.823529
0.858824 0.858824 0.858824
0.890196 0.890196 0.890196
0.741176 0.741176 0.741176
0.749020 0.749020 0.749020
0.760784 0.760784 0.760784
0.784314 0.784314 0.784314
0.811765 0.811765 0.811765
0.839216 0.839216 0.839216
0.866667 0.866667 0.866667
0.901961 0.901961 0.901961
0.952941 0.952941 0.952941
0.827451 0.827451 0.827451
0.780392 0.780392 0.780392
0.815686 0.815686 0.815686
0.831373 0.831373 0.831373
0.862745 0.862745 0.862745
0.898039 0.898039 0.898039
0.917647 0.917647 0.917647
0.952941 0.952941 0.952941
0.996078 0.996078 0.996078
0.827451 0.827451 0.827451
0.803922 0.803922 0.803922
0.815686 0.815686 0.815686
0.831373 0.831373 0.831373
0.862745 0.862745 0.862745
0.898039 0.898039 0.898039
0.917647 0.917647 0.917647
0.952941 0.952941 0.952941
0.996078 0.996078 0.996078
0.537255 0.537255 0.537255
0.549020 0.549020 0.549020
0.572549 0.572549 0.572549
0.603922 0.603922 0.603922
0.650980 0.650980 0.650980
0.698039 0.698039 0.698039
0.745098 0.745098 0.745098
0.803922 0.803922 0.803922
0.803922 0.803922 0.803922
0.541176 0.541176 0.541176
0.572549 0.572549 0.572549
0.596078 0.596078 0.596078
0.631373 0.631373 0.631373
0.670588 0.670588 0.670588
0.717647 0.717647 0.717647
0.760784 0.760784 0.760784
0.807843 0.807843 0.807843
0.807843 0.807843 0.807843
0.568627 0.568627 0.568627
0.596078 0.596078 0.596078
0.650980 0.650980 0.650980
0.674510 0.674510 0.674510
0.709804 0.709804 0.709804
0.749020 0.749020 0.749020
0.780392 0.780392 0.780392
0.811765 0.811765 0.811765
0.811765 0.811765 0.811765
0.603922 0.603922 0.603922
0.635294 0.635294 0.635294
0.698039 0.698039 0.698039
0.721569 0.721569 0.721569
0.745098 0.745098 0.745098
0.776471 0.776471 0.776471
0.803922 0.803922 0.803922
0.831373 0.831373 0.831373
0.839216 0.839216 0.839216
0.654902 0.654902 0.654902
0.674510 0.674510 0.674510
0.733333 0.733333 0.733333
0.756863 0.756863 0.756863
0.780392 0.780392 0.780392
0.811765 0.811765 0.811765
0.835294 0.835294 0.835294
0.866667 0.866667 0.866667
0.862745 0.862745 0.862745
0.725490 0.725490 0.725490
0.741176 0.741176 0.741176
0.768627 0.768627 0.768627
0.800000 0.800000 0.800000
0.823529 0.823529 0.823529
0.850980 0.850980 0.850980
0.874510 0.874510 0.874510
0.905882 0.905882 0.905882
0.909804 0.909804 0.909804
0.792157 0.792157 0.792157
0.807843 0.807843 0.807843
0.823529 0.823529 0.823529
0.843137 0.843137 0.843137
0.866667 0.866667 0.866667
0.894118 0.894118 0.894118
0.917647 0.917647 0.917647
0.949020 0.949020 0.949020
0.960784 0.960784 0.960784
0.823529 0.823529 0.823529
0.839216 0.839216 0.839216
0.850980 0.850980 0.850980
0.870588 0.870588 0.870588
0.866667 0.866667 0.866667
0.921569 0.921569 0.921569
0.949020 0.949020 0.949020
0.988235 0.988235 0.988235
0.996078 0.996078 0.996078
0.827451 0.827451 0.827451
0.839216 0.839216 0.839216
0.815686 0.815686 0.815686
0.831373 0.831373 0.831373
0.886275 0.886275 0.886275
0.929412 0.929412 0.929412
0.952941 0.952941 0.952941
0.988235 0.988235 0.988235
0.996078 0.996078 0.996078
