luts/FUJI_PRO_NEG_Std.cube
TITLE "Generated for krafta web app"
LUT_3D_SIZE 5
#INPUTGAMMA sRGB
#IMAGEPROFILE sRGB
#OUTPUTGAMMA sRGB
0.000000 0.000000 0.000000
0.270878 0.049981 0.063703
0.542607 0.106078 0.129044
0.718054 0.144754 0.171542
0.913692 0.188337 0.218892
0.006396 0.216979 -0.000004
0.277685 0.249089 0.050202
0.549797 0.286847 0.119126
0.739169 0.322405 0.164799
0.991272 0.341370 0.210410
-0.000104 0.427412 0.000000
0.250781 0.475795 0.012677
0.548194 0.497186 0.093090
0.758015 0.513537 0.146106
0.999993 0.516677 0.205398
0.000000 0.591526 0.000000
0.241257 0.659475 -0.000037
0.572571 0.700260 0.071208
0.747045 0.722138 0.128850
0.988015 0.731903 0.174750
0.000732 0.798204 0.000000
0.330737 0.861062 0.000000
0.579875 0.884438 0.024814
0.751846 0.906638 0.068250
0.981649 0.944720 0.132295
0.096704 0.085382 0.284465
0.355777 0.137338 0.342413
0.621166 0.192068 0.400238
0.783359 0.219424 0.426580
0.923329 0.219070 0.417628
0.079948 0.261967 0.263916
0.252569 0.259886 0.253039
0.481683 0.283867 0.297020
0.730226 0.330419 0.358170
0.930902 0.383655 0.404083
0.048375 0.472642 0.227114
0.292602 0.481018 0.244373
0.553032 0.494700 0.301989
0.768881 0.517248 0.348914
0.985864 0.555100 0.397346
0.026856 0.652847 0.157832
0.291311 0.673240 0.192393
0.560598 0.710486 0.266959
0.752986 0.731965 0.327477
0.996265 0.727349 0.370124
0.139454 0.868484 0.118121
0.314782 0.858100 0.153913
0.558742 0.888963 0.217551
0.742807 0.917281 0.265326
0.983986 0.956245 0.325764
0.190181 0.174977 0.568896
0.450188 0.236627 0.636359
0.667855 0.259801 0.650589
0.791329 0.250254 0.633304
0.970643 0.256896 0.633350
0.171531 0.322680 0.511494
0.350636 0.323970 0.508987
0.613925 0.355318 0.557922
0.754925 0.365035 0.575690
0.957550 0.418478 0.623109
0.152422 0.523222 0.523341
0.328560 0.516790 0.514456
0.518202 0.521379 0.507736
0.760977 0.556424 0.551709
0.951872 0.597622 0.601958
0.165386 0.725317 0.461138
0.363336 0.726018 0.461200
0.585797 0.725690 0.506417
0.752485 0.740716 0.551080
0.996686 0.742218 0.598312
0.202222 0.923021 0.390840
0.356347 0.909558 0.421319
0.549640 0.902096 0.445572
0.738340 0.931484 0.493757
0.983428 0.967702 0.546717
0.279401 0.263790 0.839953
0.502599 0.303300 0.879384
0.699751 0.289779 0.860102
0.858064 0.291653 0.856369
0.999997 0.298462 0.853642
0.268047 0.397492 0.804081
0.477442 0.411907 0.829257
0.710328 0.434781 0.840940
0.850916 0.438720 0.837187
0.999997 0.446215 0.845308
0.262642 0.590699 0.825764
0.443271 0.591978 0.792153
0.657497 0.601830 0.793342
0.803787 0.606225 0.799730
0.995714 0.627516 0.828531
0.241372 0.771751 0.763208
0.423236 0.757372 0.764307
0.620095 0.749077 0.759193
0.751308 0.751308 0.755616
0.975280 0.788853 0.805106
0.255554 0.974096 0.675201
0.418088 0.965888 0.692507
0.609926 0.954653 0.710063
0.719775 0.936596 0.695277
0.990249 0.983146 0.775077
0.343248 0.331526 0.999999
0.535307 0.331889 0.999988
0.787189 0.338176 1.000000
0.960389 0.358908 1.000000
1.000000 0.380306 1.000000
0.390202 0.476923 1.000000
0.597813 0.494138 1.000000
0.788231 0.498969 1.000000
0.951759 0.511289 1.000000
1.000000 0.523550 1.000000
0.375979 0.664762 1.000000
0.527136 0.658842 0.999998
0.778897 0.677159 1.000000
0.915985 0.681705 1.000000
1.000000 0.682659 1.000000
0.345447 0.819595 1.000000
0.516271 0.820608 0.999998
0.709509 0.819079 0.999995
0.859617 0.822647 0.999997
1.000000 0.828113 0.999999
0.321495 0.994942 0.989626
0.479701 0.995360 0.990776
0.677492 0.996770 0.993114
0.816689 0.996609 0.995572
0.999988 0.999988 0.999986
