luts/Kodak_Portra_160.cube
# Generated for krafta web app
# https://www.facebook.com/krafta.visio
# Preset: KDK - Portra 160
# Color profile : sRGB Color Space Profile
LUT_3D_SIZE 6
DOMAIN_MIN 0.0 0.0 0.0
DOMAIN_MAX 1.0 1.0 1.0
0.000000 0.000000 0.000000
0.324163 0.000183 0.000244
0.513085 0.000092 0.000397
0.698360 0.000092 0.000305
0.864958 0.008453 0.007111
1.000000 0.014466 0.013001
0.000000 0.286625 0.000000
0.268833 0.268956 0.000000
0.484474 0.246372 0.000000
0.679713 0.231113 0.000000
0.847135 0.216159 0.009369
1.000000 0.206271 0.009461
0.006409 0.467994 0.006928
0.239231 0.467659 0.007660
0.457038 0.457160 0.008240
0.656123 0.439612 0.009491
0.835294 0.420325 0.017548
1.000000 0.403815 0.006836
0.013642 0.627527 0.015503
0.213016 0.625940 0.014862
0.417639 0.624170 0.014649
0.619532 0.619593 0.014221
0.808469 0.606867 0.008789
0.987823 0.591485 0.000000
0.000000 0.779080 0.000000
0.184878 0.781399 0.000000
0.388983 0.785122 0.000000
0.589471 0.787778 0.000000
0.789548 0.789700 0.000000
0.970245 0.773922 0.000000
0.000000 0.961944 0.000000
0.070497 0.955810 0.000000
0.346410 0.957305 0.000000
0.559014 0.960693 0.000000
0.765103 0.965637 0.000000
0.971893 0.972076 0.000000
0.000153 0.000122 0.346258
0.297612 0.000244 0.298924
0.495186 0.006592 0.254398
0.681147 0.018158 0.234928
0.850706 0.033539 0.222171
1.000000 0.029023 0.211276
0.003754 0.281590 0.281468
0.265660 0.265660 0.265660
0.478767 0.247776 0.247776
0.673548 0.232212 0.232029
0.843534 0.219974 0.219791
1.000000 0.205722 0.205356
0.020752 0.462898 0.238529
0.236484 0.460029 0.236698
0.447791 0.447883 0.229343
0.644648 0.432044 0.220462
0.824430 0.415137 0.212680
1.000000 0.400427 0.200290
0.021241 0.626215 0.215000
0.213931 0.624811 0.214359
0.415930 0.621424 0.212680
0.615290 0.615381 0.209659
0.803891 0.603235 0.202609
0.987579 0.590753 0.187747
0.000000 0.782040 0.181674
0.181765 0.782712 0.182193
0.388373 0.785885 0.184726
0.589258 0.787961 0.186038
0.789731 0.789853 0.186770
0.971679 0.774411 0.151705
0.000000 0.963684 0.052766
0.005951 0.958129 0.009033
0.338598 0.959503 0.001343
0.556023 0.962219 0.000000
0.763882 0.966247 0.000000
0.972290 0.972473 0.000000
0.000336 0.000031 0.534051
0.258671 0.000000 0.506615
0.470527 0.009216 0.470497
0.666224 0.015747 0.446906
0.840696 0.043641 0.425116
1.000000 0.046632 0.410468
0.031464 0.260685 0.500206
0.249912 0.250095 0.482368
0.462715 0.238499 0.462806
0.657404 0.225986 0.440894
0.833005 0.221805 0.422034
1.000000 0.205264 0.403235
0.016388 0.450385 0.450385
0.229953 0.448341 0.448341
0.438117 0.438117 0.438117
0.633417 0.425574 0.425483
0.816037 0.412909 0.412757
0.997620 0.397833 0.397620
0.038544 0.621149 0.417090
0.217075 0.620111 0.416785
0.414618 0.616938 0.414801
0.611078 0.611170 0.409949
0.800320 0.600366 0.400275
0.987488 0.587976 0.385229
0.000000 0.783078 0.380987
0.167178 0.784207 0.382086
0.384680 0.786984 0.384833
0.588067 0.788418 0.385901
0.790341 0.790433 0.387610
0.973816 0.773312 0.357946
0.000000 0.966888 0.318730
0.000000 0.961883 0.306950
0.304601 0.962615 0.305028
0.543877 0.965545 0.304814
0.760220 0.968780 0.300542
0.974395 0.974578 0.292210
0.010529 0.007874 0.685725
0.232486 0.014038 0.676143
0.442695 0.023804 0.659419
0.639979 0.025818 0.639948
0.827481 0.034516 0.622034
1.000000 0.021454 0.604395
0.058778 0.241855 0.678645
0.236027 0.236027 0.667170
0.439368 0.229496 0.652888
0.635401 0.221164 0.635340
0.821439 0.215732 0.617639
0.997345 0.196414 0.597711
0.057282 0.431617 0.640375
0.229099 0.430945 0.638575
0.425391 0.425330 0.629847
0.619440 0.417121 0.619409
0.806394 0.406409 0.605921
0.994293 0.391302 0.593439
0.035248 0.612665 0.612604
0.213565 0.612024 0.611994
0.410895 0.610132 0.610101
0.603662 0.603723 0.603693
0.796231 0.595911 0.595819
0.988342 0.583032 0.582940
0.000000 0.784787 0.583520
0.154818 0.785702 0.584192
0.379400 0.787472 0.585412
0.586114 0.788693 0.586206
0.787900 0.788022 0.585046
0.976928 0.771450 0.560327
0.000000 0.970672 0.538018
0.000000 0.966827 0.527672
0.254429 0.967773 0.527428
0.528130 0.970123 0.528313
0.755184 0.972107 0.524987
0.977691 0.977844 0.522728
0.024140 0.021820 0.836271
0.215549 0.024292 0.832944
0.415473 0.027161 0.824704
0.613428 0.027253 0.816403
0.806363 0.016419 0.806271
0.995392 0.000000 0.796078
0.058625 0.223331 0.834501
0.220523 0.220493 0.829252
0.416449 0.217746 0.823178
0.612146 0.212955 0.814237
0.802945 0.203311 0.802914
0.989319 0.182132 0.790127
0.068360 0.414160 0.815000
0.219791 0.413275 0.813596
0.409094 0.409064 0.808988
0.601862 0.401984 0.801846
0.795163 0.394263 0.795163
0.987915 0.379919 0.787350
0.000000 0.598596 0.798611
0.196597 0.598505 0.798581
0.395087 0.596307 0.796689
0.592798 0.592859 0.793942
0.789914 0.587732 0.789883
0.986023 0.576104 0.782589
0.000000 0.784878 0.784878
0.142824 0.785428 0.785428
0.375891 0.787015 0.786984
0.583917 0.788083 0.788022
0.782162 0.782254 0.782193
0.981476 0.769955 0.769863
0.000000 0.974060 0.761715
0.000000 0.971130 0.756619
0.241306 0.972961 0.756069
0.513664 0.975158 0.753079
0.748684 0.977173 0.748775
0.982727 0.982849 0.749386
0.002136 0.000000 0.998962
0.198337 0.000000 0.998077
0.396277 0.000000 0.995575
0.593256 0.000000 0.992767
0.790036 0.000000 0.990417
0.986694 0.000000 0.988098
0.000000 0.198032 0.998657
0.196811 0.196109 0.997314
0.394293 0.190402 0.993957
0.590661 0.179995 0.989929
0.785153 0.158877 0.984710
0.980041 0.118166 0.979950
0.000000 0.389868 0.993927
0.178531 0.389563 0.993866
0.386145 0.385931 0.992187
0.585687 0.378637 0.989349
0.782681 0.364874 0.984985
0.982055 0.348272 0.981994
0.000000 0.583001 0.990692
0.119081 0.582361 0.990692
0.364935 0.579950 0.990631
0.574548 0.574548 0.988586
0.778470 0.565911 0.985595
0.983520 0.557305 0.983459
0.000000 0.779904 0.986908
0.000000 0.779568 0.987030
0.331579 0.779171 0.987671
0.560052 0.777981 0.988556
0.774441 0.774533 0.988556
0.987304 0.769558 0.987304
0.000000 0.984192 0.984161
0.000000 0.983246 0.983215
0.201480 0.983673 0.983612
0.504143 0.984558 0.984527
0.746334 0.987121 0.987060
0.993957 0.993957 0.993957
