luts/Kodak_Echrome_100.cube
# Generated for krafta web app
# https://www.facebook.com/krafta.visio
# Preset: KDK - Echrome 100
# Color profile : sRGB Color Space Profile
LUT_3D_SIZE 16
DOMAIN_MIN 0.0 0.0 0.0
DOMAIN_MAX 1.0 1.0 1.0
0.000000 0.000000 0.000000
0.111055 0.000000 0.000214
0.224033 0.000214 0.000092
0.311711 0.000000 0.000122
0.382116 0.000000 0.000153
0.449805 0.000153 0.000336
0.513268 0.000305 0.000336
0.580346 0.000214 0.000153
0.644831 0.000061 0.000275
0.708766 0.000031 0.000214
0.768826 0.000153 0.000336
0.825650 0.000092 0.000336
0.880949 0.000061 0.000610
0.937987 0.000153 0.000519
0.994965 0.000397 0.000702
1.000000 0.000366 0.000702
0.000000 0.117647 0.000000
0.112184 0.112154 0.000000
0.209842 0.112520 0.000000
0.297826 0.106935 0.000000
0.371832 0.097963 0.000000
0.440467 0.090089 0.000000
0.509636 0.082734 0.000000
0.577508 0.076600 0.000000
0.641505 0.070893 0.000000
0.706477 0.063935 0.000000
0.766629 0.058137 0.000000
0.823423 0.050843 0.000000
0.878508 0.040772 0.000000
0.935790 0.030213 0.000000
0.993317 0.015839 0.000031
1.000000 0.000549 0.000458
0.000000 0.207584 0.000000
0.102754 0.200534 0.000000
0.192996 0.193362 0.000000
0.278355 0.187564 0.000000
0.356329 0.180484 0.000000
0.431220 0.174502 0.000000
0.502098 0.168124 0.000000
0.569879 0.161929 0.000000
0.635157 0.155428 0.000000
0.701747 0.150332 0.000000
0.762051 0.144717 0.000000
0.818875 0.138430 0.000000
0.873869 0.131044 0.000000
0.932158 0.124636 0.000000
0.990234 0.116518 0.000000
1.000000 0.105806 0.000000
0.000000 0.278416 0.000000
0.087282 0.273808 0.000000
0.179202 0.268833 0.000000
0.263127 0.263096 0.000000
0.341192 0.256413 0.000000
0.416175 0.250431 0.000000
0.487129 0.243565 0.000000
0.556451 0.237888 0.000000
0.624994 0.232731 0.000000
0.691951 0.227268 0.000000
0.752132 0.220676 0.000000
0.809354 0.213687 0.000000
0.866117 0.206973 0.000000
0.923949 0.200290 0.000000
0.980713 0.193301 0.000000
1.000000 0.185122 0.000000
0.000000 0.340764 0.000000
0.074922 0.339757 0.000000
0.167605 0.339239 0.000000
0.251713 0.336095 0.000000
0.331060 0.331212 0.000000
0.407202 0.325719 0.000000
0.480049 0.319829 0.000000
0.551629 0.314519 0.000000
0.621485 0.309026 0.000000
0.689235 0.303746 0.000000
0.750332 0.296330 0.000000
0.809567 0.289036 0.000000
0.868467 0.282506 0.000000
0.927672 0.276158 0.000000
0.985107 0.268925 0.000000
1.000000 0.259983 0.000000
0.000000 0.405066 0.000000
0.063172 0.406043 0.000000
0.157076 0.405982 0.000000
0.240177 0.403418 0.000000
0.318120 0.398810 0.000000
0.393500 0.393561 0.000000
0.467475 0.388952 0.000000
0.540673 0.385016 0.000000
0.611322 0.380285 0.000000
0.678798 0.374517 0.000000
0.740322 0.366613 0.000000
0.801266 0.359319 0.000000
0.860777 0.352422 0.000000
0.920439 0.345739 0.000000
0.978546 0.338506 0.000000
1.000000 0.330114 0.000000
0.000000 0.469459 0.000000
0.048829 0.470527 0.000000
0.145998 0.470283 0.000000
0.229038 0.468299 0.000000
0.307591 0.465309 0.000000
0.383520 0.461860 0.000000
0.457710 0.457801 0.000000
0.530144 0.453468 0.000000
0.599695 0.447913 0.000000
0.666407 0.441627 0.000000
0.729549 0.434150 0.000000
0.791836 0.427314 0.000000
0.852323 0.420203 0.000000
0.912566 0.413397 0.000000
0.971435 0.406226 0.000000
1.000000 0.398108 0.000000
0.000000 0.531670 0.000000
0.024872 0.534020 0.000000
0.133730 0.534997 0.000000
0.219089 0.534051 0.000000
0.298070 0.531426 0.000000
0.373175 0.527123 0.000000
0.445411 0.521538 0.000000
0.515953 0.516075 0.000000
0.585107 0.510704 0.000000
0.652277 0.504997 0.000000
0.717006 0.498604 0.000000
0.780514 0.492164 0.000000
0.841947 0.485237 0.000000
0.902342 0.478279 0.000000
0.961578 0.470893 0.000000
1.000000 0.464393 0.000000
0.000000 0.581598 0.000000
0.000000 0.581689 0.000000
0.115602 0.582513 0.000000
0.202121 0.582452 0.000000
0.280980 0.581811 0.000000
0.356237 0.580285 0.000000
0.429908 0.578271 0.000000
0.501671 0.575555 0.000000
0.572564 0.572686 0.000000
0.642237 0.569390 0.000000
0.709407 0.564813 0.000000
0.774655 0.559319 0.000000
0.837430 0.552911 0.000000
0.898650 0.545953 0.000000
0.958770 0.538567 0.000000
1.000000 0.530175 0.000000
0.000000 0.639246 0.000000
0.000000 0.638300 0.000000
0.099672 0.638025 0.000000
0.189242 0.637476 0.000000
0.268040 0.636713 0.000000
0.343145 0.635584 0.000000
0.416419 0.634607 0.000000
0.488075 0.632898 0.000000
0.558892 0.631067 0.000000
0.628412 0.628626 0.000000
0.697017 0.625696 0.000000
0.762112 0.620233 0.000000
0.825406 0.614099 0.000000
0.888365 0.608270 0.000000
0.950195 0.601984 0.000000
1.000000 0.594476 0.000000
0.000000 0.695460 0.000000
0.000000 0.694942 0.000000
0.077577 0.694331 0.000000
0.174685 0.693721 0.000000
0.255772 0.693019 0.000000
0.330968 0.692012 0.000000
0.404028 0.690944 0.000000
0.475135 0.689479 0.000000
0.545464 0.687861 0.000000
0.614649 0.685634 0.000000
0.682765 0.683040 0.000000
0.749966 0.679744 0.000000
0.814694 0.675013 0.000000
0.878630 0.669947 0.000000
0.941497 0.664088 0.000000
1.000000 0.657099 0.000000
0.000000 0.751400 0.000000
0.000000 0.750881 0.000000
0.034028 0.750332 0.000000
0.155856 0.749660 0.000000
0.240543 0.748623 0.000000
0.317388 0.747494 0.000000
0.390753 0.746242 0.000000
0.461891 0.744839 0.000000
0.532158 0.743435 0.000000
0.601099 0.741512 0.000000
0.669306 0.739406 0.000000
0.736843 0.737057 0.000000
0.804166 0.734829 0.000000
0.869261 0.730739 0.000000
0.933318 0.725917 0.000000
0.997131 0.720668 0.000000
0.000000 0.798611 0.000000
0.000000 0.798734 0.000000
0.000000 0.799527 0.000000
0.121553 0.800137 0.000000
0.218509 0.801083 0.000000
0.299992 0.801572 0.000000
0.376165 0.802243 0.000000
0.449439 0.802487 0.000000
0.521538 0.803006 0.000000
0.592401 0.802914 0.000000
0.662898 0.803098 0.000000
0.732540 0.802670 0.000000
0.802182 0.802396 0.000000
0.870085 0.800473 0.000000
0.933532 0.794553 0.000000
0.992676 0.784878 0.000000
0.000000 0.863676 0.000000
0.000000 0.859800 0.000000
0.000000 0.858122 0.000000
0.058106 0.857725 0.000000
0.188205 0.858335 0.000000
0.278264 0.858640 0.000000
0.358190 0.859159 0.000000
0.433875 0.859495 0.000000
0.507256 0.860197 0.000000
0.578698 0.860014 0.000000
0.649592 0.860044 0.000000
0.719356 0.859403 0.000000
0.788724 0.858762 0.000000
0.856779 0.856992 0.000000
0.923522 0.854032 0.000000
0.986481 0.847593 0.000000
0.000000 0.922026 0.000000
0.000000 0.918700 0.000000
0.000000 0.916838 0.000000
0.000000 0.916167 0.000000
0.132784 0.916289 0.000000
0.244480 0.916472 0.000000
0.332860 0.917021 0.000000
0.412970 0.917174 0.000000
0.488869 0.917540 0.000000
0.562249 0.917357 0.000000
0.634302 0.917235 0.000000
0.705226 0.916930 0.000000
0.775906 0.916991 0.000000
0.845670 0.916289 0.000000
0.914702 0.914855 0.000000
0.981415 0.911376 0.000000
0.000000 0.982238 0.000000
0.000000 0.979553 0.000000
0.000000 0.978088 0.000000
0.000000 0.977539 0.000000
0.000000 0.977600 0.000000
0.180850 0.977752 0.000000
0.291630 0.978210 0.000000
0.381811 0.978607 0.000000
0.464057 0.979278 0.000000
0.542077 0.979858 0.000000
0.617700 0.980591 0.000000
0.691737 0.981079 0.000000
0.765286 0.982086 0.000000
0.838132 0.982727 0.000000
0.911070 0.983612 0.000000
0.984283 0.984497 0.000000
0.000458 0.000092 0.115846
0.124331 0.000000 0.125216
0.225834 0.000000 0.121798
0.310216 0.000092 0.105806
0.378119 0.000031 0.093812
0.444404 0.000397 0.086915
0.510338 0.000000 0.080629
0.576654 0.000305 0.074464
0.640223 0.000336 0.067903
0.705135 0.000183 0.061189
0.765652 0.000305 0.054841
0.821866 0.000061 0.047486
0.876646 0.000549 0.037324
0.933440 0.000488 0.025605
0.990112 0.000183 0.010376
1.000000 0.000580 0.000610
0.000000 0.120089 0.120027
0.112428 0.112428 0.112428
0.213443 0.104067 0.103975
0.297765 0.097200 0.097230
0.370703 0.090852 0.091218
0.439460 0.085267 0.085084
0.508446 0.079103 0.079957
0.575128 0.073610 0.073701
0.639277 0.067720 0.066835
0.705592 0.060090 0.060456
0.765591 0.054658 0.054200
0.821592 0.047242 0.047517
0.875731 0.037415 0.038239
0.932494 0.025422 0.025910
0.989044 0.010986 0.009979
1.000000 0.000092 0.000671
0.000000 0.210605 0.101595
0.098207 0.203891 0.097719
0.195834 0.196201 0.093477
0.282017 0.188571 0.089448
0.359655 0.181003 0.085664
0.433143 0.174533 0.081056
0.503197 0.167361 0.076631
0.570489 0.161257 0.070283
0.637507 0.154940 0.064332
0.703273 0.149874 0.057710
0.761990 0.143435 0.050874
0.817502 0.136904 0.043641
0.872068 0.129641 0.033204
0.929412 0.123049 0.020569
0.986358 0.113375 0.005524
1.000000 0.101656 0.000000
0.000000 0.282383 0.089418
0.086519 0.277592 0.087465
0.181003 0.271916 0.084596
0.265507 0.265873 0.080476
0.344549 0.258976 0.078279
0.419440 0.252293 0.074342
0.490578 0.245518 0.069612
0.560693 0.239506 0.064393
0.628931 0.233616 0.057893
0.694667 0.227787 0.051301
0.754208 0.220737 0.044282
0.810727 0.213504 0.037293
0.868193 0.207065 0.026642
0.925353 0.200320 0.014008
0.980957 0.192294 0.000000
1.000000 0.183139 0.000000
0.000000 0.340917 0.077058
0.075715 0.339330 0.076020
0.166201 0.336431 0.074617
0.248844 0.331945 0.071626
0.325872 0.326146 0.067720
0.401190 0.320867 0.063844
0.474006 0.315557 0.059236
0.545617 0.310643 0.053925
0.614923 0.305272 0.048005
0.682429 0.299931 0.039551
0.744015 0.293034 0.034241
0.803983 0.286320 0.027161
0.863706 0.280217 0.016663
0.923095 0.273930 0.003662
0.980865 0.266819 0.000000
1.000000 0.257939 0.000000
0.000000 0.404334 0.064668
0.063142 0.403876 0.063539
0.155276 0.401892 0.062470
0.237186 0.398840 0.059937
0.314946 0.394598 0.056336
0.389532 0.389715 0.052277
0.462501 0.384710 0.045716
0.534600 0.380499 0.039704
0.604730 0.375677 0.032776
0.672053 0.370275 0.026093
0.734768 0.363287 0.021271
0.796262 0.356725 0.013703
0.856260 0.350042 0.002594
0.915740 0.343389 0.000000
0.974060 0.336126 0.000000
1.000000 0.328069 0.000000
0.000000 0.469520 0.049317
0.048310 0.469856 0.047852
0.145571 0.468299 0.046174
0.227298 0.465736 0.044221
0.305303 0.462165 0.039887
0.380346 0.457984 0.035065
0.453101 0.453071 0.027222
0.524224 0.448402 0.021942
0.594476 0.443793 0.012848
0.661311 0.437964 0.008179
0.724269 0.430671 0.003571
0.786496 0.423896 0.000000
0.847135 0.417060 0.000000
0.907317 0.410315 0.000000
0.966400 0.403265 0.000000
1.000000 0.395850 0.000000
0.000000 0.530236 0.025544
0.023774 0.531304 0.024018
0.131411 0.530510 0.023316
0.216007 0.528710 0.019898
0.294072 0.525811 0.015991
0.368963 0.521965 0.012543
0.441749 0.517327 0.005035
0.512261 0.512383 0.000000
0.581323 0.507225 0.000000
0.648188 0.501610 0.000000
0.712612 0.495186 0.000000
0.775998 0.489021 0.000000
0.837766 0.482399 0.000000
0.898070 0.475502 0.000000
0.957397 0.468147 0.000000
1.000000 0.461494 0.000000
0.000000 0.583886 0.000000
0.000000 0.583490 0.000000
0.114992 0.582971 0.000000
0.201236 0.581903 0.000000
0.279942 0.580407 0.000000
0.354772 0.578607 0.000000
0.428412 0.576532 0.000000
0.500053 0.573724 0.000000
0.570428 0.570581 0.000000
0.639612 0.567163 0.000000
0.706600 0.562463 0.000000
0.771664 0.557092 0.000000
0.834501 0.550652 0.000000
0.896239 0.544121 0.000000
0.957275 0.537560 0.000000
1.000000 0.529778 0.000000
0.000000 0.639429 0.000000
0.000000 0.638819 0.000000
0.099367 0.638117 0.000000
0.189151 0.637293 0.000000
0.267796 0.636500 0.000000
0.342535 0.635065 0.000000
0.415473 0.633326 0.000000
0.486702 0.631220 0.000000
0.556970 0.628931 0.000000
0.626062 0.626215 0.000000
0.694026 0.622980 0.000000
0.759152 0.617731 0.000000
0.822995 0.612146 0.000000
0.886534 0.606806 0.000000
0.949126 0.600977 0.000000
1.000000 0.594110 0.000000
0.000000 0.695613 0.000000
0.000000 0.695460 0.000000
0.077211 0.694820 0.000000
0.175357 0.693965 0.000000
0.255253 0.692836 0.000000
0.330449 0.691310 0.000000
0.402869 0.689601 0.000000
0.473793 0.687739 0.000000
0.543786 0.685939 0.000000
0.612634 0.683528 0.000000
0.680507 0.680720 0.000000
0.747494 0.677485 0.000000
0.812497 0.672969 0.000000
0.876707 0.668208 0.000000
0.940032 0.662837 0.000000
1.000000 0.656275 0.000000
0.000000 0.750881 0.000000
0.000000 0.750484 0.000000
0.033234 0.749783 0.000000
0.154879 0.748928 0.000000
0.239841 0.747982 0.000000
0.316777 0.746883 0.000000
0.389960 0.745693 0.000000
0.461219 0.744106 0.000000
0.531151 0.742336 0.000000
0.599725 0.740108 0.000000
0.667628 0.737606 0.000000
0.734859 0.734981 0.000000
0.801694 0.732387 0.000000
0.866545 0.728237 0.000000
0.930419 0.723293 0.000000
0.994598 0.718441 0.000000
0.000000 0.800107 0.000000
0.000000 0.800137 0.000000
0.000000 0.800626 0.000000
0.119875 0.800961 0.000000
0.217716 0.801511 0.000000
0.299718 0.801816 0.000000
0.375891 0.802518 0.000000
0.449287 0.802640 0.000000
0.521202 0.802976 0.000000
0.591974 0.802670 0.000000
0.662409 0.802640 0.000000
0.731991 0.802152 0.000000
0.801724 0.801938 0.000000
0.869749 0.800107 0.000000
0.933532 0.794400 0.000000
0.993164 0.785092 0.000000
0.000000 0.864561 0.000000
0.000000 0.860960 0.000000
0.000000 0.859312 0.000000
0.054688 0.858854 0.000000
0.187564 0.859220 0.000000
0.277653 0.859403 0.000000
0.357977 0.859617 0.000000
0.433356 0.859800 0.000000
0.506889 0.860227 0.000000
0.578302 0.859861 0.000000
0.649104 0.859709 0.000000
0.718898 0.859068 0.000000
0.788479 0.858579 0.000000
0.856718 0.856931 0.000000
0.923705 0.854185 0.000000
0.987030 0.847898 0.000000
0.000000 0.922606 0.000000
0.000000 0.919524 0.000000
0.000000 0.917876 0.000000
0.000000 0.917205 0.000000
0.130282 0.917235 0.000000
0.243076 0.917327 0.000000
0.332006 0.917723 0.000000
0.412238 0.917693 0.000000
0.488319 0.917723 0.000000
0.561700 0.917388 0.000000
0.633661 0.917205 0.000000
0.704829 0.916838 0.000000
0.775631 0.916869 0.000000
0.845609 0.916167 0.000000
0.914763 0.914946 0.000000
0.981781 0.911620 0.000000
0.000000 0.982757 0.000000
0.000000 0.980224 0.000000
0.000000 0.978790 0.000000
0.000000 0.978271 0.000000
0.000000 0.978332 0.000000
0.177340 0.978515 0.000000
0.289738 0.978943 0.000000
0.380499 0.979217 0.000000
0.463081 0.979706 0.000000
0.541344 0.980163 0.000000
0.617060 0.980713 0.000000
0.691157 0.981079 0.000000
0.764675 0.981872 0.000000
0.837583 0.982422 0.000000
0.910674 0.983337 0.000000
0.984070 0.984253 0.000000
0.000092 0.000061 0.244205
0.129122 0.000000 0.237125
0.220005 0.000000 0.221897
0.301457 0.000214 0.205264
0.371679 0.000092 0.189670
0.436561 0.000336 0.177920
0.502708 0.000061 0.170016
0.568444 0.000275 0.163455
0.633021 0.000031 0.155550
0.699367 0.000275 0.149691
0.760372 0.000000 0.143771
0.817350 0.000183 0.138277
0.872770 0.000122 0.131319
0.930938 0.000244 0.123720
0.988312 0.000275 0.115023
1.000000 0.000366 0.101472
0.000000 0.115999 0.229618
0.107851 0.107973 0.218235
0.206790 0.101106 0.206729
0.289952 0.095308 0.195254
0.361822 0.090578 0.184085
0.431708 0.087465 0.176577
0.500237 0.081819 0.169558
0.567254 0.074983 0.162387
0.633539 0.067811 0.155337
0.700313 0.059693 0.149599
0.760708 0.053956 0.143923
0.817227 0.047395 0.137911
0.872404 0.036439 0.131044
0.930175 0.024170 0.123842
0.987396 0.007324 0.114839
1.000000 0.000366 0.101900
0.000000 0.205447 0.205356
0.095705 0.199069 0.199222
0.192416 0.192416 0.192416
0.276310 0.186007 0.186069
0.353216 0.180117 0.179812
0.426703 0.173770 0.174014
0.496803 0.167147 0.167330
0.564385 0.160067 0.159823
0.632807 0.154055 0.154208
0.698604 0.148196 0.147921
0.757534 0.142153 0.142092
0.813504 0.135622 0.135958
0.869230 0.128878 0.128908
0.927123 0.121187 0.121248
0.984649 0.111666 0.112123
1.000000 0.098543 0.098726
0.000000 0.278416 0.187076
0.090578 0.273747 0.184085
0.180270 0.268620 0.180636
0.262943 0.263249 0.176272
0.341039 0.256870 0.171633
0.415259 0.250553 0.166629
0.486366 0.243839 0.160494
0.557153 0.238224 0.155123
0.625177 0.231968 0.149538
0.691005 0.225772 0.143679
0.750484 0.219242 0.137942
0.807370 0.212253 0.131930
0.865660 0.205875 0.125673
0.923095 0.199008 0.117556
0.978912 0.190646 0.106081
1.000000 0.180545 0.091554
0.000000 0.337682 0.169894
0.080629 0.336278 0.168551
0.166323 0.333715 0.166812
0.247196 0.329473 0.163729
0.324132 0.324102 0.159640
0.398596 0.318944 0.155612
0.471046 0.313573 0.151369
0.542504 0.308598 0.146548
0.611658 0.303227 0.141421
0.679042 0.297917 0.136507
0.740810 0.291264 0.132021
0.801419 0.285374 0.126955
0.861601 0.279271 0.120363
0.921324 0.273106 0.112947
0.979583 0.265904 0.102632
1.000000 0.256779 0.085725
0.000000 0.402594 0.157687
0.065797 0.402136 0.156893
0.155062 0.400183 0.155856
0.236515 0.397040 0.153689
0.313603 0.392859 0.150698
0.388006 0.388220 0.146761
0.460548 0.383185 0.142580
0.532494 0.378729 0.138277
0.602533 0.374090 0.133639
0.669795 0.368414 0.128908
0.732540 0.361822 0.125002
0.794278 0.355474 0.120211
0.854520 0.348913 0.113680
0.914275 0.342382 0.104799
0.972930 0.335271 0.092805
1.000000 0.327123 0.073854
0.000000 0.467720 0.146090
0.047913 0.468147 0.145480
0.144594 0.466743 0.144594
0.226505 0.464363 0.142458
0.304234 0.460853 0.140322
0.379309 0.456794 0.136629
0.452064 0.452064 0.132967
0.523125 0.447272 0.128481
0.593011 0.442298 0.123568
0.659571 0.436439 0.119905
0.722591 0.429511 0.115572
0.784817 0.422797 0.109834
0.845579 0.415991 0.102510
0.905943 0.409400 0.092042
0.965332 0.402380 0.077485
1.000000 0.395026 0.054383
0.000000 0.528923 0.131685
0.019348 0.530144 0.131380
0.130098 0.529473 0.130465
0.215152 0.527611 0.128969
0.293217 0.524651 0.127108
0.367956 0.520867 0.123659
0.440558 0.516258 0.120027
0.511345 0.511437 0.115511
0.580285 0.506279 0.110536
0.647181 0.500633 0.107546
0.711666 0.494270 0.102693
0.774868 0.488075 0.097230
0.836576 0.481544 0.088258
0.896941 0.474617 0.074830
0.956451 0.467384 0.054322
1.000000 0.460395 0.020081
0.000000 0.583215 0.115511
0.000000 0.582818 0.115328
0.113893 0.582147 0.114443
0.200626 0.581079 0.113039
0.279057 0.579644 0.111330
0.354131 0.577783 0.109285
0.427619 0.575738 0.106508
0.499336 0.572930 0.103120
0.569726 0.569757 0.098268
0.638880 0.566339 0.093599
0.705776 0.561608 0.090364
0.770718 0.556329 0.082795
0.833524 0.549920 0.072389
0.895598 0.543511 0.055970
0.956878 0.537041 0.029389
1.000000 0.529351 0.000000
0.000000 0.638911 0.101167
0.000000 0.638483 0.100832
0.097688 0.637842 0.099611
0.188632 0.637018 0.098451
0.267460 0.636225 0.096834
0.342138 0.634791 0.094514
0.415076 0.633021 0.091157
0.486091 0.630884 0.086946
0.556542 0.628595 0.081361
0.625666 0.625757 0.074556
0.693477 0.622339 0.066224
0.758541 0.617121 0.056245
0.822477 0.611566 0.038422
0.886107 0.606317 0.014313
0.948943 0.600580 0.000000
1.000000 0.593683 0.000000
0.000000 0.695308 0.079042
0.000000 0.695277 0.079011
0.076295 0.694728 0.078279
0.174594 0.693874 0.076081
0.255009 0.692714 0.073915
0.330053 0.691188 0.069154
0.402625 0.689509 0.065248
0.473732 0.687678 0.058534
0.543603 0.685695 0.051148
0.612329 0.683223 0.039460
0.680110 0.680293 0.026368
0.747097 0.677058 0.010590
0.812100 0.672572 0.000000
0.876555 0.667811 0.000000
0.940002 0.662470 0.000000
1.000000 0.655940 0.000000
0.000000 0.750637 0.036500
0.000000 0.750301 0.035920
0.029786 0.749599 0.033173
0.153811 0.748806 0.029328
0.239017 0.747921 0.025238
0.316045 0.746883 0.019776
0.389807 0.745663 0.011933
0.461097 0.744045 0.002228
0.530816 0.742245 0.000000
0.599542 0.739925 0.000000
0.667445 0.737423 0.000000
0.734707 0.734768 0.000000
0.801511 0.732204 0.000000
0.866331 0.727962 0.000000
0.930297 0.722927 0.000000
0.994598 0.717952 0.000000
0.000000 0.800565 0.000000
0.000000 0.800565 0.000000
0.000000 0.800961 0.000000
0.117220 0.801266 0.000000
0.216312 0.801816 0.000000
0.298589 0.802090 0.000000
0.375311 0.802701 0.000000
0.448951 0.802792 0.000000
0.521111 0.803098 0.000000
0.591913 0.802853 0.000000
0.662379 0.802853 0.000000
0.732174 0.802335 0.000000
0.801968 0.802121 0.000000
0.869932 0.800198 0.000000
0.933654 0.794339 0.000000
0.993500 0.785031 0.000000
0.000000 0.864805 0.000000
0.000000 0.861387 0.000000
0.000000 0.859831 0.000000
0.045502 0.859403 0.000000
0.184665 0.859678 0.000000
0.276036 0.859800 0.000000
0.356756 0.860014 0.000000
0.432807 0.860197 0.000000
0.506401 0.860563 0.000000
0.578180 0.860197 0.000000
0.649073 0.860014 0.000000
0.718929 0.859342 0.000000
0.788479 0.858824 0.000000
0.856931 0.857115 0.000000
0.923980 0.854307 0.000000
0.987427 0.847959 0.000000
0.000000 0.922911 0.000000
0.000000 0.919921 0.000000
0.000000 0.918334 0.000000
0.000000 0.917662 0.000000
0.123201 0.917693 0.000000
0.240024 0.917784 0.000000
0.330053 0.918181 0.000000
0.410773 0.918151 0.000000
0.487221 0.918059 0.000000
0.560937 0.917723 0.000000
0.633234 0.917510 0.000000
0.704555 0.917144 0.000000
0.775479 0.917144 0.000000
0.845640 0.916442 0.000000
0.914977 0.915221 0.000000
0.982208 0.911894 0.000000
0.000000 0.983154 0.000000
0.000000 0.980652 0.000000
0.000000 0.979278 0.000000
0.000000 0.978759 0.000000
0.000000 0.978882 0.000000
0.169070 0.979065 0.000000
0.285313 0.979400 0.000000
0.377661 0.979644 0.000000
0.461006 0.980102 0.000000
0.539727 0.980560 0.000000
0.615991 0.981079 0.000000
0.690425 0.981445 0.000000
0.764157 0.982147 0.000000
0.837308 0.982666 0.000000
0.910613 0.983520 0.000000
0.984222 0.984466 0.000000
0.000031 0.000214 0.330724
0.117128 0.000000 0.323156
0.208316 0.000122 0.308415
0.290288 0.000031 0.292119
0.362615 0.000275 0.274937
0.430701 0.000275 0.261692
0.497719 0.000092 0.251865
0.563378 0.000000 0.243809
0.628168 0.000000 0.235935
0.694179 0.000244 0.229587
0.755306 0.000000 0.223270
0.812802 0.000397 0.217319
0.869383 0.000336 0.210727
0.928344 0.000366 0.204715
0.986145 0.000458 0.197238
1.000000 0.000305 0.186862
0.000000 0.108003 0.314336
0.103548 0.103212 0.303929
0.197940 0.098451 0.292729
0.280919 0.093080 0.280827
0.355291 0.088869 0.268467
0.426764 0.086183 0.259068
0.495064 0.081758 0.250675
0.561334 0.075898 0.242405
0.628534 0.067964 0.235721
0.695155 0.058625 0.229282
0.755581 0.054108 0.223056
0.812558 0.049836 0.217350
0.869169 0.040223 0.210239
0.927428 0.028443 0.204227
0.985199 0.009918 0.196811
1.000000 0.000519 0.187106
0.000000 0.197910 0.292851
0.097353 0.193210 0.285191
0.188174 0.188266 0.277317
0.271031 0.183200 0.270756
0.347631 0.178103 0.263035
0.420752 0.172305 0.255955
0.490639 0.166140 0.248234
0.559075 0.159213 0.240848
0.627497 0.152682 0.234379
0.693477 0.146181 0.228183
0.752651 0.141207 0.221500
0.809049 0.135805 0.214694
0.866117 0.129549 0.208652
0.924559 0.122225 0.202060
0.982544 0.112734 0.194430
1.000000 0.098054 0.184543
0.000000 0.273472 0.273228
0.090272 0.269291 0.269322
0.179049 0.264561 0.264561
0.259709 0.259709 0.259709
0.336248 0.254276 0.254124
0.410254 0.248051 0.248295
0.481910 0.241947 0.241917
0.552575 0.236179 0.236271
0.620569 0.229862 0.229892
0.686397 0.223789 0.223575
0.746212 0.217563 0.217685
0.803647 0.211612 0.211643
0.862852 0.205875 0.205875
0.920653 0.199100 0.198672
0.976959 0.190341 0.190188
1.000000 0.179538 0.179568
0.000000 0.334051 0.251438
0.080964 0.332555 0.250401
0.165743 0.329839 0.248295
0.245029 0.326085 0.245029
0.321355 0.321233 0.240909
0.395605 0.316503 0.236637
0.467903 0.311254 0.231937
0.539117 0.306432 0.227176
0.608179 0.300938 0.221836
0.675441 0.295567 0.217136
0.737148 0.289677 0.212284
0.798734 0.284367 0.208011
0.859251 0.278813 0.202426
0.919371 0.272679 0.196414
0.977905 0.265507 0.188785
1.000000 0.255955 0.177096
0.000000 0.400000 0.239292
0.066682 0.399359 0.238743
0.154147 0.397528 0.237247
0.234806 0.394507 0.234958
0.311437 0.390539 0.231479
0.385931 0.385962 0.227939
0.458473 0.381262 0.223667
0.530144 0.376745 0.219577
0.599878 0.371954 0.215152
0.667048 0.366583 0.210788
0.729946 0.360296 0.206882
0.791897 0.354437 0.202274
0.852384 0.348119 0.196933
0.912505 0.341741 0.190188
0.971496 0.334569 0.182010
1.000000 0.326482 0.170626
0.000000 0.464942 0.227451
0.043427 0.465400 0.227787
0.142214 0.464179 0.226383
0.224369 0.461952 0.224826
0.302434 0.458595 0.222293
0.377447 0.454871 0.219150
0.450263 0.450263 0.215518
0.521233 0.445441 0.211429
0.590875 0.440436 0.207614
0.657343 0.434730 0.203433
0.720424 0.427955 0.199435
0.782712 0.421668 0.195041
0.843839 0.415106 0.189029
0.904387 0.408606 0.182193
0.964172 0.401556 0.173159
1.000000 0.394079 0.160586
0.000000 0.526879 0.214817
