luts/Kodak_Echrome_64.cube
# Generated for krafta web app
# https://www.facebook.com/krafta.visio
# Preset: KDK - Echrome 64
# Color profile : sRGB Color Space Profile
LUT_3D_SIZE 16
DOMAIN_MIN 0.0 0.0 0.0
DOMAIN_MAX 1.0 1.0 1.0
0.000000 0.000000 0.000000
0.106111 0.000244 0.000000
0.213901 0.000000 0.000122
0.298100 0.000000 0.000031
0.366583 0.000122 0.000366
0.432349 0.000000 0.000183
0.493782 0.000183 0.000366
0.558587 0.000000 0.000214
0.620661 0.000275 0.000122
0.682979 0.000275 0.000244
0.742672 0.000397 0.000183
0.799222 0.002411 0.002411
0.854398 0.006439 0.005493
0.911376 0.008881 0.008515
0.968505 0.011536 0.010864
1.000000 0.010986 0.009430
0.000000 0.113558 0.000000
0.108888 0.108949 0.000000
0.201816 0.109682 0.000000
0.285801 0.105135 0.000000
0.357183 0.098116 0.000000
0.423529 0.091615 0.000000
0.490303 0.086580 0.000000
0.555718 0.083803 0.000000
0.617243 0.081178 0.000000
0.680354 0.079286 0.000000
0.740017 0.078676 0.000000
0.796445 0.078431 0.002533
0.851255 0.077760 0.005707
0.908446 0.078218 0.008515
0.966003 0.078035 0.010681
1.000000 0.076112 0.009552
0.000000 0.200565 0.000000
0.102296 0.194522 0.000000
0.187930 0.187991 0.000000
0.269352 0.182956 0.000000
0.343816 0.176272 0.000000
0.415808 0.171084 0.000000
0.483833 0.166079 0.000000
0.549065 0.161379 0.000000
0.611627 0.156985 0.000000
0.676265 0.154391 0.000000
0.735744 0.151644 0.000153
0.792203 0.148806 0.003632
0.846799 0.146181 0.006592
0.904906 0.144625 0.008942
0.962921 0.143038 0.010193
1.000000 0.140871 0.009918
0.000000 0.270024 0.000000
0.092134 0.265690 0.000000
0.176486 0.261326 0.000000
0.256443 0.256474 0.000000
0.331212 0.250309 0.000000
0.402686 0.244694 0.000000
0.470497 0.238621 0.000000
0.536889 0.233677 0.000000
0.602564 0.229618 0.000000
0.667170 0.226169 0.000000
0.726528 0.221805 0.002106
0.783047 0.217502 0.005097
0.839384 0.213413 0.007202
0.896849 0.210605 0.008453
0.953491 0.207431 0.007874
1.000000 0.204471 0.006012
0.000000 0.330816 0.000000
0.087037 0.330053 0.000000
0.168307 0.329961 0.000000
0.247410 0.327214 0.000000
0.322972 0.323064 0.000000
0.395697 0.318029 0.000000
0.465034 0.312444 0.000000
0.533318 0.307713 0.000000
0.599847 0.303105 0.000793
0.665461 0.299138 0.001831
0.725429 0.293675 0.005646
0.783749 0.288609 0.008301
0.842008 0.284337 0.011109
0.900755 0.280735 0.012879
0.958038 0.276829 0.013123
1.000000 0.271672 0.007568
0.000000 0.393378 0.000000
0.085176 0.394415 0.000214
0.163027 0.394476 0.000031
0.238895 0.392279 0.000305
0.312169 0.388342 0.000397
0.383917 0.383856 0.001343
0.454322 0.379767 0.002075
0.523857 0.376135 0.003204
0.590967 0.371740 0.003418
0.656245 0.367163 0.004761
0.716335 0.360998 0.007874
0.776120 0.355627 0.010468
0.834836 0.350713 0.012299
0.893858 0.346441 0.013458
0.951629 0.342016 0.011902
1.000000 0.336797 0.005402
0.005097 0.455665 0.005493
0.085389 0.456764 0.005646
0.158267 0.456672 0.005524
0.231815 0.455055 0.005432
0.304204 0.452522 0.005707
0.375647 0.449500 0.006073
0.446113 0.446174 0.006104
0.514946 0.442298 0.005402
0.580835 0.437110 0.006256
0.645258 0.431983 0.006561
0.706630 0.426032 0.010407
0.767483 0.420844 0.012696
0.826902 0.415534 0.013001
0.886320 0.410956 0.012116
0.944732 0.406226 0.008728
1.000000 0.401068 0.001404
0.007935 0.515740 0.008331
0.082918 0.518029 0.009064
0.154482 0.519097 0.008942
0.226749 0.518303 0.009491
0.298039 0.516014 0.009400
0.367559 0.512169 0.008331
0.435462 0.507195 0.007294
0.502403 0.502403 0.006195
0.568170 0.497810 0.006104
0.632715 0.493172 0.007782
0.695369 0.488045 0.010498
0.757168 0.483131 0.011414
0.817258 0.477943 0.010224
0.876646 0.472938 0.007324
0.935180 0.467903 0.001892
0.995483 0.464149 0.000000
0.008576 0.564569 0.007752
0.077455 0.564752 0.007630
0.146242 0.565698 0.008392
0.215793 0.565759 0.008820
0.285283 0.565362 0.009369
0.354223 0.564172 0.009186
0.422889 0.562554 0.008728
0.490700 0.560357 0.008789
0.557977 0.558038 0.008759
0.624292 0.555444 0.009522
0.689082 0.552056 0.011353
0.752224 0.548058 0.012024
0.813504 0.543175 0.010468
0.873503 0.538109 0.006592
0.932708 0.533043 0.000000
0.990326 0.527245 0.000000
0.009857 0.621393 0.011505
0.077302 0.620539 0.010925
0.142580 0.620356 0.010742
0.209751 0.619898 0.010773
0.277562 0.619318 0.010834
0.345129 0.618494 0.010620
0.412879 0.617792 0.010468
0.480079 0.616449 0.009766
0.546990 0.615015 0.009369
0.612909 0.613031 0.008667
0.678279 0.610712 0.007904
0.740932 0.606561 0.006439
0.802396 0.602014 0.002258
0.863890 0.598016 0.000000
0.924681 0.593835 0.000000
0.984100 0.588861 0.000000
0.008240 0.676905 0.009461
0.072602 0.676387 0.008789
0.138064 0.675898 0.008209
0.204562 0.675319 0.007904
0.271214 0.674800 0.007782
0.337713 0.673976 0.006775
0.404456 0.673121 0.006195
0.470649 0.671901 0.005158
0.536614 0.670619 0.004089
0.601770 0.668788 0.002411
0.666499 0.666621 0.000275
0.730190 0.663905 0.000000
0.792782 0.660487 0.000000
0.855039 0.657191 0.000000
0.916594 0.653559 0.000000
0.976806 0.649012 0.000000
0.000000 0.732143 0.000000
0.063325 0.731594 0.000000
0.130953 0.731197 0.000000
0.197726 0.730526 0.000000
0.264042 0.729641 0.000000
0.330022 0.728664 0.000000
0.395880 0.727596 0.000000
0.461280 0.726375 0.000000
0.526665 0.725246 0.000000
0.591363 0.723568 0.000000
0.655818 0.721859 0.000000
0.719814 0.719966 0.000000
0.783688 0.718166 0.000000
0.846647 0.715663 0.000000
0.909209 0.712917 0.000000
0.971893 0.710292 0.000000
0.000000 0.778866 0.000000
0.025299 0.779019 0.000000
0.112154 0.779843 0.000000
0.183993 0.780545 0.000000
0.253086 0.781491 0.000000
0.320348 0.782132 0.000000
0.387457 0.782956 0.000000
0.453925 0.783352 0.000000
0.520439 0.784085 0.000000
0.586542 0.784237 0.000000
0.652857 0.784695 0.000000
0.718624 0.784634 0.000000
0.784665 0.784756 0.000000
0.848997 0.783383 0.000000
0.910307 0.779202 0.000000
0.968200 0.772152 0.000000
0.000000 0.843626 0.000000
0.000000 0.839750 0.000000
0.087495 0.838132 0.000000
0.168399 0.837797 0.000000
0.240940 0.838407 0.000000
0.310185 0.838865 0.000000
0.378027 0.839445 0.000000
0.445136 0.839994 0.000000
0.511986 0.840848 0.000000
0.577966 0.840909 0.000000
0.644099 0.841184 0.000000
0.709499 0.840940 0.000000
0.774929 0.840726 0.000000
0.839261 0.839414 0.000000
0.902403 0.837064 0.000000
0.963165 0.832578 0.000000
0.000000 0.901946 0.000000
0.000000 0.898619 0.000000
0.025055 0.896788 0.000000
0.140627 0.896147 0.000000
0.221805 0.896330 0.000000
0.295293 0.896635 0.000000
0.365789 0.897307 0.000000
0.434272 0.897673 0.000000
0.501823 0.898222 0.000000
0.568566 0.898314 0.000000
0.635004 0.898528 0.000000
0.701076 0.898650 0.000000
0.767422 0.899168 0.000000
0.833097 0.899077 0.000000
0.898222 0.898375 0.000000
0.961212 0.895689 0.000000
0.000000 0.963073 0.000000
0.000000 0.960357 0.000000
0.000000 0.958892 0.000000
0.079377 0.958404 0.000000
0.189548 0.958556 0.000000
0.273014 0.958892 0.000000
0.348821 0.959564 0.000000
0.420905 0.960204 0.000000
0.491279 0.961242 0.000000
0.560540 0.962249 0.000000
0.629236 0.963561 0.000000
0.697444 0.964752 0.000000
0.766110 0.966644 0.000000
0.834501 0.968383 0.000000
0.903532 0.970642 0.000000
0.973114 0.973297 0.000000
0.000153 0.000183 0.108675
0.118257 0.000275 0.118715
0.215274 0.000244 0.116213
0.297063 0.000366 0.103548
0.363104 0.000336 0.095064
0.427314 0.000183 0.090578
0.491127 0.000275 0.087465
0.555077 0.000336 0.084962
0.616327 0.000214 0.082734
0.679225 0.001099 0.081392
0.739315 0.003967 0.080842
0.795285 0.008667 0.080568
0.849851 0.010895 0.080079
0.906645 0.012818 0.079622
0.963470 0.014038 0.078828
1.000000 0.012085 0.075532
0.000000 0.115785 0.115908
0.109529 0.109529 0.109529
0.204929 0.102998 0.102907
0.285863 0.097963 0.097841
0.356146 0.093507 0.093538
0.422644 0.090089 0.089845
0.488930 0.087373 0.087617
0.553246 0.085573 0.085115
0.614954 0.083436 0.083131
0.679164 0.082063 0.081819
0.738674 0.081636 0.081453
0.794339 0.081758 0.080812
0.848264 0.080385 0.079774
0.904906 0.079866 0.079347
0.961456 0.079164 0.078065
1.000000 0.076051 0.075502
0.000000 0.203861 0.102632
0.099611 0.197635 0.099641
0.190860 0.191043 0.096040
0.272496 0.184390 0.093385
0.346838 0.178012 0.091646
0.417517 0.172702 0.089540
0.484596 0.167544 0.087770
0.549279 0.163027 0.085420
0.613581 0.159274 0.083772
0.677424 0.156558 0.082521
0.735531 0.153170 0.081392
0.790555 0.150088 0.080934
0.844816 0.147189 0.079591
0.901946 0.145449 0.078889
0.958892 0.143130 0.077699
1.000000 0.139712 0.074556
0.000000 0.273869 0.096162
0.094331 0.269535 0.094453
0.179110 0.264500 0.092653
0.259159 0.259220 0.090486
0.334173 0.253025 0.089387
0.405585 0.247196 0.087831
0.473610 0.241306 0.086336
0.540612 0.236606 0.085023
0.605921 0.232212 0.083314
0.669581 0.228092 0.082094
0.728298 0.223301 0.081147
0.784176 0.218723 0.080720
0.841184 0.215213 0.080171
0.898100 0.211887 0.078706
0.953552 0.207980 0.076173
1.000000 0.204105 0.071809
0.000000 0.330999 0.090455
0.090059 0.329625 0.090242
0.168399 0.327062 0.089418
0.244785 0.323186 0.088045
0.318029 0.318212 0.086397
0.389654 0.313420 0.085054
0.458961 0.308659 0.084169
0.527245 0.304448 0.083070
0.593286 0.300023 0.081605
0.658503 0.296178 0.080476
0.718990 0.291264 0.080323
0.778042 0.286595 0.080537
0.837095 0.282902 0.080171
0.896056 0.279393 0.079835
0.953582 0.275517 0.077455
1.000000 0.270603 0.072297
0.005554 0.392645 0.088258
0.087556 0.392279 0.088167
0.162448 0.390631 0.087739
0.236515 0.387884 0.086824
0.309209 0.384253 0.085695
0.379889 0.380102 0.084321
0.449226 0.375677 0.083009
0.517754 0.371801 0.081910
0.584466 0.367590 0.081056
0.649531 0.363378 0.079835
0.710689 0.358099 0.080201
0.771084 0.353338 0.080446
0.830167 0.348760 0.079347
0.889097 0.344427 0.077974
0.946990 0.340063 0.074800
1.000000 0.335332 0.069276
0.008789 0.455756 0.086824
0.086458 0.456092 0.087037
0.158663 0.454780 0.086427
0.230838 0.452522 0.085939
0.302342 0.449348 0.084871
0.372625 0.445747 0.083803
0.441535 0.441535 0.082368
0.509117 0.437354 0.081086
0.575616 0.433112 0.079408
0.640223 0.428412 0.079011
0.701381 0.422736 0.079011
0.762081 0.417609 0.078737
0.821714 0.412604 0.077363
0.881041 0.408057 0.075166
0.939574 0.403479 0.070954
0.997955 0.399054 0.064515
0.009369 0.514244 0.083955
0.083558 0.515343 0.084230
0.153658 0.514702 0.084077
0.224582 0.513054 0.083680
0.294652 0.510552 0.082338
0.363867 0.507134 0.081636
0.431983 0.503075 0.080079
0.498756 0.498817 0.078706
0.564263 0.494423 0.076814
0.628626 0.489906 0.076967
0.691005 0.484810 0.076997
0.752590 0.480140 0.076570
0.813077 0.475288 0.074678
0.872343 0.470283 0.070924
0.930907 0.465309 0.064271
0.990753 0.461341 0.055818
0.008209 0.566827 0.079286
0.078737 0.566491 0.079255
0.146700 0.566064 0.079347
0.215427 0.565209 0.079011
0.284550 0.563989 0.078981
0.353063 0.562493 0.078431
0.421698 0.560815 0.077974
0.489174 0.558556 0.077272
0.555871 0.555901 0.076631
0.621790 0.553155 0.076265
0.686275 0.549706 0.076967
0.749325 0.545739 0.076295
0.810452 0.541039 0.074342
0.871000 0.536492 0.070283
0.931212 0.532036 0.064027
0.990112 0.526970 0.052827
0.011475 0.621607 0.078584
0.077424 0.621027 0.078126
0.143160 0.620417 0.077760
0.209903 0.619776 0.077455
0.277531 0.619043 0.077394
0.344854 0.617884 0.077180
0.412024 0.616541 0.076326
0.478645 0.614771 0.075685
0.545006 0.612909 0.075013
0.610590 0.610651 0.073915
0.675288 0.607996 0.072297
0.738064 0.604089 0.070436
0.799985 0.600061 0.066712
0.862028 0.596582 0.061280
0.923583 0.592920 0.052888
0.983978 0.588647 0.037324
0.008576 0.677028 0.074891
0.073732 0.676905 0.074739
0.138857 0.676326 0.074525
0.205051 0.675563 0.074037
0.271183 0.674586 0.073243
0.337438 0.673243 0.072175
0.403418 0.671748 0.070832
0.469306 0.670161 0.069581
0.534874 0.668727 0.068574
0.599908 0.666682 0.066773
0.664210 0.664332 0.064118
0.727840 0.661616 0.060822
0.790555 0.658534 0.055421
0.853056 0.655543 0.046693
0.915099 0.652277 0.032136
0.976043 0.648249 0.009400
0.000000 0.731563 0.064698
0.063081 0.731228 0.064302
0.130861 0.730556 0.063722
0.197482 0.729824 0.062409
0.263462 0.728969 0.061219
0.329625 0.727962 0.060212
0.395300 0.726955 0.058534
0.460639 0.725612 0.056428
0.525689 0.724117 0.053864
0.590082 0.722194 0.050141
0.654139 0.720089 0.045960
0.717769 0.717891 0.040681
0.781186 0.715755 0.034577
0.843900 0.713130 0.020844
0.906279 0.710323 0.000336
0.969299 0.708003 0.000000
0.000000 0.780301 0.027161
0.025971 0.780362 0.027008
0.111696 0.780911 0.028443
0.183780 0.781277 0.028748
0.252781 0.781918 0.029084
0.320348 0.782345 0.029908
0.387396 0.783139 0.030579
0.453956 0.783444 0.029969
0.520317 0.783993 0.029847
0.586267 0.783963 0.028382
0.652399 0.784237 0.026947
0.718105 0.784115 0.024475
0.784146 0.784298 0.022583
0.848661 0.782986 0.015473
0.910216 0.779080 0.000000
0.968658 0.772396 0.000000
0.000000 0.844450 0.000000
0.000000 0.840848 0.000000
0.085908 0.839261 0.000000
0.168002 0.838834 0.000000
0.240665 0.839322 0.000000
0.309941 0.839567 0.000000
0.377905 0.839902 0.000000
0.444862 0.840269 0.000000
0.511620 0.840848 0.000000
0.577600 0.840726 0.000000
0.643641 0.840879 0.000000
0.709133 0.840574 0.000000
0.774746 0.840513 0.000000
0.839200 0.839353 0.000000
0.902556 0.837186 0.000000
0.963684 0.832944 0.000000
0.000000 0.902525 0.000000
0.000000 0.899443 0.000000
0.020020 0.897795 0.000000
0.138766 0.897185 0.000000
0.221103 0.897276 0.000000
0.294713 0.897490 0.000000
0.365362 0.898009 0.000000
0.433936 0.898161 0.000000
0.501488 0.898405 0.000000
0.568109 0.898344 0.000000
0.634577 0.898466 0.000000
0.700771 0.898528 0.000000
0.767117 0.899046 0.000000
0.832975 0.898985 0.000000
0.898283 0.898466 0.000000
0.961578 0.895933 0.000000
0.000000 0.963592 0.000000
0.000000 0.961028 0.000000
0.000000 0.959594 0.000000
0.074037 0.959136 0.000000
0.187381 0.959319 0.000000
0.271641 0.959686 0.000000
0.347967 0.960266 0.000000
0.420356 0.960815 0.000000
0.490791 0.961669 0.000000
0.560052 0.962585 0.000000
0.628840 0.963684 0.000000
0.697017 0.964752 0.000000
0.765591 0.966400 0.000000
0.833982 0.968048 0.000000
0.903136 0.970336 0.000000
0.972900 0.973053 0.000000
0.000244 0.000000 0.230961
0.122805 0.000000 0.224613
0.209842 0.000092 0.211215
0.288823 0.000000 0.196780
0.357031 0.000183 0.183413
0.419928 0.000275 0.174166
0.483680 0.004608 0.168948
0.547021 0.009400 0.164828
0.609094 0.008667 0.159854
0.673396 0.009155 0.156924
0.733944 0.011780 0.154421
0.790555 0.016754 0.152132
0.845762 0.018494 0.149294
0.903868 0.020386 0.147463
0.961425 0.020172 0.145449
1.000000 0.015625 0.141421
0.000000 0.112093 0.219089
0.105776 0.105409 0.208743
0.198825 0.100069 0.198672
0.278538 0.096437 0.188754
0.347692 0.094362 0.179629
0.415106 0.094301 0.173983
0.481025 0.092561 0.169162
0.545434 0.090181 0.164492
0.609216 0.087556 0.160281
0.673793 0.085969 0.157168
0.733639 0.085420 0.154635
0.789761 0.085664 0.152132
0.844694 0.084077 0.149111
0.902312 0.083528 0.147189
0.959533 0.082124 0.144717
1.000000 0.078035 0.140963
0.000000 0.198886 0.198734
0.098756 0.193179 0.193210
0.187564 0.187564 0.187564
0.267063 0.182315 0.182101
0.340795 0.177737 0.177615
0.411231 0.173159 0.173220
0.478401 0.168643 0.168521
0.543236 0.163912 0.163790
0.608728 0.160616 0.160494
0.672602 0.157351 0.157229
0.730892 0.154574 0.154177
0.786313 0.151461 0.151217
0.841703 0.148898 0.148501
0.899351 0.146792 0.146395
0.956878 0.144167 0.143801
1.000000 0.140749 0.140108
0.000000 0.270085 0.184360
0.098238 0.265721 0.181949
0.179019 0.261326 0.179019
0.256565 0.256657 0.175662
0.330571 0.251377 0.172427
0.401373 0.246036 0.169039
0.469306 0.240513 0.164889
0.536919 0.236393 0.161837
0.602045 0.231907 0.158389
0.665766 0.227634 0.155306
0.724453 0.223239 0.152468
0.780606 0.218875 0.149966
0.838437 0.215732 0.147799
0.895506 0.212100 0.145357
0.951263 0.208133 0.141634
1.000000 0.203677 0.137026
0.012787 0.327855 0.171847
0.095094 0.326665 0.171176
0.169650 0.324346 0.169650
0.243778 0.320806 0.167453
0.316350 0.316106 0.164736
0.386938 0.311681 0.162142
0.455940 0.307225 0.159609
0.523827 0.303075 0.157168
0.589868 0.298833 0.154421
0.654932 0.294957 0.152193
0.715541 0.290349 0.150423
0.775296 0.286320 0.148928
0.834806 0.282780 0.147250
0.894102 0.279393 0.145449
0.952087 0.275669 0.142702
1.000000 0.270634 0.137850
0.014862 0.390845 0.165103
0.092164 0.390570 0.164767
0.163668 0.388861 0.163912
0.236637 0.386145 0.162570
0.308171 0.382544 0.160647
0.378485 0.378546 0.158419
0.447211 0.374212 0.156130
0.515496 0.370397 0.154208
0.582086 0.366369 0.152010
0.646937 0.362036 0.149935
0.708278 0.357183 0.148745
0.768856 0.352667 0.147402
0.828244 0.348211 0.145663
0.887419 0.344091 0.143160
0.945678 0.339757 0.139986
1.000000 0.335058 0.135042
0.015686 0.453925 0.159945
0.089448 0.454383 0.160189
0.159152 0.453254 0.159487
0.230625 0.451087 0.158602
0.301732 0.448035 0.157107
0.371862 0.444587 0.155428
0.440406 0.440467 0.153384
0.507866 0.436255 0.151369
0.573907 0.431922 0.149172
0.638331 0.427253 0.147585
0.699519 0.421729 0.146578
0.760311 0.416785 0.144961
0.819974 0.411963 0.142458
0.879515 0.407446 0.140047
0.938354 0.403052 0.136324
0.997314 0.398627 0.131350
0.012848 0.512932 0.153841
0.084260 0.514244 0.154208
0.153841 0.513573 0.153964
0.224277 0.512016 0.153414
0.294285 0.509361 0.152285
0.363195 0.506035 0.150790
0.431006 0.502007 0.148867
0.497810 0.497841 0.147127
0.563317 0.493477 0.145113
0.627497 0.488960 0.144442
0.689845 0.483986 0.143435
0.751369 0.479408 0.141726
0.811765 0.474556 0.139467
0.871122 0.469673 0.135927
0.929931 0.464668 0.130922
0.989960 0.460578 0.125093
0.009400 0.566064 0.147189
0.079255 0.565728 0.147158
0.146670 0.565270 0.147066
0.215488 0.564324 0.146639
0.284123 0.563165 0.146426
0.352697 0.561639 0.145846
0.420874 0.559960 0.145296
0.488350 0.557702 0.144442
0.554986 0.555108 0.143557
0.620935 0.552392 0.142702
0.685298 0.548974 0.142611
0.748287 0.545068 0.141390
0.809445 0.540337 0.138979
0.870268 0.535943 0.135683
0.930724 0.531670 0.131289
0.989990 0.526726 0.123720
0.012634 0.621027 0.144167
0.077821 0.620569 0.143984
0.143191 0.620020 0.143709
0.210178 0.619440 0.143496
0.277562 0.618769 0.143282
0.344793 0.617609 0.142824
0.411902 0.616114 0.142123
0.478340 0.614313 0.141299
0.544610 0.612512 0.140414
0.610071 0.610224 0.139284
0.674556 0.607385 0.137728
0.737331 0.603479 0.135836
0.799344 0.599603 0.132845
0.861540 0.596124 0.129183
0.923278 0.592645 0.123842
0.983978 0.588342 0.115084
0.010315 0.676600 0.140017
0.074678 0.676661 0.139956
0.139284 0.676143 0.139742
0.204990 0.675410 0.139132
0.271122 0.674372 0.138552
0.337316 0.673060 0.137606
0.403357 0.671626 0.136782
0.469154 0.670069 0.135744
0.534752 0.668421 0.134676
0.599512 0.666285 0.133150
0.663752 0.663874 0.131106
0.727352 0.661128 0.129000
0.790097 0.658106 0.125277
0.852811 0.655207 0.119997
0.914977 0.652033 0.112245
0.976104 0.648035 0.099855
0.000000 0.731289 0.131563
0.062379 0.730983 0.131319
0.130434 0.730343 0.130800
0.196872 0.729641 0.130251
0.263249 0.728878 0.129519
0.329290 0.727962 0.128389
0.395239 0.726925 0.127718
0.460578 0.725521 0.126192
0.525475 0.723964 0.124392
0.589868 0.721981 0.122042
0.653895 0.719875 0.119570
0.717556 0.717678 0.116609
0.780941 0.715511 0.113161
0.843656 0.712886 0.105959
0.906096 0.710048 0.093782
0.969268 0.707637 0.077150
0.000000 0.780758 0.110414
0.021088 0.780789 0.110384
0.109865 0.781216 0.110750
0.182742 0.781552 0.110903
0.252018 0.782162 0.111147
0.319860 0.782528 0.111574
0.387091 0.783291 0.111910
0.453620 0.783566 0.111879
0.520134 0.784115 0.112032
0.586236 0.784115 0.110903
0.652430 0.784390 0.110628
0.718257 0.784298 0.109224
0.784390 0.784482 0.108309
0.848753 0.783047 0.104646
0.910399 0.779049 0.090761
0.968963 0.772396 0.056886
0.000000 0.844694 0.093172
0.000000 0.841245 0.086580
0.082246 0.839719 0.083528
0.165774 0.839353 0.082155
0.239292 0.839719 0.082002
0.308904 0.839933 0.081575
0.377203 0.840269 0.081239
0.444434 0.840604 0.080629
0.511437 0.841184 0.079927
0.577569 0.841062 0.078035
0.643641 0.841154 0.075685
0.709133 0.840818 0.071870
0.774807 0.840726 0.068208
0.839384 0.839506 0.059724
0.902800 0.837308 0.044343
0.964080 0.833097 0.000000
0.000000 0.902770 0.030701
0.000000 0.899779 0.016480
0.005829 0.898192 0.008240
0.134005 0.897612 0.004456
0.218143 0.897734 0.002899
0.292821 0.897917 0.000855
0.364080 0.898436 0.000122
0.432990 0.898589 0.000000
0.500755 0.898741 0.000000
0.567559 0.898650 0.000000
0.634272 0.898772 0.000000
0.700587 0.898833 0.000000
0.767147 0.899321 0.000000
0.833127 0.899229 0.000000
0.898558 0.898741 0.000000
0.962005 0.896208 0.000000
0.000000 0.963989 0.000000
0.000000 0.961425 0.000000
0.000000 0.960021 0.000000
0.057984 0.959594 0.000000
0.181552 0.959838 0.000000
0.268070 0.960174 0.000000
0.345373 0.960723 0.000000
0.418372 0.961242 0.000000
0.489387 0.962066 0.000000
0.559075 0.962951 0.000000
0.628107 0.964080 0.000000
0.696590 0.965057 0.000000
0.765286 0.966705 0.000000
0.833860 0.968322 0.000000
0.903166 0.970581 0.000000
0.973144 0.973297 0.000000
0.000702 0.000000 0.314000
0.112062 0.000214 0.307103
0.198856 0.000244 0.293919
0.278080 0.000000 0.279332
0.348455 0.000000 0.264256
0.414282 0.000000 0.252720
0.478889 0.004578 0.244907
0.542046 0.010346 0.238621
0.604273 0.013977 0.233249
0.668177 0.014893 0.229252
0.728817 0.017853 0.225559
0.785824 0.024628 0.221988
0.842191 0.026917 0.218265
0.901091 0.028534 0.215640
0.959075 0.027405 0.212619
1.000000 0.020844 0.208042
0.000000 0.105409 0.300084
0.101442 0.101503 0.290562
0.190433 0.097932 0.280278
0.269718 0.094942 0.269780
0.341344 0.093111 0.258976
0.410315 0.093446 0.251225
0.476112 0.092897 0.244297
0.539696 0.091829 0.238193
0.604242 0.090364 0.233555
0.668635 0.088106 0.229557
0.728481 0.088167 0.225620
0.785092 0.089052 0.221866
0.841367 0.088289 0.218051
0.899474 0.088106 0.215183
0.957244 0.085542 0.211856
1.000000 0.080873 0.207523
0.000000 0.191989 0.281407
0.100404 0.187655 0.274540
0.183474 0.183536 0.267491
0.262058 0.179690 0.261967
0.335332 0.176028 0.255467
0.405402 0.172366 0.249516
0.472389 0.168551 0.243503
0.537987 0.164401 0.238010
0.603510 0.160769 0.233555
0.667445 0.157259 0.229221
0.725948 0.155001 0.224826
0.781796 0.152743 0.220706
0.838499 0.150515 0.217105
0.896666 0.148592 0.213993
0.954650 0.145968 0.210636
1.000000 0.141451 0.206516
0.000580 0.265415 0.265354
0.098329 0.261662 0.261692
0.177646 0.257420 0.257420
0.253391 0.253391 0.253391
0.326116 0.248905 0.248844
0.396338 0.244144 0.244083
0.464851 0.239353 0.239353
0.532372 0.235264 0.235203
0.597467 0.230655 0.230747
0.661128 0.226688 0.226474
0.720058 0.222782 0.222660
0.776883 0.219120 0.218814
0.835569 0.216251 0.216068
0.893034 0.212772 0.212589
0.949248 0.208499 0.208194
1.000000 0.203403 0.203128
0.014038 0.324407 0.247013
0.096345 0.323064 0.246128
0.169039 0.320714 0.244480
0.241947 0.317510 0.242100
0.313542 0.313451 0.238712
0.383795 0.309545 0.235538
0.452583 0.305211 0.232151
0.520439 0.301366 0.228824
0.586328 0.297185 0.225437
0.651209 0.293492 0.222293
0.711818 0.289342 0.219516
0.772488 0.286015 0.217411
0.832364 0.282811 0.215061
0.891966 0.279484 0.212680
0.950347 0.275700 0.209232
1.000000 0.270390 0.203952
0.018952 0.388373 0.238621
0.093751 0.387854 0.238346
0.163577 0.386206 0.237217
0.235416 0.383612 0.235447
0.306279 0.380255 0.232914
0.376349 0.376440 0.230228
0.445014 0.372351 0.227390
0.513024 0.368627 0.224826
0.579339 0.364599 0.222019
0.644099 0.360601 0.219364
0.705562 0.356054 0.217380
0.766415 0.351873 0.215244
0.826078 0.347753 0.212619
0.885496 0.343755 0.209873
0.944152 0.339452 0.206210
1.000000 0.334752 0.201419
0.015717 0.451209 0.231327
0.089845 0.451637 0.231571
0.158724 0.450599 0.230991
0.229679 0.448676 0.229740
0.300298 0.445808 0.228031
0.369970 0.442634 0.226139
0.438666 0.438727 0.223758
0.505821 0.434485 0.221225
0.571679 0.430182 0.218662
0.635920 0.425727 0.216434
0.697261 0.420508 0.214298
0.758145 0.415930 0.212070
0.818143 0.411170 0.209293
0.877897 0.406897 0.206210
0.937133 0.402441 0.202396
0.996490 0.398047 0.197604
0.012238 0.510826 0.223911
