luts/Kodak_Ektar_100.cube
# Generated for krafta web app
# https://www.facebook.com/krafta.visio
# Preset: KDK - Ektar 100
# Color profile : sRGB Color Space Profile
LUT_3D_SIZE 16
DOMAIN_MIN 0.0 0.0 0.0
DOMAIN_MAX 1.0 1.0 1.0
0.000000 0.000000 0.000000
0.084474 0.000000 0.000336
0.169009 0.000366 0.000214
0.246433 0.000244 0.000275
0.315892 0.000336 0.000000
0.383001 0.000031 0.000000
0.447822 0.000244 0.000275
0.513634 0.000244 0.000244
0.577844 0.000183 0.000397
0.641749 0.000366 0.000336
0.704860 0.000153 0.000244
0.765072 0.000793 0.000397
0.824430 0.002258 0.001953
0.884459 0.003662 0.002502
0.944488 0.004089 0.002441
1.000000 0.002380 0.000580
0.000000 0.086915 0.000000
0.085145 0.085512 0.000000
0.164920 0.086427 0.000000
0.241367 0.085084 0.000000
0.311772 0.082399 0.000000
0.378943 0.079683 0.000000
0.446021 0.076753 0.000000
0.511925 0.075532 0.000000
0.575891 0.073976 0.000000
0.640162 0.072816 0.000000
0.703212 0.072389 0.000000
0.763394 0.072480 0.000641
0.822690 0.071412 0.001801
0.882841 0.071260 0.002594
0.943084 0.070771 0.002197
1.000000 0.068513 0.000580
0.000000 0.164645 0.000000
0.083619 0.162478 0.000000
0.159731 0.159762 0.000000
0.234348 0.157809 0.000000
0.305608 0.155093 0.000000
0.374945 0.152438 0.000000
0.442481 0.149783 0.000000
0.508354 0.147372 0.000000
0.572686 0.145205 0.000000
0.637598 0.143618 0.000000
0.700465 0.142275 0.000000
0.760769 0.140536 0.000641
0.820035 0.138888 0.002319
0.880735 0.137301 0.002625
0.941222 0.136110 0.002045
1.000000 0.134188 0.000275
0.000000 0.234470 0.000000
0.078798 0.232609 0.000000
0.154726 0.230594 0.000000
0.228122 0.228367 0.000000
0.299046 0.225162 0.000000
0.368231 0.222446 0.000000
0.435523 0.219455 0.000000
0.501884 0.216831 0.000000
0.567529 0.214603 0.000000
0.632380 0.212619 0.000000
0.695094 0.210422 0.000366
0.755612 0.207858 0.001434
0.815732 0.205356 0.002350
0.876219 0.203433 0.002106
0.936278 0.201358 0.000855
0.996674 0.198978 0.000000
0.000000 0.298619 0.000000
0.076509 0.298100 0.000000
0.150393 0.297856 0.000000
0.223117 0.296422 0.000000
0.294194 0.294285 0.000000
0.363622 0.291630 0.000000
0.431556 0.288884 0.000000
0.498604 0.286290 0.000000
0.564599 0.283757 0.000000
0.629969 0.281498 0.000305
0.692958 0.278691 0.001617
0.754360 0.275792 0.002808
0.815488 0.273198 0.003052
0.876707 0.270848 0.003204
0.937163 0.268223 0.001678
0.995911 0.265110 0.000000
0.000000 0.362676 0.000000
0.074861 0.362982 0.000000
0.147311 0.362737 0.000000
0.218631 0.361608 0.000000
0.288396 0.359533 0.000000
0.357153 0.357153 0.000061
0.425208 0.354803 0.000427
0.492683 0.352789 0.000763
0.558740 0.350378 0.001434
0.624170 0.347875 0.001129
0.687007 0.344640 0.002441
0.749203 0.341558 0.003021
0.810636 0.338659 0.002899
0.872129 0.336034 0.002106
0.932982 0.333288 0.000000
0.992737 0.330114 0.000000
0.001343 0.426001 0.001648
0.074952 0.426337 0.002319
0.144533 0.426154 0.001862
0.214511 0.425147 0.001953
0.283513 0.423713 0.002380
0.352056 0.421942 0.001953
0.419776 0.419959 0.002228
0.486763 0.417700 0.001831
0.552392 0.414862 0.002197
0.617365 0.412299 0.002045
0.680629 0.409033 0.002899
0.743343 0.406165 0.003143
0.805295 0.403143 0.002075
0.867094 0.400366 0.000000
0.928405 0.397528 0.000000
0.989136 0.394476 0.000000
0.002594 0.487831 0.002991
0.073152 0.488685 0.003265
0.141787 0.488960 0.003601
0.211093 0.488380 0.003388
0.279606 0.487037 0.003326
0.346990 0.484901 0.003265
0.413550 0.482246 0.002747
0.479561 0.479561 0.001770
0.544640 0.476875 0.002106
0.609644 0.474495 0.001648
0.673426 0.471809 0.001709
0.736721 0.469032 0.001221
0.799100 0.466102 0.000000
0.861021 0.463294 0.000000
0.922545 0.460395 0.000000
0.984924 0.458015 0.000000
0.002258 0.544549 0.002625
0.069612 0.544549 0.002533
0.137362 0.544823 0.002502
0.205295 0.544610 0.002441
0.272862 0.544060 0.002899
0.339910 0.543114 0.002411
0.406592 0.541924 0.001923
0.472847 0.540337 0.001648
0.538476 0.538598 0.001984
0.603632 0.536797 0.000946
0.668421 0.534874 0.000641
0.732387 0.532708 0.000000
0.795346 0.530053 0.000000
0.857725 0.527306 0.000000
0.919738 0.524468 0.000000
0.980987 0.521233 0.000000
0.001160 0.604211 0.002228
0.068055 0.603723 0.001801
0.134737 0.603510 0.001862
0.201389 0.603113 0.001556
0.268009 0.602564 0.001404
0.334417 0.601831 0.001434
0.400702 0.601099 0.000641
0.466590 0.599908 0.000000
0.532097 0.598718 0.000000
0.596979 0.597192 0.000000
0.661555 0.595331 0.000000
0.725277 0.593256 0.000000
0.788479 0.590875 0.000000
0.851591 0.588769 0.000000
0.914549 0.586511 0.000000
0.975952 0.583154 0.000000
0.000000 0.663111 0.000000
0.062715 0.662867 0.000000
0.130739 0.662501 0.000000
0.197177 0.662104 0.000000
0.263401 0.661616 0.000000
0.329473 0.660945 0.000000
0.395270 0.660182 0.000000
0.460822 0.659174 0.000000
0.525963 0.658045 0.000000
0.590692 0.656641 0.000000
0.654902 0.655024 0.000000
0.718624 0.653101 0.000000
0.782284 0.651392 0.000000
0.845548 0.649409 0.000000
0.908293 0.647028 0.000000
0.970184 0.644038 0.000000
0.000000 0.721950 0.000000
0.051484 0.721675 0.000000
0.123964 0.721401 0.000000
0.191928 0.720912 0.000000
0.258183 0.720211 0.000000
0.324193 0.719387 0.000000
0.389502 0.718471 0.000000
0.454627 0.717464 0.000000
0.519585 0.716426 0.000000
0.583948 0.715053 0.000000
0.648066 0.713558 0.000000
0.711757 0.711940 0.000000
0.775357 0.710414 0.000000
0.838895 0.708797 0.000000
0.902464 0.707240 0.000000
0.966308 0.705745 0.000000
0.000000 0.773495 0.000000
0.015503 0.773617 0.000000
0.106050 0.774166 0.000000
0.179538 0.774594 0.000000
0.248844 0.775235 0.000000
0.315923 0.775631 0.000000
0.382635 0.776089 0.000000
0.448646 0.776272 0.000000
0.514580 0.776608 0.000000
0.580194 0.776577 0.000000
0.645777 0.776730 0.000000
0.710933 0.776486 0.000000
0.776242 0.776425 0.000000
0.840421 0.775204 0.000000
0.902892 0.772519 0.000000
0.963500 0.768063 0.000000
0.000000 0.838163 0.000000
0.000000 0.835355 0.000000
0.080873 0.834134 0.000000
0.164462 0.833860 0.000000
0.237430 0.834287 0.000000
0.306767 0.834562 0.000000
0.374517 0.834897 0.000000
0.441352 0.835203 0.000000
0.507927 0.835721 0.000000
0.573571 0.835630 0.000000
0.639338 0.835752 0.000000
0.704524 0.835416 0.000000
0.769680 0.835142 0.000000
0.833982 0.834104 0.000000
0.897429 0.832334 0.000000
0.959991 0.829679 0.000000
0.000000 0.898650 0.000000
0.000000 0.896269 0.000000
0.017884 0.894957 0.000000
0.137606 0.894499 0.000000
0.219883 0.894591 0.000000
0.293614 0.894774 0.000000
0.363958 0.895201 0.000000
0.432380 0.895445 0.000000
0.499825 0.895811 0.000000
0.566491 0.895842 0.000000
0.632776 0.896025 0.000000
0.698726 0.896086 0.000000
0.764950 0.896513 0.000000
0.830625 0.896544 0.000000
0.896056 0.896178 0.000000
0.959960 0.894469 0.000000
0.000000 0.962524 0.000000
0.000000 0.960571 0.000000
0.000000 0.959533 0.000000
0.082429 0.959197 0.000000
0.190982 0.959350 0.000000
0.273960 0.959655 0.000000
0.349493 0.960204 0.000000
0.421454 0.960754 0.000000
0.491646 0.961639 0.000000
0.560784 0.962554 0.000000
0.629389 0.963745 0.000000
0.697627 0.964904 0.000000
0.766171 0.966735 0.000000
0.834714 0.968597 0.000000
0.903868 0.971008 0.000000
0.973877 0.974029 0.000000
0.000061 0.000275 0.085847
0.088441 0.000214 0.088777
0.169558 0.000275 0.089052
0.245792 0.000122 0.083986
0.314122 0.000031 0.079835
0.380468 0.000031 0.077974
0.446082 0.000366 0.076661
0.511498 0.000000 0.075654
0.575311 0.000214 0.074403
0.639490 0.000519 0.073793
0.702693 0.001526 0.073121
0.762783 0.003449 0.072877
0.821988 0.004547 0.072236
0.882048 0.004364 0.071321
0.941985 0.004334 0.069917
1.000000 0.001770 0.066926
0.000000 0.087587 0.087587
0.085389 0.085389 0.085389
0.166415 0.082948 0.082887
0.241459 0.080842 0.080964
0.310948 0.079286 0.079408
0.378119 0.077760 0.077729
0.444770 0.076692 0.076814
0.510246 0.076020 0.075593
0.574334 0.074647 0.074556
0.639002 0.074128 0.073671
0.701961 0.073762 0.073487
0.761929 0.073548 0.072633
0.820951 0.072724 0.071992
0.880949 0.071687 0.071229
0.940826 0.070466 0.069429
1.000000 0.067414 0.066743
0.000000 0.165743 0.082765
0.081880 0.163394 0.081605
0.160647 0.160678 0.080354
0.235477 0.158053 0.079133
0.306493 0.155215 0.078401
0.375158 0.152560 0.077394
0.442176 0.150118 0.076722
0.507805 0.147890 0.075715
0.572869 0.146151 0.074525
0.637446 0.144625 0.074006
0.699825 0.142733 0.073243
0.759579 0.140902 0.072908
0.818784 0.138979 0.071748
0.879088 0.137606 0.070832
0.939178 0.135683 0.069001
0.998840 0.133303 0.065766
0.000000 0.235660 0.079835
0.079042 0.233738 0.079164
0.155428 0.231510 0.078462
0.228885 0.229160 0.077668
0.299992 0.226047 0.077241
0.369116 0.223209 0.076478
0.436347 0.220310 0.075807
0.502983 0.217899 0.075166
0.568444 0.215518 0.074464
0.632959 0.213230 0.073701
0.695491 0.210666 0.072908
0.755673 0.208164 0.072480
0.816190 0.205905 0.071687
0.876493 0.203738 0.070130
0.936065 0.201266 0.067720
0.995605 0.198520 0.063752
0.000000 0.298375 0.077668
0.077455 0.297673 0.077485
0.150576 0.296361 0.077333
0.222049 0.294530 0.076478
0.291905 0.292058 0.076081
0.360937 0.289586 0.075410
0.428779 0.287144 0.074739
0.495705 0.284825 0.074495
0.561547 0.282292 0.073457
0.626734 0.280064 0.072389
0.689815 0.277501 0.072297
0.751522 0.274693 0.072114
0.813046 0.272343 0.071229
0.874418 0.270115 0.069764
0.935027 0.267430 0.067475
0.994507 0.264408 0.062806
0.002014 0.362036 0.076387
0.076295 0.361852 0.076631
0.147402 0.360967 0.076417
0.217350 0.359564 0.075959
0.286870 0.357671 0.075410
0.355413 0.355413 0.074556
0.422980 0.353033 0.074006
0.489906 0.350896 0.073579
0.555871 0.348394 0.072999
0.621057 0.346075 0.072175
0.684260 0.343206 0.071870
0.746700 0.340429 0.071168
0.808438 0.337621 0.070100
0.869841 0.335058 0.068055
0.930816 0.332250 0.064912
0.991272 0.329229 0.059358
0.003265 0.425788 0.075776
0.075868 0.425849 0.075837
0.144930 0.425116 0.075471
0.213870 0.423926 0.075441
0.282750 0.422248 0.074800
0.350683 0.420264 0.073915
0.417914 0.417884 0.073365
0.484169 0.415503 0.072724
0.550011 0.413092 0.071443
0.614984 0.410620 0.070985
0.678126 0.407538 0.070619
0.740871 0.404578 0.069642
0.802853 0.401709 0.067903
0.864652 0.398962 0.065431
0.926055 0.396216 0.061006
0.987396 0.393378 0.054871
0.003601 0.487007 0.073854
0.074250 0.487343 0.073945
0.141421 0.487007 0.073945
0.210147 0.486000 0.073701
0.278050 0.484596 0.072908
0.345281 0.482673 0.072358
0.412055 0.480385 0.071962
0.477790 0.477913 0.070863
0.542931 0.475288 0.069825
0.607691 0.472969 0.069245
0.671382 0.470314 0.068391
0.734554 0.467597 0.067353
0.797086 0.464881 0.064668
0.859007 0.462013 0.061189
0.920470 0.459052 0.054902
0.981842 0.456031 0.045686
0.002228 0.545342 0.070954
0.070771 0.545129 0.071107
0.137667 0.544793 0.070924
0.205142 0.544182 0.070497
0.272374 0.543297 0.070588
0.339178 0.542260 0.070130
0.405982 0.541009 0.069886
0.471992 0.539391 0.069184
0.537499 0.537499 0.068696
0.602441 0.535607 0.067781
0.667048 0.533806 0.066896
0.731014 0.531579 0.065064
0.793912 0.529046 0.062226
0.856565 0.526452 0.057649
0.919036 0.523919 0.050752
0.980835 0.520897 0.038514
0.000977 0.604150 0.068696
0.068177 0.603784 0.068544
0.134859 0.603388 0.068818
0.201236 0.602930 0.068360
0.267887 0.602319 0.068025
0.334203 0.601465 0.067628
0.400183 0.600397 0.066896
0.465858 0.599084 0.066194
0.531121 0.597681 0.065553
0.595941 0.595972 0.063966
0.660121 0.594110 0.062379
0.723934 0.592096 0.059876
0.787350 0.589960 0.054932
0.850736 0.588037 0.048524
0.913909 0.585931 0.038300
0.975860 0.582940 0.021729
0.000000 0.663050 0.063813
0.063050 0.662959 0.063630
0.130556 0.662593 0.063691
0.197147 0.662104 0.063081
0.263371 0.661433 0.062470
0.329198 0.660487 0.061433
0.394842 0.659449 0.060731
0.460060 0.658289 0.059113
0.525109 0.657160 0.058106
0.589746 0.655634 0.055787
0.653834 0.653956 0.054047
0.717494 0.652033 0.050599
0.780850 0.650111 0.043275
0.844144 0.648188 0.032013
0.907225 0.646082 0.017060
0.969665 0.643366 0.000000
0.000000 0.721614 0.052644
0.051362 0.721431 0.052338
0.123445 0.720974 0.051972
0.190982 0.720394 0.050965
0.257664 0.719692 0.049409
0.323705 0.718868 0.047883
0.389075 0.718013 0.046174
0.454108 0.716884 0.043915
0.518791 0.715572 0.041444
0.583001 0.713985 0.036927
0.646845 0.712245 0.032929
0.710323 0.710414 0.027527
0.773556 0.708614 0.021393
0.836912 0.706996 0.007782
0.900359 0.705379 0.000000
0.964446 0.704036 0.000000
0.000000 0.774533 0.015747
0.013703 0.774563 0.016205
0.105104 0.774929 0.016358
0.178805 0.775143 0.016266
0.248142 0.775540 0.016114
0.315770 0.775723 0.016358
0.382422 0.776211 0.015961
0.448493 0.776333 0.013947
0.514427 0.776547 0.012787
0.579828 0.776364 0.010285
0.645380 0.776394 0.007630
0.710567 0.776089 0.003357
0.775906 0.776059 0.000061
0.840146 0.774899 0.000000
0.902892 0.772396 0.000000
0.963836 0.768215 0.000000
0.000000 0.838743 0.000000
0.000000 0.836118 0.000000
0.078798 0.834958 0.000000
0.163241 0.834653 0.000000
0.236698 0.834928 0.000000
0.306432 0.835019 0.000000
0.374212 0.835203 0.000000
0.441047 0.835355 0.000000
0.507530 0.835691 0.000000
0.573205 0.835508 0.000000
0.638941 0.835508 0.000000
0.704189 0.835172 0.000000
0.769436 0.835019 0.000000
0.833890 0.834073 0.000000
0.897612 0.832425 0.000000
0.960388 0.829923 0.000000
0.000000 0.899107 0.000000
0.000000 0.896880 0.000000
0.011322 0.895659 0.000000
0.135714 0.895232 0.000000
0.218631 0.895293 0.000000
0.292729 0.895384 0.000000
0.363409 0.895720 0.000000
0.431891 0.895811 0.000000
0.499397 0.895933 0.000000
0.566003 0.895872 0.000000
0.632380 0.895964 0.000000
0.698482 0.895995 0.000000
0.764675 0.896422 0.000000
0.830533 0.896483 0.000000
0.896056 0.896239 0.000000
0.960266 0.894652 0.000000
0.000000 0.962921 0.000000
0.000000 0.961059 0.000000
0.000000 0.960052 0.000000
0.076081 0.959747 0.000000
0.188357 0.959930 0.000000
0.272465 0.960235 0.000000
0.348516 0.960723 0.000000
0.420722 0.961212 0.000000
0.491066 0.961944 0.000000
0.560296 0.962799 0.000000
0.628962 0.963867 0.000000
0.697230 0.964935 0.000000
0.765743 0.966583 0.000000
0.834318 0.968353 0.000000
0.903624 0.970825 0.000000
0.973724 0.973877 0.000000
0.000610 0.000000 0.176822
0.091615 0.000061 0.174105
0.168490 0.000000 0.168978
0.242252 0.000336 0.163455
0.311345 0.000244 0.157961
0.376867 0.000122 0.153506
0.442298 0.001556 0.151156
0.507317 0.003601 0.148898
0.571496 0.003876 0.146670
0.636103 0.003967 0.144961
0.699550 0.004059 0.143160
0.759915 0.006592 0.141878
0.819547 0.006561 0.139925
0.880278 0.007080 0.138155
0.940703 0.005280 0.136202
0.999969 0.001160 0.133242
0.000000 0.086671 0.171756
0.083772 0.083772 0.167941
0.164187 0.081544 0.164034
0.238041 0.080201 0.160006
0.307134 0.079438 0.155886
0.374334 0.079896 0.153231
0.440803 0.078676 0.151003
0.506188 0.078157 0.148867
0.571069 0.076692 0.146578
0.635889 0.075715 0.144900
0.699031 0.075074 0.143221
0.759213 0.075044 0.141604
0.818753 0.073915 0.139590
0.879301 0.072908 0.137942
0.939605 0.070649 0.135927
0.999329 0.066987 0.132784
0.000000 0.163668 0.163546
0.080781 0.161379 0.161501
0.158968 0.158968 0.158968
0.232975 0.156893 0.156710
0.303471 0.154788 0.154788
0.371923 0.152773 0.152712
0.438880 0.150637 0.150515
0.504509 0.148257 0.148196
0.570153 0.146487 0.146456
0.634699 0.144656 0.144656
0.697108 0.143038 0.142794
0.757046 0.141299 0.140993
0.816892 0.139528 0.139101
0.877470 0.137789 0.137453
0.937926 0.135653 0.135225
0.997986 0.132387 0.132021
0.000000 0.233707 0.157534
0.080659 0.231998 0.156405
0.155001 0.230045 0.155093
0.227604 0.227817 0.153628
0.298192 0.225132 0.152132
0.366827 0.222507 0.150515
0.434028 0.219730 0.148623
0.500816 0.217594 0.146975
0.566217 0.215183 0.145235
0.630701 0.212833 0.143404
0.693141 0.210575 0.141634
0.753536 0.208011 0.140108
0.814481 0.205966 0.138613
0.874937 0.203403 0.136629
0.934722 0.200748 0.133822
0.994507 0.197787 0.130282
0.004822 0.296605 0.151797
0.079805 0.296117 0.151522
0.150759 0.294987 0.150790
0.221347 0.293217 0.149874
0.291051 0.290959 0.148379
0.359472 0.288579 0.147250
0.427100 0.286259 0.145785
0.493965 0.283879 0.144564
0.559564 0.281621 0.143160
0.624659 0.279362 0.141634
0.687770 0.276799 0.140291
0.749844 0.274388 0.139223
0.811643 0.272038 0.137697
0.873167 0.269780 0.136049
0.934051 0.267185 0.133577
0.993927 0.263981 0.129824
0.004944 0.361059 0.148379
0.078645 0.360754 0.148257
0.147555 0.359869 0.147677
0.217288 0.358495 0.147280
0.286259 0.356634 0.146181
0.354437 0.354528 0.144900
0.421637 0.352178 0.143648
0.488716 0.349981 0.142611
0.554498 0.347753 0.141421
0.619501 0.345220 0.140078
0.682795 0.342565 0.138857
0.745327 0.339940 0.137911
0.807248 0.337194 0.136263
0.868833 0.334508 0.134340
0.929992 0.331731 0.131228
0.990784 0.328740 0.127474
0.006134 0.424720 0.145693
0.076570 0.424842 0.145571
0.144900 0.424201 0.145144
0.213687 0.423011 0.144808
0.282231 0.421393 0.143923
0.350134 0.419440 0.142947
0.417151 0.417182 0.141787
0.483406 0.414801 0.140627
0.549004 0.412329 0.139467
0.613794 0.409827 0.138125
0.676997 0.406836 0.137331
0.739712 0.404028 0.135927
0.801816 0.401221 0.133944
0.863737 0.398413 0.131594
0.925353 0.395697 0.128450
0.987030 0.392859 0.123964
0.004150 0.486152 0.142000
0.074342 0.486549 0.142184
0.141512 0.486183 0.142031
0.210025 0.485237 0.141543
0.277714 0.483803 0.141115
0.344854 0.481971 0.140139
0.411353 0.479652 0.139101
0.477119 0.477241 0.138125
0.542199 0.474708 0.136843
0.606958 0.472358 0.136019
0.670619 0.469703 0.134920
0.733761 0.467079 0.133486
0.796292 0.464363 0.131350
0.858335 0.461524 0.128389
0.919738 0.458381 0.124178
0.981292 0.455238 0.118257
0.002014 0.544732 0.138003
0.069825 0.544518 0.137942
0.137453 0.544152 0.137819
0.204807 0.543542 0.137606
0.272038 0.542687 0.137301
0.338964 0.541588 0.136904
0.405432 0.540337 0.136446
0.471443 0.538811 0.135683
0.536919 0.536980 0.134890
0.601862 0.535119 0.134035
0.666499 0.533227 0.133455
0.730373 0.531060 0.131746
0.793301 0.528496 0.129366
0.856138 0.525963 0.126192
0.918730 0.523522 0.121920
0.980804 0.520531 0.115023
0.001678 0.603632 0.135012
0.067964 0.603357 0.135042
0.134127 0.603021 0.134829
0.201022 0.602533 0.134615
0.267765 0.601984 0.134401
0.333867 0.601099 0.133883
0.399878 0.600031 0.133333
0.465431 0.598688 0.132631
0.530785 0.597284 0.131746
0.595514 0.595636 0.130831
0.659693 0.593683 0.129397
0.723507 0.591669 0.127321
0.786923 0.589593 0.124178
0.850431 0.587640 0.120485
0.913725 0.585565 0.115206
0.975891 0.582544 0.105959
0.000000 0.662654 0.130983
0.062257 0.662623 0.130831
0.130282 0.662318 0.130648
0.196902 0.661860 0.130282
0.263157 0.661128 0.129824
0.329015 0.660243 0.129061
0.394507 0.659205 0.128481
0.459907 0.658106 0.127443
0.524895 0.656855 0.126284
0.589380 0.655329 0.124971
0.653498 0.653590 0.123568
0.717159 0.651728 0.121431
0.780484 0.649775 0.117494
0.843961 0.647883 0.111635
0.907134 0.645808 0.103426
0.969726 0.643153 0.090852
0.000000 0.721370 0.123171
0.048463 0.721187 0.123171
0.122316 0.720760 0.122774
0.190219 0.720211 0.122072
0.257115 0.719570 0.121431
0.323095 0.718807 0.120485
0.388891 0.717891 0.119722
0.453864 0.716762 0.118135
0.518547 0.715419 0.116274
0.582757 0.713802 0.114290
0.646571 0.712032 0.111757
0.710109 0.710201 0.108675
0.773373 0.708400 0.105104
0.836790 0.706752 0.097536
0.900267 0.705043 0.084779
0.964508 0.703700 0.067842
0.000000 0.774807 0.103304
0.008484 0.774807 0.103304
0.102327 0.775082 0.103273
0.177218 0.775296 0.103456
0.247044 0.775692 0.103182
0.314946 0.775845 0.103120
0.381842 0.776272 0.102998
0.448005 0.776364 0.102449
0.514122 0.776577 0.101656
0.579675 0.776425 0.100191
0.645289 0.776486 0.098878
0.710597 0.776181 0.096925
0.775998 0.776150 0.094942
0.840208 0.774929 0.090242
0.903044 0.772366 0.075532
0.964141 0.768154 0.040650
0.000000 0.838895 0.081697
0.000000 0.836423 0.076570
0.072877 0.835294 0.074159
0.160555 0.834958 0.072877
0.235111 0.835203 0.072480
0.305089 0.835294 0.071412
0.373266 0.835477 0.070253
0.440497 0.835599 0.069184
0.507103 0.835904 0.067567
0.573022 0.835691 0.064454
0.638758 0.835660 0.061189
0.704128 0.835294 0.055818
0.769467 0.835142 0.049866
0.833982 0.834165 0.039796
0.897795 0.832486 0.023957
0.960784 0.829984 0.000000
0.000000 0.899290 0.015045
0.000000 0.897124 0.003937
0.000000 0.895964 0.000000
0.130098 0.895537 0.000000
0.215549 0.895598 0.000000
0.290501 0.895720 0.000000
0.361883 0.896056 0.000000
0.430732 0.896117 0.000000
0.498482 0.896208 0.000000
0.565423 0.896086 0.000000
0.631952 0.896208 0.000000
0.698238 0.896239 0.000000
0.764645 0.896605 0.000000
0.830594 0.896635 0.000000
0.896300 0.896452 0.000000
0.960601 0.894835 0.000000
0.000000 0.963226 0.000000
0.000000 0.961395 0.000000
0.000000 0.960418 0.000000
0.060426 0.960113 0.000000
0.182254 0.960327 0.000000
0.268681 0.960632 0.000000
0.345861 0.961089 0.000000
0.418769 0.961547 0.000000
0.489540 0.962280 0.000000
0.559258 0.963104 0.000000
0.628260 0.964141 0.000000
0.696681 0.965209 0.000000
0.765438 0.966827 0.000000
0.834165 0.968597 0.000000
0.903655 0.971038 0.000000
0.973938 0.974090 0.000000
0.000214 0.000000 0.252903
0.088075 0.000183 0.250034
0.164431 0.000275 0.244572
0.237980 0.000122 0.238560
0.307103 0.000000 0.231693
0.373907 0.000275 0.226291
0.439734 0.001282 0.222477
0.504570 0.003937 0.219364
0.568627 0.006104 0.216556
0.632959 0.007111 0.214267
0.696345 0.006439 0.211887
0.756954 0.009400 0.209659
0.817136 0.010224 0.207248
0.878355 0.009125 0.205203
0.939117 0.006012 0.202701
0.998810 0.000153 0.199283
0.000000 0.083528 0.246830
0.082429 0.082277 0.243015
0.160616 0.080751 0.238773
0.234226 0.079225 0.234287
0.303990 0.078828 0.229221
0.371801 0.079500 0.225437
0.438148 0.079194 0.221958
0.503044 0.079011 0.218936
0.568109 0.078431 0.216342
0.632746 0.077363 0.214145
0.695766 0.076081 0.211734
0.756313 0.076112 0.209476
0.816495 0.075319 0.207034
0.877379 0.073915 0.204868
0.938048 0.070771 0.202213
0.998169 0.065919 0.199008
0.000000 0.160678 0.238804
0.081239 0.159030 0.235935
0.157504 0.157137 0.232883
0.230533 0.155489 0.230320
0.300633 0.153841 0.227207
0.368902 0.152316 0.224338
0.435645 0.150515 0.221378
0.501549 0.148470 0.218601
0.567041 0.146487 0.216159
0.631617 0.144625 0.213748
0.693996 0.143008 0.211185
0.754299 0.141482 0.208682
0.814694 0.139834 0.206302
0.875700 0.137911 0.204013
0.936492 0.135286 0.201419
0.996857 0.131472 0.198215
0.000000 0.231449 0.231388
0.080629 0.229831 0.229740
0.154696 0.227848 0.227939
0.226047 0.226047 0.226047
0.295628 0.223911 0.223819
0.364050 0.221561 0.221653
0.431464 0.219211 0.219150
0.498207 0.216953 0.216861
0.563500 0.214420 0.214481
0.627955 0.212161 0.212039
0.690394 0.209995 0.209720
0.751186 0.207706 0.207462
0.812528 0.205783 0.205447
0.873289 0.203189 0.203159
0.933379 0.200229 0.199954
0.993530 0.196628 0.196231
0.004334 0.294804 0.222812
0.080812 0.294194 0.222446
0.150546 0.293004 0.221683
0.220340 0.291447 0.220462
0.289250 0.289494 0.218814
0.357641 0.287358 0.217227
0.425086 0.285039 0.215305
0.491920 0.282933 0.213535
0.557458 0.280522 0.211582
0.622400 0.278355 0.209751
0.685451 0.275975 0.208011
0.747951 0.273838 0.206394
0.809964 0.271641 0.204471
0.871733 0.269352 0.202457
0.932891 0.266636 0.199680
0.993133 0.263035 0.195926
0.007996 0.359472 0.218357
0.079713 0.359136 0.218265
0.147616 0.358312 0.217594
0.216556 0.357000 0.216800
0.285130 0.355291 0.215305
0.353094 0.353246 0.213931
0.420417 0.351049 0.212467
0.487098 0.348882 0.210941
0.552728 0.346563 0.209323
0.617700 0.344274 0.207675
0.681025 0.341680 0.206332
0.743740 0.339117 0.204562
0.805722 0.336584 0.202670
0.867582 0.333959 0.200443
0.928985 0.330999 0.197543
0.990173 0.327916 0.193820
0.006226 0.423102 0.214267
0.077302 0.423163 0.214206
0.144625 0.422583 0.213901
0.213077 0.421576 0.213230
0.281254 0.420050 0.212314
0.349004 0.418250 0.211215
0.416022 0.416083 0.209873
0.482124 0.413642 0.208286
0.547478 0.411200 0.207034
0.612329 0.408820 0.205447
0.675532 0.405921 0.203922
0.738338 0.403235 0.202396
0.800626 0.400488 0.200259
0.862669 0.397833 0.197879
0.924529 0.394934 0.194736
0.986511 0.392004 0.190890
0.004395 0.484779 0.209812
