luts/Kodak_Echrome.cube
# Generated for krafta web app
# https://www.facebook.com/krafta.visio
# Preset: KDK - Echrome
# Color profile : sRGB Color Space Profile
LUT_3D_SIZE 6
DOMAIN_MIN 0.0 0.0 0.0
DOMAIN_MAX 1.0 1.0 1.0
0.000000 0.000000 0.000000
0.286442 0.000000 0.000061
0.483589 0.000000 0.000427
0.675013 0.000336 0.000244
0.850492 0.005585 0.004669
1.000000 0.010956 0.009277
0.000000 0.262364 0.000000
0.250492 0.250431 0.000000
0.463325 0.234806 0.000000
0.661280 0.223941 0.000000
0.837217 0.212650 0.006806
1.000000 0.204929 0.007202
0.003784 0.450721 0.003967
0.229007 0.450202 0.004913
0.442390 0.442573 0.005554
0.642603 0.430121 0.005829
0.826719 0.415412 0.012818
1.000000 0.402564 0.004242
0.010437 0.621332 0.011627
0.209934 0.620050 0.010925
0.413336 0.618341 0.010590
0.614221 0.614374 0.010040
0.805478 0.604456 0.005890
0.989563 0.592706 0.000000
0.000000 0.784237 0.000000
0.188296 0.785763 0.000000
0.391119 0.788113 0.000000
0.591058 0.789517 0.000000
0.790188 0.790372 0.000000
0.976043 0.778988 0.000000
0.000000 0.971038 0.000000
0.106844 0.966949 0.000000
0.358068 0.968017 0.000000
0.568353 0.970459 0.000000
0.773404 0.974212 0.000000
0.979431 0.979614 0.000000
0.000336 0.000061 0.300481
0.269291 0.000061 0.270420
0.470771 0.003845 0.240269
0.662135 0.013458 0.226688
0.839719 0.025025 0.217136
1.000000 0.021881 0.208621
0.000000 0.258488 0.258366
0.247868 0.247868 0.247868
0.458564 0.235599 0.235660
0.656214 0.224369 0.224338
0.833951 0.215488 0.215274
1.000000 0.204562 0.204227
0.014557 0.446845 0.228763
0.227115 0.444678 0.227420
0.435859 0.435981 0.222110
0.634302 0.424537 0.215518
0.818814 0.411627 0.209751
0.999969 0.400092 0.199985
0.016175 0.620081 0.211337
0.210391 0.618982 0.210880
0.412024 0.616144 0.209506
0.611139 0.611231 0.206973
0.802121 0.601801 0.201389
0.989349 0.592035 0.189334
0.000000 0.786191 0.185946
0.185641 0.786587 0.186160
0.390509 0.788510 0.187594
0.590631 0.789578 0.187930
0.790249 0.790402 0.187472
0.977111 0.779263 0.160708
0.000000 0.972290 0.097200
0.074891 0.968566 0.076997
0.351873 0.969543 0.072786
0.565728 0.971557 0.065095
0.772427 0.974701 0.048096
0.979767 0.979950 0.008728
0.000519 0.000000 0.496101
0.242618 0.000122 0.477790
0.453010 0.005951 0.452949
0.650874 0.011292 0.435920
0.831571 0.032349 0.419409
1.000000 0.034150 0.407630
0.021607 0.244022 0.472572
0.236759 0.236973 0.460609
0.446815 0.228702 0.446845
0.644007 0.219699 0.431312
0.825467 0.216709 0.416938
1.000000 0.204044 0.402564
0.012116 0.437537 0.437507
0.222293 0.435950 0.435981
0.428565 0.428565 0.428565
0.625513 0.419318 0.419287
0.812131 0.409705 0.409613
0.997589 0.397803 0.397620
0.026673 0.615869 0.412787
0.212589 0.614954 0.412482
0.410651 0.612421 0.410742
0.607691 0.607721 0.406897
0.799222 0.599390 0.399329
0.989197 0.589563 0.387213
0.000000 0.786648 0.384833
0.173739 0.787350 0.385565
0.387121 0.789059 0.387243
0.589410 0.789700 0.387396
0.790494 0.790585 0.387762
0.978759 0.778256 0.365332
0.000000 0.974640 0.336004
0.000000 0.971283 0.327642
0.325628 0.971801 0.326055
0.555932 0.973938 0.325780
0.769314 0.976532 0.322698
0.981323 0.981506 0.318090
0.005646 0.004425 0.664851
0.224521 0.008453 0.657893
0.432593 0.016785 0.645411
0.630793 0.018647 0.630701
0.820798 0.025483 0.616602
1.000000 0.013794 0.602716
0.040772 0.230594 0.658686
0.226596 0.226596 0.650538
0.429725 0.221988 0.640070
0.626886 0.215976 0.626856
0.816037 0.211704 0.613153
0.997498 0.196628 0.597864
0.041474 0.423621 0.630396
0.221286 0.423041 0.628901
0.418952 0.418891 0.622431
0.614527 0.412665 0.614496
0.804410 0.404395 0.604089
0.994781 0.392126 0.594018
0.023163 0.609003 0.608942
0.209506 0.608392 0.608362
0.407324 0.606775 0.606775
0.601770 0.601831 0.601770
0.795987 0.595544 0.595453
0.989868 0.585260 0.585138
0.000000 0.787320 0.586206
0.162539 0.787930 0.586633
0.381842 0.789029 0.587182
0.587152 0.789548 0.587243
0.788540 0.788602 0.585779
0.981170 0.776608 0.567315
0.000000 0.977325 0.551171
0.000000 0.974792 0.543816
0.290745 0.975463 0.543542
0.543816 0.977203 0.543999
0.765377 0.978973 0.541833
0.983764 0.983917 0.541344
0.017182 0.015290 0.827390
0.211734 0.017273 0.824887
0.411627 0.019471 0.818631
0.609888 0.019501 0.812070
0.804105 0.010071 0.804044
0.995087 0.000000 0.795743
0.043397 0.216922 0.825467
0.215152 0.214878 0.821714
0.412024 0.212924 0.817044
0.608637 0.209140 0.810117
0.801450 0.201602 0.801389
0.990753 0.184695 0.791470
0.051362 0.410101 0.810727
0.214054 0.409369 0.809659
0.406195 0.406226 0.806149
0.600732 0.400824 0.800687
0.795377 0.394446 0.795315
0.989532 0.382544 0.789029
0.000000 0.597803 0.797848
0.194583 0.597650 0.797757
0.394385 0.595850 0.796323
0.592950 0.593011 0.794095
0.790707 0.588678 0.790677
0.987884 0.579248 0.784848
0.000000 0.786679 0.786648
0.149844 0.787015 0.787015
0.377722 0.787991 0.787991
0.584466 0.788479 0.788449
0.783963 0.784054 0.783993
0.984619 0.774929 0.774838
0.000000 0.979644 0.769528
0.000000 0.977722 0.765957
0.280522 0.979095 0.765438
0.532280 0.980865 0.763119
0.760006 0.982696 0.760128
0.987549 0.987701 0.761929
0.001740 0.000000 0.998138
0.197513 0.000000 0.997436
0.396216 0.000000 0.995544
0.593805 0.000000 0.993317
0.790921 0.000000 0.991302
0.988037 0.000000 0.989319
0.000000 0.196933 0.997742
0.195865 0.195438 0.996765
0.394690 0.190921 0.994293
0.591852 0.182620 0.991241
0.787655 0.165805 0.987335
0.983856 0.134920 0.983764
0.000000 0.390356 0.994263
0.179629 0.390021 0.994171
0.387274 0.387121 0.992889
0.587457 0.381231 0.990692
0.785489 0.370306 0.987457
0.985290 0.357031 0.985199
0.000000 0.584649 0.991638
0.129091 0.584100 0.991638
0.368688 0.582025 0.991638
0.577783 0.577813 0.990082
0.781735 0.571038 0.987884
0.986328 0.564233 0.986297
0.000000 0.782650 0.988769
0.000000 0.782376 0.988861
0.340856 0.781888 0.989380
0.564965 0.780667 0.990051
0.777768 0.777798 0.990112
0.989380 0.774197 0.989349
0.000000 0.988006 0.988006
0.000000 0.987457 0.987427
0.258213 0.987793 0.987762
0.526818 0.988617 0.988586
0.759243 0.990661 0.990600
0.996002 0.996002 0.996002
