luts/Kodak_Portra_400.cube
# Generated for krafta web app
# https://www.facebook.com/krafta.visio
# Preset: KDK - Portra 400
# Color profile : sRGB Color Space Profile
LUT_3D_SIZE 16
DOMAIN_MIN 0.0 0.0 0.0
DOMAIN_MAX 1.0 1.0 1.0
0.000000 0.000000 0.000000
0.089998 0.001495 0.001740
0.181277 0.003082 0.003540
0.259617 0.005341 0.005463
0.327520 0.008118 0.007324
0.393103 0.009674 0.009735
0.455787 0.011231 0.011810
0.520684 0.015198 0.014801
0.583551 0.022248 0.021759
0.646754 0.030671 0.030060
0.709285 0.042695 0.041077
0.769039 0.055421 0.053712
0.827787 0.068391 0.066773
0.888029 0.080446 0.079652
0.948394 0.094148 0.092409
1.000000 0.106294 0.105592
0.004486 0.096254 0.004700
0.094545 0.094484 0.006104
0.176089 0.096437 0.005890
0.253391 0.095247 0.006928
0.322637 0.091798 0.007813
0.388251 0.088930 0.009461
0.454231 0.088136 0.011872
0.519219 0.089387 0.017395
0.581781 0.091005 0.025055
0.645319 0.094667 0.034058
0.707790 0.099428 0.045228
0.767422 0.105348 0.056886
0.825772 0.111604 0.069154
0.886137 0.119478 0.081483
0.946715 0.129091 0.094514
1.000000 0.138613 0.107576
0.003357 0.177615 0.003388
0.094606 0.174136 0.003693
0.171115 0.170932 0.005341
0.245731 0.168032 0.006470
0.316197 0.164034 0.007904
0.385046 0.161685 0.011414
0.451331 0.159701 0.016754
0.515984 0.158480 0.022797
0.578943 0.157870 0.030701
0.643336 0.159182 0.040406
0.705501 0.160616 0.051575
0.764981 0.162753 0.062013
0.823026 0.165591 0.073213
0.883970 0.170077 0.085237
0.944823 0.176242 0.097261
1.000000 0.182834 0.110903
0.007080 0.247349 0.007111
0.091859 0.244846 0.008118
0.165957 0.242496 0.009735
0.240238 0.240116 0.012299
0.310491 0.236179 0.016083
0.378424 0.232578 0.020691
0.444312 0.229160 0.026734
0.509392 0.227085 0.034272
0.574090 0.225956 0.042786
0.638422 0.225650 0.050721
0.699977 0.225132 0.059937
0.759243 0.225223 0.069612
0.818418 0.225834 0.078798
0.878630 0.227817 0.090517
0.938415 0.230838 0.101015
0.998779 0.235142 0.114046
0.023713 0.310399 0.022522
0.095430 0.310124 0.024537
0.164767 0.310399 0.025330
0.236423 0.309270 0.028870
0.307530 0.307378 0.033143
0.376562 0.304540 0.037995
0.443030 0.301030 0.044221
0.509117 0.298558 0.049928
0.574304 0.296422 0.057038
0.639368 0.295323 0.063752
0.700893 0.293523 0.072724
0.761166 0.292119 0.081361
0.821622 0.291966 0.090822
0.882567 0.292882 0.100557
0.942535 0.294316 0.112306
0.999695 0.295476 0.121981
0.044251 0.374517 0.046113
0.103487 0.375494 0.047181
0.166506 0.375952 0.048676
0.234562 0.374945 0.050568
0.302434 0.372961 0.053803
0.370855 0.370794 0.057038
0.438453 0.368658 0.061830
0.505119 0.366583 0.067201
0.570489 0.364324 0.072084
0.635218 0.362432 0.077394
0.696254 0.359503 0.085054
0.757229 0.357519 0.092958
0.817716 0.356329 0.101381
0.878630 0.356054 0.110903
0.938750 0.356481 0.120851
0.997131 0.356725 0.130587
0.067048 0.438605 0.065736
0.114504 0.439551 0.066835
0.170565 0.439734 0.069001
0.234409 0.439063 0.070161
0.300664 0.437964 0.072724
0.367742 0.436683 0.076143
0.435340 0.435309 0.079774
0.501915 0.433570 0.083009
0.566155 0.430457 0.087343
0.629816 0.427741 0.092378
0.691432 0.424537 0.098146
0.752895 0.422309 0.105074
0.813626 0.420386 0.112734
0.874571 0.419440 0.120668
0.934874 0.418891 0.130587
0.994263 0.418952 0.140261
0.084108 0.501152 0.084169
0.124819 0.502922 0.085451
0.176394 0.504021 0.086641
0.237339 0.503838 0.087861
0.301030 0.502739 0.090517
0.365972 0.500633 0.092348
0.430732 0.497993 0.094423
0.495674 0.495644 0.097017
0.560266 0.493355 0.101259
0.623529 0.490669 0.105287
0.685664 0.487739 0.111330
0.747524 0.485328 0.117342
0.808347 0.483253 0.123659
0.869017 0.481605 0.131319
0.929198 0.480507 0.139651
0.990784 0.481086 0.150088
0.098604 0.555779 0.098177
0.132174 0.556085 0.098268
0.178958 0.556939 0.099733
0.235935 0.557366 0.101320
0.297093 0.557519 0.103700
0.360449 0.557214 0.105196
0.425299 0.556847 0.107790
0.490181 0.556115 0.111604
0.555322 0.555444 0.115938
0.620478 0.554681 0.119844
0.683803 0.552758 0.125338
0.746304 0.550805 0.131899
0.807736 0.548608 0.138430
0.868498 0.546746 0.145266
0.928862 0.545251 0.153719
0.988220 0.543847 0.162783
0.116274 0.615961 0.115450
0.144228 0.615412 0.115724
0.186618 0.615442 0.116487
0.239231 0.615412 0.117372
0.297765 0.615290 0.118654
0.358923 0.615229 0.120455
0.421851 0.615351 0.123629
0.485817 0.615137 0.126406
0.550164 0.615015 0.130373
0.614466 0.614496 0.134279
0.678584 0.613916 0.139040
0.740475 0.611597 0.144625
0.801755 0.609400 0.149996
0.863310 0.607996 0.157443
0.924559 0.606989 0.166110
0.984863 0.606043 0.175387
0.133150 0.675196 0.132753
0.157900 0.674922 0.132143
0.196017 0.674617 0.133150
0.244907 0.674434 0.134279
0.300328 0.674372 0.135592
0.359197 0.674189 0.137087
0.420569 0.674067 0.139712
0.482979 0.673823 0.142184
0.546044 0.673610 0.145693
0.609125 0.673121 0.149233
0.672419 0.672480 0.153292
0.735256 0.671534 0.157778
0.797055 0.670008 0.163546
0.858854 0.668910 0.170687
0.920287 0.668055 0.179355
0.980835 0.667170 0.188449
0.150820 0.734127 0.150271
0.172274 0.733822 0.150088
0.206394 0.733608 0.150637
0.252323 0.733303 0.151492
0.304845 0.732906 0.152132
0.361486 0.732509 0.154177
0.420813 0.732174 0.155795
0.481331 0.731838 0.158083
0.543084 0.731624 0.161471
0.605158 0.731136 0.164858
0.667689 0.730678 0.168612
0.730129 0.730220 0.172702
0.792844 0.729915 0.177890
0.854765 0.729274 0.184756
0.916594 0.728847 0.193668
0.978546 0.729183 0.204868
0.162844 0.786709 0.161776
0.182437 0.786893 0.162753
0.214786 0.787564 0.163912
0.258213 0.788235 0.165347
0.309117 0.789212 0.167422
0.364294 0.789944 0.170230
0.422919 0.790921 0.173220
0.482887 0.791684 0.177035
0.544549 0.792721 0.181430
0.606775 0.793484 0.185916
0.669673 0.794583 0.191684
0.732662 0.795315 0.197024
0.796201 0.796292 0.204074
0.858640 0.796292 0.210056
0.919005 0.794614 0.217227
0.977142 0.791409 0.223545
0.189792 0.852476 0.189059
0.203006 0.849699 0.185946
0.229953 0.848539 0.184970
0.269688 0.848447 0.185336
0.317662 0.849088 0.187869
0.370733 0.849668 0.190097
0.427314 0.850401 0.193423
0.485969 0.851194 0.197116
0.546227 0.852293 0.201755
0.607050 0.852842 0.206516
0.668849 0.853635 0.212345
0.730648 0.854124 0.217960
0.792905 0.854704 0.224460
0.854490 0.854582 0.229923
0.915343 0.853788 0.235843
0.974853 0.852079 0.242741
0.214939 0.913176 0.214481
0.225589 0.910857 0.210483
0.249088 0.909606 0.208621
0.284794 0.909270 0.209293
0.329656 0.909545 0.211124
0.380255 0.909941 0.213565
0.434699 0.910674 0.217197
0.491493 0.911223 0.220920
0.550164 0.911986 0.225559
0.609674 0.912474 0.230472
0.670253 0.913085 0.236667
0.731228 0.913695 0.242679
0.792844 0.914672 0.250675
0.854307 0.915221 0.258244
0.915435 0.915496 0.265904
0.975036 0.914427 0.271611
0.247990 0.975311 0.247379
0.256107 0.973480 0.243290
0.275914 0.972564 0.241306
0.308019 0.972290 0.241733
0.349218 0.972534 0.243687
0.396704 0.972869 0.246769
0.448554 0.973510 0.250584
0.503441 0.974151 0.255650
0.560632 0.975097 0.261448
0.619226 0.976074 0.268681
0.679103 0.977234 0.276829
0.739498 0.978363 0.285954
0.800778 0.979980 0.297398
0.862119 0.981506 0.309606
0.923766 0.983368 0.324285
0.985351 0.985473 0.341131
0.000671 0.000397 0.090669
0.097353 0.000946 0.097505
0.182773 0.000000 0.097780
0.259953 0.000305 0.092073
0.326635 0.001007 0.089601
0.390753 0.008759 0.089570
0.454444 0.017731 0.090822
0.518517 0.025788 0.092500
0.580713 0.035035 0.095003
0.644190 0.044739 0.099184
0.706905 0.054231 0.103761
0.766232 0.065949 0.108644
0.824430 0.075929 0.114900
0.884459 0.087556 0.121798
0.944518 0.099336 0.130648
1.000000 0.111055 0.139376
0.000000 0.097871 0.098329
0.095308 0.095308 0.095308
0.178622 0.092927 0.092348
0.254185 0.091279 0.091035
0.322606 0.090700 0.090639
0.388159 0.091127 0.090852
0.453620 0.092622 0.092378
0.517845 0.094759 0.094575
0.580346 0.097200 0.097261
0.644526 0.101595 0.100679
0.706905 0.105867 0.105623
0.765835 0.111574 0.110475
0.823545 0.117006 0.116487
0.883421 0.124117 0.123507
0.943236 0.132601 0.131136
1.000000 0.141390 0.140383
0.000000 0.180148 0.094881
0.093660 0.176761 0.093996
0.173251 0.173098 0.092287
0.248051 0.169711 0.092470
0.318334 0.166415 0.093263
0.386206 0.164431 0.093843
0.452155 0.162753 0.095644
0.516289 0.162173 0.097292
0.580255 0.162325 0.100496
0.644221 0.163485 0.103914
0.705318 0.164584 0.108278
0.763699 0.166323 0.113344
0.821592 0.168734 0.118288
0.881682 0.173129 0.125887
0.941650 0.178103 0.133761
1.000000 0.184085 0.142397
0.014679 0.250309 0.096437
0.095827 0.247532 0.096132
0.169039 0.244785 0.095644
0.242161 0.242191 0.095399
0.312291 0.238682 0.096925
0.380377 0.235447 0.097780
0.446387 0.232364 0.099763
0.511894 0.230655 0.102144
0.576562 0.229496 0.104738
0.640192 0.228580 0.108309
0.701228 0.227939 0.111971
0.760006 0.227726 0.117250
0.819791 0.228672 0.122683
0.879545 0.230533 0.129244
0.938323 0.232883 0.136629
0.997101 0.236332 0.144747
0.033753 0.310674 0.099794
0.099947 0.310063 0.099825
0.166079 0.308598 0.100160
0.235233 0.306615 0.100587
0.303929 0.304051 0.102022
0.372045 0.301488 0.103212
0.438636 0.298802 0.105165
0.504753 0.297032 0.107332
0.569543 0.295140 0.109712
0.634302 0.293980 0.113283
0.696071 0.292668 0.117800
0.756893 0.291722 0.122835
0.817899 0.291905 0.129030
0.878996 0.292760 0.135744
0.939147 0.294255 0.142977
0.997436 0.295750 0.150790
0.054108 0.374090 0.106905
0.106935 0.374151 0.107576
0.167605 0.373205 0.107851
0.233402 0.371923 0.108858
0.300664 0.370092 0.109163
0.368078 0.368109 0.111025
0.434760 0.365972 0.112734
0.500633 0.363897 0.115114
0.565728 0.361822 0.117861
0.630152 0.360113 0.120455
0.692042 0.357946 0.124605
0.753475 0.356512 0.129671
0.814298 0.355444 0.135409
0.874998 0.355291 0.141482
0.935271 0.355535 0.148470
0.994751 0.356237 0.156497
0.071839 0.438758 0.116121
0.117494 0.439124 0.116945
0.172366 0.438575 0.117311
0.234531 0.437385 0.118044
0.299962 0.435706 0.119081
0.366064 0.433997 0.120119
0.432074 0.432074 0.122438
0.497627 0.430121 0.124544
0.562219 0.427771 0.126436
0.626062 0.425360 0.129213
0.687526 0.422339 0.133150
0.748867 0.420233 0.137575
0.809628 0.418585 0.142641
0.870542 0.417639 0.148806
0.930968 0.417395 0.155398
0.991424 0.417700 0.163760
0.087190 0.500145 0.125338
0.126589 0.501091 0.126253
0.176730 0.500908 0.126833
0.236545 0.500053 0.127077
0.298955 0.498817 0.128450
0.363409 0.497078 0.129580
0.428351 0.495094 0.131044
0.492988 0.493141 0.132601
0.557336 0.490974 0.134768
0.620508 0.488350 0.137697
0.682338 0.485573 0.141543
0.744045 0.483375 0.146487
0.805234 0.481483 0.151034
0.865812 0.479866 0.156497
0.925963 0.478859 0.162570
0.987274 0.479133 0.170993
0.100984 0.557519 0.134066
0.134493 0.557366 0.133791
0.180301 0.557275 0.135012
0.235996 0.557000 0.135531
0.296818 0.556542 0.136934
0.359960 0.556085 0.138064
0.424353 0.555627 0.140169
0.489143 0.554833 0.142550
0.553857 0.553887 0.145266
0.618463 0.553002 0.148745
0.681666 0.551110 0.153201
0.744076 0.549187 0.158022
0.805417 0.547112 0.163210
0.866606 0.545647 0.169039
0.927703 0.544762 0.176059
0.987945 0.544030 0.183841
0.118074 0.616175 0.145449
0.146456 0.615808 0.145693
0.187778 0.615534 0.145907
0.239963 0.615290 0.146761
0.297826 0.615167 0.148257
0.358740 0.614832 0.149966
0.421485 0.614496 0.151339
0.484718 0.613916 0.154025
0.548791 0.613458 0.156283
0.612726 0.612757 0.159579
0.676387 0.611994 0.162814
0.738277 0.609796 0.167758
0.799985 0.607996 0.172641
0.861906 0.607050 0.179080
0.923644 0.606500 0.186648
0.984680 0.606134 0.195041
0.134279 0.675319 0.159152
0.159823 0.675257 0.158999
0.197391 0.674983 0.159701
0.246189 0.674647 0.160159
0.300999 0.674189 0.161013
0.359319 0.673640 0.162600
0.420142 0.673091 0.164034
0.482185 0.672511 0.165682
0.544976 0.672206 0.168490
0.607935 0.671565 0.171145
0.670710 0.670832 0.174716
0.733425 0.669886 0.178012
0.795377 0.668574 0.183444
0.857359 0.667781 0.189731
0.919066 0.667292 0.197147
0.980194 0.666804 0.205997
0.151583 0.733700 0.172793
0.173190 0.733577 0.172763
0.207431 0.733150 0.173129
0.252567 0.732784 0.173800
0.304967 0.732448 0.174441
0.361608 0.732052 0.175845
0.420539 0.731777 0.177707
0.481209 0.731319 0.179294
0.542657 0.730770 0.181643
0.604395 0.730129 0.184543
0.666438 0.729427 0.187503
0.728603 0.728725 0.191257
0.790951 0.728176 0.194858
0.852720 0.727443 0.201266
0.914397 0.727047 0.208713
0.976654 0.727596 0.218631
0.164248 0.787778 0.183352
0.183871 0.787900 0.183932
0.215976 0.788357 0.184848
0.259251 0.788815 0.185977
0.309453 0.789487 0.187869
0.364874 0.790127 0.189975
0.423194 0.791104 0.193118
0.483284 0.791775 0.196109
0.544610 0.792721 0.199802
0.606622 0.793332 0.203861
0.669490 0.794217 0.209140
0.732418 0.794919 0.214115
0.795895 0.795956 0.220249
0.858366 0.796017 0.225803
0.918975 0.794491 0.232486
0.977356 0.791714 0.238651
0.190982 0.853086 0.207736
0.204593 0.850492 0.204318
0.231418 0.849393 0.203067
0.270848 0.849210 0.204013
0.318578 0.849760 0.205936
0.371496 0.850187 0.208103
0.427771 0.850736 0.210819
0.486091 0.851377 0.214084
0.546380 0.852262 0.218296
0.607080 0.852689 0.222141
0.668757 0.853391 0.227604
0.730587 0.853849 0.232273
0.792782 0.854551 0.238407
0.854398 0.854551 0.244266
0.915435 0.853910 0.249424
0.975128 0.852415 0.256443
0.215976 0.913603 0.229953
0.226902 0.911406 0.226749
0.250340 0.910307 0.224796
0.285954 0.909972 0.225315
0.330632 0.910185 0.227054
0.380896 0.910521 0.229068
0.435279 0.911131 0.232517
0.491859 0.911559 0.235874
0.550378 0.912078 0.239902
0.609735 0.912474 0.244511
0.670161 0.913024 0.249699
0.731167 0.913603 0.255589
0.792782 0.914580 0.262974
0.854215 0.915190 0.270268
0.915465 0.915526 0.277928
0.975219 0.914611 0.283452
0.248783 0.975647 0.260624
0.257237 0.973907 0.256718
0.276768 0.973022 0.254734
0.308965 0.972747 0.255467
0.349950 0.972992 0.257298
0.397314 0.973388 0.259922
0.449195 0.973968 0.263554
0.504021 0.974548 0.268284
0.560937 0.975341 0.273716
0.619501 0.976257 0.280308
0.679194 0.977325 0.287633
0.739498 0.978332 0.296147
0.800626 0.979797 0.306920
0.861875 0.981292 0.318578
0.923583 0.983185 0.332921
0.985229 0.985321 0.349462
0.000000 0.000061 0.190494
0.101534 0.000000 0.187411
0.180209 0.000000 0.180514
0.255070 0.000000 0.173404
0.322728 0.002319 0.166598
0.385840 0.015839 0.163119
0.449561 0.030243 0.162661
0.513207 0.042359 0.162264
0.575830 0.049714 0.162112
0.640192 0.058228 0.163607
0.703151 0.066438 0.165225
0.762692 0.076875 0.167788
0.821439 0.086213 0.170108
0.882383 0.096040 0.174563
0.942931 0.106935 0.179843
1.000000 0.117403 0.185092
0.000000 0.096223 0.186282
0.093446 0.093233 0.180453
0.175204 0.091279 0.175418
0.249882 0.090974 0.170565
0.317205 0.092775 0.166171
0.383429 0.096315 0.164675
0.448524 0.099458 0.163943
0.512566 0.101961 0.163272
0.576410 0.104952 0.163241
0.640864 0.108522 0.164828
0.703334 0.112947 0.166415
0.762570 0.118196 0.168460
0.820951 0.123537 0.171054
0.881468 0.130434 0.175448
0.941741 0.138033 0.180087
1.000000 0.146181 0.185763
0.000000 0.177127 0.177249
0.093965 0.174136 0.174136
0.171237 0.171237 0.171237
0.244633 0.169039 0.169223
0.314397 0.167636 0.167697
0.382116 0.166567 0.166445
0.447852 0.165682 0.165499
0.512169 0.164981 0.165011
0.577142 0.165743 0.165438
0.641047 0.166506 0.166720
0.702144 0.168124 0.167666
0.760647 0.170047 0.169772
0.819303 0.172824 0.172030
0.879667 0.176974 0.176181
0.940154 0.181796 0.181125
0.999817 0.187472 0.186709
0.020935 0.248051 0.171695
0.099672 0.245487 0.170809
0.169528 0.242954 0.169711
0.240635 0.240757 0.168429
0.309941 0.237919 0.167910
0.377478 0.235447 0.167330
0.443488 0.233005 0.166506
0.509392 0.231968 0.166751
0.573785 0.231022 0.166995
0.637507 0.230259 0.168185
0.698512 0.229953 0.169436
0.757412 0.229770 0.171633
0.817777 0.230930 0.174533
0.877562 0.232700 0.178592
0.936553 0.235019 0.182406
0.995575 0.238254 0.187655
0.047395 0.308782 0.168826
0.105440 0.308141 0.168734
0.168002 0.306981 0.168063
0.235111 0.305211 0.167758
0.303014 0.302800 0.166964
0.370123 0.300633 0.167117
0.436408 0.298466 0.167422
0.502312 0.296788 0.167697
0.567193 0.295262 0.168612
0.631647 0.294285 0.170016
0.693568 0.293187 0.171695
0.754940 0.292882 0.174502
0.816251 0.293095 0.178195
0.877501 0.294194 0.182498
0.937957 0.295750 0.187350
0.996704 0.297185 0.192569
0.064027 0.373083 0.170047
0.112581 0.372992 0.170382
0.169680 0.372290 0.170108
0.234592 0.370764 0.170291
0.300603 0.369055 0.169955
0.367163 0.367132 0.170352
0.433234 0.365057 0.170291
0.499153 0.363165 0.171420
0.564050 0.361517 0.172488
0.628321 0.359869 0.173526
0.690272 0.358038 0.175540
0.751888 0.356817 0.178561
0.812863 0.355932 0.182162
0.873777 0.355871 0.186160
0.934234 0.356207 0.190799
0.994171 0.357092 0.196109
0.078401 0.437598 0.173739
0.120943 0.438117 0.173983
0.173983 0.437568 0.174014
0.235660 0.436500 0.174441
0.300084 0.434974 0.174319
0.365759 0.433387 0.174502
0.431464 0.431403 0.175631
0.496681 0.429419 0.176211
0.561089 0.427100 0.176761
0.624720 0.424842 0.178103
0.686061 0.422217 0.180270
0.747585 0.420203 0.182895
0.808377 0.418677 0.186435
0.869352 0.417945 0.190188
0.930022 0.417700 0.195193
0.990845 0.418341 0.201328
0.091463 0.499397 0.177127
0.129000 0.500420 0.177859
0.178103 0.500206 0.178286
0.237186 0.499458 0.178317
0.299382 0.498207 0.178653
0.363287 0.496498 0.179171
0.427710 0.494453 0.179751
0.492439 0.492500 0.180636
0.556603 0.490425 0.181827
0.619654 0.487922 0.183474
0.681514 0.485206 0.185977
0.743191 0.483162 0.188449
0.804288 0.481361 0.192172
0.864805 0.479866 0.195804
0.925170 0.478889 0.200015
0.986481 0.479316 0.206394
0.103792 0.557153 0.180545
0.136568 0.556970 0.180850
0.181796 0.556786 0.181674
0.236881 0.556481 0.181979
0.297154 0.556115 0.182986
0.359991 0.555505 0.183902
0.424231 0.555047 0.185336
0.488746 0.554253 0.186923
0.553460 0.553429 0.188907
0.617914 0.552544 0.190829
0.680964 0.550744 0.194430
0.743282 0.548974 0.197757
0.804654 0.546960 0.201389
0.865965 0.545617 0.205905
0.927245 0.544884 0.211124
0.987732 0.544335 0.217350
0.120516 0.615839 0.188693
0.148135 0.615625 0.188571
0.189334 0.615381 0.188815
0.240818 0.615137 0.189853
0.298711 0.615076 0.190494
0.359167 0.614710 0.191806
0.421668 0.614282 0.192599
0.484871 0.613672 0.194491
0.548669 0.613214 0.196597
0.612482 0.612512 0.198947
0.675929 0.611536 0.200931
0.737789 0.609522 0.204623
0.799405 0.607904 0.208438
0.861479 0.607050 0.213199
0.923339 0.606592 0.219455
0.984527 0.606317 0.226383
0.137575 0.675013 0.197910
0.161837 0.675166 0.198276
0.198795 0.674952 0.198550
0.247318 0.674586 0.198703
0.301579 0.674159 0.199832
0.359991 0.673610 0.200626
0.420539 0.673060 0.201755
0.482521 0.672511 0.203128
0.545098 0.672084 0.205020
0.607782 0.671382 0.207340
0.670466 0.670588 0.209751
0.733059 0.669673 0.212528
0.794949 0.668452 0.216800
0.857023 0.667750 0.221805
0.918883 0.667323 0.228061
0.980133 0.666957 0.234775
0.153658 0.733577 0.207950
0.175204 0.733425 0.208042
0.208652 0.733028 0.208225
0.253635 0.732723 0.208652
0.305882 0.732387 0.209354
0.362097 0.732082 0.210575
0.421241 0.731746 0.211704
0.481514 0.731289 0.213260
0.542809 0.730739 0.215213
0.604547 0.730037 0.217350
0.666407 0.729305 0.219852
0.728603 0.728603 0.222416
0.790738 0.728054 0.225864
0.852506 0.727382 0.230655
0.914183 0.727016 0.236698
0.976440 0.727596 0.245396
0.166201 0.788113 0.215640
0.185763 0.788205 0.216037
0.217044 0.788602 0.216953
0.260166 0.789029 0.217929
0.310552 0.789700 0.219516
0.365515 0.790280 0.221439
0.423804 0.791196 0.224033
0.483711 0.791867 0.226658
0.545006 0.792782 0.230320
0.606989 0.793423 0.233677
0.669734 0.794369 0.238102
0.732662 0.795071 0.242771
0.796109 0.796139 0.248203
0.858427 0.796078 0.252689
0.918883 0.794644 0.258640
0.977478 0.791867 0.263615
0.192508 0.853239 0.236210
0.205661 0.850736 0.233310
0.232578 0.849729 0.232273
0.271794 0.849577 0.232883
0.319585 0.850034 0.234195
0.372137 0.850431 0.236393
0.428290 0.850980 0.238743
0.486702 0.851621 0.241764
0.546838 0.852476 0.245274
0.607568 0.852903 0.249180
0.669001 0.853605 0.253758
0.730800 0.854032 0.258030
0.792996 0.854704 0.263645
0.854551 0.854673 0.268650
0.915496 0.854002 0.273289
0.975280 0.852598 0.279210
0.216861 0.913725 0.255283
0.227665 0.911620 0.251774
0.250858 0.910552 0.250645
0.286442 0.910246 0.250736
0.330999 0.910491 0.252262
0.381384 0.910796 0.254063
0.435706 0.911437 0.257328
0.492317 0.911803 0.260044
0.550622 0.912291 0.263676
0.610040 0.912657 0.267918
0.670497 0.913207 0.272587
0.731441 0.913787 0.278080
0.792996 0.914763 0.284764
0.854429 0.915343 0.291905
0.915648 0.915709 0.298558
0.975372 0.914794 0.303471
0.249302 0.975830 0.282353
0.257328 0.974121 0.278477
0.276921 0.973236 0.276677
0.308995 0.973022 0.276921
0.350317 0.973297 0.278874
0.397711 0.973663 0.281254
0.449378 0.974212 0.284825
0.504173 0.974762 0.288945
0.561242 0.975555 0.294072
0.619776 0.976440 0.300298
0.679469 0.977508 0.307225
0.739712 0.978515 0.315251
0.800839 0.979950 0.325292
0.862089 0.981415 0.336034
0.923735 0.983276 0.349645
0.985351 0.985443 0.365698
0.000000 0.000061 0.268009
0.096071 0.000122 0.264225
0.173892 0.000092 0.256687
0.248753 0.000031 0.248966
0.317388 0.004761 0.240574
0.382177 0.017365 0.234623
0.446540 0.030884 0.231144
0.509972 0.044495 0.229435
0.572747 0.056855 0.228367
0.636927 0.066560 0.228397
0.699672 0.075135 0.228855
0.759579 0.085359 0.229648
0.819089 0.094087 0.230381
0.880461 0.104097 0.232853
0.941253 0.114260 0.236179
1.000000 0.123598 0.239139
0.000000 0.093233 0.261723
0.091493 0.091554 0.255955
0.170291 0.090333 0.250126
0.244236 0.090517 0.244205
0.313268 0.092439 0.238560
0.380346 0.096193 0.234836
0.445350 0.100313 0.232120
0.509026 0.104585 0.229862
0.573297 0.109285 0.229831
0.637659 0.113588 0.229831
0.699916 0.117586 0.229923
0.759335 0.123964 0.230045
0.818784 0.129122 0.231144
0.879484 0.136263 0.233249
0.940063 0.143343 0.236118
0.999847 0.151369 0.239353
0.007355 0.172854 0.252323
0.095155 0.170962 0.248203
0.169039 0.169131 0.244022
0.241611 0.167727 0.241520
0.310979 0.167117 0.238315
0.378363 0.167086 0.235752
0.444038 0.166964 0.233524
0.508751 0.167636 0.231846
0.573632 0.168185 0.231235
0.637598 0.169192 0.230655
0.698756 0.171023 0.230564
0.757534 0.173373 0.230655
0.817105 0.176333 0.231724
0.877867 0.180667 0.233646
0.938537 0.185672 0.236637
0.998505 0.190951 0.239841
0.025360 0.245182 0.244938
0.100649 0.242893 0.242771
0.169284 0.240635 0.240604
0.238712 0.238712 0.238712
0.306859 0.237034 0.236667
0.374273 0.235080 0.234806
0.440345 0.233433 0.233494
0.506371 0.232639 0.232578
0.570794 0.231601 0.231662
0.634485 0.231235 0.231113
0.695552 0.231083 0.230930
0.754940 0.231510 0.231266
0.815732 0.233219 0.232975
0.875822 0.235233 0.234684
0.935027 0.237430 0.236881
0.994385 0.240330 0.239536
0.049866 0.306645 0.236179
0.107851 0.305852 0.236027
0.168704 0.304753 0.235569
0.234562 0.303105 0.234684
0.301213 0.301183 0.233310
0.367895 0.299504 0.232486
0.434119 0.297734 0.231693
0.500008 0.296483 0.231144
0.564874 0.295140 0.230716
0.629236 0.294377 0.230838
0.691035 0.293706 0.231632
0.753017 0.293767 0.233066
0.814572 0.294255 0.235264
0.875944 0.295750 0.238010
0.936645 0.297337 0.240879
0.995758 0.298802 0.243900
0.068818 0.371527 0.235080
0.115846 0.371405 0.235416
0.171389 0.370642 0.235050
0.234562 0.369299 0.234409
0.299596 0.367742 0.233768
0.365820 0.366003 0.233249
0.431617 0.364080 0.232700
0.497414 0.362463 0.232639
0.562158 0.360876 0.232456
0.626398 0.359533 0.232944
0.688441 0.358068 0.233677
0.750179 0.357092 0.235386
0.811276 0.356603 0.237247
0.872374 0.356786 0.239872
0.933074 0.357214 0.242832
0.993347 0.358343 0.246372
0.081666 0.435920 0.235569
0.123201 0.436347 0.236057
0.175296 0.435920 0.236118
0.235904 0.435096 0.235630
0.299748 0.433570 0.235630
0.364874 0.432166 0.235447
0.430365 0.430426 0.235355
0.495308 0.428382 0.234958
0.559411 0.426276 0.235172
0.623102 0.424201 0.235508
0.684535 0.421820 0.236606
0.746090 0.420172 0.238163
0.807034 0.418952 0.239994
0.868162 0.418402 0.242527
0.929046 0.418280 0.245518
0.990112 0.419013 0.249790
0.094392 0.498177 0.236240
