luts/Kodak_Echrome_200.cube
# Generated for krafta web app
# https://www.facebook.com/krafta.visio
# Preset: KDK - Echrome 200
# Color profile : sRGB Color Space Profile
LUT_3D_SIZE 16
DOMAIN_MIN 0.0 0.0 0.0
DOMAIN_MAX 1.0 1.0 1.0
0.000000 0.000000 0.000000
0.102327 0.001526 0.001251
0.206332 0.002502 0.003082
0.290288 0.003967 0.003601
0.359380 0.005493 0.006165
0.425910 0.006867 0.006348
0.488380 0.008362 0.008240
0.553948 0.011383 0.010925
0.616754 0.017914 0.018097
0.679835 0.026001 0.026520
0.740017 0.039033 0.038392
0.797055 0.051850 0.052125
0.852811 0.065309 0.063966
0.910246 0.077577 0.076570
0.967712 0.090394 0.090211
1.000000 0.101656 0.100923
0.003784 0.110964 0.003326
0.107790 0.107729 0.004669
0.198062 0.109316 0.004334
0.280613 0.106447 0.003632
0.351904 0.101167 0.003845
0.418738 0.096284 0.005707
0.485695 0.093843 0.008118
0.551568 0.094270 0.013428
0.613916 0.094820 0.021088
0.677485 0.097475 0.030304
0.737789 0.101595 0.041840
0.794644 0.106874 0.054444
0.850187 0.112337 0.066011
0.907683 0.119203 0.078614
0.965484 0.127291 0.091402
1.000000 0.135622 0.103120
0.000000 0.198428 0.000000
0.104341 0.193515 0.000000
0.188327 0.188327 0.000000
0.268315 0.183780 0.000763
0.341558 0.177981 0.002930
0.412909 0.173800 0.007294
0.480812 0.170321 0.013062
0.546258 0.167666 0.019837
0.609277 0.165682 0.027161
0.674220 0.165927 0.036866
0.734279 0.166232 0.048066
0.791104 0.167239 0.059327
0.846281 0.168582 0.070802
0.904631 0.172000 0.082216
0.962829 0.176669 0.093782
1.000000 0.181796 0.106416
0.000000 0.269230 0.001312
0.099214 0.265568 0.002960
0.179568 0.262150 0.004334
0.258518 0.258488 0.007019
0.332158 0.252903 0.011719
0.402655 0.247837 0.017243
0.469978 0.242863 0.022889
0.536248 0.239292 0.030610
0.602014 0.236912 0.038819
0.666743 0.235325 0.046723
0.726314 0.233158 0.057221
0.783230 0.231449 0.067018
0.839963 0.230381 0.076692
0.897642 0.231296 0.086366
0.954589 0.232486 0.096864
1.000000 0.235080 0.107637
0.019867 0.331640 0.019471
0.101289 0.331121 0.020508
0.175875 0.331365 0.022187
0.251896 0.329320 0.025483
0.326299 0.326299 0.029450
0.397925 0.322148 0.035523
0.466529 0.317174 0.040467
0.534234 0.313451 0.047211
0.600610 0.310002 0.054200
0.666011 0.307439 0.061280
0.725917 0.303716 0.069551
0.784329 0.300359 0.078767
0.842618 0.298619 0.088014
0.901396 0.297978 0.098085
0.958770 0.297704 0.108034
1.000000 0.296818 0.116426
0.042542 0.395697 0.043793
0.107851 0.396612 0.045533
0.175906 0.396887 0.046387
0.247135 0.395392 0.048829
0.318242 0.392279 0.051575
0.388922 0.388922 0.055055
0.458656 0.385748 0.059815
0.527337 0.382635 0.064332
0.593896 0.379126 0.069032
0.658808 0.375616 0.074556
0.718563 0.370642 0.081666
0.778103 0.366827 0.089784
0.836728 0.363806 0.097902
0.895628 0.361791 0.106691
0.953368 0.360357 0.115785
1.000000 0.358587 0.123842
0.064942 0.459266 0.064363
0.116487 0.460426 0.066041
0.178073 0.460395 0.066499
0.244755 0.459297 0.068879
0.314031 0.457343 0.070314
0.383459 0.455268 0.072999
0.452979 0.453010 0.076326
0.521233 0.450111 0.079530
0.586572 0.445716 0.082979
0.650141 0.441108 0.088319
0.710903 0.436011 0.095033
0.771176 0.431952 0.101686
0.830259 0.428168 0.109041
0.889433 0.425422 0.116213
0.947631 0.423194 0.124208
1.000000 0.420996 0.132143
0.081697 0.520989 0.081331
0.125673 0.523217 0.082856
0.181094 0.524224 0.084443
0.244938 0.523857 0.085908
0.311833 0.522118 0.086885
0.378790 0.519127 0.088563
0.445411 0.515160 0.090059
0.511650 0.511650 0.092287
0.577050 0.508019 0.095644
0.640284 0.503532 0.100160
0.701930 0.498817 0.106569
0.762875 0.494759 0.112551
0.822507 0.490730 0.118502
0.881468 0.487312 0.125246
0.939666 0.484260 0.132052
0.999451 0.483070 0.140658
0.094484 0.572045 0.094118
0.130617 0.572290 0.094728
0.180545 0.573236 0.095979
0.240116 0.573480 0.096712
0.304082 0.573327 0.099275
0.369390 0.572625 0.101167
0.435767 0.571679 0.103182
0.502312 0.570123 0.106050
0.568658 0.568627 0.109743
0.634333 0.566979 0.113954
0.697719 0.563561 0.120272
0.759701 0.560113 0.125856
0.820127 0.556115 0.132082
0.879454 0.552422 0.138033
0.938048 0.549096 0.145144
0.995178 0.545525 0.151278
0.110353 0.629725 0.110903
0.142000 0.628931 0.110597
0.186343 0.628870 0.111635
0.241520 0.628656 0.112215
0.301549 0.628321 0.114015
0.364508 0.627863 0.115541
0.429175 0.627558 0.118410
0.494301 0.626795 0.120974
0.559686 0.626093 0.124300
0.624842 0.624903 0.127474
0.689509 0.623499 0.131167
0.750912 0.619654 0.136995
0.811307 0.615747 0.142214
0.871733 0.612787 0.147951
0.931640 0.610040 0.154788
0.989624 0.606653 0.160830
0.126345 0.686091 0.126711
0.153140 0.685664 0.126558
0.193484 0.685298 0.127443
0.244846 0.684901 0.127687
0.301976 0.684596 0.129213
0.362615 0.684108 0.130098
0.425025 0.683650 0.132509
0.488258 0.682979 0.135042
0.552239 0.682246 0.137484
0.616083 0.681086 0.140871
0.679744 0.679774 0.144381
0.742733 0.678035 0.147463
0.803983 0.675105 0.152743
0.864652 0.672389 0.158114
0.924529 0.669581 0.164462
0.982940 0.666224 0.169894
0.142092 0.742153 0.141878
0.164950 0.741756 0.142123
0.201328 0.741451 0.142458
0.249485 0.740871 0.142611
0.303441 0.740230 0.143160
0.361578 0.739406 0.144259
0.421912 0.738674 0.146090
0.483345 0.737850 0.147982
0.545830 0.737209 0.150240
0.608362 0.736080 0.153140
0.671046 0.734951 0.156100
0.733577 0.733730 0.159518
0.796323 0.732692 0.163485
0.857542 0.730556 0.168643
0.918059 0.728481 0.174014
0.978698 0.726955 0.181918
0.145357 0.788174 0.146029
0.167605 0.788357 0.146517
0.203189 0.789303 0.147951
0.249393 0.790188 0.149355
0.302739 0.791470 0.152163
0.359960 0.792355 0.155001
0.419837 0.793606 0.158419
0.481270 0.794430 0.161624
0.543999 0.795651 0.166629
0.607111 0.796384 0.170504
0.671077 0.797513 0.175906
0.734737 0.798154 0.181613
0.798947 0.799069 0.188052
0.861570 0.798428 0.192660
0.920531 0.794675 0.196353
0.975708 0.788113 0.196078
0.169284 0.853025 0.169070
0.182620 0.848936 0.163546
0.211978 0.847257 0.161685
0.254887 0.846983 0.162112
0.305943 0.847837 0.164401
0.361303 0.848539 0.166842
0.419532 0.849454 0.170748
0.479744 0.850340 0.174166
0.541436 0.851652 0.179385
0.603113 0.852171 0.183505
0.665797 0.852995 0.188632
0.728298 0.853239 0.193423
0.791104 0.853635 0.199069
0.852842 0.852934 0.203372
0.913420 0.851133 0.206729
0.971252 0.847044 0.207523
0.183993 0.910491 0.184085
0.195132 0.907012 0.177676
0.221408 0.905119 0.174777
0.261295 0.904540 0.174380
0.309880 0.904845 0.176089
0.363500 0.905303 0.178744
0.420691 0.906218 0.182559
0.479347 0.906859 0.186282
0.539696 0.907713 0.190951
0.600427 0.908141 0.195315
0.662074 0.908721 0.200320
0.723903 0.909209 0.205844
0.786526 0.910155 0.212955
0.848569 0.910460 0.219486
0.910094 0.910185 0.225071
0.969390 0.907805 0.226261
0.200351 0.969696 0.200595
0.209262 0.966888 0.193484
0.232609 0.965393 0.189792
0.270420 0.964935 0.189487
0.316991 0.965148 0.191348
0.369024 0.965576 0.193820
0.424903 0.966339 0.198123
0.482887 0.967102 0.202670
0.542687 0.968231 0.208682
0.603510 0.969390 0.215518
0.665187 0.970764 0.223239
0.727260 0.972015 0.231571
0.790188 0.973907 0.242588
0.853086 0.975555 0.253117
0.916350 0.977600 0.266178
0.979736 0.979858 0.280674
0.000000 0.000092 0.104128
0.113313 0.000183 0.113100
0.208286 0.000244 0.112886
0.289799 0.000031 0.103334
0.357000 0.000183 0.098604
0.421790 0.005798 0.096986
0.486152 0.014862 0.097261
0.550469 0.023285 0.098421
0.612573 0.031464 0.100008
0.676020 0.042206 0.102663
0.736751 0.053101 0.106386
0.793271 0.064240 0.111604
0.848569 0.074556 0.116030
0.905760 0.085237 0.122774
0.962951 0.096162 0.129793
1.000000 0.106325 0.136843
0.000000 0.112886 0.113008
0.108431 0.108431 0.108431
0.200748 0.104341 0.103548
0.280949 0.101320 0.100618
0.351080 0.098848 0.099275
0.417792 0.098299 0.098329
0.484321 0.098604 0.098970
0.549065 0.100038 0.100008
0.611566 0.101686 0.101442
0.676143 0.104616 0.104433
0.736233 0.108736 0.108461
0.792538 0.113558 0.112642
0.847196 0.118410 0.117372
0.904234 0.124331 0.123751
0.961212 0.131319 0.130373
1.000000 0.138399 0.137819
0.000000 0.201358 0.105989
0.104097 0.196414 0.103426
0.190951 0.191165 0.101717
0.270939 0.185763 0.100343
0.343969 0.180667 0.100557
0.414191 0.177035 0.100893
0.481239 0.173892 0.101869
0.546044 0.171756 0.102510
0.610712 0.170504 0.104585
0.674983 0.170535 0.107546
0.733700 0.170352 0.110842
0.789425 0.170718 0.115236
0.844266 0.171939 0.119905
0.901732 0.175051 0.125978
0.958953 0.178683 0.132906
1.000000 0.183078 0.139467
0.009552 0.272679 0.105806
0.104555 0.269017 0.104219
0.183139 0.264897 0.103395
0.260655 0.260899 0.102632
0.334539 0.255711 0.103365
0.404822 0.250950 0.104189
0.472450 0.246494 0.104707
0.539422 0.243168 0.106722
0.604761 0.240482 0.108705
0.668696 0.238560 0.111086
0.727657 0.236118 0.114199
0.784024 0.234287 0.118471
0.841337 0.233829 0.123354
0.898558 0.234134 0.128969
0.954376 0.234775 0.135042
1.000000 0.236423 0.141268
0.035035 0.331792 0.106050
0.106600 0.330724 0.106416
0.177157 0.328679 0.106600
0.250217 0.325719 0.106508
0.321904 0.321843 0.106874
0.392370 0.318059 0.107515
0.460731 0.314183 0.109041
0.528557 0.311040 0.110750
0.594568 0.307836 0.112825
0.659663 0.305486 0.114870
0.719905 0.302312 0.119295
0.779019 0.299687 0.123659
0.838071 0.298192 0.128908
0.897002 0.297612 0.135164
0.954681 0.297368 0.141360
1.000000 0.296788 0.146517
0.053162 0.394903 0.112459
0.112490 0.394690 0.112123
0.176669 0.393317 0.112673
0.245731 0.391272 0.112825
0.315862 0.388586 0.113100
0.385351 0.385443 0.114534
0.453956 0.381994 0.115267
0.521630 0.378912 0.116884
0.587915 0.375769 0.119265
0.652644 0.372595 0.121004
0.713313 0.368444 0.125490
0.773465 0.365209 0.129793
0.832364 0.362615 0.134463
0.891203 0.360601 0.140017
0.949065 0.359167 0.145571
1.000000 0.358007 0.151492
0.071443 0.459327 0.119783
0.120424 0.459724 0.120638
0.179202 0.458747 0.120394
0.244602 0.457008 0.120699
0.312505 0.454627 0.121370
0.380987 0.451881 0.122194
0.448798 0.448768 0.123171
0.515892 0.445594 0.124849
0.581659 0.442237 0.125704
0.645533 0.438056 0.128817
0.706081 0.433295 0.132509
0.766232 0.429389 0.136080
0.825498 0.425849 0.140322
0.884611 0.423224 0.145541
0.942931 0.421088 0.150820
1.000000 0.419623 0.157076
0.084871 0.519585 0.126467
0.127871 0.520653 0.127535
0.181125 0.520287 0.127626
0.243442 0.519097 0.128176
0.309178 0.517113 0.128359
0.375616 0.514549 0.129305
0.442176 0.511528 0.130312
0.508293 0.508263 0.131594
0.573541 0.504967 0.132815
0.636561 0.500542 0.135836
0.697902 0.496101 0.139284
0.758755 0.492195 0.143587
0.818662 0.488472 0.147036
0.877501 0.485084 0.152010
0.935668 0.482155 0.156191
0.994507 0.480385 0.162448
0.096773 0.574060 0.132570
0.133028 0.573846 0.133150
0.182254 0.573571 0.133791
0.240635 0.572992 0.134096
0.303899 0.572045 0.135012
0.368566 0.571099 0.136477
0.434730 0.570062 0.138277
0.500877 0.568536 0.140352
0.566766 0.566735 0.142458
0.632013 0.564874 0.145144
0.695064 0.561517 0.149294
0.756985 0.558099 0.153964
0.817288 0.554314 0.158572
0.877134 0.551110 0.163241
0.936645 0.548425 0.168643
0.994873 0.545586 0.173892
0.112917 0.629877 0.143465
0.143893 0.629389 0.143465
0.187594 0.628992 0.143587
0.241978 0.628534 0.144411
0.302129 0.628107 0.145602
0.364721 0.627314 0.147066
0.428656 0.626459 0.148074
0.493233 0.625269 0.150362
0.558068 0.624170 0.152132
0.622644 0.622705 0.155032
0.686732 0.621088 0.157443
0.748257 0.617456 0.161349
0.809079 0.614130 0.165621
0.870054 0.611627 0.170626
0.930449 0.609339 0.176486
0.989380 0.606653 0.182223
0.127779 0.686183 0.155367
0.155001 0.686122 0.155398
0.194949 0.685695 0.155886
0.246006 0.685115 0.155947
0.302403 0.684413 0.156924
0.362524 0.683467 0.157443
0.424414 0.682429 0.158999
0.487251 0.681453 0.160555
0.550835 0.680568 0.162783
0.614374 0.679255 0.164950
0.677668 0.677729 0.167025
0.740444 0.675990 0.169741
0.801663 0.673152 0.173770
0.862516 0.670710 0.178531
0.922850 0.668269 0.183841
0.982025 0.665522 0.188357
0.142763 0.741665 0.166323
0.166323 0.741421 0.166659
0.202396 0.740871 0.166323
0.249454 0.740200 0.166995
0.303532 0.739498 0.167361
0.361578 0.738735 0.167819
0.421546 0.738033 0.169528
0.482918 0.737118 0.170993
0.545006 0.735988 0.172396
0.607141 0.734585 0.174136
0.669306 0.733089 0.175998
0.731441 0.731563 0.178866
0.793637 0.730190 0.181125
0.854520 0.727962 0.185489
0.914916 0.725765 0.190066
0.975921 0.724605 0.195895
0.147860 0.789731 0.169619
0.169741 0.789822 0.170321
0.204593 0.790463 0.171298
0.250309 0.791043 0.172396
0.303380 0.791897 0.174685
0.360357 0.792630 0.177005
0.420356 0.793851 0.179995
0.481605 0.794583 0.182712
0.544121 0.795590 0.186862
0.606897 0.796170 0.190463
0.670710 0.797055 0.195224
0.734340 0.797574 0.199710
0.798428 0.798581 0.205844
0.861143 0.798032 0.210178
0.920439 0.794614 0.213077
0.976104 0.788479 0.213107
0.170626 0.853910 0.189639
0.184543 0.850095 0.184756
0.213779 0.848447 0.182834
0.256107 0.848142 0.183139
0.306920 0.848753 0.184970
0.362219 0.849271 0.187350
0.420203 0.849912 0.190280
0.479988 0.850584 0.193301
0.541466 0.851621 0.197726
0.603021 0.851987 0.200931
0.665492 0.852659 0.205600
0.728023 0.852873 0.209781
0.790921 0.853422 0.215488
0.852720 0.852873 0.219730
0.913481 0.851286 0.222477
0.971710 0.847501 0.223392
0.184909 0.911070 0.202548
0.196353 0.907836 0.196811
0.222629 0.906157 0.194064
0.262211 0.905608 0.193668
0.310765 0.905821 0.195041
0.364324 0.906188 0.197055
0.421271 0.906920 0.200290
0.479805 0.907317 0.203403
0.539879 0.907866 0.207187
0.600427 0.908141 0.211093
0.661891 0.908629 0.215732
0.723751 0.909056 0.220706
0.786343 0.910002 0.227024
0.848478 0.910369 0.232853
0.910155 0.910277 0.238926
0.969665 0.908080 0.240116
0.201022 0.970153 0.216709
0.209903 0.967529 0.209995
0.233249 0.966094 0.206943
0.270939 0.965637 0.206546
0.317418 0.965911 0.208194
0.369604 0.966339 0.210422
0.425452 0.967041 0.214206
0.483314 0.967681 0.218509
0.542931 0.968627 0.223484
0.603571 0.969665 0.229252
0.665217 0.970855 0.236545
0.727077 0.971984 0.243839
0.789883 0.973632 0.253422
0.852659 0.975219 0.263584
0.916045 0.977295 0.275975
0.979492 0.979614 0.290074
0.000000 0.000275 0.219547
0.117372 0.000153 0.214786
0.203311 0.000061 0.204288
0.282536 0.000122 0.192996
0.351507 0.000183 0.182528
0.414954 0.014954 0.176089
0.479011 0.032136 0.174166
0.542931 0.044678 0.172793
0.605707 0.051057 0.171267
0.670558 0.057954 0.171298
0.731563 0.066987 0.172000
0.788724 0.077760 0.173190
0.844602 0.085817 0.174380
0.902953 0.095705 0.177798
0.960784 0.105409 0.181582
1.000000 0.114107 0.185031
0.000000 0.109773 0.211582
0.105531 0.105104 0.203525
0.195590 0.101656 0.195529
0.274235 0.100649 0.187747
0.343389 0.101625 0.181033
0.410895 0.104646 0.177829
0.477089 0.107088 0.175418
0.541802 0.108064 0.173770
0.606043 0.109499 0.172427
0.671015 0.112428 0.172122
0.731441 0.116335 0.172885
0.788174 0.120882 0.174350
0.843687 0.125216 0.175204
0.901671 0.131502 0.178103
0.959197 0.137667 0.182040
1.000000 0.144167 0.185702
0.000000 0.196933 0.196658
0.103792 0.192538 0.192660
0.188083 0.188083 0.188083
0.265812 0.184451 0.184360
0.338262 0.181704 0.181735
0.408148 0.179294 0.179171
0.475319 0.176974 0.177005
0.540459 0.174655 0.174960
0.606287 0.173953 0.174136
0.670466 0.174014 0.173892
0.729305 0.174258 0.174075
0.785275 0.174899 0.174929
0.841306 0.176303 0.175967
0.899138 0.179263 0.179232
0.956909 0.182803 0.182284
1.000000 0.186801 0.186374
0.022187 0.269322 0.187716
0.109377 0.265751 0.185702
0.183902 0.262181 0.183902
0.258488 0.258732 0.181674
0.331090 0.254490 0.179812
0.400763 0.250614 0.178408
0.468269 0.246799 0.176333
0.535760 0.244541 0.175509
0.601007 0.241917 0.174685
0.664942 0.239872 0.174777
0.723964 0.237919 0.174624
0.780484 0.236332 0.176150
0.838621 0.236210 0.178073
0.895995 0.236484 0.180209
0.952087 0.237125 0.182773
1.000000 0.238224 0.186221
0.051514 0.329107 0.180484
0.113008 0.328099 0.180453
0.179507 0.326390 0.179232
0.249577 0.323491 0.178470
0.320134 0.320165 0.176883
0.389746 0.316625 0.175967
0.457771 0.313359 0.175113
0.525292 0.310521 0.174807
0.591241 0.307561 0.174685
0.656123 0.305608 0.174929
0.716640 0.302556 0.176425
0.776333 0.300633 0.178317
0.835843 0.299382 0.180606
0.895048 0.299077 0.183993
0.953094 0.298955 0.187411
1.000000 0.298497 0.190433
0.065431 0.393378 0.179202
0.118044 0.393164 0.179385
0.178775 0.391852 0.179355
0.246555 0.389715 0.178744
0.315373 0.387030 0.177920
0.384131 0.384131 0.177249
0.451820 0.380835 0.176944
0.519463 0.377996 0.177066
0.585595 0.375036 0.176944
0.650019 0.371893 0.177798
0.710994 0.368383 0.178866
0.771237 0.365515 0.181247
0.830503 0.362982 0.183444
0.889525 0.361151 0.186862
0.947753 0.359899 0.189944
1.000000 0.358923 0.193545
0.078340 0.457649 0.180423
0.123690 0.458259 0.181186
0.180667 0.457343 0.180880
0.245212 0.455818 0.180514
0.312352 0.453407 0.180484
0.380468 0.450874 0.179934
0.447791 0.447852 0.179721
0.514519 0.444739 0.179873
0.580102 0.441291 0.179721
0.643641 0.437354 0.180575
0.704189 0.432868 0.182376
0.764492 0.429175 0.184298
0.823850 0.425818 0.186740
0.882994 0.423377 0.189731
0.941711 0.421332 0.192752
1.000000 0.420050 0.197147
0.088960 0.518486 0.181491
0.129488 0.519738 0.182559
0.182498 0.519280 0.182406
0.244053 0.518151 0.182650
0.309239 0.516167 0.182406
0.375250 0.513573 0.182345
0.441474 0.510491 0.182071
0.507347 0.507469 0.182406
0.572412 0.504143 0.182681
0.635431 0.499886 0.184360
0.696742 0.495552 0.186007
0.757504 0.491798 0.188418
0.817319 0.488350 0.190585
0.876249 0.485023 0.193057
0.934508 0.482033 0.195651
0.993530 0.480201 0.199924
0.099611 0.573388 0.183017
0.135286 0.573175 0.182925
0.183627 0.572808 0.183322
0.241184 0.572198 0.183688
0.303899 0.571374 0.184451
0.368872 0.570306 0.184848
0.434363 0.569299 0.186191
0.500298 0.567773 0.187076
0.565942 0.566094 0.188479
0.631250 0.564202 0.190616
0.694118 0.560937 0.193393
0.755917 0.557671 0.196353
0.816251 0.554009 0.199069
0.876310 0.550988 0.202090
0.936034 0.548516 0.206088
0.994568 0.545922 0.210086
0.116304 0.629358 0.189029
0.146029 0.629023 0.189181
0.189181 0.628626 0.189395
0.243351 0.628260 0.189822
0.303014 0.627832 0.190677
0.365209 0.627039 0.191562
0.428931 0.626093 0.191928
0.493050 0.624994 0.193545
0.557855 0.623865 0.194705
0.622309 0.622370 0.196628
0.686122 0.620508 0.198398
0.747555 0.617029 0.200809
0.808347 0.613855 0.203738
0.869444 0.611505 0.207675
0.930022 0.609400 0.211826
0.989166 0.606836 0.215732
0.131807 0.685847 0.196475
0.157412 0.685939 0.196750
0.196811 0.685542 0.196902
0.246921 0.685023 0.197482
0.303380 0.684260 0.197360
0.363134 0.683314 0.198337
0.424781 0.682338 0.198764
0.487648 0.681300 0.199985
0.550958 0.680323 0.201572
0.614191 0.678920 0.203281
0.677272 0.677363 0.204990
0.740078 0.675624 0.206638
0.801144 0.672847 0.209567
0.862119 0.670527 0.213077
0.922606 0.668269 0.216770
0.981903 0.665705 0.220188
0.144991 0.741421 0.203891
0.168612 0.741207 0.203922
0.203891 0.740627 0.204105
0.250828 0.740017 0.204349
0.304540 0.739437 0.204349
0.362127 0.738796 0.205020
0.422248 0.738064 0.205844
0.483345 0.737057 0.206882
0.545159 0.735927 0.208377
0.607080 0.734493 0.209293
0.669245 0.732906 0.210758
0.731258 0.731350 0.212375
0.793362 0.729976 0.214328
0.854185 0.727779 0.217380
0.914611 0.725612 0.220584
0.975738 0.724422 0.225101
0.149783 0.790188 0.204807
0.171725 0.790280 0.205325
0.205966 0.790799 0.205997
0.251408 0.791318 0.207370
0.304112 0.792172 0.208682
0.361120 0.792874 0.211032
0.420874 0.794003 0.213596
0.481910 0.794736 0.215885
0.544518 0.795743 0.219547
0.607324 0.796292 0.222446
0.670954 0.797238 0.226963
0.734554 0.797818 0.230655
0.798672 0.798856 0.235966
0.861143 0.798184 0.239658
0.920439 0.794675 0.241581
0.976226 0.788693 0.240208
0.172335 0.854124 0.221073
0.185336 0.850523 0.216739
0.214908 0.848936 0.214878
0.256901 0.848661 0.215213
0.307591 0.849210 0.216892
0.362524 0.849668 0.218601
0.420691 0.850278 0.220829
0.480476 0.850980 0.223453
0.541955 0.851987 0.227390
0.603479 0.852293 0.230442
0.665888 0.852934 0.234470
0.728328 0.853117 0.238102
0.791135 0.853635 0.243198
0.852934 0.853056 0.246647
0.913664 0.851438 0.248569
0.971923 0.847715 0.249058
0.185245 0.911315 0.230350
0.196353 0.908171 0.225101
0.222660 0.906523 0.222904
0.262364 0.906004 0.222354
0.310887 0.906218 0.223850
0.364385 0.906615 0.225742
0.421393 0.907378 0.228550
0.480018 0.907744 0.231235
0.540002 0.908202 0.234104
0.600671 0.908385 0.237217
0.662165 0.908904 0.241428
0.724025 0.909331 0.245914
0.786618 0.910277 0.252079
0.848692 0.910643 0.257267
0.910430 0.910521 0.262364
0.969970 0.908385 0.262974
0.199954 0.970489 0.241794
0.208621 0.967864 0.235569
0.232059 0.966461 0.232242
0.269932 0.966064 0.232242
0.317052 0.966369 0.233646
0.369329 0.966766 0.236210
0.425177 0.967407 0.239292
0.483131 0.968048 0.242618
0.542779 0.968963 0.247105
0.603632 0.970001 0.252964
0.665278 0.971191 0.259251
0.727199 0.972259 0.265934
0.790005 0.973877 0.274662
0.852811 0.975402 0.284031
0.916197 0.977478 0.295506
0.979675 0.979797 0.308721
0.000488 0.000000 0.301335
0.109529 0.000061 0.295567
0.193637 0.000244 0.285161
0.272801 0.000000 0.273533
0.343877 0.001068 0.261448
0.409766 0.016541 0.252293
0.474861 0.031952 0.246708
0.538445 0.046998 0.243015
0.601404 0.057923 0.240360
0.665766 0.067445 0.239048
0.726772 0.077241 0.238102
0.784298 0.087739 0.237705
0.841154 0.096010 0.237247
0.900237 0.105318 0.238407
0.958434 0.114473 0.240055
1.000000 0.121859 0.241276
0.000000 0.104891 0.290867
0.101778 0.102388 0.282933
0.187839 0.100343 0.274662
0.266148 0.099611 0.266300
0.337835 0.100710 0.257725
0.406683 0.104128 0.252018
0.472602 0.107668 0.247074
0.536736 0.111330 0.243412
0.601556 0.114443 0.241764
0.666346 0.117556 0.240299
0.726680 0.121920 0.238865
0.783780 0.127413 0.237980
0.840543 0.132143 0.237552
0.898863 0.138399 0.238468
0.956817 0.144320 0.239689
1.000000 0.150088 0.241337
0.005310 0.190738 0.276890
0.105837 0.187594 0.271153
0.184787 0.184878 0.265232
0.261265 0.182498 0.261143
0.333532 0.180697 0.256352
0.403021 0.179385 0.252049
0.469886 0.178134 0.248325
0.535668 0.177035 0.245090
0.601343 0.176394 0.242741
0.665614 0.176303 0.240970
0.724697 0.177310 0.239322
0.781033 0.178622 0.238010
0.838132 0.180758 0.237766
0.896513 0.183841 0.238682
0.954681 0.187564 0.239963
1.000000 0.190890 0.241520
0.028016 0.265110 0.265110
0.110201 0.262119 0.262028
0.183230 0.258824 0.258854
0.255863 0.255863 0.255863
0.326848 0.252750 0.252842
0.396155 0.249607 0.249607
0.464088 0.246708 0.246738
0.531518 0.244511 0.244205
0.596796 0.242069 0.242191
0.660731 0.240360 0.240055
0.719936 0.239109 0.239048
0.777005 0.238041 0.238193
0.835813 0.238712 0.238499
0.893462 0.239139 0.238804
0.950011 0.239750 0.239231
1.000000 0.240635 0.240482
0.053529 0.325994 0.251530
0.115084 0.324865 0.251255
0.179751 0.323095 0.250065
0.248325 0.320714 0.248417
0.317784 0.317784 0.246464
0.386755 0.314916 0.244633
0.454658 0.311925 0.242557
0.522118 0.309575 0.241123
0.587945 0.306981 0.239811
0.652766 0.304967 0.238895
0.713191 0.302678 0.238376
0.773617 0.301671 0.239170
0.833402 0.300908 0.240024
0.892851 0.300908 0.241520
0.951293 0.300786 0.243015
1.000000 0.300359 0.243992
0.070680 0.391089 0.247745
0.120699 0.390814 0.247776
0.180362 0.389532 0.247044
0.246128 0.387488 0.245884
0.313909 0.385016 0.244755
0.382269 0.382238 0.243076
0.449805 0.379278 0.242008
0.517082 0.376654 0.240879
0.583001 0.373907 0.240024
0.647547 0.371160 0.239353
0.708492 0.368048 0.239506
0.768856 0.365698 0.240238
0.828305 0.363653 0.241276
0.887602 0.362219 0.242588
0.946044 0.361059 0.244175
1.000000 0.360235 0.245640
0.081117 0.455299 0.245853
0.126436 0.455787 0.246006
0.181552 0.455085 0.245731
0.244968 0.453651 0.245335
0.311528 0.451514 0.244358
0.378973 0.449104 0.243595
0.446265 0.446326 0.242466
0.512566 0.443275 0.241672
0.577966 0.439918 0.240848
0.641413 0.436286 0.240574
0.702022 0.432197 0.240879
0.762387 0.428901 0.241550
0.821927 0.425940 0.242313
0.881376 0.423774 0.243503
0.940337 0.421912 0.245365
0.999359 0.420844 0.247440
0.090883 0.516625 0.243687
