luts/Kodak_Gold_200.cube
# Generated for krafta web app
# https://www.facebook.com/krafta.visio
# Preset: KDK - Gold 200
# Color profile : sRGB Color Space Profile
LUT_3D_SIZE 16
DOMAIN_MIN 0.0 0.0 0.0
DOMAIN_MAX 1.0 1.0 1.0
0.000000 0.000000 0.000000
0.124392 0.001770 0.001617
0.248386 0.002167 0.002991
0.332494 0.002869 0.003693
0.395819 0.005219 0.004791
0.457160 0.006104 0.004791
0.512383 0.007599 0.007263
0.573266 0.010834 0.011200
0.630396 0.018830 0.018311
0.688106 0.026978 0.026673
0.743404 0.040467 0.038239
0.796231 0.052430 0.050813
0.847410 0.063386 0.062715
0.901518 0.074647 0.073732
0.956115 0.085176 0.084718
1.000000 0.093446 0.091798
0.001984 0.137636 0.001709
0.130129 0.130282 0.003723
0.229343 0.129061 0.001770
0.314336 0.121370 0.001251
0.382452 0.111421 0.002441
0.444587 0.103670 0.003723
0.507805 0.098878 0.007599
0.569543 0.097963 0.013550
0.625818 0.097658 0.021241
0.684627 0.099153 0.030579
0.740047 0.102205 0.042145
0.792691 0.106355 0.054108
0.843229 0.110323 0.064179
0.897551 0.116182 0.074434
0.952758 0.122347 0.084962
1.000000 0.127779 0.094057
0.000000 0.227420 0.000000
0.119173 0.217868 0.000000
0.208408 0.208377 0.000000
0.290837 0.199985 0.000000
0.364080 0.190524 0.000977
0.434638 0.184085 0.006378
0.499702 0.178012 0.012909
0.560876 0.172915 0.019928
0.618677 0.168765 0.028412
0.679500 0.167391 0.037110
0.734859 0.166384 0.048615
0.787381 0.165713 0.058930
0.837400 0.165591 0.068299
0.893004 0.167819 0.077760
0.948699 0.171115 0.087434
1.000000 0.174044 0.096834
0.000000 0.292729 0.000000
0.108064 0.286473 0.000000
0.192813 0.280339 0.002564
0.273838 0.273991 0.005493
0.348058 0.265415 0.011170
0.417456 0.257542 0.018128
0.481880 0.249546 0.024292
0.544884 0.243503 0.031434
0.606928 0.239231 0.039887
0.667933 0.235691 0.047395
0.722957 0.231968 0.055604
0.775265 0.228397 0.064271
0.827634 0.225895 0.071931
0.882078 0.225040 0.080629
0.935637 0.224765 0.087526
0.990723 0.225498 0.095460
0.022461 0.347875 0.020783
0.107515 0.347082 0.022400
0.185275 0.347234 0.025574
0.263462 0.343908 0.028351
0.338628 0.338720 0.032868
0.410040 0.332097 0.038392
0.476600 0.324315 0.043275
0.541985 0.318334 0.049165
0.605280 0.312657 0.054841
0.667475 0.308019 0.061860
0.723384 0.302403 0.069123
0.778012 0.297520 0.075990
0.833036 0.294255 0.084047
0.889097 0.292363 0.092134
0.943267 0.290318 0.099672
0.992065 0.286748 0.103395
0.046418 0.406531 0.046479
0.113069 0.408179 0.048829
0.182101 0.408759 0.049958
0.254398 0.406073 0.052491
0.325597 0.400855 0.053773
0.395239 0.395239 0.057557
0.463691 0.390082 0.061311
0.530785 0.385382 0.065309
0.594690 0.379767 0.069581
0.656489 0.374243 0.073426
0.712551 0.367193 0.080659
0.768978 0.361730 0.086580
0.824338 0.357122 0.092744
0.880400 0.354101 0.099519
0.935119 0.350927 0.105470
0.986389 0.346777 0.108980
0.066651 0.465126 0.067231
0.119478 0.466957 0.068482
0.180636 0.467109 0.069642
0.248295 0.465126 0.070802
0.317174 0.461952 0.072541
0.386053 0.458412 0.074434
0.454414 0.454536 0.076478
0.520623 0.449744 0.079927
0.582788 0.442664 0.082612
0.643397 0.436255 0.085359
0.701137 0.429541 0.091188
0.758846 0.424170 0.095918
0.814817 0.418952 0.100710
0.871244 0.414923 0.105715
0.926482 0.411109 0.110506
0.979980 0.406958 0.113466
0.081117 0.520836 0.081514
0.126040 0.524407 0.082979
0.181796 0.526116 0.085145
0.246128 0.525353 0.085664
0.312047 0.522576 0.087465
0.377539 0.517571 0.087617
0.441566 0.511070 0.088746
0.505058 0.505089 0.089876
0.567407 0.499275 0.092622
0.628504 0.493751 0.095552
0.687770 0.488075 0.099886
0.746334 0.483009 0.104280
0.802945 0.477668 0.108034
0.859007 0.472816 0.110780
0.914122 0.468208 0.114076
0.972015 0.465888 0.118837
0.089906 0.560845 0.088991
0.126467 0.561181 0.089296
0.176089 0.562768 0.091066
0.234653 0.563287 0.092164
0.297673 0.563165 0.094453
0.361883 0.562097 0.096071
0.426947 0.560540 0.098085
0.491554 0.558251 0.100954
0.555901 0.556023 0.104067
0.619562 0.553460 0.107454
0.681636 0.550042 0.111116
0.741848 0.546075 0.115877
0.799802 0.541100 0.118990
0.856321 0.536034 0.122103
0.912169 0.531151 0.124575
0.965393 0.525200 0.123690
0.102266 0.614160 0.102510
0.133608 0.613092 0.102266
0.178347 0.612940 0.102419
0.232395 0.612573 0.103548
0.291600 0.612116 0.104707
0.353521 0.611414 0.106416
0.416938 0.611048 0.108186
0.480171 0.609857 0.110964
0.543816 0.608698 0.113375
0.606806 0.606744 0.116243
0.668910 0.604486 0.119142
0.728084 0.600092 0.122042
0.786007 0.595300 0.123934
0.844388 0.591516 0.125917
0.902098 0.587793 0.128237
0.955810 0.581720 0.126467
0.112825 0.665766 0.112917
0.140352 0.665095 0.112825
0.181125 0.664515 0.112703
0.231968 0.663935 0.113497
0.288640 0.663416 0.114595
0.347875 0.662654 0.115877
0.409155 0.661982 0.117098
0.470802 0.660822 0.118868
0.532708 0.659663 0.121340
0.594324 0.657740 0.123629
0.655421 0.655512 0.125063
0.715358 0.652491 0.126925
0.774441 0.649104 0.128634
0.832761 0.645563 0.130007
0.889616 0.641199 0.129244
0.943816 0.635248 0.124941
0.120241 0.716945 0.120150
0.145235 0.716274 0.119966
0.182589 0.715785 0.120424
0.231601 0.714870 0.120699
0.285618 0.713588 0.120455
0.342687 0.712215 0.120516
0.401587 0.710872 0.121187
0.461219 0.709377 0.122713
0.521813 0.708186 0.124056
0.581903 0.706111 0.125124
0.641962 0.704005 0.126040
0.701442 0.701625 0.128359
0.761257 0.699611 0.129641
0.819821 0.696773 0.129915
0.877928 0.693690 0.127901
0.936309 0.691096 0.125460
0.102785 0.748013 0.102571
0.129824 0.748409 0.103670
0.169619 0.750240 0.106050
0.219730 0.751888 0.108583
0.275029 0.754330 0.111543
0.332982 0.756069 0.114656
0.393103 0.758419 0.119173
0.454170 0.759945 0.122438
0.516533 0.762264 0.127962
0.578790 0.763577 0.131746
0.641993 0.765652 0.137667
0.704616 0.766659 0.142428
0.768093 0.768215 0.147982
0.828458 0.766690 0.150484
0.883116 0.760159 0.144900
0.930846 0.747799 0.126864
0.114229 0.814420 0.114473
0.128878 0.806516 0.103304
0.163729 0.803250 0.098634
0.212436 0.802762 0.098756
0.267399 0.804410 0.101564
0.325292 0.805661 0.104677
0.384863 0.807431 0.108827
0.445502 0.809079 0.112886
0.507317 0.811521 0.118441
0.568444 0.812345 0.121675
0.630549 0.813748 0.127199
0.691676 0.813993 0.131075
0.753231 0.814542 0.135714
0.812650 0.812772 0.135836
0.869688 0.808865 0.133608
0.921904 0.800687 0.117494
0.096529 0.866178 0.096712
0.111635 0.859251 0.081239
0.148714 0.855467 0.072786
0.199222 0.854215 0.070130
0.255741 0.854795 0.073030
0.314458 0.855680 0.076112
0.374731 0.857389 0.081758
0.435096 0.858518 0.085267
0.496468 0.860014 0.090761
0.557214 0.860685 0.094453
0.618524 0.861570 0.099306
0.679713 0.862242 0.103426
0.741970 0.863828 0.110048
0.802945 0.863981 0.114015
0.862730 0.862882 0.114382
0.917754 0.857267 0.102754
0.043091 0.919921 0.042908
0.065522 0.913970 0.012390
0.115175 0.910704 0.000000
0.175631 0.909636 0.000000
0.237705 0.910002 0.000000
0.299931 0.910704 0.000000
0.362371 0.912169 0.004242
0.424750 0.913542 0.010925
0.487709 0.915679 0.023529
0.550622 0.917815 0.034607
0.614038 0.920378 0.050782
0.677241 0.922637 0.060395
0.741909 0.926299 0.078065
0.806210 0.929320 0.090364
0.871489 0.933257 0.105898
0.937438 0.937621 0.120027
0.000000 0.000275 0.125704
0.143923 0.000122 0.144503
0.250614 0.000244 0.138094
0.330785 0.000122 0.120394
0.391180 0.000183 0.110780
0.450080 0.005585 0.106111
0.508965 0.016358 0.103761
0.568292 0.025055 0.103090
0.624170 0.034363 0.102541
0.682704 0.043610 0.104311
0.738735 0.053162 0.107301
0.790738 0.063508 0.110506
0.840940 0.071962 0.113619
0.894713 0.080537 0.118318
0.948791 0.089387 0.123507
0.999298 0.096040 0.127535
0.000000 0.141299 0.141360
0.131350 0.131350 0.131350
0.232670 0.121828 0.121889
0.313664 0.115175 0.115114
0.380682 0.110018 0.109957
0.443366 0.106325 0.106355
0.506035 0.105226 0.104952
0.566125 0.104402 0.104524
0.622644 0.104585 0.104250
0.683040 0.106600 0.106081
0.738308 0.109712 0.109010
0.789761 0.112367 0.112306
0.839017 0.115358 0.114473
0.892485 0.119600 0.118898
0.946166 0.124819 0.123568
0.998047 0.128725 0.127871
0.000000 0.232578 0.124025
0.119997 0.223087 0.119631
0.213260 0.213474 0.114839
0.295323 0.203647 0.111971
0.368719 0.195071 0.110445
0.437385 0.188693 0.108858
0.501061 0.182650 0.108125
0.561578 0.177523 0.107515
0.621698 0.174380 0.107759
0.681514 0.172763 0.109407
0.734768 0.170596 0.111238
0.785153 0.169253 0.113924
0.834592 0.168582 0.116030
0.888762 0.170077 0.120211
0.942779 0.171725 0.125063
0.995483 0.173495 0.128817
0.013581 0.299046 0.118776
0.116518 0.292454 0.116396
0.198459 0.285405 0.113802
0.278172 0.278355 0.111940
0.352392 0.269993 0.111269
0.421881 0.262181 0.110658
0.486732 0.254765 0.109712
0.550622 0.248966 0.110079
0.612177 0.244114 0.110567
0.671565 0.239872 0.111696
0.725643 0.235264 0.113985
0.777066 0.231479 0.115785
0.830472 0.229404 0.119020
0.884031 0.227970 0.122988
0.935729 0.226505 0.125734
0.987579 0.225650 0.128145
0.039582 0.348302 0.114046
0.113863 0.346532 0.114015
0.186313 0.343084 0.113344
0.260197 0.337926 0.112306
0.331365 0.331365 0.111513
0.400977 0.325200 0.111269
0.467567 0.319036 0.111147
0.532982 0.313939 0.111910
0.595697 0.308598 0.112795
0.657404 0.304265 0.114290
0.714076 0.299382 0.116854
0.769741 0.295293 0.120027
0.825895 0.292668 0.123507
0.882231 0.290745 0.128084
0.936797 0.288792 0.131685
0.987823 0.285649 0.133547
0.058778 0.405585 0.116823
0.117098 0.405249 0.116915
0.182010 0.402960 0.116915
0.251316 0.399573 0.116945
0.321294 0.394873 0.116060
0.389471 0.389746 0.116579
0.456123 0.384009 0.116213
0.521813 0.379156 0.117342
0.585290 0.373877 0.118379
0.646723 0.368994 0.119539
0.704402 0.363287 0.122072
0.761715 0.358831 0.125002
0.817563 0.354681 0.127993
0.873503 0.351354 0.131106
0.928374 0.348302 0.134066
0.981781 0.344915 0.136172
0.073426 0.465339 0.122316
0.122988 0.466041 0.123140
0.181796 0.464485 0.123262
0.247318 0.461402 0.123201
0.314580 0.457435 0.122774
0.381842 0.452857 0.122683
0.447761 0.447700 0.122377
0.512291 0.442512 0.123262
0.575067 0.436988 0.123262
0.636072 0.431281 0.124788
0.693568 0.424994 0.127047
0.751003 0.419715 0.129763
0.807248 0.414832 0.131533
0.863523 0.410895 0.134188
0.918975 0.407233 0.136446
0.974456 0.404059 0.138613
0.084718 0.518761 0.126467
0.127138 0.520439 0.127535
0.180819 0.519738 0.127810
0.243015 0.517723 0.127474
0.307317 0.514611 0.127596
0.372229 0.510246 0.127687
0.436408 0.505119 0.127932
0.499763 0.499916 0.128084
0.561761 0.494362 0.128023
0.622461 0.489052 0.130343
0.681422 0.483528 0.131868
0.739712 0.478706 0.134066
0.796902 0.473854 0.135836
0.852750 0.469093 0.137240
0.907652 0.464363 0.137789
0.963195 0.460548 0.138186
0.091920 0.564233 0.128817
0.128511 0.563806 0.128878
0.177249 0.563470 0.128908
0.235019 0.562554 0.129519
0.296941 0.561242 0.130526
0.360327 0.559686 0.131075
0.425116 0.558068 0.132662
0.489235 0.555688 0.133944
0.552941 0.552911 0.135805
0.615839 0.550195 0.137972
0.677546 0.546746 0.140780
0.737575 0.542809 0.142672
0.795438 0.537987 0.145235
0.852842 0.533593 0.146975
0.909941 0.529747 0.148409
0.965026 0.524895 0.148226
0.104280 0.614557 0.135042
0.135012 0.613794 0.135256
0.179171 0.613123 0.135470
0.233036 0.612390 0.135775
0.292119 0.611780 0.136263
0.353277 0.610590 0.137850
0.415747 0.609216 0.138552
0.478248 0.607416 0.139956
0.541009 0.605646 0.141329
0.603235 0.603296 0.143221
0.664607 0.600580 0.144503
0.723964 0.596551 0.146670
0.782589 0.592523 0.147799
0.841703 0.589471 0.149508
0.900175 0.586358 0.150942
0.955566 0.581445 0.148989
0.113863 0.665949 0.142000
0.141634 0.665858 0.142061
0.181949 0.665156 0.142245
0.233005 0.664271 0.141817
0.288701 0.663203 0.142702
0.347692 0.661646 0.142672
0.407904 0.659968 0.143740
0.468849 0.658259 0.144259
0.530419 0.656886 0.146090
0.591699 0.654719 0.146670
0.652125 0.652186 0.148043
0.711818 0.649195 0.149538
0.770382 0.645624 0.149722
0.828885 0.642298 0.149813
0.886564 0.638758 0.149203
0.942168 0.633814 0.144961
0.120272 0.716182 0.145724
0.145388 0.715785 0.145632
0.182650 0.714778 0.145541
0.230930 0.713588 0.144778
0.284733 0.712337 0.144686
0.342077 0.710964 0.144717
0.400671 0.709743 0.145388
0.460090 0.707942 0.146304
0.519982 0.705989 0.146304
0.579400 0.703365 0.146670
0.638605 0.700465 0.147280
0.697444 0.697566 0.147341
0.756222 0.694820 0.148165
0.814206 0.691737 0.146883
0.871946 0.688533 0.142947
0.930907 0.686458 0.140261
0.104128 0.751034 0.130892
0.130922 0.751247 0.131777
0.170626 0.752499 0.133211
0.220096 0.753536 0.134340
0.275120 0.755215 0.136660
0.333074 0.756588 0.139467
0.393408 0.758877 0.143069
0.454353 0.760250 0.145724
0.516350 0.762173 0.149996
0.578271 0.763149 0.153414
0.641230 0.764767 0.157778
0.703731 0.765652 0.161227
0.767147 0.767269 0.166781
0.827665 0.765927 0.169100
0.882994 0.759945 0.164309
0.931701 0.748440 0.147280
0.114321 0.816159 0.139040
0.129915 0.808804 0.129702
0.164431 0.805631 0.126375
0.213138 0.804990 0.125521
0.268254 0.806271 0.127901
0.325841 0.807156 0.130312
0.385229 0.808347 0.132967
0.445441 0.809628 0.135897
0.507012 0.811490 0.140566
0.567987 0.811978 0.142947
0.629755 0.813107 0.147036
0.690974 0.813321 0.150240
0.752804 0.814115 0.154055
0.812589 0.812619 0.155032
0.870024 0.809171 0.152834
0.922881 0.801450 0.138888
0.094728 0.867430 0.122957
0.110903 0.860929 0.110933
0.148653 0.857511 0.104768
0.199222 0.856413 0.102266
0.255802 0.856809 0.104402
0.314488 0.857450 0.106233
0.374914 0.858824 0.109804
0.435187 0.859495 0.112154
0.496193 0.860410 0.115755
0.556817 0.860716 0.117678
0.617945 0.861418 0.121370
0.679194 0.861967 0.124819
0.741543 0.863493 0.130251
0.802701 0.863798 0.132937
0.862882 0.863035 0.133974
0.918456 0.857816 0.124208
0.032532 0.921050 0.081666
0.059113 0.915343 0.060273
0.112062 0.912230 0.045624
0.173281 0.911223 0.041962
0.236515 0.911650 0.043519
0.299260 0.912383 0.045716
0.362066 0.913664 0.051942
0.424506 0.914824 0.058656
0.487343 0.916564 0.065278
0.550347 0.918425 0.072969
0.613642 0.920653 0.080720
0.676661 0.922545 0.088502
0.741024 0.925689 0.099458
0.805203 0.928527 0.108461
0.870634 0.932494 0.121828
0.936797 0.936950 0.134371
0.000305 0.000061 0.270298
0.145663 0.000000 0.260990
0.239109 0.000061 0.240574
0.318059 0.000000 0.218479
0.382055 0.000214 0.200015
0.438972 0.017609 0.188479
0.497993 0.037110 0.182986
0.556878 0.048981 0.178866
0.613977 0.052766 0.174166
0.674678 0.059266 0.172793
0.731380 0.066621 0.171633
0.784268 0.075563 0.171603
0.835294 0.081636 0.170993
0.890898 0.089601 0.172641
0.945983 0.096498 0.174258
0.997559 0.100923 0.175174
0.000000 0.133608 0.253605
0.125399 0.125032 0.237766
0.223056 0.117586 0.222629
0.302434 0.113802 0.208255
0.368322 0.112276 0.196109
0.432624 0.113558 0.189425
0.494850 0.113436 0.184176
0.555169 0.112978 0.179232
0.614649 0.112428 0.175662
0.675685 0.113680 0.173800
0.731533 0.116060 0.172763
0.783536 0.119051 0.172427
0.834073 0.121096 0.171420
0.888914 0.125246 0.172671
0.943420 0.129488 0.174228
0.996368 0.132143 0.175174
0.000000 0.224735 0.224521
0.118868 0.216373 0.216526
0.208255 0.208255 0.208255
0.287236 0.201358 0.200870
0.359777 0.195590 0.195529
0.428138 0.190433 0.190341
0.492317 0.185122 0.185183
0.552880 0.180301 0.179965
0.615045 0.177737 0.177310
0.674830 0.175662 0.175326
0.728359 0.174197 0.173526
0.779263 0.172488 0.172274
0.830381 0.171908 0.171542
0.885161 0.173312 0.172488
0.940002 0.174655 0.174166
0.993591 0.175448 0.175051
0.030549 0.293400 0.206119
0.122164 0.287236 0.202792
0.198611 0.280797 0.198856
0.274510 0.274784 0.194583
0.347173 0.267887 0.190555
0.415778 0.261143 0.186831
0.480598 0.254215 0.182254
0.545342 0.249607 0.179995
0.606775 0.244755 0.176883
0.666163 0.240482 0.175204
0.720485 0.236362 0.173342
0.772030 0.232578 0.172580
0.826596 0.230869 0.172885
0.880461 0.229191 0.173220
0.932525 0.227543 0.172793
0.984894 0.225834 0.173068
0.059144 0.344060 0.190677
0.120943 0.342443 0.189914
0.188235 0.339361 0.188022
0.258946 0.334630 0.185641
0.328832 0.328679 0.182528
0.397070 0.322881 0.180240
0.463142 0.317205 0.178042
0.528283 0.312474 0.176181
0.590906 0.307286 0.174655
0.652369 0.303441 0.173739
0.709346 0.298711 0.173312
0.766049 0.295506 0.173892
0.822843 0.292912 0.174960
0.879545 0.291356 0.176547
0.934722 0.289372 0.177798
0.986633 0.286412 0.177218
0.069856 0.403143 0.185275
0.122774 0.402808 0.185489
0.184176 0.400671 0.184451
0.251865 0.397192 0.183261
0.320134 0.392493 0.181247
0.387518 0.387579 0.179416
0.453437 0.382025 0.177493
0.518639 0.377386 0.176272
0.581811 0.372473 0.175601
0.643153 0.367468 0.174502
0.701137 0.362463 0.174746
0.758694 0.358312 0.175662
0.815000 0.354345 0.176394
0.871275 0.351263 0.177005
0.926635 0.348119 0.177890
0.980896 0.345037 0.177890
0.079194 0.462959 0.183658
0.126650 0.463752 0.183932
0.183536 0.462318 0.183352
0.247745 0.459602 0.182681
0.314031 0.455695 0.181643
0.380865 0.451453 0.180453
0.446326 0.446296 0.179141
0.510399 0.441108 0.177859
0.572778 0.435370 0.176699
0.633478 0.429908 0.176303
0.691035 0.423926 0.176486
0.748562 0.418830 0.176944
0.804898 0.414221 0.177127
0.861448 0.410315 0.177646
0.917296 0.406806 0.178256
0.973510 0.403845 0.178714
0.087922 0.516991 0.180819
0.129580 0.518914 0.182071
0.181827 0.518303 0.182132
0.243259 0.516350 0.181857
0.306950 0.513024 0.181308
0.371618 0.508751 0.180056
0.435462 0.503685 0.179110
0.498512 0.498665 0.178012
0.560235 0.493263 0.177401
0.620935 0.488136 0.177310
0.679805 0.482643 0.177798
0.738064 0.477882 0.178256
0.795163 0.473060 0.178714
0.851011 0.468330 0.178500
0.905882 0.463294 0.177249
0.961700 0.459541 0.176089
0.095033 0.563287 0.177829
0.129946 0.562921 0.178225
0.178531 0.562402 0.178073
0.235630 0.561425 0.178317
0.296696 0.560204 0.178897
0.360266 0.558587 0.179049
0.424475 0.556939 0.179599
0.488441 0.554559 0.180301
0.551720 0.551934 0.181003
0.614710 0.549157 0.182254
0.676204 0.545830 0.183719
0.736202 0.541985 0.184787
0.794003 0.537224 0.185489
0.851743 0.533104 0.185733
0.909270 0.529412 0.186496
0.964813 0.524834 0.184939
0.106355 0.613825 0.180484
0.136660 0.613306 0.180545
0.180301 0.612604 0.180331
0.233585 0.612024 0.180728
0.292424 0.611475 0.181186
0.353460 0.610315 0.181582
0.415656 0.608759 0.181979
0.477913 0.606958 0.182803
0.540551 0.605127 0.183627
0.602655 0.602777 0.184115
0.663691 0.599786 0.184665
0.722927 0.595789 0.185397
0.781704 0.591882 0.185489
0.841032 0.589044 0.186313
0.899779 0.586084 0.186740
0.955474 0.581231 0.184360
0.116213 0.665492 0.183230
0.143252 0.665614 0.183383
0.183139 0.665034 0.183322
0.233494 0.664149 0.182986
0.289097 0.662989 0.183261
0.348058 0.661402 0.183108
0.408057 0.659815 0.183505
0.469001 0.658167 0.184024
0.530266 0.656550 0.184634
0.591241 0.654200 0.185214
0.651484 0.651575 0.185672
0.711208 0.648585 0.185977
0.769650 0.644984 0.185885
0.828428 0.641901 0.184939
0.886381 0.638483 0.183078
0.942290 0.633692 0.179049
0.120150 0.715846 0.183963
0.145296 0.715480 0.183474
0.183169 0.714504 0.183139
0.230991 0.713405 0.182834
0.284764 0.712367 0.182895
0.341924 0.711116 0.182864
0.400855 0.709804 0.183017
0.460304 0.707942 0.182803
0.519951 0.705867 0.182650
0.579309 0.703120 0.182284
0.638361 0.700221 0.182040
0.697169 0.697200 0.181674
0.755825 0.694453 0.182101
0.813901 0.691341 0.179690
0.871641 0.688014 0.175692
0.930785 0.685969 0.172183
0.102998 0.752041 0.168704
0.130465 0.752193 0.169039
0.170016 0.753201 0.170474
0.219333 0.754177 0.171664
0.274693 0.755856 0.173495
0.332921 0.757137 0.175479
0.393194 0.759304 0.178439
0.454200 0.760586 0.181186
0.516564 0.762509 0.184512
0.578424 0.763485 0.187167
0.641444 0.765164 0.191257
0.704097 0.766079 0.194156
0.767605 0.767758 0.199008
0.827878 0.766201 0.200626
0.883207 0.760067 0.195071
0.932219 0.748684 0.178836
0.111116 0.816739 0.174350
0.126833 0.809689 0.166201
0.162753 0.806668 0.162814
0.211582 0.806058 0.162264
0.267063 0.807156 0.163973
0.324926 0.807980 0.166018
0.384619 0.809140 0.168124
0.445380 0.810361 0.170718
0.507073 0.812222 0.174166
0.568170 0.812711 0.176333
0.629999 0.813687 0.179751
0.691188 0.813870 0.182162
0.753140 0.814542 0.185367
0.812863 0.813016 0.185977
0.870420 0.809415 0.183017
0.923552 0.801846 0.169833
0.087221 0.867948 0.158053
0.102571 0.861662 0.148165
0.142702 0.858396 0.142977
0.195377 0.857298 0.141573
0.253208 0.857694 0.142367
0.312779 0.858335 0.144320
0.373724 0.859739 0.147219
0.434394 0.860349 0.148745
0.495521 0.861082 0.151064
0.556390 0.861295 0.152316
0.617853 0.862028 0.155642
0.679377 0.862577 0.157717
0.741726 0.864073 0.162661
0.803098 0.864317 0.164920
0.863432 0.863584 0.165011
0.919249 0.858396 0.156283
0.008087 0.921782 0.123384
0.035828 0.916136 0.108797
0.098848 0.913085 0.099336
0.165774 0.912139 0.097017
0.231724 0.912657 0.098543
0.295872 0.913359 0.100221
0.359472 0.914580 0.103578
0.422614 0.915679 0.106813
0.486030 0.917327 0.111727
0.549401 0.919188 0.116640
0.613092 0.921355 0.122438
0.676387 0.923217 0.127016
0.740841 0.926238 0.135378
0.805264 0.929015 0.142245
0.870878 0.932921 0.152468
0.937255 0.937407 0.162844
0.000153 0.000000 0.354742
0.129305 0.000000 0.344060
0.221195 0.000000 0.324041
0.301976 0.000000 0.302739
0.369635 0.000000 0.281590
0.430854 0.019654 0.266331
0.491279 0.037232 0.256535
0.550011 0.050324 0.249241
0.607446 0.060395 0.243198
0.667567 0.068330 0.240177
0.724514 0.076143 0.237217
0.777981 0.084016 0.234867
0.830625 0.090211 0.232120
0.887297 0.096864 0.232090
0.942870 0.102846 0.231540
0.995270 0.105470 0.229618
0.000000 0.124575 0.334508
0.118776 0.119356 0.319890
0.209995 0.114443 0.304662
0.289647 0.111025 0.289586
0.359197 0.110048 0.274784
0.425879 0.112428 0.265049
0.487984 0.113985 0.256626
0.547265 0.114931 0.249485
0.608026 0.116884 0.244755
0.668757 0.118349 0.241550
0.724666 0.120974 0.238071
0.777279 0.124575 0.235172
0.829740 0.126894 0.232395
0.885252 0.130617 0.231571
0.940398 0.133516 0.230808
0.994110 0.135470 0.229526
0.008972 0.214450 0.308110
0.121248 0.208103 0.297704
0.202426 0.202457 0.287694
0.280430 0.197360 0.280308
0.352239 0.193118 0.271824
0.420203 0.189212 0.264286
0.484077 0.185000 0.256718
0.545922 0.181460 0.250828
0.607813 0.178988 0.246189
0.667781 0.177005 0.241672
0.721798 0.175692 0.237858
0.773220 0.175051 0.234134
0.826200 0.175265 0.231785
0.881651 0.176028 0.231144
0.937102 0.177127 0.230320
0.991272 0.177249 0.229038
0.037690 0.286625 0.286656
0.121798 0.281315 0.281407
0.196628 0.275456 0.275364
0.270115 0.270115 0.270115
0.340856 0.264500 0.264530
0.408911 0.258488 0.258457
0.474434 0.253025 0.252873
0.538964 0.248905 0.248478
0.600336 0.243870 0.244022
0.659937 0.240116 0.239872
0.714534 0.236667 0.236362
0.767208 0.233646 0.233097
0.822873 0.232486 0.231968
0.877165 0.230594 0.230655
0.929808 0.228580 0.228244
0.982788 0.226322 0.225711
0.061036 0.339147 0.262364
0.121889 0.337377 0.261295
0.187655 0.334142 0.259251
0.256474 0.330022 0.256382
0.324834 0.325017 0.252567
0.392645 0.320043 0.248814
0.458564 0.314794 0.245243
0.523522 0.310552 0.241978
0.585992 0.305882 0.238560
0.647456 0.301976 0.236179
0.704402 0.298009 0.234348
0.762417 0.295659 0.233677
0.819669 0.293553 0.233097
0.876768 0.292058 0.232639
0.932403 0.289982 0.232029
0.984985 0.286595 0.229557
0.074128 0.399786 0.254093
0.125643 0.399207 0.253849
0.184543 0.397162 0.252445
0.250553 0.393713 0.250675
0.317510 0.389410 0.247593
0.384710 0.384649 0.244968
0.450416 0.379614 0.242191
0.515190 0.375250 0.239994
0.578119 0.370397 0.237400
0.639399 0.366033 0.235294
0.697597 0.361425 0.234226
0.755459 0.357824 0.233341
0.812039 0.354223 0.232395
0.868711 0.351202 0.231662
0.924498 0.348119 0.230991
0.979614 0.345098 0.229557
0.083467 0.459144 0.248173
0.128298 0.459998 0.248722
0.183139 0.458747 0.248264
0.247044 0.456245 0.247013
0.312444 0.452674 0.245274
0.378698 0.448737 0.243351
0.443854 0.443977 0.241337
0.507561 0.438819 0.238651
0.569543 0.433265 0.236606
0.630274 0.428107 0.234745
0.688045 0.422492 0.233707
0.745724 0.417914 0.232670
0.802426 0.413458 0.231327
0.859312 0.409766 0.230472
0.915648 0.406256 0.229435
0.972412 0.403357 0.228367
0.090547 0.514183 0.242161
