luts/Kodak_Ektar_100.cube
# Generated for krafta web app
# https://www.facebook.com/krafta.visio
# Preset: KDK - Ektar 100
# Color profile : sRGB Color Space Profile
LUT_3D_SIZE 6
DOMAIN_MIN 0.0 0.0 0.0
DOMAIN_MAX 1.0 1.0 1.0
0.000000 0.000000 0.000000
0.246433 0.000244 0.000275
0.447822 0.000244 0.000275
0.641749 0.000366 0.000336
0.824430 0.002258 0.001953
1.000000 0.002380 0.000580
0.000000 0.234470 0.000000
0.228122 0.228367 0.000000
0.435523 0.219455 0.000000
0.632380 0.212619 0.000000
0.815732 0.205356 0.002350
0.996674 0.198978 0.000000
0.001343 0.426001 0.001648
0.214511 0.425147 0.001953
0.419776 0.419959 0.002228
0.617365 0.412299 0.002045
0.805295 0.403143 0.002075
0.989136 0.394476 0.000000
0.001160 0.604211 0.002228
0.201389 0.603113 0.001556
0.400702 0.601099 0.000641
0.596979 0.597192 0.000000
0.788479 0.590875 0.000000
0.975952 0.583154 0.000000
0.000000 0.773495 0.000000
0.179538 0.774594 0.000000
0.382635 0.776089 0.000000
0.580194 0.776577 0.000000
0.776242 0.776425 0.000000
0.963500 0.768063 0.000000
0.000000 0.962524 0.000000
0.082429 0.959197 0.000000
0.349493 0.960204 0.000000
0.560784 0.962554 0.000000
0.766171 0.966735 0.000000
0.973877 0.974029 0.000000
0.000214 0.000000 0.252903
0.237980 0.000122 0.238560
0.439734 0.001282 0.222477
0.632959 0.007111 0.214267
0.817136 0.010224 0.207248
0.998810 0.000153 0.199283
0.000000 0.231449 0.231388
0.226047 0.226047 0.226047
0.431464 0.219211 0.219150
0.627955 0.212161 0.212039
0.812528 0.205783 0.205447
0.993530 0.196628 0.196231
0.006226 0.423102 0.214267
0.213077 0.421576 0.213230
0.416022 0.416083 0.209873
0.612329 0.408820 0.205447
0.800626 0.400488 0.200259
0.986511 0.392004 0.190890
0.001068 0.602716 0.201541
0.200595 0.601831 0.201053
0.399359 0.599329 0.199527
0.594934 0.595056 0.196963
0.786435 0.589044 0.190921
0.975891 0.581964 0.176547
0.000000 0.774899 0.174746
0.174228 0.775051 0.174716
0.380743 0.776272 0.174746
0.579309 0.776455 0.173190
0.776120 0.776242 0.169802
0.964569 0.768063 0.139528
0.000000 0.963622 0.052583
0.023590 0.960632 0.027039
0.341161 0.961547 0.016480
0.557366 0.963592 0.000000
0.764889 0.967254 0.000000
0.974304 0.974456 0.000000
0.000275 0.000000 0.452033
0.223239 0.000000 0.442481
0.428504 0.002502 0.428443
0.624567 0.005371 0.417334
0.810391 0.010132 0.406348
0.994568 0.000305 0.396155
0.009674 0.223026 0.437812
0.219150 0.219333 0.431647
0.423468 0.214328 0.423468
0.619165 0.208591 0.413642
0.805783 0.203769 0.403784
0.990387 0.188083 0.392035
0.004791 0.416602 0.416602
0.209567 0.415381 0.415381
0.410651 0.410651 0.410651
0.605768 0.404303 0.404211
0.795712 0.396765 0.396643
0.985016 0.386053 0.385870
0.000000 0.598810 0.399145
0.198215 0.598016 0.398413
0.396246 0.595789 0.396429
0.591730 0.591821 0.392920
0.784451 0.586023 0.385931
0.976532 0.577752 0.373083
0.000000 0.774960 0.372381
0.149020 0.775387 0.372625
0.372930 0.776394 0.373144
0.576074 0.776242 0.371832
0.775601 0.775723 0.369512
0.966888 0.766476 0.347784
0.000000 0.965972 0.316869
0.000000 0.963287 0.309972
0.307378 0.963806 0.307713
0.544488 0.965942 0.305882
0.760739 0.969177 0.301671
0.976074 0.976226 0.298222
0.003204 0.001312 0.634272
0.212497 0.003571 0.629999
0.415473 0.006744 0.621607
0.611200 0.005951 0.611139
0.801236 0.002014 0.600916
0.988067 0.000275 0.590997
0.016022 0.214267 0.628351
0.212253 0.212039 0.623743
0.412390 0.209110 0.616846
0.607660 0.204471 0.607630
0.797696 0.198672 0.598077
0.984894 0.178927 0.587396
0.010773 0.407416 0.609552
0.206027 0.406470 0.608331
0.403296 0.403235 0.603845
0.597894 0.398230 0.597864
0.789670 0.390356 0.590539
0.983185 0.375006 0.581231
0.000000 0.592981 0.592920
0.191379 0.592401 0.592309
0.389807 0.590631 0.590600
0.586511 0.586572 0.586542
0.782376 0.580652 0.580560
0.978820 0.569604 0.569482
0.000000 0.774655 0.572747
0.115389 0.775082 0.572717
0.360418 0.775753 0.572076
0.570459 0.775601 0.570581
0.773495 0.773648 0.567529
0.970336 0.763577 0.549615
0.000000 0.968811 0.534417
0.000000 0.966827 0.527703
0.253269 0.967529 0.526909
0.526360 0.969299 0.526543
0.754849 0.971862 0.524468
0.979004 0.979126 0.526665
0.005615 0.004273 0.808774
0.203403 0.004303 0.807004
0.401526 0.002258 0.802487
0.597375 0.000000 0.796872
0.789639 0.000000 0.789883
0.980163 0.000000 0.783169
0.010315 0.203891 0.806119
0.202731 0.202640 0.803830
0.400305 0.200168 0.800320
0.595727 0.195712 0.794858
0.787869 0.186648 0.787808
0.977874 0.163210 0.779812
0.000000 0.396002 0.795621
0.192660 0.395117 0.794766
0.392370 0.392340 0.792111
0.588403 0.387182 0.787778
0.782834 0.379736 0.782773
0.977539 0.363561 0.776883
0.000000 0.584649 0.784665
0.160708 0.583917 0.784482
0.374945 0.581537 0.783413
0.577844 0.577905 0.781247
0.777249 0.572595 0.777249
0.976837 0.561059 0.771542
0.000000 0.772915 0.772915
0.075410 0.773098 0.773068
0.350896 0.773587 0.773556
0.564050 0.773037 0.773007
0.768643 0.768765 0.768673
0.974853 0.759640 0.759548
0.000000 0.970733 0.757076
0.000000 0.969238 0.753964
0.226413 0.970825 0.752834
0.507012 0.973114 0.749508
0.746365 0.976043 0.746456
0.983856 0.983948 0.752193
0.001465 0.000000 0.988251
0.187503 0.000000 0.987701
0.388251 0.000000 0.986114
0.585138 0.000000 0.983825
0.780789 0.000000 0.981323
0.976440 0.000000 0.978851
0.000000 0.184024 0.987701
0.182803 0.182223 0.987060
0.386389 0.176944 0.985229
0.583703 0.165103 0.982147
0.778897 0.141176 0.978180
0.974517 0.091279 0.974456
0.000000 0.376593 0.985382
0.146609 0.375738 0.985199
0.372168 0.372076 0.983917
0.576043 0.364538 0.981659
0.775448 0.350866 0.978393
0.976043 0.332341 0.975952
0.000000 0.569574 0.982757
0.000000 0.568444 0.982849
0.337285 0.564874 0.983062
0.559686 0.559716 0.981445
0.769375 0.551812 0.979126
0.977478 0.543023 0.977447
0.000000 0.770047 0.979980
0.000000 0.769528 0.980133
0.292363 0.768246 0.980682
0.537652 0.765530 0.981567
0.760922 0.761013 0.981903
0.981628 0.757259 0.981628
0.000000 0.982605 0.982574
0.000000 0.982177 0.982147
0.188418 0.982818 0.982788
0.501854 0.984161 0.984131
0.746853 0.987274 0.987213
0.995605 0.995605 0.995605
