luts/Kodak_Echrome_64.cube
# Generated for krafta web app
# https://www.facebook.com/krafta.visio
# Preset: KDK - Echrome 64
# Color profile : sRGB Color Space Profile
LUT_3D_SIZE 6
DOMAIN_MIN 0.0 0.0 0.0
DOMAIN_MAX 1.0 1.0 1.0
0.000000 0.000000 0.000000
0.298100 0.000000 0.000031
0.493782 0.000183 0.000366
0.682979 0.000275 0.000244
0.854398 0.006439 0.005493
1.000000 0.010986 0.009430
0.000000 0.270024 0.000000
0.256443 0.256474 0.000000
0.470497 0.238621 0.000000
0.667170 0.226169 0.000000
0.839384 0.213413 0.007202
1.000000 0.204471 0.006012
0.005097 0.455665 0.005493
0.231815 0.455055 0.005432
0.446113 0.446174 0.006104
0.645258 0.431983 0.006561
0.826902 0.415534 0.013001
1.000000 0.401068 0.001404
0.009857 0.621393 0.011505
0.209751 0.619898 0.010773
0.412879 0.617792 0.010468
0.612909 0.613031 0.008667
0.802396 0.602014 0.002258
0.984100 0.588861 0.000000
0.000000 0.778866 0.000000
0.183993 0.780545 0.000000
0.387457 0.782956 0.000000
0.586542 0.784237 0.000000
0.784665 0.784756 0.000000
0.968200 0.772152 0.000000
0.000000 0.963073 0.000000
0.079377 0.958404 0.000000
0.348821 0.959564 0.000000
0.560540 0.962249 0.000000
0.766110 0.966644 0.000000
0.973114 0.973297 0.000000
0.000702 0.000000 0.314000
0.278080 0.000000 0.279332
0.478889 0.004578 0.244907
0.668177 0.014893 0.229252
0.842191 0.026917 0.218265
1.000000 0.020844 0.208042
0.000580 0.265415 0.265354
0.253391 0.253391 0.253391
0.464851 0.239353 0.239353
0.661128 0.226688 0.226474
0.835569 0.216251 0.216068
1.000000 0.203403 0.203128
0.015717 0.451209 0.231327
0.229679 0.448676 0.229740
0.438666 0.438727 0.223758
0.635920 0.425727 0.216434
0.818143 0.411170 0.209293
0.996490 0.398047 0.197604
0.015229 0.619867 0.211215
0.210361 0.618524 0.210666
0.411383 0.615290 0.208988
0.609430 0.609491 0.205905
0.798611 0.598993 0.199008
0.983886 0.587915 0.184176
0.000000 0.780941 0.180667
0.180362 0.781338 0.180789
0.386297 0.783352 0.182071
0.586053 0.784237 0.181765
0.784573 0.784756 0.180423
0.969421 0.772366 0.147799
0.000000 0.964477 0.057954
0.020264 0.960235 0.024109
0.340948 0.961273 0.015259
0.557366 0.963531 0.000000
0.764828 0.967193 0.000000
0.973541 0.973724 0.000000
0.000641 0.000000 0.507713
0.247684 0.000000 0.486854
0.458473 0.006989 0.458473
0.655085 0.012268 0.438972
0.832731 0.034089 0.420111
1.000000 0.028168 0.406378
0.023529 0.248844 0.480537
0.240726 0.240635 0.466957
0.451240 0.231418 0.451301
0.647028 0.221103 0.433448
0.825803 0.216831 0.417090
1.000000 0.200656 0.400275
0.013214 0.440436 0.440467
0.223850 0.438636 0.438636
0.430182 0.430182 0.430182
0.625910 0.419562 0.419532
0.810513 0.408392 0.408301
0.993927 0.394354 0.394110
0.024659 0.614893 0.411933
0.211337 0.613855 0.411475
0.409186 0.610834 0.409339
0.605310 0.605371 0.404730
0.795346 0.595880 0.395758
0.983856 0.584527 0.381140
0.000000 0.781308 0.379095
0.162539 0.782040 0.379767
0.381048 0.783780 0.381231
0.583886 0.784207 0.380957
0.784726 0.784817 0.380529
0.971466 0.770993 0.354437
0.000000 0.967193 0.319463
0.000000 0.963378 0.310124
0.307591 0.963928 0.307927
0.545037 0.966339 0.306828
0.760952 0.969390 0.302251
0.975463 0.975616 0.296056
0.007080 0.005402 0.670893
0.226841 0.009857 0.663081
0.435096 0.018341 0.648951
0.632197 0.019806 0.632166
0.820188 0.024567 0.616175
1.000000 0.002625 0.600366
0.045197 0.233219 0.663661
0.228916 0.228794 0.654536
0.431678 0.223484 0.642664
0.627680 0.216373 0.627649
0.814786 0.210758 0.612146
0.993805 0.191440 0.594751
0.043122 0.424598 0.631556
0.222110 0.423835 0.629877
0.418982 0.418952 0.622461
0.613367 0.411688 0.613336
0.801602 0.401709 0.601495
0.990845 0.386145 0.589563
0.017639 0.606836 0.606775
0.206729 0.606134 0.606134
0.404456 0.604181 0.604150
0.598322 0.598383 0.598322
0.791684 0.590845 0.590753
0.985046 0.578332 0.578210
0.000000 0.781735 0.580255
0.143160 0.782345 0.580560
0.372778 0.783474 0.580804
0.580316 0.783810 0.580377
0.782223 0.782345 0.578088
0.974517 0.768582 0.556390
0.000000 0.970397 0.537530
0.000000 0.967498 0.529076
0.256931 0.968292 0.528435
0.528344 0.970245 0.528527
0.755550 0.972351 0.525597
0.978576 0.978698 0.525322
0.017639 0.016266 0.828428
0.212039 0.017975 0.825589
0.411597 0.019165 0.818479
0.608881 0.017243 0.810788
0.801419 0.003204 0.801328
0.990265 0.000000 0.791684
0.044770 0.217288 0.826047
0.215061 0.215091 0.821805
0.411658 0.212467 0.816464
0.607233 0.207645 0.808469
0.798276 0.198154 0.798245
0.985718 0.176089 0.786862
0.044465 0.408637 0.809232
0.211887 0.407660 0.807980
0.403998 0.403937 0.803952
0.597681 0.397467 0.797574
0.791196 0.389502 0.791196
0.984405 0.374182 0.783780
0.000000 0.593988 0.794064
0.185031 0.593652 0.793973
0.388342 0.591363 0.792294
0.587671 0.587701 0.789548
0.785367 0.582238 0.785336
0.982544 0.570397 0.778378
0.000000 0.780453 0.780453
0.120577 0.780819 0.780789
0.366094 0.781765 0.781735
0.575891 0.782071 0.782040
0.776669 0.776730 0.776669
0.978851 0.765835 0.765743
0.000000 0.972961 0.760128
0.000000 0.970703 0.756008
0.237369 0.972381 0.755184
0.511711 0.974578 0.752041
0.748165 0.976928 0.748257
0.983459 0.983581 0.751247
0.001526 0.000000 0.995270
0.194247 0.000000 0.994476
0.393347 0.000000 0.992218
0.590265 0.000000 0.989471
0.786404 0.000000 0.986908
0.982513 0.000000 0.984314
0.000000 0.192905 0.994781
0.191684 0.191196 0.993683
0.391424 0.185367 0.990784
0.588159 0.174533 0.987121
0.782986 0.152621 0.982422
0.978149 0.109224 0.978058
0.000000 0.384771 0.990784
0.166629 0.384253 0.990631
0.380743 0.380652 0.989075
0.581994 0.373236 0.986450
0.779965 0.359594 0.982544
0.979767 0.342138 0.979706
0.000000 0.577569 0.987549
0.081086 0.576776 0.987579
0.354009 0.573938 0.987640
0.568597 0.568597 0.985748
0.774807 0.560266 0.983001
0.981048 0.551415 0.981018
0.000000 0.775692 0.983978
0.000000 0.775265 0.984100
0.315099 0.774472 0.984710
0.550317 0.772580 0.985595
0.768582 0.768643 0.985718
0.984894 0.764248 0.984863
0.000000 0.983703 0.983673
0.000000 0.983001 0.982971
0.199374 0.983520 0.983490
0.504479 0.984649 0.984588
0.747524 0.987427 0.987396
0.995026 0.995026 0.995026
