luts/Kodak_Gold_200.cube
# Generated for krafta web app
# https://www.facebook.com/krafta.visio
# Preset: KDK - Gold 200
# Color profile : sRGB Color Space Profile
LUT_3D_SIZE 6
DOMAIN_MIN 0.0 0.0 0.0
DOMAIN_MAX 1.0 1.0 1.0
0.000000 0.000000 0.000000
0.332494 0.002869 0.003693
0.512383 0.007599 0.007263
0.688106 0.026978 0.026673
0.847410 0.063386 0.062715
1.000000 0.093446 0.091798
0.000000 0.292729 0.000000
0.273838 0.273991 0.005493
0.481880 0.249546 0.024292
0.667933 0.235691 0.047395
0.827634 0.225895 0.071931
0.990723 0.225498 0.095460
0.066651 0.465126 0.067231
0.248295 0.465126 0.070802
0.454414 0.454536 0.076478
0.643397 0.436255 0.085359
0.814817 0.418952 0.100710
0.979980 0.406958 0.113466
0.102266 0.614160 0.102510
0.232395 0.612573 0.103548
0.416938 0.611048 0.108186
0.606806 0.606744 0.116243
0.786007 0.595300 0.123934
0.955810 0.581720 0.126467
0.102785 0.748013 0.102571
0.219730 0.751888 0.108583
0.393103 0.758419 0.119173
0.578790 0.763577 0.131746
0.768093 0.768215 0.147982
0.930846 0.747799 0.126864
0.043091 0.919921 0.042908
0.175631 0.909636 0.000000
0.362371 0.912169 0.004242
0.550622 0.917815 0.034607
0.741909 0.926299 0.078065
0.937438 0.937621 0.120027
0.000153 0.000000 0.354742
0.301976 0.000000 0.302739
0.491279 0.037232 0.256535
0.667567 0.068330 0.240177
0.830625 0.090211 0.232120
0.995270 0.105470 0.229618
0.037690 0.286625 0.286656
0.270115 0.270115 0.270115
0.474434 0.253025 0.252873
0.659937 0.240116 0.239872
0.822873 0.232486 0.231968
0.982788 0.226322 0.225711
0.083467 0.459144 0.248173
0.247044 0.456245 0.247013
0.443854 0.443977 0.241337
0.630274 0.428107 0.234745
0.802426 0.413458 0.231327
0.972412 0.403357 0.228367
0.109194 0.612360 0.234714
0.234470 0.610986 0.234714
0.415106 0.607691 0.235050
0.601770 0.601953 0.235355
0.780697 0.591180 0.233951
0.955444 0.580804 0.229252
0.098634 0.752682 0.215854
0.217380 0.754025 0.217319
0.392798 0.759579 0.224094
0.578576 0.763882 0.231907
0.768246 0.768338 0.241855
0.933013 0.748806 0.220066
0.000000 0.922667 0.172122
0.151339 0.913298 0.151980
0.354528 0.915618 0.156466
0.547662 0.920287 0.165652
0.740749 0.927214 0.179660
0.938109 0.938231 0.201999
0.000855 0.000000 0.530877
0.258122 0.008057 0.501030
0.462959 0.039796 0.462837
0.650324 0.066499 0.439033
0.818967 0.095705 0.419928
0.988006 0.107668 0.408576
0.064790 0.263371 0.495338
0.252567 0.252842 0.476326
0.455909 0.242741 0.455879
0.641321 0.234043 0.433997
0.810758 0.233188 0.417426
0.976684 0.220371 0.400732
0.081849 0.444617 0.444587
0.240360 0.442817 0.442756
0.432715 0.432715 0.432715
0.617304 0.420752 0.420630
0.793027 0.409552 0.409400
0.969177 0.397681 0.397375
0.115877 0.606134 0.414527
0.236393 0.605097 0.414252
0.412665 0.602136 0.412879
0.596521 0.596521 0.409277
0.776608 0.587304 0.401801
0.955566 0.576623 0.389410
0.037873 0.754421 0.379400
0.199283 0.756344 0.381537
0.387152 0.761318 0.387335
0.576837 0.764584 0.392187
0.768460 0.768551 0.398901
0.936065 0.747646 0.368658
0.000000 0.927459 0.329747
0.000000 0.918975 0.314885
0.315679 0.920226 0.315892
0.533410 0.925383 0.322972
0.736965 0.931182 0.330205
0.941802 0.941955 0.343816
0.021912 0.020935 0.672541
0.230289 0.030610 0.662074
0.433478 0.052705 0.643641
0.622766 0.069703 0.622766
0.803311 0.090089 0.605951
0.977539 0.091798 0.591180
0.079896 0.242771 0.665187
0.237095 0.237003 0.652552
0.431037 0.232334 0.637018
0.618250 0.227481 0.618189
0.797024 0.226261 0.601587
0.967926 0.209659 0.583398
0.096071 0.424353 0.624292
0.235142 0.423713 0.622370
0.417975 0.417945 0.613092
0.602228 0.410376 0.602258
0.781949 0.400092 0.589654
0.965667 0.383886 0.578027
0.109560 0.596155 0.596033
0.229709 0.595514 0.595605
0.405493 0.593774 0.593805
0.587213 0.587396 0.587304
0.772580 0.579797 0.579706
0.958923 0.565454 0.565332
0.000000 0.757290 0.566064
0.177646 0.758846 0.567102
0.374670 0.762234 0.569238
0.571466 0.765164 0.571618
0.765072 0.765164 0.572259
0.942016 0.744411 0.541772
0.000000 0.933776 0.515343
0.000000 0.927184 0.499763
0.229923 0.928923 0.501152
0.506126 0.933135 0.506249
0.728573 0.936889 0.508171
0.947967 0.948089 0.518608
0.036286 0.035950 0.817136
0.213443 0.040620 0.813260
0.406409 0.050416 0.803861
0.597742 0.062715 0.794278
0.782620 0.070710 0.782620
0.965026 0.062562 0.772946
0.070558 0.221378 0.815061
0.218723 0.218814 0.809140
0.407660 0.217655 0.802090
0.596307 0.215457 0.791836
0.778836 0.210422 0.778897
0.956359 0.191501 0.764675
0.073091 0.403479 0.793240
0.215030 0.402350 0.791653
0.398230 0.398291 0.786435
0.584405 0.391669 0.778225
0.770321 0.384375 0.770321
0.956176 0.367468 0.761898
0.029114 0.581781 0.774929
0.195712 0.581262 0.774990
0.381445 0.577752 0.772915
0.573022 0.573114 0.769802
0.764584 0.567498 0.764553
0.956054 0.552544 0.756374
0.000000 0.758236 0.758267
0.155764 0.759213 0.759243
0.367132 0.761959 0.761959
0.564721 0.763516 0.763516
0.755978 0.756069 0.755978
0.951812 0.738705 0.738582
0.000000 0.939025 0.732387
0.000000 0.933898 0.724239
0.183993 0.937438 0.723323
0.469764 0.941955 0.718105
0.712673 0.946227 0.712734
0.958068 0.958190 0.721584
0.005219 0.003540 0.978241
0.195224 0.002502 0.977081
0.388434 0.000000 0.973846
0.580377 0.000000 0.969818
0.771298 0.000000 0.966003
0.961364 0.000000 0.962280
0.000000 0.190280 0.977813
0.188937 0.188907 0.976165
0.384192 0.183444 0.971862
0.575036 0.172702 0.965179
0.762051 0.149569 0.956481
0.948363 0.104829 0.948333
0.000000 0.371801 0.972503
0.147189 0.371496 0.972351
0.367193 0.367254 0.969635
0.566033 0.358190 0.964813
0.758267 0.341070 0.957366
0.952117 0.321416 0.952117
0.000000 0.560021 0.967987
0.000000 0.557885 0.968078
0.319677 0.551049 0.968170
0.543664 0.543725 0.964660
0.750637 0.532433 0.959319
0.955505 0.522210 0.955474
0.000000 0.756466 0.962219
0.000000 0.755673 0.962463
0.280278 0.753964 0.963836
0.519463 0.749660 0.965789
0.741695 0.741756 0.966064
0.964050 0.735897 0.964019
0.000000 0.958801 0.958770
0.000000 0.956878 0.956817
0.053773 0.957763 0.957763
0.448402 0.959869 0.959838
0.703944 0.965789 0.965759
0.984100 0.984100 0.984100
