luts/Kodak_Kodachrome_64.cube
# Generated for krafta web app
# https://www.facebook.com/krafta.visio
# Preset: KDK - Kodachrome 64
# Color profile : sRGB Color Space Profile
LUT_3D_SIZE 16
DOMAIN_MIN 0.0 0.0 0.0
DOMAIN_MAX 1.0 1.0 1.0
0.000000 0.000000 0.000000
0.078737 0.006653 0.006378
0.191928 0.007935 0.008057
0.265751 0.006928 0.006897
0.319677 0.006195 0.005921
0.374426 0.007050 0.006775
0.423407 0.010010 0.009674
0.481422 0.014557 0.014954
0.534203 0.022492 0.021759
0.584619 0.028382 0.027863
0.633356 0.035462 0.034668
0.681849 0.044221 0.043671
0.729427 0.054597 0.053468
0.783230 0.065461 0.064302
0.840604 0.076631 0.075410
0.892088 0.084688 0.083589
0.006470 0.087617 0.006836
0.086610 0.081239 0.006867
0.168734 0.082612 0.005676
0.242252 0.077607 0.004944
0.301061 0.070222 0.005005
0.356481 0.064607 0.007050
0.415229 0.062837 0.011688
0.474159 0.063722 0.017884
0.526177 0.065400 0.024048
0.578851 0.068360 0.029084
0.628199 0.072419 0.036072
0.676722 0.077760 0.045106
0.723995 0.082704 0.054292
0.778561 0.089754 0.064820
0.836637 0.097993 0.075593
0.891875 0.104982 0.084810
0.000000 0.152285 0.001099
0.077638 0.144015 0.002167
0.145937 0.136324 0.003449
0.214267 0.131991 0.004761
0.278264 0.126436 0.006714
0.342626 0.123232 0.010895
0.403540 0.120272 0.016144
0.461189 0.118044 0.020661
0.515648 0.116274 0.025238
0.571557 0.116670 0.031098
0.621027 0.117006 0.038544
0.669581 0.118318 0.047395
0.716670 0.119783 0.055970
0.773251 0.124147 0.066072
0.832425 0.129915 0.076326
0.891386 0.135836 0.086519
0.002991 0.197787 0.006287
0.069276 0.192447 0.007263
0.133516 0.188327 0.008240
0.197482 0.184115 0.009461
0.259709 0.179812 0.011444
0.321355 0.176364 0.014374
0.380133 0.172549 0.018250
0.440070 0.170047 0.022583
0.499977 0.168734 0.027527
0.556634 0.167391 0.034058
0.606195 0.165225 0.041901
0.654841 0.163485 0.049928
0.704921 0.163210 0.057465
0.759548 0.164858 0.065858
0.815335 0.166995 0.074098
0.875700 0.170932 0.083375
0.015808 0.237278 0.011597
0.069062 0.237064 0.011933
0.128481 0.239231 0.012757
0.190829 0.238346 0.013581
0.252262 0.235752 0.014893
0.314153 0.232944 0.018128
0.374945 0.230014 0.022431
0.437140 0.228305 0.028229
0.497993 0.226444 0.035126
0.555749 0.224369 0.042390
0.607172 0.220768 0.049897
0.659297 0.218448 0.057710
0.713619 0.217624 0.065949
0.771756 0.218814 0.074800
0.829557 0.219913 0.083528
0.881376 0.218814 0.088838
0.030243 0.283146 0.020752
0.075349 0.285618 0.021729
0.127871 0.287572 0.022583
0.184695 0.287053 0.023682
0.241733 0.284398 0.024262
0.300298 0.281346 0.025666
0.361120 0.279728 0.028931
0.424781 0.280003 0.035065
0.485939 0.278721 0.041108
0.543267 0.276280 0.047425
0.594903 0.271824 0.054566
0.649317 0.269200 0.062196
0.704524 0.267308 0.069520
0.763119 0.267308 0.077394
0.821836 0.267552 0.085145
0.877165 0.266423 0.090700
0.042451 0.332372 0.030976
0.080690 0.335210 0.032166
0.127962 0.336400 0.032715
0.180636 0.335546 0.033204
0.236240 0.334691 0.034485
0.294133 0.333684 0.035645
0.353918 0.332464 0.037385
0.414343 0.331060 0.040345
0.472358 0.328283 0.045258
0.528283 0.325292 0.051545
0.582391 0.321813 0.058412
0.638575 0.319554 0.065370
0.694850 0.317357 0.071931
0.753872 0.316960 0.079164
0.813443 0.316625 0.086244
0.872435 0.315892 0.092134
0.047639 0.381903 0.039765
0.083131 0.386816 0.041199
0.128084 0.389715 0.042206
0.179629 0.389960 0.042939
0.233341 0.387793 0.042969
0.288060 0.384436 0.043366
0.342870 0.379706 0.043885
0.398566 0.375891 0.044739
0.454566 0.372717 0.046509
0.511528 0.371344 0.053010
0.567620 0.369329 0.059724
0.625238 0.367895 0.066194
0.682429 0.365850 0.072053
0.741054 0.364813 0.078187
0.799924 0.364019 0.084047
0.865171 0.366369 0.092195
0.046357 0.414038 0.042298
0.077943 0.414710 0.042420
0.119020 0.417395 0.043671
0.167269 0.418799 0.044587
0.219120 0.419745 0.045716
0.272221 0.419501 0.046601
0.328191 0.420478 0.048585
0.385443 0.420905 0.050721
0.444129 0.421576 0.052369
0.502220 0.421851 0.055146
0.562310 0.422980 0.062684
0.622614 0.423438 0.070192
0.682521 0.422766 0.076600
0.742336 0.422126 0.082918
0.802548 0.421698 0.088746
0.861112 0.419867 0.092836
0.045136 0.465797 0.050050
0.076173 0.464576 0.049805
0.116426 0.464790 0.050141
0.163149 0.464851 0.050233
0.212955 0.465034 0.051148
0.264927 0.464912 0.051698
0.318303 0.465339 0.052979
0.374304 0.466407 0.055360
0.432197 0.467964 0.057252
0.489845 0.468696 0.059388
0.548913 0.469673 0.061128
0.607996 0.470069 0.067811
0.667720 0.470069 0.073396
0.730587 0.471504 0.079866
0.793057 0.472755 0.086275
0.855070 0.472908 0.090883
0.032593 0.517693 0.054994
0.066651 0.516899 0.054719
0.109071 0.516320 0.054688
0.156435 0.516045 0.054963
0.206943 0.516014 0.055421
0.258549 0.515435 0.056001
0.311254 0.515038 0.056703
0.364294 0.513970 0.057130
0.420722 0.515160 0.059358
0.477577 0.515862 0.060731
0.536126 0.517174 0.062287
0.594903 0.517510 0.063508
0.656184 0.519524 0.068940
0.719844 0.522362 0.075227
0.784360 0.524712 0.081270
0.846738 0.525048 0.084962
0.006928 0.570672 0.057069
0.045686 0.569818 0.056306
0.095155 0.569268 0.056336
0.146517 0.568597 0.056214
0.198398 0.567651 0.055970
0.250706 0.566552 0.056062
0.303990 0.565576 0.056367
0.356970 0.564050 0.056397
0.411414 0.563348 0.057069
0.467597 0.563958 0.058137
0.525322 0.565454 0.059419
0.585077 0.567285 0.061585
0.646784 0.570062 0.062959
0.710903 0.573754 0.068147
0.776333 0.577508 0.073396
0.843565 0.581445 0.078798
0.000000 0.609064 0.040406
0.000000 0.609491 0.041016
0.063325 0.611475 0.042664
0.126558 0.613336 0.044007
0.184360 0.616022 0.046479
0.240696 0.618128 0.048463
0.297368 0.620691 0.051667
0.353674 0.622248 0.054566
0.411475 0.624842 0.058412
0.469856 0.626825 0.061555
0.530724 0.631373 0.066194
0.593256 0.635431 0.070985
0.659510 0.641657 0.076661
0.724544 0.645258 0.079164
0.785794 0.644953 0.079774
0.841855 0.639307 0.071168
0.000000 0.686732 0.046540
0.000000 0.678523 0.035767
0.001587 0.675227 0.031312
0.097627 0.674800 0.031312
0.166049 0.676692 0.033783
0.228214 0.678279 0.036225
0.288212 0.680293 0.039612
0.346960 0.681941 0.043549
0.406348 0.684352 0.049287
0.465248 0.685451 0.051850
0.525139 0.687434 0.055970
0.586114 0.689693 0.059327
0.649378 0.693538 0.062959
0.713893 0.696559 0.063478
0.776486 0.697810 0.061036
0.836179 0.695552 0.049256
0.000000 0.750637 0.026642
0.000000 0.743343 0.013245
0.000000 0.739376 0.006073
0.041169 0.738155 0.003784
0.140230 0.738918 0.005005
0.211856 0.739956 0.007324
0.276646 0.741970 0.010651
0.337621 0.743404 0.013977
0.398749 0.745022 0.018067
0.459571 0.745418 0.020294
0.520073 0.746609 0.023774
0.580163 0.747616 0.026642
0.642969 0.751125 0.032258
0.707301 0.754147 0.034363
0.773861 0.757534 0.032502
0.835813 0.757137 0.016175
0.000000 0.817685 0.000000
0.000000 0.811154 0.000000
0.000000 0.807675 0.000000
0.000000 0.806546 0.000000
0.087037 0.806912 0.000000
0.183139 0.807828 0.000000
0.258366 0.809476 0.000000
0.326268 0.811002 0.000000
0.391089 0.813474 0.000000
0.455207 0.815854 0.000000
0.519799 0.818662 0.000000
0.583673 0.820829 0.000000
0.649073 0.824002 0.000000
0.714748 0.827756 0.000000
0.783383 0.833768 0.001465
0.848356 0.839628 0.006348
0.007202 0.007446 0.070893
0.101839 0.002380 0.094270
0.191806 0.000122 0.090974
0.257328 0.000000 0.078065
0.303410 0.013428 0.072755
0.355016 0.021180 0.069978
0.409277 0.026581 0.069551
0.466163 0.031098 0.071046
0.519249 0.035370 0.072602
0.572961 0.041352 0.075319
0.623377 0.049073 0.079286
0.671717 0.057496 0.083558
0.718990 0.064729 0.087800
0.772946 0.073091 0.093782
0.829679 0.082124 0.100618
0.883330 0.089235 0.106203
0.000000 0.089723 0.085725
0.088594 0.083101 0.079988
0.166964 0.077882 0.075196
0.233585 0.075105 0.072847
0.290806 0.072297 0.070436
0.346441 0.071015 0.069276
0.405371 0.072023 0.070314
0.462531 0.073762 0.072023
0.516472 0.075196 0.073365
0.572625 0.078279 0.076631
0.622522 0.082033 0.080629
0.670588 0.086091 0.084321
0.716732 0.089662 0.088014
0.770260 0.095308 0.094026
0.826322 0.101778 0.100465
0.882322 0.107759 0.106447
0.000000 0.154360 0.073610
0.081758 0.146822 0.070771
0.149142 0.139590 0.067506
0.215122 0.134432 0.067475
0.278111 0.130587 0.068513
0.340032 0.128176 0.070130
0.399145 0.125551 0.071717
0.456641 0.124025 0.073182
0.514702 0.123384 0.075410
0.569757 0.123476 0.078737
0.617792 0.122988 0.081453
0.664485 0.123201 0.085206
0.711299 0.124056 0.088655
0.766110 0.127901 0.094514
0.822995 0.132143 0.100740
0.880095 0.136446 0.106813
0.021393 0.201968 0.069856
0.080293 0.196719 0.067750
0.139101 0.191501 0.066316
0.200198 0.186954 0.065126
0.261723 0.183047 0.066041
0.323369 0.180331 0.068147
0.382452 0.177310 0.070497
0.443366 0.175723 0.073243
0.502892 0.174136 0.076143
0.557824 0.172183 0.078889
0.606714 0.169619 0.082033
0.654658 0.167880 0.085664
0.706996 0.167971 0.090059
0.761227 0.169253 0.095247
0.814908 0.170260 0.100038
0.870665 0.172244 0.104677
0.032746 0.236118 0.064820
0.078065 0.234958 0.064881
0.129335 0.233005 0.064637
0.185519 0.229984 0.063905
0.241672 0.225772 0.063386
0.300633 0.223697 0.064851
0.360967 0.222660 0.068055
0.422583 0.222354 0.071473
0.482643 0.221103 0.074586
0.541039 0.219791 0.078248
0.593317 0.217288 0.082124
0.646387 0.215885 0.086915
0.702754 0.216037 0.092317
0.761013 0.217350 0.098390
0.819272 0.218540 0.104341
0.874449 0.218296 0.108186
0.043214 0.280919 0.066621
0.081605 0.281071 0.066773
0.128267 0.279973 0.066712
0.180819 0.278508 0.066926
0.235660 0.276310 0.066590
0.291722 0.273564 0.066773
0.349828 0.271366 0.068208
0.411200 0.271611 0.072267
0.471351 0.271000 0.075654
0.529076 0.269657 0.078981
0.582788 0.266972 0.083619
0.638270 0.265446 0.088319
0.694179 0.264439 0.093111
0.752285 0.264439 0.098390
0.811002 0.264591 0.103822
0.869566 0.264652 0.108461
0.052155 0.331792 0.070710
0.086580 0.333165 0.071565
0.130007 0.332219 0.071290
0.179843 0.330205 0.070924
0.232792 0.328283 0.070802
0.288029 0.326207 0.070985
0.344121 0.323369 0.071168
0.401831 0.321294 0.072908
0.460822 0.320470 0.075959
0.517723 0.318853 0.079896
0.571344 0.315953 0.083803
0.626642 0.313817 0.088411
0.683375 0.312230 0.092683
0.741939 0.311955 0.097749
0.801419 0.311894 0.102693
0.863157 0.312627 0.108064
0.053468 0.378698 0.072602
0.086244 0.381140 0.073426
0.127901 0.380926 0.073640
0.176455 0.379614 0.073365
0.227726 0.377050 0.072938
0.281254 0.374640 0.073213
0.335607 0.371679 0.073487
0.390845 0.368505 0.073701
0.446052 0.365850 0.074525
0.502800 0.364874 0.078798
0.558190 0.363226 0.083070
0.615106 0.362127 0.087770
0.672938 0.360937 0.092012
0.731044 0.359899 0.096223
0.789914 0.359472 0.100221
0.854459 0.361578 0.106020
0.052583 0.417762 0.072328
0.081880 0.417700 0.072450
0.121523 0.417731 0.072572
0.168124 0.417334 0.072694
0.218265 0.416785 0.073365
0.270268 0.415900 0.073457
0.325566 0.416785 0.075013
0.381872 0.416876 0.076692
0.439307 0.416876 0.077852
0.496651 0.417121 0.079622
0.555840 0.418372 0.085298
0.615900 0.419013 0.091096
0.675319 0.418738 0.096040
0.736629 0.419074 0.101167
0.798611 0.420142 0.106600
0.859983 0.420233 0.110964
0.050935 0.466102 0.075868
0.079683 0.465309 0.075532
0.118379 0.464729 0.075715
0.164126 0.464240 0.075746
0.213565 0.464088 0.076173
0.264408 0.463416 0.076570
0.316655 0.462501 0.077211
0.371557 0.462776 0.078462
0.428138 0.463508 0.079774
0.484810 0.463783 0.080995
0.542382 0.464118 0.082460
0.601831 0.465126 0.087343
0.662135 0.466194 0.092348
0.726070 0.468696 0.097810
0.790188 0.471260 0.103975
0.854215 0.473091 0.108888
0.037812 0.517784 0.078950
0.070680 0.517754 0.079042
0.111727 0.516991 0.078920
0.158267 0.516045 0.078981
0.207462 0.515129 0.078889
0.258244 0.513664 0.078645
0.309636 0.511864 0.078462
0.361852 0.510124 0.078187
0.417609 0.510979 0.079591
0.473762 0.511406 0.080873
0.531029 0.512108 0.081971
0.589624 0.512535 0.082704
0.651301 0.515496 0.087312
0.715450 0.519127 0.093172
0.780880 0.522271 0.098146
0.844755 0.523827 0.101778
0.010163 0.569421 0.079316
0.049805 0.568902 0.078889
0.097414 0.567895 0.078614
0.147158 0.567010 0.078218
0.198489 0.566064 0.077760
0.250584 0.564996 0.077516
0.303532 0.564111 0.077974
0.356054 0.562341 0.077485
0.409583 0.560906 0.077546
0.465431 0.561151 0.078035
0.522057 0.561883 0.078737
0.580804 0.563317 0.079896
0.641505 0.565332 0.080873
0.704799 0.568841 0.084352
0.769711 0.572473 0.087984
0.837644 0.577050 0.092378
0.000000 0.611963 0.066743
0.000000 0.612238 0.067109
0.064912 0.613581 0.068269
0.127352 0.614801 0.068971
0.184756 0.616693 0.070680
0.241215 0.618280 0.072236
0.297948 0.620905 0.074861
0.354253 0.622461 0.077028
0.411810 0.624628 0.080018
0.469673 0.626246 0.082216
0.530175 0.630365 0.086030
0.592370 0.634363 0.090089
0.658198 0.640681 0.095552
0.723568 0.644495 0.097810
0.785519 0.644831 0.098634
0.842374 0.639887 0.091737
0.000000 0.688472 0.072145
0.000000 0.680812 0.064149
0.005585 0.677607 0.060487
0.099763 0.677028 0.060426
0.168063 0.678431 0.062013
0.229862 0.679561 0.063478
0.289220 0.681056 0.065888
0.347631 0.682429 0.068360
0.406561 0.684230 0.072358
0.465187 0.684993 0.074311
0.524865 0.686793 0.077211
0.585748 0.689052 0.079835
0.649012 0.693141 0.083284
0.713741 0.696529 0.084443
0.776822 0.698177 0.082856
0.836973 0.696376 0.074159
0.000000 0.752102 0.057404
0.000000 0.745174 0.045197
0.000000 0.741573 0.038453
0.045197 0.740414 0.036378
0.142000 0.741024 0.037140
0.213077 0.741848 0.039063
0.277653 0.743465 0.042359
0.338354 0.744472 0.044862
0.399115 0.745418 0.047730
0.459663 0.745480 0.049409
0.520012 0.746487 0.051972
0.580163 0.747555 0.054261
0.642756 0.751003 0.058564
0.707271 0.754086 0.060365
0.774228 0.757870 0.060761
0.836454 0.757687 0.047028
0.000000 0.819150 0.013092
0.000000 0.812833 0.000000
0.000000 0.809323 0.000000
0.000000 0.808164 0.000000
0.087709 0.808652 0.000000
0.184176 0.809506 0.000000
0.259129 0.811124 0.000000
0.326848 0.812406 0.000000
0.391669 0.814420 0.000000
0.455390 0.816587 0.000000
0.519707 0.819120 0.003082
0.583551 0.820798 0.006561
0.648493 0.823575 0.014374
0.714076 0.827085 0.019440
0.782773 0.833188 0.026764
0.847990 0.839109 0.032380
0.003388 0.003693 0.186862
0.103975 0.000000 0.183047
0.178958 0.000000 0.165194
0.241947 0.000000 0.146548
0.292088 0.015290 0.132540
0.338323 0.029206 0.125093
0.390295 0.041077 0.124056
0.444831 0.050568 0.124361
0.499519 0.053681 0.123018
0.558007 0.058534 0.123964
0.609949 0.064881 0.124910
0.659510 0.071504 0.126528
0.708858 0.076936 0.127749
0.766018 0.084413 0.131899
0.824613 0.092287 0.136385
0.880217 0.098177 0.139590
0.000000 0.088228 0.168765
0.088319 0.082155 0.155367
0.158297 0.075685 0.143801
0.220645 0.075044 0.134524
0.274235 0.076143 0.127443
0.329381 0.080262 0.125765
0.385657 0.082979 0.125124
0.442969 0.084565 0.124208
0.500603 0.085878 0.123812
0.558892 0.088594 0.124819
0.609949 0.091829 0.125643
0.658900 0.095583 0.126925
0.707607 0.098634 0.127657
0.763699 0.104067 0.131533
0.821500 0.110079 0.135744
0.879149 0.115084 0.139651
0.006622 0.148013 0.140780
0.083223 0.141909 0.135134
0.148470 0.138308 0.132479
0.207309 0.133547 0.128389
0.266575 0.131685 0.126955
0.325994 0.130556 0.126009
0.384009 0.129305 0.125002
0.441108 0.127718 0.124117
0.501396 0.128389 0.124819
0.557855 0.128695 0.125338
0.606439 0.128511 0.125521
0.654078 0.129030 0.126040
0.703609 0.130129 0.127260
0.759609 0.133608 0.130770
0.817990 0.137819 0.134920
0.876555 0.141939 0.139040
0.035798 0.196811 0.127657
0.089143 0.192081 0.125917
0.140902 0.187686 0.123873
0.196475 0.183383 0.121370
0.254673 0.180697 0.120699
0.313634 0.178897 0.121035
0.371527 0.176547 0.120851
0.432807 0.176211 0.122255
0.491554 0.175174 0.122957
0.547295 0.173770 0.123445
0.597070 0.171908 0.123964
0.645411 0.170382 0.124880
0.699550 0.171389 0.127535
0.754726 0.172488 0.130251
0.809415 0.173312 0.132815
0.866056 0.174990 0.135683
0.051972 0.231296 0.116304
0.088197 0.230289 0.115908
0.132906 0.228641 0.115145
0.184176 0.225895 0.114137
0.237919 0.222232 0.112337
0.294347 0.220706 0.112886
0.353094 0.220005 0.114351
0.413642 0.220066 0.116457
0.473182 0.219364 0.118166
0.531670 0.218936 0.119783
0.584375 0.217197 0.121736
0.639094 0.216739 0.124636
0.696376 0.217624 0.128176
0.755856 0.219364 0.132387
0.815427 0.220890 0.136538
0.872007 0.220798 0.139132
0.057313 0.277775 0.113405
0.089937 0.278050 0.113466
0.132082 0.276860 0.113100
0.181491 0.275212 0.112734
0.233738 0.272801 0.111849
0.287816 0.270085 0.111055
0.344305 0.268223 0.111604
0.404761 0.268833 0.114107
0.464210 0.268589 0.116274
0.521691 0.267613 0.118166
0.576257 0.265782 0.120974
0.632197 0.265049 0.124117
0.688808 0.264591 0.127321
0.747524 0.264958 0.131014
0.807126 0.265599 0.134859
0.867491 0.266178 0.138247
0.061891 0.328466 0.113344
0.093050 0.329992 0.113863
0.132906 0.329168 0.113649
0.180636 0.327184 0.113008
0.232090 0.325261 0.112581
0.285832 0.323430 0.112276
0.340795 0.320775 0.111788
0.397406 0.318730 0.112673
0.455207 0.317906 0.114595
0.511925 0.316594 0.116945
0.565789 0.314183 0.119356
0.621546 0.312749 0.122255
0.678584 0.311559 0.125185
0.737819 0.311650 0.128725
0.798123 0.312169 0.132692
0.860594 0.313603 0.137087
0.062318 0.375982 0.111727
0.091737 0.378637 0.112795
0.130648 0.378393 0.112795
0.177554 0.376867 0.112306
0.227268 0.374212 0.111513
0.279545 0.371954 0.111269
0.333043 0.368963 0.110719
0.387610 0.365911 0.110689
0.442390 0.363531 0.110994
0.498939 0.362737 0.114260
0.554284 0.361212 0.117098
0.610864 0.360449 0.120302
0.669001 0.359808 0.123293
0.727382 0.359258 0.126162
0.786893 0.359197 0.129274
0.851865 0.361730 0.133883
0.059419 0.416114 0.108583
0.086976 0.415839 0.108797
0.124269 0.415625 0.108858
0.169223 0.415106 0.108827
0.218112 0.414557 0.108919
0.269566 0.413733 0.109194
0.323888 0.414557 0.110231
0.379675 0.414588 0.111147
0.436225 0.414405 0.112398
0.493446 0.415015 0.113741
0.552819 0.416632 0.118318
0.612848 0.417487 0.122713
0.672236 0.417700 0.126741
0.734127 0.418708 0.130861
0.796841 0.420417 0.135622
0.858885 0.421180 0.139010
0.057862 0.464759 0.110079
0.084627 0.464210 0.109865
0.121584 0.463691 0.109957
0.165957 0.463233 0.109987
0.214481 0.463050 0.110353
0.264561 0.462226 0.110353
0.316106 0.461219 0.110506
0.370336 0.461341 0.111360
0.426551 0.462135 0.112337
0.482826 0.462287 0.113161
0.539879 0.462623 0.114321
0.599756 0.463874 0.118441
0.660182 0.465400 0.122286
0.724208 0.468391 0.127230
0.789181 0.471351 0.132509
0.853269 0.473701 0.136263
0.046235 0.516899 0.111696
0.076356 0.517144 0.111757
0.115511 0.516533 0.111543
0.160616 0.515557 0.111208
0.208957 0.514244 0.111055
0.258671 0.512718 0.110719
0.309758 0.511131 0.110475
0.361791 0.509545 0.110170
0.416785 0.510124 0.110842
0.472480 0.510307 0.111788
0.529351 0.510826 0.112428
0.588159 0.511467 0.113619
0.650080 0.514794 0.117433
0.714534 0.518761 0.122011
0.780270 0.522271 0.126406
0.844511 0.524102 0.129580
0.018616 0.568750 0.110628
0.055940 0.568353 0.110414
0.100954 0.567315 0.110048
0.149935 0.566369 0.109773
0.200656 0.565515 0.109560
0.251682 0.564599 0.109071
0.304021 0.563653 0.109255
0.356054 0.561822 0.108553
0.409216 0.560296 0.108064
0.464942 0.560601 0.108644
0.521630 0.561395 0.109316
0.579858 0.562799 0.110079
0.640589 0.564813 0.110811
0.703944 0.568505 0.113924
0.768765 0.572198 0.116884
0.837095 0.576898 0.120455
0.000000 0.612757 0.100008
0.001617 0.612970 0.100099
0.068666 0.614099 0.100923
0.129732 0.615229 0.101717
0.186557 0.617060 0.102998
0.242527 0.618555 0.104433
0.298955 0.621027 0.106783
0.355322 0.622675 0.108736
0.412665 0.624994 0.111238
0.470466 0.626703 0.113191
0.531060 0.630915 0.116518
0.592981 0.635218 0.119905
0.658503 0.641566 0.125063
0.723720 0.645197 0.127016
0.786099 0.645502 0.127443
0.842893 0.640558 0.120912
0.000000 0.689204 0.105318
0.000000 0.681819 0.098726
0.012177 0.678737 0.096010
0.102449 0.678187 0.095705
0.169833 0.679408 0.097017
0.231083 0.680323 0.098543
0.290715 0.681636 0.100160
0.349310 0.683070 0.102205
0.408148 0.685054 0.105318
0.466651 0.685878 0.106691
0.526268 0.687587 0.108736
0.586786 0.689784 0.110994
0.649683 0.693660 0.114015
0.714015 0.697169 0.115206
0.777371 0.698756 0.113863
0.837583 0.697108 0.106538
0.000000 0.752865 0.094118
0.000000 0.746120 0.085176
0.000000 0.742672 0.080751
0.044648 0.741573 0.079408
0.141512 0.742153 0.079866
0.213107 0.743008 0.081331
0.278050 0.744564 0.083619
0.339513 0.745266 0.085054
0.399908 0.746120 0.086793
0.460304 0.746304 0.087648
0.520928 0.747372 0.089479
0.581323 0.748470 0.091127
0.643793 0.751614 0.094240
0.708125 0.754726 0.095827
0.775082 0.758724 0.096284
0.837003 0.758602 0.086976
0.000000 0.820493 0.063325
0.000000 0.814328 0.047364
0.000000 0.810849 0.038453
0.000000 0.809751 0.035096
0.083986 0.810361 0.036378
0.182681 0.811215 0.038239
0.258152 0.812711 0.040650
0.326452 0.813809 0.042725
0.391760 0.815457 0.047211
0.455695 0.817594 0.051148
0.520104 0.820157 0.055970
0.584009 0.821927 0.058106
0.648859 0.824796 0.064332
0.714687 0.828031 0.068177
0.783566 0.834104 0.073915
0.848875 0.840085 0.078401
0.002869 0.002594 0.256687
0.089479 0.000092 0.246036
0.162325 0.000000 0.228672
0.226017 0.002808 0.208316
0.278508 0.018097 0.189975
0.329839 0.029969 0.179141
0.382940 0.040406 0.174075
0.435950 0.052369 0.171298
0.488991 0.062226 0.170047
0.545708 0.071656 0.171328
0.598352 0.078676 0.171298
0.648798 0.084504 0.171420
0.700343 0.089662 0.171633
0.759182 0.097322 0.174655
0.819303 0.104494 0.177920
0.876310 0.109529 0.179873
0.013336 0.086366 0.232456
0.087587 0.081392 0.219455
0.151583 0.077577 0.205875
0.211429 0.074647 0.192935
0.265965 0.074403 0.181674
0.323308 0.079347 0.177005
0.377966 0.083833 0.173587
0.431739 0.088289 0.171267
0.489082 0.093568 0.171756
0.546838 0.098146 0.172488
0.598627 0.101381 0.171878
0.647974 0.105074 0.171511
0.699367 0.108614 0.171572
0.756832 0.114290 0.173892
0.816251 0.119844 0.176883
0.875608 0.124880 0.179507
0.030762 0.145541 0.205478
0.091585 0.140108 0.195895
0.145907 0.135988 0.188205
0.202518 0.132296 0.183078
0.259678 0.130861 0.178500
0.317296 0.130983 0.176028
0.373388 0.131258 0.173892
0.429786 0.132143 0.173129
0.488930 0.133242 0.173007
0.545892 0.133852 0.172335
0.595483 0.134401 0.170962
0.643366 0.135317 0.169894
0.695491 0.137331 0.170382
0.752987 0.141054 0.172610
0.813077 0.145388 0.175601
0.873075 0.149386 0.178470
0.042542 0.193118 0.183871
0.090547 0.188754 0.179873
0.141726 0.185275 0.177035
0.198398 0.185031 0.177035
0.251469 0.180850 0.173007
0.306371 0.178347 0.170871
0.363287 0.177279 0.169711
0.423041 0.177127 0.170047
0.480690 0.176150 0.169772
0.536553 0.175479 0.169162
0.587152 0.174441 0.168338
0.636866 0.173831 0.167910
0.692439 0.175784 0.169711
0.748501 0.177340 0.171481
0.804776 0.178256 0.172488
0.862730 0.179782 0.173922
0.054536 0.227543 0.163577
0.090608 0.226780 0.163516
0.134890 0.225620 0.163577
0.184726 0.223545 0.162753
0.235721 0.220188 0.160464
0.290196 0.218906 0.160006
0.346838 0.218265 0.160616
0.406043 0.218631 0.162112
0.464271 0.218204 0.162905
0.522606 0.218448 0.164065
0.575463 0.217655 0.164706
0.632105 0.218723 0.167147
0.690089 0.220249 0.169833
0.750484 0.222599 0.173068
0.811490 0.224491 0.176120
0.869474 0.224735 0.177493
0.066194 0.275517 0.159945
0.096620 0.275456 0.160647
0.135927 0.274174 0.160128
0.182345 0.272313 0.159396
0.232364 0.269871 0.157839
0.284703 0.267582 0.156649
0.339910 0.266026 0.156619
0.398627 0.266545 0.158724
0.457099 0.266606 0.160189
0.514519 0.266087 0.161410
0.569299 0.265232 0.163180
0.625940 0.265507 0.165560
0.683101 0.265721 0.167819
0.742489 0.266728 0.170748
0.803189 0.268040 0.173587
0.865171 0.269352 0.176394
0.072511 0.324468 0.158389
0.099672 0.325994 0.159060
0.136782 0.325383 0.158846
0.182101 0.323796 0.157870
0.231632 0.321904 0.157168
0.283452 0.320195 0.156527
0.336980 0.317845 0.155734
0.392584 0.315862 0.156008
0.449317 0.315190 0.157321
0.505638 0.314397 0.158816
0.559960 0.312505 0.160342
0.616144 0.312016 0.162478
0.673610 0.311620 0.164706
0.733181 0.312413 0.167514
0.794675 0.313512 0.170565
0.858854 0.315618 0.174136
0.072358 0.372625 0.155306
