luts/Kodak_Elite_100.cube
# Generated for krafta web app
# https://www.facebook.com/krafta.visio
# Preset: KDK - Elite 100
# Color profile : sRGB Color Space Profile
LUT_3D_SIZE 16
DOMAIN_MIN 0.0 0.0 0.0
DOMAIN_MAX 1.0 1.0 1.0
0.000000 0.000000 0.000000
0.100923 0.002258 0.002136
0.203952 0.005341 0.005158
0.288182 0.008453 0.008270
0.358282 0.011902 0.011078
0.425086 0.013550 0.013519
0.487953 0.017273 0.016754
0.552789 0.022614 0.023285
0.614771 0.033875 0.034241
0.676265 0.047730 0.046601
0.734798 0.062013 0.061585
0.789944 0.075685 0.076295
0.843809 0.089509 0.089235
0.898833 0.103395 0.102937
0.953765 0.117525 0.116976
1.000000 0.129641 0.129610
0.006989 0.110109 0.006683
0.107607 0.108309 0.008667
0.197574 0.110994 0.008942
0.280247 0.108186 0.009125
0.351812 0.103700 0.010498
0.418585 0.100130 0.013489
0.485206 0.098665 0.019318
0.550164 0.100832 0.027863
0.611719 0.103212 0.039521
0.673793 0.108156 0.051606
0.732326 0.114168 0.065553
0.787411 0.121096 0.078676
0.841093 0.128481 0.091615
0.896300 0.137240 0.105257
0.951598 0.147311 0.118227
1.000000 0.157137 0.131899
0.004334 0.198764 0.002991
0.107210 0.194675 0.004761
0.190188 0.190188 0.006897
0.269413 0.185977 0.009125
0.342351 0.180209 0.012299
0.412909 0.176547 0.018372
0.480110 0.173739 0.026093
0.544701 0.171664 0.037568
0.606775 0.170962 0.048157
0.669978 0.172183 0.060639
0.728267 0.174075 0.072541
0.783505 0.176089 0.084504
0.837034 0.179019 0.096651
0.893004 0.184024 0.109377
0.948669 0.190372 0.122255
1.000000 0.197421 0.134707
0.010986 0.270054 0.011475
0.104280 0.266911 0.013672
0.182467 0.263859 0.016205
0.260594 0.260533 0.020417
0.333593 0.255070 0.027161
0.403021 0.250004 0.034272
0.469520 0.245518 0.043336
0.534752 0.242405 0.052216
0.599084 0.240330 0.062409
0.662135 0.239322 0.072297
0.720180 0.238102 0.082155
0.775540 0.237156 0.092897
0.830411 0.237247 0.103517
0.885924 0.239322 0.114076
0.940703 0.241764 0.125795
0.996124 0.245731 0.137392
0.037842 0.332525 0.037873
0.109041 0.331975 0.040253
0.180179 0.332036 0.042969
0.254124 0.330236 0.047089
0.327123 0.327367 0.052491
0.397650 0.323247 0.058198
0.465003 0.318486 0.065370
0.531212 0.314763 0.071595
0.595941 0.311559 0.078737
0.659541 0.309239 0.086610
0.717952 0.305943 0.095857
0.774594 0.303288 0.105013
0.830991 0.302159 0.114870
0.887480 0.302220 0.125887
0.942840 0.302800 0.136599
0.995239 0.303319 0.146212
0.066346 0.395392 0.066377
0.119966 0.396155 0.068818
0.182650 0.396307 0.069917
0.250614 0.394812 0.073030
0.319707 0.391882 0.075257
0.388647 0.388708 0.079866
0.456794 0.385504 0.085023
0.523491 0.382330 0.089845
0.588312 0.378820 0.095460
0.651270 0.375341 0.101717
0.709499 0.370794 0.109346
0.767208 0.367315 0.117800
0.824002 0.364660 0.125826
0.880797 0.363256 0.134951
0.936614 0.362402 0.145235
0.990509 0.361700 0.154147
0.089143 0.457282 0.089845
0.131838 0.458106 0.090669
0.186374 0.458106 0.092317
0.249577 0.456825 0.094026
0.315648 0.455024 0.096590
0.383001 0.452827 0.099550
0.450294 0.450446 0.103334
0.516594 0.447456 0.107668
0.579980 0.443030 0.111482
0.641810 0.438727 0.116365
0.700740 0.433814 0.123049
0.759182 0.429999 0.129732
0.816495 0.426551 0.137606
0.873564 0.424201 0.145357
0.929839 0.422492 0.153994
0.985168 0.421149 0.162631
0.108095 0.516777 0.108370
0.143374 0.518517 0.109804
0.192203 0.519249 0.111513
0.251469 0.518639 0.112703
0.314519 0.516960 0.114748
0.378576 0.513970 0.116396
0.442634 0.510307 0.119081
0.506676 0.506798 0.121736
0.570001 0.503227 0.125185
0.631373 0.498787 0.130129
0.690974 0.494270 0.135897
0.749935 0.490333 0.142153
0.807645 0.486610 0.148440
0.864744 0.483558 0.155703
0.921111 0.481086 0.162844
0.978912 0.480323 0.172091
0.122408 0.566796 0.123384
0.151614 0.566918 0.123049
0.195102 0.567529 0.124361
0.248692 0.567529 0.126314
0.308354 0.567163 0.128054
0.370367 0.566094 0.130709
0.433692 0.564843 0.133425
0.497444 0.563012 0.136263
0.561151 0.561212 0.140352
0.624140 0.559167 0.144656
0.685145 0.555749 0.150118
0.744930 0.552361 0.156497
0.803342 0.548730 0.162173
0.860716 0.545403 0.168917
0.917662 0.542626 0.176272
0.973327 0.539788 0.183291
0.140291 0.621607 0.140627
0.165011 0.620996 0.140566
0.202945 0.620783 0.141238
0.251804 0.620386 0.142885
0.307439 0.619837 0.143954
0.366674 0.619074 0.145846
0.427771 0.618524 0.148684
0.489754 0.617304 0.151888
0.552239 0.616205 0.155123
0.614374 0.614588 0.158907
0.676234 0.612757 0.163180
0.735409 0.609125 0.168246
0.793759 0.605585 0.173556
0.852171 0.602899 0.179812
0.910185 0.600671 0.187198
0.966552 0.598016 0.194339
0.156802 0.675319 0.157290
0.178103 0.674891 0.157473
0.211765 0.674495 0.158267
0.256840 0.673976 0.158907
0.309148 0.673457 0.160098
0.365332 0.672755 0.161990
0.424231 0.672053 0.163973
0.484169 0.671015 0.166476
0.544976 0.669917 0.169711
0.605951 0.668360 0.173129
0.666590 0.666651 0.176608
0.726680 0.664576 0.180514
0.785580 0.661891 0.185733
0.844175 0.659510 0.191379
0.902129 0.657221 0.197757
0.958953 0.654688 0.204379
0.172885 0.728573 0.174105
0.191501 0.728145 0.174014
0.221744 0.727810 0.174105
0.263249 0.727230 0.174960
0.312016 0.726467 0.175723
0.365698 0.725490 0.176822
0.422004 0.724544 0.178775
0.479957 0.723415 0.180819
0.539269 0.722408 0.183413
0.598535 0.720974 0.186343
0.658167 0.719509 0.189181
0.717800 0.717861 0.193057
0.777310 0.716457 0.197238
0.836179 0.714595 0.202396
0.894774 0.713100 0.208835
0.953765 0.712398 0.217197
0.180453 0.772946 0.180911
0.197391 0.773068 0.181613
0.226352 0.773831 0.182834
0.265721 0.774502 0.184390
0.313420 0.775418 0.187076
0.365332 0.776028 0.189059
0.420966 0.776822 0.192386
0.478523 0.777279 0.195377
0.537682 0.777951 0.199802
0.597314 0.778225 0.203891
0.657862 0.778836 0.208896
0.718288 0.778927 0.214206
0.779202 0.779324 0.220249
0.838682 0.778347 0.225010
0.895720 0.775387 0.229252
0.950042 0.770443 0.231998
0.202884 0.834165 0.204044
0.213901 0.830503 0.199557
0.237491 0.829007 0.198398
0.273808 0.828641 0.198856
0.318456 0.829282 0.200961
0.368597 0.829709 0.202884
0.422156 0.830350 0.205997
0.478279 0.830869 0.209689
0.536095 0.831785 0.213809
0.594263 0.831968 0.218082
0.653742 0.832364 0.222843
0.712978 0.832303 0.227634
0.772580 0.832395 0.233677
0.831357 0.831510 0.238163
0.889158 0.829679 0.241947
0.945464 0.826902 0.245823
0.219730 0.889586 0.220859
0.228641 0.886442 0.216220
0.249729 0.884733 0.213840
0.282963 0.884123 0.213993
0.325414 0.884337 0.215427
0.373358 0.884642 0.217594
0.425605 0.885344 0.221347
0.480049 0.885771 0.224643
0.536339 0.886412 0.228672
0.593652 0.886656 0.233188
0.651881 0.887053 0.238071
0.710628 0.887388 0.243900
0.770199 0.888273 0.250797
0.829526 0.888609 0.257694
0.888396 0.888548 0.264378
0.945342 0.886656 0.267613
0.241337 0.948241 0.242222
0.248264 0.945617 0.237156
0.266850 0.944244 0.234897
0.297642 0.943816 0.234684
0.337774 0.944030 0.236606
0.383795 0.944427 0.239200
0.434302 0.945190 0.242954
0.487800 0.945953 0.247623
0.543542 0.947173 0.253300
0.600885 0.948425 0.260136
0.659388 0.950042 0.267948
0.718624 0.951690 0.277012
0.779171 0.954162 0.288426
0.839994 0.956695 0.301030
0.901701 0.960021 0.316716
0.963928 0.964111 0.335210
0.000732 0.000092 0.102388
0.110811 0.001373 0.111238
0.205539 0.000244 0.112154
0.287846 0.000000 0.104768
0.355718 0.003784 0.102052
0.420630 0.016327 0.101839
0.484688 0.028840 0.103670
0.548577 0.040528 0.106386
0.609888 0.052277 0.109438
0.671870 0.063996 0.114351
0.730892 0.075319 0.120089
0.785824 0.087984 0.126223
0.839414 0.098970 0.132906
0.894377 0.110780 0.141085
0.949248 0.122744 0.150210
1.000000 0.134127 0.158846
0.000000 0.112154 0.112062
0.108614 0.108614 0.108614
0.199924 0.105562 0.105379
0.280034 0.103700 0.103456
0.350011 0.103182 0.103029
0.416693 0.103578 0.103944
0.482795 0.105531 0.105745
0.546899 0.108736 0.108522
0.608392 0.112032 0.112093
0.671443 0.116701 0.116640
0.730068 0.122255 0.122133
0.784695 0.128634 0.128511
0.837797 0.134768 0.134768
0.892760 0.142458 0.142702
0.947478 0.151125 0.151278
1.000000 0.160067 0.159792
0.000000 0.200961 0.108156
0.107027 0.196536 0.106630
0.192447 0.192233 0.105562
0.271122 0.187564 0.105409
0.343633 0.182986 0.106416
0.412940 0.180301 0.108095
0.479347 0.177890 0.110262
0.543359 0.177005 0.112764
0.606928 0.176730 0.116243
0.669612 0.177859 0.120485
0.726986 0.178805 0.125551
0.781247 0.180484 0.131350
0.834592 0.183139 0.137575
0.889952 0.187900 0.144717
0.944976 0.192874 0.153292
0.999115 0.198550 0.162173
0.026032 0.272343 0.111513
0.110201 0.269261 0.110475
0.186313 0.265629 0.109926
0.262211 0.262211 0.110079
0.334691 0.257511 0.111513
0.404089 0.253025 0.113283
0.470832 0.248966 0.115755
0.536400 0.246494 0.118288
0.600488 0.244358 0.121431
0.662898 0.242863 0.125612
0.720516 0.241306 0.130251
0.775418 0.240513 0.135622
0.830991 0.240818 0.142306
0.886168 0.242130 0.149325
0.940154 0.244175 0.156374
0.994018 0.247227 0.164065
0.054017 0.332128 0.115267
0.115267 0.331212 0.115938
0.181979 0.329381 0.116060
0.252964 0.326665 0.116884
0.323217 0.323217 0.118044
0.392309 0.319646 0.119570
0.459571 0.315862 0.121767
0.525750 0.312871 0.124727
0.590173 0.310094 0.127779
0.653437 0.307897 0.131289
0.712306 0.305028 0.136202
0.769589 0.302983 0.142123
0.826627 0.302220 0.148653
0.883391 0.302281 0.156039
0.939055 0.302800 0.163394
0.992615 0.303563 0.170291
0.076387 0.394385 0.124636
0.124422 0.394202 0.124880
0.183749 0.392889 0.125765
0.249607 0.391028 0.126223
0.317418 0.388525 0.127352
0.385412 0.385504 0.129183
0.452461 0.382238 0.131167
0.518334 0.379065 0.133700
0.582757 0.375921 0.136507
0.645624 0.372900 0.139651
0.704646 0.368994 0.144747
0.762875 0.366155 0.150088
0.819944 0.363836 0.155489
0.876799 0.362432 0.161563
0.932708 0.361608 0.168856
0.987793 0.361212 0.176181
0.094423 0.457008 0.135439
0.135927 0.457221 0.135805
0.188327 0.456336 0.136599
0.249912 0.454627 0.137240
0.314580 0.452338 0.138186
0.380774 0.449653 0.139345
0.446784 0.446723 0.141054
0.511742 0.443549 0.143374
0.575555 0.439979 0.145876
0.637568 0.436133 0.149142
0.696376 0.431495 0.152987
0.754757 0.427771 0.157748
0.812192 0.424567 0.162905
0.869261 0.422339 0.168887
0.925689 0.420722 0.175448
0.982025 0.419959 0.182773
0.111574 0.515343 0.145083
0.145907 0.516106 0.145785
0.192874 0.515679 0.146700
0.250370 0.514397 0.147250
0.311955 0.512535 0.148409
0.375738 0.510002 0.149294
0.439887 0.507012 0.150881
0.503655 0.503899 0.152529
0.566827 0.500481 0.154940
0.627924 0.496254 0.158297
0.687404 0.491859 0.161807
0.746242 0.488106 0.166293
0.804196 0.484688 0.171420
0.861204 0.481727 0.176394
0.917632 0.479133 0.182010
0.974487 0.477882 0.188998
0.124971 0.568200 0.154269
0.153933 0.567895 0.154543
0.196323 0.567620 0.155428
0.249363 0.566857 0.155703
0.308141 0.565911 0.157351
0.369757 0.564660 0.158480
0.432868 0.563348 0.161044
0.496193 0.561486 0.163516
0.559411 0.559472 0.165927
0.622095 0.557275 0.169558
0.682795 0.553948 0.173800
0.742428 0.550561 0.178439
0.800778 0.547112 0.183200
0.858671 0.544182 0.188571
0.916289 0.541985 0.194827
0.972900 0.539879 0.201480
0.142611 0.621546 0.166537
0.166201 0.621149 0.166903
0.204105 0.620600 0.167147
0.252415 0.620081 0.168063
0.307836 0.619471 0.169284
0.366674 0.618494 0.170901
0.427222 0.617334 0.172396
0.488746 0.615961 0.174533
0.550652 0.614466 0.177615
0.612604 0.612604 0.180301
0.673854 0.610620 0.183688
0.733089 0.607202 0.187716
0.791836 0.604089 0.192081
0.850645 0.601831 0.197818
0.909117 0.600031 0.204013
0.966278 0.597955 0.210483
0.158633 0.675196 0.180056
0.180056 0.675074 0.180117
0.213199 0.674617 0.180575
0.257939 0.673976 0.181338
0.309697 0.673152 0.182101
0.365484 0.672114 0.182956
0.423682 0.670832 0.184909
0.483284 0.669581 0.186465
0.543847 0.668330 0.189151
0.604456 0.666773 0.191562
0.664790 0.664881 0.194614
0.724697 0.662837 0.197818
0.783536 0.660090 0.201968
0.842222 0.657923 0.207065
0.900633 0.656031 0.212589
0.958099 0.654047 0.218753
0.173800 0.727993 0.193362
0.192721 0.727779 0.193027
0.222507 0.727169 0.193179
0.263584 0.726467 0.193790
0.312047 0.725704 0.194461
0.365362 0.724819 0.195438
0.421759 0.723842 0.196719
0.479561 0.722621 0.198428
0.538354 0.721279 0.200473
0.597406 0.719600 0.202274
0.656580 0.717739 0.205081
0.715724 0.715908 0.208133
0.774868 0.714168 0.211063
0.833463 0.712184 0.215671
0.891966 0.710628 0.220645
0.951263 0.710231 0.227970
0.181949 0.774228 0.199405
0.198978 0.774258 0.199954
0.227512 0.774777 0.200595
0.266514 0.775143 0.202213
0.313878 0.775723 0.203861
0.365911 0.776150 0.205966
0.421424 0.776944 0.208957
0.478798 0.777279 0.211460
0.537621 0.777859 0.215091
0.597070 0.777951 0.219120
0.657527 0.778347 0.223484
0.717800 0.778378 0.227970
0.778714 0.778836 0.233921
0.838254 0.777951 0.238437
0.895628 0.775235 0.242618
0.950347 0.770809 0.244663
0.203952 0.834867 0.219455
0.214847 0.831510 0.215763
0.238499 0.829984 0.214572
0.274418 0.829618 0.214725
0.319127 0.830076 0.216678
0.369085 0.830320 0.218357
0.422461 0.830716 0.220798
0.478370 0.831052 0.223850
0.536095 0.831724 0.227878
0.594202 0.831724 0.231388
0.653407 0.832029 0.235660
0.712612 0.831937 0.240330
0.772396 0.832181 0.245487
0.831296 0.831388 0.250095
0.889220 0.829831 0.253880
0.945861 0.827268 0.257481
0.220249 0.890074 0.234287
0.229252 0.887175 0.230167
0.250431 0.885618 0.228061
0.283696 0.885069 0.228153
0.325933 0.885191 0.229526
0.373754 0.885405 0.231846
0.425788 0.885954 0.234501
0.480110 0.886198 0.237552
0.536278 0.886534 0.240970
0.593500 0.886625 0.244816
0.651698 0.886961 0.249393
0.710445 0.887266 0.254795
0.770016 0.888121 0.261540
0.829404 0.888518 0.267735
0.888457 0.888640 0.274693
0.945586 0.886900 0.278202
0.241123 0.948699 0.254154
0.248203 0.946227 0.249241
0.266880 0.944884 0.246616
0.297795 0.944488 0.246769
0.337896 0.944732 0.248753
0.383917 0.945129 0.251225
0.434607 0.945830 0.254459
0.488014 0.946532 0.258854
0.543603 0.947539 0.263951
0.600824 0.948699 0.270085
0.659266 0.950164 0.277592
0.718441 0.951659 0.285710
0.778805 0.953887 0.296391
0.839597 0.956329 0.308476
0.901335 0.959686 0.323644
0.963684 0.963836 0.342077
0.000000 0.000061 0.214389
0.115846 0.000000 0.210269
0.201114 0.000061 0.201511
0.280766 0.000000 0.192325
0.350286 0.005615 0.183505
0.413611 0.027710 0.178622
0.477211 0.049134 0.177890
0.540612 0.062562 0.178256
0.602533 0.070863 0.177340
0.665644 0.079316 0.179049
0.725277 0.088838 0.180758
0.780667 0.100313 0.183078
0.834958 0.109773 0.185763
0.891112 0.120211 0.190219
0.946715 0.130922 0.195224
1.000000 0.140322 0.200290
0.000000 0.109071 0.208042
0.106142 0.105623 0.200992
0.194705 0.103426 0.194491
0.273381 0.103944 0.188388
0.342504 0.106447 0.182956
0.409583 0.111269 0.180667
0.475105 0.115145 0.180117
0.539269 0.117952 0.178958
0.602411 0.121157 0.179019
0.665766 0.125154 0.180148
0.724697 0.130983 0.181735
0.779812 0.136660 0.184115
0.833829 0.142397 0.186862
0.889677 0.149660 0.190829
0.945037 0.157443 0.195621
0.999420 0.165255 0.200809
0.000000 0.196658 0.196414
0.107301 0.192782 0.192935
0.189242 0.189242 0.189242
0.265843 0.186465 0.186313
0.337621 0.184634 0.184360
0.406561 0.183078 0.183261
0.473060 0.181888 0.181674
0.537163 0.180819 0.180667
0.601740 0.181125 0.181247
0.664485 0.182101 0.182071
0.722072 0.183536 0.183413
0.776669 0.185580 0.185153
0.831113 0.188113 0.187808
0.886870 0.192264 0.191958
0.942565 0.196994 0.196689
0.997345 0.202335 0.201846
0.037263 0.269139 0.189700
0.115938 0.265873 0.188510
0.186831 0.262882 0.187167
0.259678 0.259953 0.185519
0.330846 0.256229 0.184268
0.399664 0.252903 0.183291
0.466133 0.249790 0.182712
0.532341 0.247959 0.182864
0.596155 0.246067 0.182956
0.658625 0.244877 0.183597
0.716396 0.243503 0.185183
0.771572 0.242710 0.187411
0.827817 0.243503 0.190402
0.883268 0.244938 0.194003
0.937591 0.246555 0.198154
0.991913 0.248997 0.202701
0.070710 0.329137 0.185489
0.122927 0.328283 0.185550
0.184848 0.326696 0.184695
0.252506 0.324254 0.184085
0.321202 0.321294 0.183505
0.389502 0.318029 0.183352
0.456184 0.315038 0.183169
0.522118 0.312444 0.183719
0.586419 0.309911 0.184421
0.649683 0.308019 0.185580
0.708644 0.305608 0.187778
0.766506 0.304082 0.190555
0.824002 0.303471 0.194095
0.881102 0.303716 0.198154
0.937163 0.304265 0.203220
0.991363 0.305058 0.207462
0.086122 0.392523 0.186557
0.131075 0.392309 0.186496
0.186557 0.391089 0.186831
0.250797 0.389105 0.186587
0.316960 0.386664 0.186496
0.383917 0.383978 0.186252
0.450172 0.380835 0.186496
0.515801 0.378027 0.187198
0.580102 0.375250 0.187930
0.642847 0.372229 0.189609
0.702022 0.368872 0.191867
0.760342 0.366369 0.194888
0.817838 0.364294 0.197910
0.874846 0.362982 0.201938
0.931090 0.362249 0.206271
0.986755 0.362066 0.211460
0.101198 0.455055 0.190433
0.139834 0.455482 0.190768
0.190402 0.454627 0.190707
0.250584 0.453101 0.190494
0.314702 0.450843 0.190585
0.380041 0.448463 0.191196
0.445441 0.445472 0.191440
0.510124 0.442420 0.192264
0.573663 0.438972 0.192935
0.635431 0.435248 0.194461
0.694240 0.431006 0.196811
0.752773 0.427436 0.199374
0.810239 0.424537 0.202548
0.867521 0.422461 0.206210
0.924254 0.420966 0.210483
0.981079 0.420294 0.215976
0.115114 0.513848 0.193881
0.148135 0.514855 0.194064
0.194125 0.514366 0.194675
0.251164 0.513207 0.194919
0.312139 0.511254 0.195468
0.375250 0.508812 0.195651
0.439124 0.505730 0.195743
0.502678 0.502739 0.196506
0.565545 0.499428 0.197757
0.626490 0.495399 0.199710
0.685939 0.491157 0.202090
0.744808 0.487678 0.205020
0.802670 0.484382 0.208133
0.859831 0.481544 0.211185
0.916258 0.479011 0.215183
0.973358 0.477729 0.219913
0.127626 0.567254 0.197757
0.155795 0.567010 0.197818
0.197574 0.566552 0.198215
0.250095 0.565820 0.198764
0.308446 0.564874 0.199466
0.369726 0.563622 0.200351
0.432349 0.562310 0.201938
0.495552 0.560510 0.203281
0.558465 0.558587 0.205020
0.620996 0.556451 0.207340
0.681636 0.553246 0.210758
0.741207 0.550072 0.213931
0.799588 0.546624 0.217350
0.857694 0.543969 0.220890
0.915557 0.541924 0.225986
0.972534 0.539971 0.230411
0.144717 0.620813 0.205600
0.168765 0.620447 0.205570
0.205539 0.620020 0.205905
0.253483 0.619471 0.206668
0.308690 0.618921 0.207156
0.366979 0.617945 0.208255
0.427253 0.616754 0.209689
0.488563 0.615320 0.211246
0.550408 0.613886 0.212802
0.611933 0.612116 0.215213
0.673091 0.609888 0.217105
0.732235 0.606653 0.220279
0.790982 0.603693 0.223484
0.849912 0.601587 0.228092
0.908598 0.599939 0.232853
0.966033 0.597925 0.237827
0.160861 0.674617 0.214694
0.181674 0.674617 0.215213
0.214572 0.674250 0.215335
0.259281 0.673579 0.215366
0.310338 0.672786 0.215976
0.365881 0.671687 0.217044
0.424109 0.670527 0.218265
0.483528 0.669245 0.219486
0.543755 0.667933 0.221286
0.604120 0.666255 0.222965
0.664240 0.664363 0.225162
0.724086 0.662318 0.227451
0.782864 0.659724 0.230655
0.841703 0.657710 0.234623
0.900237 0.655879 0.239261
0.957977 0.654017 0.243534
0.175814 0.727596 0.223911
0.193973 0.727352 0.223972
0.223545 0.726772 0.224247
0.264347 0.726162 0.224521
0.312993 0.725429 0.224887
0.365911 0.724636 0.225467
0.422156 0.723629 0.226993
0.479713 0.722408 0.228275
0.538354 0.721035 0.229435
0.597253 0.719295 0.231052
0.656306 0.717433 0.232609
0.715450 0.715541 0.235111
0.774472 0.713832 0.237583
0.833066 0.711971 0.241032
0.891600 0.710384 0.244785
0.951080 0.709957 0.250614
0.182834 0.774441 0.227787
0.199741 0.774533 0.228153
0.228122 0.774899 0.228763
0.267216 0.775235 0.230137
0.314183 0.775845 0.231418
0.366125 0.776211 0.233616
0.421607 0.776974 0.235721
0.478950 0.777310 0.238163
0.537896 0.777829 0.241459
0.597345 0.777951 0.244511
0.657588 0.778378 0.248661
0.717983 0.778470 0.252598
0.778805 0.778958 0.257816
0.838193 0.777951 0.261845
0.895537 0.775265 0.265110
0.950530 0.770901 0.266117
0.204288 0.835019 0.244450
0.214908 0.831754 0.240879
0.238712 0.830350 0.239658
0.274907 0.829984 0.239689
0.319219 0.830381 0.241123
0.369146 0.830594 0.242954
0.422705 0.830961 0.245029
0.478523 0.831327 0.248142
0.536156 0.831968 0.251377
0.594385 0.831937 0.254520
0.653590 0.832181 0.258366
0.712764 0.832090 0.262455
0.772519 0.832303 0.267124
0.831388 0.831510 0.271427
0.889342 0.829892 0.274479
0.946166 0.827420 0.277012
0.219425 0.890257 0.256474
0.228275 0.887419 0.252140
0.249577 0.885924 0.250523
0.282994 0.885374 0.250462
0.325444 0.885496 0.251713
0.373541 0.885740 0.253574
0.425727 0.886290 0.256046
0.480018 0.886534 0.258732
0.536278 0.886748 0.261753
0.593439 0.886839 0.265324
0.651667 0.887205 0.269596
0.710506 0.887510 0.274449
0.770169 0.888334 0.280400
0.829587 0.888762 0.286503
0.888701 0.888884 0.292332
0.945953 0.887175 0.295567
0.239353 0.949004 0.273045
0.246342 0.946532 0.268284
0.265080 0.945251 0.265843
0.296483 0.944854 0.266117
0.336828 0.945159 0.267796
0.383185 0.945556 0.270176
0.433783 0.946197 0.273320
0.487343 0.946868 0.276951
0.543236 0.947875 0.281682
0.600580 0.949035 0.287572
0.659205 0.950469 0.294774
0.718410 0.951965 0.302159
0.778866 0.954162 0.312474
0.839750 0.956603 0.323583
0.901518 0.959930 0.338201
0.963928 0.964111 0.356115
0.000244 0.000244 0.295171
0.107637 0.000214 0.290318
0.191592 0.000092 0.281224
0.270939 0.000244 0.271000
0.342290 0.008881 0.260716
0.408179 0.029267 0.252781
0.472663 0.049592 0.248081
0.535668 0.065370 0.245335
0.597467 0.078279 0.243717
0.660151 0.088991 0.243412
0.719631 0.098512 0.243565
0.775601 0.109621 0.243656
0.830777 0.118898 0.244083
0.887724 0.128573 0.246006
0.943786 0.138369 0.248325
0.998077 0.146578 0.250919
0.000000 0.104952 0.286351
0.103182 0.103212 0.279484
0.187350 0.102205 0.272343
0.265110 0.102876 0.265324
0.336584 0.105776 0.257939
0.405066 0.110811 0.252659
0.470253 0.116152 0.248905
0.533593 0.121279 0.246372
0.597162 0.126406 0.245151
0.660212 0.131441 0.244602
0.719142 0.136812 0.243900
0.774807 0.143008 0.244175
0.829892 0.149233 0.244358
0.886259 0.156191 0.246067
0.942168 0.163180 0.248478
0.997162 0.170260 0.251011
0.015625 0.190341 0.274296
0.109926 0.188022 0.269169
0.186038 0.186007 0.264378
0.261112 0.184512 0.261143
0.332555 0.183505 0.256809
0.401038 0.183383 0.253300
0.467292 0.183047 0.250248
0.531914 0.183444 0.248081
0.596155 0.183932 0.246738
0.658991 0.184665 0.245701
0.716732 0.186893 0.244541
0.771817 0.189303 0.244205
0.827298 0.192233 0.244968
0.883696 0.196262 0.246677
0.939818 0.201083 0.248875
0.995117 0.205722 0.251499
0.044129 0.264714 0.264622
0.116640 0.261997 0.262089
0.186313 0.259220 0.259373
0.256901 0.256901 0.256901
0.326390 0.254490 0.254276
0.394720 0.251896 0.251835
0.461707 0.249454 0.249393
0.527520 0.248234 0.248051
0.591302 0.246525 0.246799
0.653742 0.245548 0.245365
0.711574 0.245029 0.244968
0.767391 0.244907 0.244877
0.824308 0.246128 0.246098
0.880247 0.247593 0.247349
0.935027 0.248997 0.249058
0.989868 0.251286 0.250889
0.071260 0.325933 0.253696
0.124575 0.324987 0.253391
0.185245 0.323430 0.252384
0.251286 0.321324 0.251164
0.318669 0.318730 0.249454
0.386053 0.316289 0.248295
0.452613 0.313542 0.247074
0.518395 0.311528 0.246220
0.582666 0.309270 0.245243
0.645594 0.307683 0.245182
0.704646 0.306004 0.245090
0.763210 0.305150 0.246494
0.821042 0.304875 0.248112
0.878416 0.305303 0.250584
0.934936 0.306065 0.252628
0.989685 0.306432 0.254765
0.091188 0.389899 0.251408
0.133669 0.389563 0.251408
0.187411 0.388434 0.251011
0.250156 0.386603 0.250095
0.315282 0.384375 0.249149
0.381811 0.381811 0.248264
0.447669 0.379095 0.247105
0.513024 0.376471 0.247013
0.577020 0.373999 0.246525
0.639643 0.371374 0.246464
0.698878 0.368597 0.247440
0.757534 0.366491 0.248661
0.815061 0.364752 0.250187
0.872496 0.363684 0.252201
0.929137 0.363073 0.254398
0.985290 0.363043 0.257359
0.105257 0.452369 0.250797
0.142245 0.452705 0.250980
0.191226 0.452064 0.250889
0.250492 0.450660 0.250614
0.313787 0.448585 0.250034
0.378515 0.446357 0.249851
0.443671 0.443641 0.249424
0.507866 0.440650 0.248936
0.571099 0.437476 0.248508
0.632685 0.433997 0.248966
0.691646 0.430121 0.249638
0.750179 0.427253 0.250736
0.807950 0.424506 0.252201
0.865507 0.422553 0.254337
0.922606 0.421241 0.256809
0.979828 0.420661 0.259892
0.117769 0.511620 0.250675
