luts/Kodak_Elite_100.cube
# Generated for krafta web app
# https://www.facebook.com/krafta.visio
# Preset: KDK - Elite 100
# Color profile : sRGB Color Space Profile
LUT_3D_SIZE 6
DOMAIN_MIN 0.0 0.0 0.0
DOMAIN_MAX 1.0 1.0 1.0
0.000000 0.000000 0.000000
0.288182 0.008453 0.008270
0.487953 0.017273 0.016754
0.676265 0.047730 0.046601
0.843809 0.089509 0.089235
1.000000 0.129641 0.129610
0.010986 0.270054 0.011475
0.260594 0.260533 0.020417
0.469520 0.245518 0.043336
0.662135 0.239322 0.072297
0.830411 0.237247 0.103517
0.996124 0.245731 0.137392
0.089143 0.457282 0.089845
0.249577 0.456825 0.094026
0.450294 0.450446 0.103334
0.641810 0.438727 0.116365
0.816495 0.426551 0.137606
0.985168 0.421149 0.162631
0.140291 0.621607 0.140627
0.251804 0.620386 0.142885
0.427771 0.618524 0.148684
0.614374 0.614588 0.158907
0.793759 0.605585 0.173556
0.966552 0.598016 0.194339
0.180453 0.772946 0.180911
0.265721 0.774502 0.184390
0.420966 0.776822 0.192386
0.597314 0.778225 0.203891
0.779202 0.779324 0.220249
0.950042 0.770443 0.231998
0.241337 0.948241 0.242222
0.297642 0.943816 0.234684
0.434302 0.945190 0.242954
0.600885 0.948425 0.260136
0.779171 0.954162 0.288426
0.963928 0.964111 0.335210
0.000244 0.000244 0.295171
0.270939 0.000244 0.271000
0.472663 0.049592 0.248081
0.660151 0.088991 0.243412
0.830777 0.118898 0.244083
0.998077 0.146578 0.250919
0.044129 0.264714 0.264622
0.256901 0.256901 0.256901
0.461707 0.249454 0.249393
0.653742 0.245548 0.245365
0.824308 0.246128 0.246098
0.989868 0.251286 0.250889
0.105257 0.452369 0.250797
0.250492 0.450660 0.250614
0.443671 0.443641 0.249424
0.632685 0.433997 0.248966
0.807950 0.424506 0.252201
0.979828 0.420661 0.259892
0.148653 0.619409 0.255161
0.255131 0.618372 0.255619
0.427222 0.615656 0.257542
0.611078 0.611292 0.260868
0.789883 0.603204 0.266087
0.965545 0.597925 0.275242
0.183963 0.774441 0.266575
0.267704 0.774807 0.268193
0.422004 0.776791 0.273381
0.597345 0.777920 0.281102
0.778958 0.779049 0.292515
0.950683 0.770993 0.297124
0.235904 0.949371 0.300938
0.293309 0.945342 0.294194
0.432288 0.946654 0.300694
0.600061 0.949523 0.313664
0.778988 0.954620 0.336675
0.964385 0.964538 0.377844
0.001282 0.000732 0.488746
0.243503 0.015381 0.473121
0.452155 0.054688 0.452064
0.645899 0.089174 0.438117
0.819730 0.126436 0.425818
0.990478 0.157046 0.421393
0.071565 0.250462 0.468696
0.245670 0.245853 0.458869
0.447639 0.242741 0.447608
0.638911 0.242130 0.435370
0.813016 0.249882 0.425422
0.983062 0.254398 0.418708
0.106538 0.441535 0.441627
0.246647 0.440528 0.440406
0.435035 0.435035 0.435035
0.621485 0.428901 0.428717
0.798795 0.423743 0.423651
0.975494 0.419837 0.419867
0.158633 0.613397 0.426612
0.260410 0.612604 0.426703
0.426551 0.610315 0.426703
0.606378 0.606500 0.425696
0.785245 0.600519 0.423468
0.964080 0.596124 0.422065
0.179904 0.773709 0.416449
0.265873 0.774441 0.417853
0.421363 0.776242 0.421485
0.596643 0.777096 0.425788
0.778225 0.778408 0.432715
0.951659 0.770443 0.426581
0.202457 0.951476 0.421424
0.266697 0.947875 0.414771
0.418128 0.948730 0.418585
0.594385 0.951843 0.428809
0.777707 0.956603 0.444495
0.966583 0.966735 0.474922
0.028565 0.025849 0.654017
0.226688 0.039521 0.647669
0.429511 0.067048 0.635950
0.622461 0.093538 0.622278
0.805447 0.123903 0.609613
0.980896 0.148592 0.599420
0.085359 0.237797 0.647364
0.235843 0.235691 0.640284
0.428656 0.235935 0.630671
0.618799 0.237919 0.618647
0.800381 0.244663 0.606897
0.974914 0.246525 0.595575
0.121157 0.426093 0.622126
0.245548 0.426062 0.620661
0.423865 0.423865 0.615045
0.608179 0.420722 0.608209
0.788815 0.417121 0.599969
0.971130 0.411444 0.593591
0.158206 0.604334 0.604364
0.257298 0.603937 0.603784
0.421973 0.602716 0.602655
0.598810 0.598932 0.598901
0.780789 0.594568 0.594629
0.965423 0.588006 0.587945
0.169070 0.772671 0.589258
0.256931 0.773342 0.589776
0.412970 0.774868 0.590661
0.591760 0.775845 0.591913
0.775387 0.775448 0.593256
0.955230 0.767941 0.582452
0.074800 0.954742 0.576104
0.178866 0.952056 0.568627
0.379644 0.953185 0.571069
0.577142 0.955993 0.577447
0.771878 0.959991 0.586267
0.970550 0.970703 0.608942
0.049317 0.048493 0.811673
0.216190 0.055604 0.809110
0.408423 0.072969 0.802670
0.600397 0.094148 0.795377
0.786893 0.116487 0.786709
0.969543 0.135348 0.779141
0.085328 0.224369 0.808713
0.224308 0.224094 0.805264
0.410437 0.226078 0.800351
0.599481 0.230014 0.793118
0.784207 0.234318 0.784085
0.964691 0.234836 0.774929
0.113924 0.410315 0.794186
0.232822 0.410010 0.793057
0.408545 0.408576 0.789487
0.593194 0.406287 0.783932
0.778256 0.404578 0.778164
0.963195 0.398901 0.772915
0.132998 0.592096 0.781125
0.237186 0.591913 0.780941
0.403845 0.589837 0.779599
0.586969 0.586999 0.777371
0.773709 0.584253 0.773648
0.962615 0.576806 0.769589
0.145846 0.770504 0.770474
0.241978 0.770901 0.770871
0.404089 0.772030 0.772030
0.584039 0.772671 0.772641
0.768856 0.768948 0.768856
0.961883 0.761532 0.761410
0.018097 0.956909 0.765438
0.162448 0.954894 0.761593
0.358831 0.957305 0.761227
0.551385 0.960998 0.758877
0.759213 0.965698 0.759365
0.977264 0.977417 0.776516
0.037659 0.035248 0.979126
0.204807 0.039521 0.978302
0.394812 0.049012 0.975952
0.586511 0.063050 0.972839
0.777401 0.080293 0.969696
0.966827 0.098146 0.966644
0.031983 0.202365 0.978424
0.202823 0.202426 0.977356
0.392798 0.202548 0.974548
0.583673 0.202213 0.970367
0.772519 0.200137 0.965087
0.960327 0.196445 0.960143
0.000000 0.383917 0.974853
0.181247 0.384009 0.974578
0.382757 0.382696 0.972839
0.577996 0.379919 0.969787
0.770047 0.374395 0.965332
0.962280 0.370550 0.962097
0.000000 0.573938 0.971435
0.128420 0.572168 0.971557
0.352361 0.566430 0.971862
0.563287 0.563256 0.969696
0.765133 0.559289 0.966613
0.964691 0.557305 0.964569
0.000000 0.771206 0.968505
0.123659 0.770474 0.968688
0.348943 0.768582 0.969543
0.550530 0.764218 0.970886
0.758175 0.758175 0.971527
0.971618 0.758419 0.971588
0.000000 0.973693 0.973632
0.142794 0.973022 0.972992
0.351812 0.973968 0.973938
0.550530 0.976074 0.976013
0.758022 0.980804 0.980743
0.993744 0.993744 0.993744
