luts/Kodak_Portra_800.cube
# Generated for krafta web app
# https://www.facebook.com/krafta.visio
# Preset: KDK - Portra 800
# Color profile : sRGB Color Space Profile
LUT_3D_SIZE 16
DOMAIN_MIN 0.0 0.0 0.0
DOMAIN_MAX 1.0 1.0 1.0
0.000000 0.000000 0.000000
0.087037 0.000000 0.000244
0.174716 0.000000 0.000336
0.254368 0.000122 0.000000
0.325994 0.000122 0.000000
0.394720 0.000183 0.000244
0.461433 0.000214 0.000183
0.529503 0.000244 0.000458
0.595941 0.000092 0.000244
0.662501 0.000366 0.000366
0.727108 0.000031 0.000244
0.788388 0.000061 0.000488
0.848722 0.000153 0.000366
0.909575 0.000427 0.000549
0.970245 0.000488 0.000427
1.000000 0.000275 0.000610
0.000000 0.088502 0.000000
0.086397 0.086458 0.000000
0.169223 0.087129 0.000000
0.248722 0.085054 0.000000
0.321263 0.080781 0.000000
0.390478 0.076387 0.000000
0.459632 0.072236 0.000000
0.527916 0.068391 0.000000
0.594354 0.063722 0.000000
0.661341 0.058198 0.000000
0.726070 0.052827 0.000000
0.787411 0.045899 0.000000
0.847684 0.035920 0.000000
0.908843 0.024262 0.000000
0.969818 0.010376 0.000214
1.000000 0.000244 0.000763
0.000000 0.168185 0.000000
0.081910 0.165408 0.000000
0.162356 0.161990 0.000000
0.239719 0.159945 0.000000
0.313756 0.156832 0.000000
0.385443 0.153811 0.000000
0.455421 0.150179 0.000000
0.523796 0.146670 0.000000
0.590875 0.142916 0.000000
0.658656 0.139071 0.000000
0.723262 0.135103 0.000000
0.784726 0.130312 0.000000
0.845029 0.124575 0.000000
0.906706 0.117891 0.000000
0.968048 0.110353 0.000000
1.000000 0.099550 0.000000
0.000000 0.239109 0.000000
0.074739 0.237278 0.000000
0.155276 0.234836 0.000000
0.231876 0.231876 0.000000
0.305333 0.228702 0.000000
0.377539 0.225834 0.000000
0.447486 0.222446 0.000000
0.516716 0.219181 0.000000
0.585229 0.215976 0.000000
0.653254 0.212802 0.000000
0.717708 0.208652 0.000000
0.779416 0.203983 0.000000
0.840757 0.198856 0.000000
0.902251 0.193698 0.000000
0.963165 0.187869 0.000000
1.000000 0.180453 0.000000
0.000000 0.304997 0.000000
0.065339 0.304356 0.000000
0.148287 0.303899 0.000000
0.225559 0.302007 0.000000
0.299382 0.299351 0.000000
0.371710 0.296574 0.000000
0.442756 0.293706 0.000000
0.512871 0.290898 0.000000
0.581964 0.287846 0.000000
0.650629 0.284977 0.000000
0.715236 0.280797 0.000000
0.778164 0.276005 0.000000
0.840574 0.271489 0.000000
0.902892 0.266728 0.000000
0.964294 0.261143 0.000000
1.000000 0.254276 0.000000
0.000000 0.370977 0.000000
0.055055 0.371130 0.000000
0.141085 0.370886 0.000000
0.218021 0.369512 0.000000
0.292119 0.367102 0.000000
0.364172 0.364172 0.000000
0.435248 0.361639 0.000000
0.506157 0.359472 0.000000
0.575647 0.357000 0.000000
0.644343 0.354040 0.000000
0.708980 0.349615 0.000000
0.772824 0.345068 0.000000
0.835721 0.340490 0.000000
0.898436 0.335821 0.000000
0.960296 0.330663 0.000000
1.000000 0.324559 0.000000
0.000000 0.436561 0.000000
0.040742 0.436866 0.000000
0.132387 0.436591 0.000000
0.210758 0.435492 0.000000
0.285313 0.433845 0.000000
0.357885 0.431708 0.000000
0.429084 0.429267 0.000000
0.499489 0.426795 0.000000
0.568658 0.423957 0.000000
0.636805 0.420996 0.000000
0.702113 0.416724 0.000000
0.766720 0.412512 0.000000
0.830350 0.407965 0.000000
0.893492 0.403388 0.000000
0.955901 0.398413 0.000000
1.000000 0.392676 0.000000
0.000000 0.500999 0.000000
0.018647 0.501854 0.000000
0.121798 0.502129 0.000000
0.203250 0.501457 0.000000
0.278721 0.499916 0.000000
0.351202 0.497566 0.000000
0.421790 0.494545 0.000000
0.491554 0.491463 0.000000
0.560113 0.488472 0.000000
0.628260 0.485664 0.000000
0.694423 0.482063 0.000000
0.759854 0.478035 0.000000
0.823941 0.473854 0.000000
0.887480 0.469306 0.000000
0.950256 0.464454 0.000000
1.000000 0.459510 0.000000
0.000000 0.560143 0.000000
0.000000 0.560143 0.000000
0.107301 0.560357 0.000000
0.191684 0.560082 0.000000
0.268315 0.559380 0.000000
0.341375 0.558251 0.000000
0.413062 0.556817 0.000000
0.483223 0.554925 0.000000
0.552758 0.552789 0.000000
0.621302 0.550530 0.000000
0.688808 0.547875 0.000000
0.755062 0.544549 0.000000
0.820127 0.540520 0.000000
0.884154 0.536217 0.000000
0.947601 0.531487 0.000000
1.000000 0.526024 0.000000
0.000000 0.621393 0.000000
0.000000 0.620996 0.000000
0.091707 0.620752 0.000000
0.181186 0.620294 0.000000
0.258549 0.619593 0.000000
0.332586 0.618769 0.000000
0.404303 0.617853 0.000000
0.474617 0.616480 0.000000
0.544244 0.615015 0.000000
0.613031 0.613123 0.000000
0.681117 0.610986 0.000000
0.747463 0.607904 0.000000
0.812894 0.604273 0.000000
0.877958 0.600580 0.000000
0.942443 0.596399 0.000000
1.000000 0.591485 0.000000
0.000000 0.682002 0.000000
0.000000 0.681727 0.000000
0.068666 0.681361 0.000000
0.167849 0.680903 0.000000
0.248417 0.680354 0.000000
0.323369 0.679591 0.000000
0.395575 0.678706 0.000000
0.466224 0.677577 0.000000
0.535821 0.676265 0.000000
0.604669 0.674647 0.000000
0.672663 0.672816 0.000000
0.739956 0.670649 0.000000
0.806271 0.667720 0.000000
0.872038 0.664515 0.000000
0.937163 0.660822 0.000000
1.000000 0.656336 0.000000
0.000000 0.742428 0.000000
0.000000 0.742153 0.000000
0.023743 0.741817 0.000000
0.150454 0.741390 0.000000
0.235569 0.740780 0.000000
0.312840 0.739925 0.000000
0.385779 0.739071 0.000000
0.456916 0.738064 0.000000
0.527031 0.736995 0.000000
0.596002 0.735592 0.000000
0.664332 0.734096 0.000000
0.732235 0.732448 0.000000
0.799771 0.730770 0.000000
0.866361 0.728145 0.000000
0.932341 0.725032 0.000000
0.998230 0.721553 0.000000
0.000000 0.799161 0.000000
0.000000 0.799130 0.000000
0.000000 0.799405 0.000000
0.120302 0.799588 0.000000
0.217746 0.799832 0.000000
0.298711 0.799832 0.000000
0.374487 0.799924 0.000000
0.447486 0.799649 0.000000
0.518883 0.799496 0.000000
0.589136 0.799069 0.000000
0.659052 0.798642 0.000000
0.728176 0.797910 0.000000
0.797116 0.797238 0.000000
0.865141 0.795834 0.000000
0.931212 0.792477 0.000000
0.995453 0.787259 0.000000
0.000000 0.863951 0.000000
0.000000 0.862272 0.000000
0.000000 0.861479 0.000000
0.064179 0.861234 0.000000
0.190829 0.861357 0.000000
0.280156 0.861357 0.000000
0.359777 0.861357 0.000000
0.435157 0.861234 0.000000
0.508110 0.861265 0.000000
0.579339 0.860868 0.000000
0.649958 0.860502 0.000000
0.719722 0.859861 0.000000
0.789151 0.859159 0.000000
0.857694 0.857908 0.000000
0.925689 0.856168 0.000000
0.992157 0.852720 0.000000
0.000000 0.926421 0.000000
0.000000 0.924987 0.000000
0.000000 0.924102 0.000000
0.000000 0.923796 0.000000
0.143343 0.923735 0.000000
0.251102 0.923705 0.000000
0.338231 0.923827 0.000000
0.417853 0.923735 0.000000
0.493690 0.923674 0.000000
0.567071 0.923400 0.000000
0.639124 0.923095 0.000000
0.710201 0.922728 0.000000
0.780941 0.922484 0.000000
0.851041 0.921874 0.000000
0.920836 0.921019 0.000000
0.989624 0.919280 0.000000
0.000000 0.990814 0.000000
0.000000 0.989685 0.000000
0.000000 0.989044 0.000000
0.000000 0.988830 0.000000
0.000000 0.988800 0.000000
0.195743 0.988830 0.000000
0.302190 0.988983 0.000000
0.390997 0.989105 0.000000
0.472480 0.989349 0.000000
0.550103 0.989532 0.000000
0.625513 0.989807 0.000000
0.699458 0.989990 0.000000
0.772793 0.990417 0.000000
0.845579 0.990753 0.000000
0.918425 0.991241 0.000000
0.991608 0.991821 0.000000
0.000000 0.000092 0.089448
0.091737 0.000275 0.091737
0.175082 0.000244 0.091371
0.253849 0.000000 0.084596
0.323888 0.000275 0.077577
0.392004 0.000275 0.073610
0.459754 0.000244 0.069886
0.527367 0.000183 0.064790
0.593561 0.000244 0.059724
0.660365 0.000031 0.053346
0.725399 0.000031 0.046876
0.786374 0.000061 0.040040
0.846464 0.000244 0.029114
0.907347 0.000488 0.017639
0.967926 0.000061 0.002167
1.000000 0.000183 0.000732
0.000000 0.089357 0.089174
0.086275 0.086275 0.086275
0.170718 0.082795 0.082734
0.248539 0.079530 0.079042
0.320439 0.076020 0.075959
0.389746 0.072267 0.072694
0.458686 0.068574 0.069032
0.526604 0.064271 0.064424
0.593133 0.059358 0.058930
0.660578 0.053559 0.053498
0.725277 0.046723 0.046906
0.786374 0.039796 0.038788
0.846311 0.029938 0.029267
0.907195 0.017700 0.017212
0.967864 0.002472 0.001892
1.000000 0.000397 0.000488
0.000000 0.169162 0.080629
0.079377 0.166323 0.078889
0.162997 0.163027 0.076509
0.241032 0.159854 0.074647
0.314733 0.156222 0.072328
0.385962 0.152560 0.068940
0.455421 0.148836 0.065919
0.523674 0.145113 0.061372
0.591547 0.141268 0.056214
0.658961 0.137118 0.050446
0.722957 0.132662 0.043519
0.783871 0.127687 0.035035
0.844144 0.121614 0.025299
0.905394 0.115206 0.013123
0.966278 0.106813 0.000000
1.000000 0.095552 0.000000
0.000000 0.240482 0.073548
0.071595 0.238376 0.072236
0.155856 0.235721 0.070314
0.232517 0.232761 0.067964
0.306889 0.229343 0.066621
0.378790 0.225895 0.063600
0.448920 0.222446 0.059693
0.518151 0.219150 0.055543
0.586664 0.215610 0.050233
0.654261 0.212070 0.043732
0.718379 0.207553 0.036408
0.779873 0.202762 0.029053
0.841550 0.197940 0.018219
0.902831 0.192599 0.004883
0.963226 0.186099 0.000000
1.000000 0.178347 0.000000
0.000000 0.304814 0.064271
0.063569 0.304051 0.063722
0.147402 0.302434 0.062562
0.223789 0.300267 0.060914
0.297002 0.297246 0.058381
0.369329 0.294469 0.054658
0.440101 0.291630 0.051453
0.510307 0.288914 0.046784
0.579156 0.285801 0.040558
0.647639 0.282689 0.032410
0.712428 0.278660 0.026978
0.775540 0.274205 0.018372
0.838376 0.269810 0.008270
0.900816 0.264958 0.000000
0.962402 0.259281 0.000000
1.000000 0.252537 0.000000
0.000000 0.370397 0.053407
0.052003 0.370214 0.053285
0.139315 0.369238 0.051850
0.216495 0.367498 0.050904
0.290654 0.365118 0.046540
0.362310 0.362463 0.043030
0.433082 0.359655 0.037995
0.503532 0.357488 0.033295
0.572869 0.354681 0.026307
0.641291 0.351904 0.019379
0.706477 0.347662 0.013001
0.770535 0.343420 0.005341
0.833677 0.338933 0.000000
0.896300 0.334234 0.000000
0.958282 0.329046 0.000000
1.000000 0.322911 0.000000
0.000000 0.436530 0.038636
0.036164 0.436530 0.037385
0.131319 0.435676 0.035767
0.209537 0.434333 0.034699
0.283787 0.432410 0.030762
0.356390 0.429999 0.026093
0.427192 0.427161 0.021424
0.496956 0.424506 0.014832
0.566339 0.422065 0.008698
0.634546 0.419104 0.002533
0.699886 0.414893 0.000000
0.764431 0.410712 0.000000
0.827970 0.406256 0.000000
0.891173 0.401648 0.000000
0.953674 0.396796 0.000000
1.000000 0.391302 0.000000
0.000000 0.500267 0.016876
0.014557 0.500603 0.016510
0.120241 0.500145 0.015045
0.201480 0.499062 0.013184
0.276585 0.497505 0.008881
0.349187 0.495308 0.006012
0.420264 0.492744 0.000488
0.489845 0.489845 0.000000
0.558343 0.486946 0.000000
0.626337 0.484108 0.000000
0.692500 0.480415 0.000000
0.757778 0.476539 0.000000
0.822110 0.472389 0.000000
0.885557 0.467872 0.000000
0.948394 0.462959 0.000000
1.000000 0.457954 0.000000
0.000000 0.561089 0.000000
0.000000 0.560815 0.000000
0.106050 0.560479 0.000000
0.190799 0.559747 0.000000
0.267338 0.558679 0.000000
0.340307 0.557458 0.000000
0.412299 0.555932 0.000000
0.482521 0.553979 0.000000
0.551690 0.551751 0.000000
0.620111 0.549523 0.000000
0.687434 0.546715 0.000000
0.753811 0.543359 0.000000
0.818753 0.539483 0.000000
0.883055 0.535332 0.000000
0.946960 0.530816 0.000000
1.000000 0.525566 0.000000
0.000000 0.621515 0.000000
0.000000 0.621149 0.000000
0.090120 0.620661 0.000000
0.180484 0.620081 0.000000
0.258335 0.619440 0.000000
0.332006 0.618433 0.000000
0.403754 0.617212 0.000000
0.474006 0.615686 0.000000
0.543420 0.613977 0.000000
0.611902 0.612024 0.000000
0.679652 0.609796 0.000000
0.746120 0.606683 0.000000
0.811795 0.603296 0.000000
0.877165 0.599817 0.000000
0.941924 0.595880 0.000000
1.000000 0.591272 0.000000
0.000000 0.682002 0.000000
0.000000 0.681910 0.000000
0.068269 0.681514 0.000000
0.168093 0.680934 0.000000
0.248020 0.680232 0.000000
0.322759 0.679225 0.000000
0.394995 0.678035 0.000000
0.465461 0.676753 0.000000
0.534936 0.675410 0.000000
0.603693 0.673732 0.000000
0.671687 0.671717 0.000000
0.738888 0.669581 0.000000
0.805325 0.666773 0.000000
0.871183 0.663752 0.000000
0.936614 0.660151 0.000000
1.000000 0.655818 0.000000
0.000000 0.742153 0.000000
0.000000 0.741939 0.000000
0.021302 0.741512 0.000000
0.149508 0.740993 0.000000
0.234806 0.740475 0.000000
0.312108 0.739651 0.000000
0.385321 0.738766 0.000000
0.456519 0.737728 0.000000
0.526452 0.736477 0.000000
0.595300 0.734951 0.000000
0.663661 0.733242 0.000000
0.731289 0.731533 0.000000
0.798703 0.729671 0.000000
0.865110 0.727047 0.000000
0.931090 0.723873 0.000000
0.997192 0.720485 0.000000
0.000000 0.799771 0.000000
0.000000 0.799741 0.000000
0.000000 0.799893 0.000000
0.119387 0.799893 0.000000
0.216892 0.800015 0.000000
0.298253 0.799924 0.000000
0.374151 0.799954 0.000000
0.447120 0.799710 0.000000
0.518608 0.799466 0.000000
0.588830 0.798917 0.000000
0.658686 0.798459 0.000000
0.727871 0.797696 0.000000
0.796902 0.797024 0.000000
0.865049 0.795651 0.000000
0.931273 0.792325 0.000000
0.995727 0.787259 0.000000
0.000000 0.864347 0.000000
0.000000 0.862730 0.000000
0.000000 0.861967 0.000000
0.061189 0.861692 0.000000
0.189364 0.861753 0.000000
0.279576 0.861662 0.000000
0.359258 0.861540 0.000000
0.434668 0.861357 0.000000
0.507774 0.861265 0.000000
0.579004 0.860807 0.000000
0.649714 0.860380 0.000000
0.719448 0.859709 0.000000
0.788937 0.859068 0.000000
0.857725 0.857877 0.000000
0.925872 0.856199 0.000000
0.992462 0.852842 0.000000
0.000000 0.926696 0.000000
0.000000 0.925322 0.000000
0.000000 0.924590 0.000000
0.000000 0.924254 0.000000
0.140383 0.924193 0.000000
0.249729 0.924102 0.000000
0.337438 0.924132 0.000000
0.417243 0.923949 0.000000
0.493172 0.923766 0.000000
0.566522 0.923430 0.000000
0.638666 0.923095 0.000000
0.709926 0.922698 0.000000
0.780697 0.922423 0.000000
0.850980 0.921874 0.000000
0.920897 0.921080 0.000000
0.989899 0.919371 0.000000
0.000000 0.991058 0.000000
0.000000 0.989990 0.000000
0.000000 0.989380 0.000000
0.000000 0.989136 0.000000
0.000000 0.989136 0.000000
0.192813 0.989197 0.000000
0.300572 0.989319 0.000000
0.389868 0.989380 0.000000
0.471656 0.989532 0.000000
0.549401 0.989685 0.000000
0.624964 0.989899 0.000000
0.698970 0.990021 0.000000
0.772396 0.990356 0.000000
0.845212 0.990661 0.000000
0.918242 0.991150 0.000000
0.991577 0.991760 0.000000
0.000275 0.000275 0.184665
0.095277 0.000214 0.181643
0.174350 0.000122 0.175509
0.250065 0.000000 0.168612
0.320806 0.000336 0.161318
0.388434 0.000061 0.154971
0.455970 0.000000 0.150607
0.523217 0.000153 0.146029
0.590021 0.000000 0.141360
0.657313 0.000244 0.136904
0.722499 0.000275 0.132235
0.783932 0.000153 0.127382
0.844419 0.000488 0.121431
0.905913 0.000519 0.114107
0.966888 0.000275 0.105470
1.000000 0.000305 0.092988
0.000000 0.088502 0.177829
0.084565 0.084413 0.173129
0.168551 0.081086 0.168399
0.245426 0.077668 0.163546
0.316716 0.074525 0.158022
0.386084 0.071931 0.153597
0.454871 0.067475 0.149630
0.522820 0.062226 0.145480
0.590295 0.056031 0.140780
0.657984 0.048432 0.136538
0.722835 0.041474 0.132143
0.784054 0.034668 0.126955
0.844572 0.022675 0.121279
0.905974 0.011231 0.114260
0.966949 0.000092 0.105470
1.000000 0.000427 0.092866
0.000000 0.166964 0.167056
0.078065 0.164248 0.164248
0.161318 0.161318 0.161318
0.238560 0.158206 0.157961
0.311772 0.154971 0.154849
0.382971 0.151583 0.151827
0.452522 0.147616 0.147677
0.520745 0.143221 0.143252
0.589197 0.139437 0.139376
0.656611 0.134707 0.134829
0.720668 0.130190 0.130159
0.781827 0.125032 0.125124
0.842649 0.119265 0.119142
0.904112 0.112215 0.112459
0.965423 0.103151 0.103120
1.000000 0.090486 0.090455
0.000000 0.238743 0.157900
0.071992 0.236637 0.156252
0.154513 0.234165 0.154665
0.231266 0.231449 0.152285
0.305119 0.228214 0.149538
0.376928 0.224765 0.146853
0.446784 0.221103 0.143191
0.516594 0.217655 0.139345
0.584833 0.213993 0.135348
0.652399 0.210025 0.131014
0.716457 0.205966 0.126558
0.778042 0.200992 0.121736
0.840238 0.196170 0.115511
0.901671 0.190433 0.108186
0.962249 0.183749 0.098268
1.000000 0.175204 0.084474
0.000000 0.303258 0.148684
0.064027 0.302464 0.147982
0.146700 0.301091 0.146609
0.222782 0.298985 0.144869
0.296239 0.296117 0.142214
0.367895 0.293309 0.139925
0.438941 0.290410 0.136660
0.508782 0.287449 0.133455
0.577539 0.284276 0.129854
0.645899 0.281041 0.125795
0.710780 0.277012 0.121309
0.774197 0.272740 0.116823
0.837308 0.268284 0.110536
0.899962 0.263615 0.103304
0.961730 0.258000 0.092836
1.000000 0.250889 0.076722
0.000000 0.369543 0.140291
0.051881 0.369238 0.139437
0.138277 0.368170 0.138857
0.215976 0.366491 0.137209
0.289677 0.364263 0.135348
0.361486 0.361639 0.132540
0.432227 0.358862 0.129793
0.502617 0.356329 0.126711
0.571893 0.353552 0.123110
0.640131 0.350561 0.118471
0.705318 0.346502 0.114443
0.769467 0.342412 0.109560
0.832792 0.337804 0.103456
0.895567 0.333227 0.094789
0.957733 0.327764 0.082368
1.000000 0.321721 0.064515
0.000000 0.435554 0.131441
0.033631 0.435615 0.131106
0.129366 0.434821 0.130098
0.208499 0.433509 0.128603
0.283146 0.431647 0.126864
0.355779 0.429328 0.123964
0.426490 0.426612 0.121401
0.496468 0.423774 0.117769
0.565667 0.421210 0.113863
0.633661 0.418158 0.109926
0.698878 0.414038 0.105959
0.763485 0.409827 0.100710
0.827207 0.405463 0.093202
0.890501 0.400793 0.082643
0.953185 0.395758 0.068482
1.000000 0.390265 0.044892
0.000000 0.499611 0.119448
0.010651 0.500008 0.119265
0.117861 0.499458 0.119081
0.200076 0.498512 0.117617
0.275639 0.496834 0.115877
0.348486 0.494667 0.113619
0.419471 0.492103 0.110323
0.489265 0.489326 0.106233
0.558007 0.486427 0.102022
0.625879 0.483375 0.098756
0.691920 0.479744 0.093660
0.757229 0.475837 0.087556
0.821469 0.471778 0.078828
0.885069 0.467109 0.065858
0.947936 0.462226 0.045228
1.000000 0.457099 0.012818
0.000000 0.560632 0.105867
0.000000 0.560357 0.105806
0.104158 0.559960 0.104494
0.189822 0.559228 0.103243
0.266209 0.558221 0.102358
0.340002 0.556878 0.100130
0.411566 0.555474 0.097169
0.481880 0.553521 0.094026
0.551141 0.551354 0.089601
0.619745 0.548943 0.084108
0.687068 0.546136 0.079683
0.753262 0.542840 0.071992
0.818326 0.538872 0.060487
0.882811 0.534752 0.041291
0.946746 0.530327 0.014405
1.000000 0.525017 0.000000
0.000000 0.621118 0.091188
0.000000 0.620844 0.090181
0.088655 0.620356 0.089906
0.179812 0.619898 0.088350
0.257450 0.619257 0.087373
0.331456 0.618189 0.085054
0.403265 0.616968 0.080415
0.473518 0.615381 0.076112
0.543084 0.613764 0.070649
0.611627 0.611780 0.064973
0.679408 0.609400 0.055634
0.745846 0.606317 0.042786
0.811551 0.602899 0.025635
0.876982 0.599420 0.000580
0.941863 0.595483 0.000000
1.000000 0.590753 0.000000
0.000000 0.681727 0.067964
0.000000 0.681697 0.068269
0.064240 0.681361 0.066865
0.166903 0.680812 0.064210
0.247562 0.680049 0.061707
0.322240 0.679103 0.058198
0.394415 0.677913 0.053742
0.465217 0.676631 0.047028
0.534661 0.675227 0.038788
0.603388 0.673457 0.027253
0.671412 0.671473 0.014557
0.738735 0.669306 0.000275
0.805081 0.666499 0.000000
0.871122 0.663416 0.000000
0.936584 0.659815 0.000000
1.000000 0.655451 0.000000
0.000000 0.742000 0.022309
0.000000 0.741787 0.021393
0.017456 0.741390 0.018860
0.147890 0.740871 0.016205
0.233982 0.740322 0.012665
0.311254 0.739620 0.007721
0.384802 0.738735 0.000458
0.456184 0.737636 0.000000
0.526085 0.736355 0.000000
0.595178 0.734798 0.000000
0.663447 0.733150 0.000000
0.731197 0.731350 0.000000
0.798611 0.729519 0.000000
0.865049 0.726864 0.000000
0.931121 0.723568 0.000000
0.997284 0.720089 0.000000
0.000000 0.799954 0.000000
0.000000 0.799893 0.000000
0.000000 0.799985 0.000000
0.115694 0.800046 0.000000
0.215061 0.800107 0.000000
0.297215 0.799985 0.000000
0.373419 0.800015 0.000000
0.446601 0.799771 0.000000
0.518242 0.799496 0.000000
0.588617 0.798947 0.000000
0.658534 0.798489 0.000000
0.727871 0.797757 0.000000
0.796963 0.797086 0.000000
0.865110 0.795651 0.000000
0.931395 0.792233 0.000000
0.995972 0.787137 0.000000
0.000000 0.864469 0.000000
0.000000 0.862943 0.000000
0.000000 0.862211 0.000000
0.053407 0.861936 0.000000
0.187015 0.861936 0.000000
0.277623 0.861814 0.000000
0.358129 0.861723 0.000000
0.433814 0.861540 0.000000
0.507073 0.861418 0.000000
0.578790 0.860929 0.000000
0.649409 0.860502 0.000000
0.719326 0.859831 0.000000
0.788876 0.859159 0.000000
0.857786 0.857939 0.000000
0.926024 0.856229 0.000000
0.992767 0.852811 0.000000
0.000000 0.926818 0.000000
0.000000 0.925536 0.000000
0.000000 0.924804 0.000000
0.000000 0.924437 0.000000
0.134585 0.924376 0.000000
0.246708 0.924315 0.000000
0.335637 0.924346 0.000000
0.415930 0.924163 0.000000
0.492042 0.923949 0.000000
0.565850 0.923583 0.000000
0.638117 0.923278 0.000000
0.709560 0.922850 0.000000
0.780514 0.922576 0.000000
0.850919 0.921996 0.000000
0.920989 0.921172 0.000000
0.990173 0.919463 0.000000
0.000000 0.991272 0.000000
0.000000 0.990234 0.000000
0.000000 0.989624 0.000000
0.000000 0.989410 0.000000
0.000000 0.989441 0.000000
0.186893 0.989471 0.000000
0.296727 0.989563 0.000000
0.387274 0.989624 0.000000
0.469764 0.989746 0.000000
0.548028 0.989899 0.000000
0.623957 0.990082 0.000000
0.698268 0.990204 0.000000
0.771847 0.990539 0.000000
0.844968 0.990814 0.000000
0.918120 0.991272 0.000000
0.991669 0.991882 0.000000
0.000000 0.000000 0.263523
0.090639 0.000122 0.260533
0.170321 0.000061 0.254337
0.245670 0.000000 0.246799
0.316869 0.000092 0.238682
0.385443 0.000092 0.232029
0.453559 0.000275 0.226871
0.520714 0.000061 0.222171
0.587304 0.000153 0.217288
0.654536 0.000183 0.212680
0.719570 0.000122 0.208286
0.781216 0.000275 0.203891
0.842344 0.000305 0.198764
0.904326 0.000519 0.193332
0.965637 0.000153 0.187076
1.000000 0.000214 0.178592
0.000000 0.084443 0.256077
0.082643 0.082429 0.251926
0.164889 0.080110 0.246860
0.241367 0.076936 0.241337
0.313481 0.073823 0.235538
0.383673 0.071351 0.230472
0.452430 0.066835 0.225986
0.519707 0.062165 0.221469
0.587579 0.054780 0.216892
0.655207 0.045106 0.212680
0.719966 0.037293 0.208011
0.781460 0.029877 0.203983
0.842710 0.019654 0.198764
0.904417 0.008362 0.193393
0.965667 0.000153 0.186709
1.000000 0.000244 0.178134
0.000000 0.164034 0.246220
0.077729 0.161746 0.243015
0.159243 0.159365 0.239170
0.236179 0.156893 0.235935
0.309087 0.153964 0.231998
0.380011 0.150759 0.228214
0.449531 0.146792 0.224002
0.517937 0.142428 0.219791
0.586450 0.137240 0.215518
0.653925 0.132601 0.211124
0.718013 0.127962 0.206546
0.779355 0.123018 0.202090
0.840787 0.117586 0.197147
0.902678 0.110384 0.191775
0.964233 0.100618 0.185214
1.000000 0.086427 0.176730
0.000000 0.236423 0.236240
0.071595 0.234409 0.234562
0.153811 0.232273 0.232181
0.229679 0.229679 0.229679
0.302617 0.226871 0.226719
0.374121 0.223545 0.223423
0.444495 0.219883 0.219791
0.514092 0.216434 0.216159
0.582422 0.212161 0.212314
0.649989 0.207950 0.208072
0.714076 0.203983 0.204013
0.776089 0.199466 0.199222
0.838651 0.194766 0.194583
0.900298 0.189090 0.189242
0.961151 0.182010 0.182010
1.000000 0.173037 0.172610
0.000000 0.301366 0.225193
0.064118 0.300603 0.224430
0.145876 0.299138 0.223484
0.221530 0.297185 0.221683
0.294560 0.294713 0.219333
0.366430 0.292119 0.216526
0.437171 0.288975 0.213931
0.506981 0.286076 0.210544
0.575799 0.282689 0.207095
0.643977 0.279332 0.203586
0.708766 0.275425 0.199619
0.772641 0.271611 0.195926
0.835874 0.267216 0.191775
0.898802 0.262425 0.186191
0.960784 0.256718 0.179110
1.000000 0.249363 0.169528
0.000000 0.368017 0.217380
0.050599 0.367742 0.216953
0.137453 0.366796 0.215915
0.214542 0.365057 0.214817
0.288396 0.362890 0.212589
0.360388 0.360449 0.210269
0.431281 0.357763 0.207401
0.501427 0.355108 0.205020
0.570428 0.352331 0.201541
0.638697 0.349248 0.198459
0.703853 0.345190 0.195193
0.768154 0.341039 0.191348
0.831571 0.336828 0.186679
0.894591 0.332128 0.181064
0.956970 0.326726 0.173404
1.000000 0.320470 0.163424
0.000000 0.433936 0.209476
0.030365 0.434150 0.209201
0.127718 0.433417 0.208499
0.207218 0.432227 0.207431
0.282078 0.430396 0.205600
0.354437 0.428290 0.203830
0.425605 0.425544 0.201389
0.495521 0.422797 0.198306
0.564416 0.420142 0.195621
0.632471 0.416968 0.192264
0.697719 0.412848 0.188998
0.762356 0.408820 0.185306
0.826230 0.404456 0.180392
0.889647 0.399969 0.173953
0.952575 0.394903 0.165377
1.000000 0.389136 0.154757
0.000000 0.498421 0.199985
