luts/Kodak_Portra_800.cube
# Generated for krafta web app
# https://www.facebook.com/krafta.visio
# Preset: KDK - Portra 800
# Color profile : sRGB Color Space Profile
LUT_3D_SIZE 6
DOMAIN_MIN 0.0 0.0 0.0
DOMAIN_MAX 1.0 1.0 1.0
0.000000 0.000000 0.000000
0.254368 0.000122 0.000000
0.461433 0.000214 0.000183
0.662501 0.000366 0.000366
0.848722 0.000153 0.000366
1.000000 0.000275 0.000610
0.000000 0.239109 0.000000
0.231876 0.231876 0.000000
0.447486 0.222446 0.000000
0.653254 0.212802 0.000000
0.840757 0.198856 0.000000
1.000000 0.180453 0.000000
0.000000 0.436561 0.000000
0.210758 0.435492 0.000000
0.429084 0.429267 0.000000
0.636805 0.420996 0.000000
0.830350 0.407965 0.000000
1.000000 0.392676 0.000000
0.000000 0.621393 0.000000
0.181186 0.620294 0.000000
0.404303 0.617853 0.000000
0.613031 0.613123 0.000000
0.812894 0.604273 0.000000
1.000000 0.591485 0.000000
0.000000 0.799161 0.000000
0.120302 0.799588 0.000000
0.374487 0.799924 0.000000
0.589136 0.799069 0.000000
0.797116 0.797238 0.000000
0.995453 0.787259 0.000000
0.000000 0.990814 0.000000
0.000000 0.988830 0.000000
0.302190 0.988983 0.000000
0.550103 0.989532 0.000000
0.772793 0.990417 0.000000
0.991608 0.991821 0.000000
0.000000 0.000000 0.263523
0.245670 0.000000 0.246799
0.453559 0.000275 0.226871
0.654536 0.000183 0.212680
0.842344 0.000305 0.198764
1.000000 0.000214 0.178592
0.000000 0.236423 0.236240
0.229679 0.229679 0.229679
0.444495 0.219883 0.219791
0.649989 0.207950 0.208072
0.838651 0.194766 0.194583
1.000000 0.173037 0.172610
0.000000 0.433936 0.209476
0.207218 0.432227 0.207431
0.425605 0.425544 0.201389
0.632471 0.416968 0.192264
0.826230 0.404456 0.180392
1.000000 0.389136 0.154757
0.000000 0.620417 0.180453
0.177951 0.619348 0.179080
0.402380 0.616419 0.174411
0.611200 0.611292 0.165866
0.811154 0.602472 0.148867
1.000000 0.590082 0.105165
0.000000 0.799985 0.115389
0.111696 0.799863 0.112764
0.372229 0.800015 0.105470
0.588190 0.799008 0.088258
0.797024 0.797177 0.050446
0.996368 0.786893 0.000000
0.000000 0.991608 0.000000
0.000000 0.989776 0.000000
0.290898 0.989899 0.000000
0.545830 0.990204 0.000000
0.771023 0.990784 0.000000
0.991852 0.992065 0.000000
0.000519 0.000000 0.470130
0.230320 0.000000 0.459602
0.443030 0.000061 0.443732
0.647120 0.000214 0.430488
0.836332 0.000305 0.414527
1.000000 0.000275 0.399207
0.000000 0.227665 0.453620
0.222721 0.222629 0.446784
0.437324 0.214542 0.437354
0.642237 0.203067 0.425513
0.832486 0.193301 0.411475
1.000000 0.170596 0.395453
0.000000 0.428168 0.428077
0.202274 0.426459 0.426520
0.420630 0.420630 0.420630
0.626520 0.412360 0.412451
0.821592 0.402014 0.401892
1.000000 0.385962 0.385840
0.000000 0.617212 0.404089
0.176089 0.616266 0.403204
0.400275 0.613550 0.400366
0.608698 0.608759 0.395056
0.809354 0.599969 0.384558
1.000000 0.586908 0.364874
0.000000 0.799985 0.368963
0.080842 0.800046 0.368444
0.366217 0.800046 0.366705
0.585687 0.798825 0.361395
0.796841 0.797024 0.352972
0.997955 0.785092 0.319890
0.000000 0.993256 0.269902
0.000000 0.991608 0.262455
0.252201 0.991485 0.253483
0.532341 0.991852 0.235538
0.765957 0.992035 0.198398
0.992645 0.992889 0.098512
0.000641 0.000000 0.657069
0.217929 0.000000 0.652796
0.428901 0.000000 0.644099
0.632349 0.000061 0.633143
0.828122 0.000061 0.619959
1.000000 0.000061 0.604944
0.000000 0.218173 0.650843
0.215396 0.215244 0.646082
0.425574 0.209537 0.639094
0.629328 0.199893 0.629328
0.825406 0.188357 0.616907
1.000000 0.161959 0.601740
0.000000 0.418738 0.630793
0.201907 0.417700 0.629511
0.414191 0.413947 0.624720
0.618189 0.407507 0.618128
0.815946 0.398108 0.608423
1.000000 0.382391 0.596521
0.000000 0.611963 0.611902
0.172244 0.611200 0.611170
0.397345 0.609186 0.609186
0.604456 0.604547 0.604517
0.806546 0.597436 0.597406
1.000000 0.584955 0.584863
0.000000 0.799557 0.587396
0.053254 0.799588 0.587335
0.362280 0.799374 0.586694
0.584070 0.798154 0.584131
0.795285 0.795438 0.578820
0.998718 0.783261 0.558556
0.000000 0.994446 0.538842
0.000000 0.993164 0.534813
0.227390 0.993164 0.531548
0.524712 0.993286 0.525170
0.762844 0.993103 0.512016
0.993652 0.993835 0.488380
0.001099 0.000000 0.832212
0.206638 0.000000 0.830625
0.411933 0.000000 0.826413
0.614130 0.000000 0.821195
0.813535 0.000000 0.814664
1.000000 0.000000 0.806119
0.000183 0.208591 0.829801
0.206790 0.206790 0.827604
0.411414 0.202518 0.824369
0.613428 0.194583 0.819242
0.812802 0.179294 0.812711
1.000000 0.147982 0.803555
0.000000 0.408942 0.819455
0.201083 0.408209 0.818631
0.405097 0.405005 0.816159
0.606714 0.398962 0.812039
0.807614 0.390143 0.807523
1.000000 0.373877 0.800137
0.000000 0.602045 0.808652
0.163241 0.601862 0.808438
0.390082 0.600641 0.807309
0.598047 0.598077 0.805142
0.801694 0.592248 0.801602
1.000000 0.581415 0.794522
0.000000 0.797299 0.797238
0.018982 0.797238 0.797269
0.357916 0.797177 0.797147
0.582055 0.796292 0.796262
0.792020 0.792142 0.792050
0.998291 0.783627 0.783536
0.000000 0.995056 0.773312
0.000000 0.994079 0.771481
0.226047 0.994293 0.770657
0.525689 0.994324 0.768704
0.763760 0.994141 0.763943
0.994934 0.995087 0.755642
0.001740 0.000000 1.000000
0.189944 0.000000 1.000000
0.395544 0.000000 1.000000
0.596765 0.000000 1.000000
0.797086 0.000000 1.000000
0.998108 0.000000 1.000000
0.000000 0.192294 1.000000
0.190890 0.190311 1.000000
0.395911 0.183902 1.000000
0.597223 0.170169 1.000000
0.797482 0.143069 1.000000
0.998993 0.081422 0.998779
0.000000 0.394690 1.000000
0.179873 0.393713 1.000000
0.390356 0.390082 1.000000
0.593347 0.382849 1.000000
0.795102 0.369512 1.000000
0.999115 0.349706 0.998962
0.000000 0.590356 1.000000
0.130556 0.590570 1.000000
0.379187 0.591241 1.000000
0.586633 0.586633 1.000000
0.791531 0.578729 0.999664
0.998444 0.568536 0.998322
0.000000 0.787442 0.999084
0.000000 0.787442 0.999084
0.331121 0.787686 0.999176
0.570855 0.788235 0.999268
0.787259 0.787289 0.998932
0.997986 0.781674 0.997925
0.000000 0.996399 0.996307
0.000000 0.996124 0.996063
0.179965 0.996155 0.996094
0.517266 0.996277 0.996246
0.764614 0.996796 0.996735
0.998352 0.998352 0.998352
