luts/Kodak_Echrome_200.cube
# Generated for krafta web app
# https://www.facebook.com/krafta.visio
# Preset: KDK - Echrome 200
# Color profile : sRGB Color Space Profile
LUT_3D_SIZE 6
DOMAIN_MIN 0.0 0.0 0.0
DOMAIN_MAX 1.0 1.0 1.0
0.000000 0.000000 0.000000
0.290288 0.003967 0.003601
0.488380 0.008362 0.008240
0.679835 0.026001 0.026520
0.852811 0.065309 0.063966
1.000000 0.101656 0.100923
0.000000 0.269230 0.001312
0.258518 0.258488 0.007019
0.469978 0.242863 0.022889
0.666743 0.235325 0.046723
0.839963 0.230381 0.076692
1.000000 0.235080 0.107637
0.064942 0.459266 0.064363
0.244755 0.459297 0.068879
0.452979 0.453010 0.076326
0.650141 0.441108 0.088319
0.830259 0.428168 0.109041
1.000000 0.420996 0.132143
0.110353 0.629725 0.110903
0.241520 0.628656 0.112215
0.429175 0.627558 0.118410
0.624842 0.624903 0.127474
0.811307 0.615747 0.142214
0.989624 0.606653 0.160830
0.145357 0.788174 0.146029
0.249393 0.790188 0.149355
0.419837 0.793606 0.158419
0.607111 0.796384 0.170504
0.798947 0.799069 0.188052
0.975708 0.788113 0.196078
0.200351 0.969696 0.200595
0.270420 0.964935 0.189487
0.424903 0.966339 0.198123
0.603510 0.969390 0.215518
0.790188 0.973907 0.242588
0.979736 0.979858 0.280674
0.000488 0.000000 0.301335
0.272801 0.000000 0.273533
0.474861 0.031952 0.246708
0.665766 0.067445 0.239048
0.841154 0.096010 0.237247
1.000000 0.121859 0.241276
0.028016 0.265110 0.265110
0.255863 0.255863 0.255863
0.464088 0.246708 0.246738
0.660731 0.240360 0.240055
0.835813 0.238712 0.238499
1.000000 0.240635 0.240482
0.081117 0.455299 0.245853
0.244968 0.453651 0.245335
0.446265 0.446326 0.242466
0.641413 0.436286 0.240574
0.821927 0.425940 0.242313
0.999359 0.420844 0.247440
0.120516 0.628321 0.244755
0.245060 0.627466 0.244907
0.428992 0.625422 0.246220
0.621759 0.621790 0.249058
0.807553 0.613611 0.252903
0.988800 0.607111 0.260594
0.151858 0.790463 0.250980
0.252293 0.791135 0.252659
0.421546 0.794125 0.258183
0.607721 0.796475 0.266331
0.799069 0.799161 0.277897
0.976440 0.788907 0.278508
0.198154 0.970855 0.277348
0.267887 0.966583 0.268132
0.424292 0.967895 0.274174
0.603510 0.970459 0.286442
0.790219 0.974304 0.306279
0.979980 0.980102 0.337285
0.000275 0.000000 0.496162
0.245396 0.007141 0.478859
0.456153 0.037324 0.456123
0.654017 0.067933 0.441810
0.832578 0.105806 0.428779
1.000000 0.140414 0.424109
0.057313 0.251011 0.475532
0.245304 0.245182 0.464149
0.452125 0.240360 0.452216
0.648096 0.237369 0.438911
0.826658 0.244114 0.428412
1.000000 0.249058 0.421637
0.082460 0.445899 0.446021
0.241581 0.444984 0.444800
0.439033 0.439033 0.439033
0.631983 0.432380 0.432349
0.814206 0.427131 0.426947
0.995453 0.423529 0.423346
0.135256 0.624170 0.429419
0.252506 0.623529 0.430030
0.430152 0.621637 0.430152
0.618494 0.618463 0.429267
0.803677 0.612390 0.427527
0.987182 0.607568 0.426093
0.159152 0.790860 0.418921
0.257694 0.791897 0.420722
0.425208 0.794614 0.425269
0.609369 0.796628 0.430365
0.799313 0.799405 0.438270
0.976867 0.789242 0.429389
0.177584 0.972808 0.420722
0.250523 0.968994 0.412634
0.415778 0.969818 0.415991
0.600977 0.972595 0.425086
0.790005 0.975921 0.437385
0.981476 0.981598 0.457496
0.020600 0.018402 0.663600
0.227970 0.029175 0.657130
0.434913 0.053864 0.645686
0.632776 0.076020 0.632776
0.821653 0.105287 0.620722
1.000000 0.135622 0.610346
0.074861 0.239017 0.658900
0.236057 0.236179 0.651057
0.434333 0.234836 0.641444
0.629908 0.235050 0.629999
0.817136 0.240909 0.618280
0.995148 0.244724 0.606592
0.106111 0.431708 0.633570
0.243046 0.432013 0.632441
0.429877 0.429816 0.626795
0.620478 0.426673 0.620478
0.806119 0.424018 0.612390
0.991730 0.421729 0.606989
0.140841 0.617304 0.617334
0.253300 0.617060 0.617060
0.429816 0.616266 0.616266
0.612879 0.613062 0.612970
0.799893 0.609796 0.609644
0.987182 0.604913 0.604791
0.163821 0.792142 0.603265
0.259617 0.793027 0.604211
0.424567 0.794919 0.606256
0.609033 0.796841 0.609125
0.797635 0.797757 0.611688
0.979126 0.788571 0.600336
0.105196 0.975708 0.591485
0.197238 0.972778 0.583886
0.393622 0.973785 0.586053
0.591638 0.976135 0.591730
0.786893 0.978515 0.597528
0.984009 0.984131 0.610437
0.043488 0.041749 0.825193
0.218021 0.048829 0.822812
0.414801 0.064332 0.817075
0.611627 0.084443 0.811307
0.804654 0.105379 0.804532
0.993469 0.128695 0.798245
0.081697 0.227543 0.823819
0.226902 0.226688 0.820188
0.417639 0.228275 0.815915
0.611627 0.231418 0.809812
0.802335 0.235233 0.802365
0.988251 0.237949 0.793881
0.118563 0.419745 0.810361
0.239597 0.419623 0.809384
0.418250 0.418189 0.806332
0.606989 0.416419 0.801663
0.797452 0.416144 0.797452
0.986511 0.414405 0.792966
0.141665 0.607111 0.799985
0.249638 0.607416 0.799954
0.419165 0.606470 0.798825
0.605035 0.605127 0.797269
0.795132 0.603967 0.795132
0.985595 0.599542 0.791684
0.162448 0.792752 0.792721
0.258457 0.793332 0.793332
0.423987 0.795010 0.795010
0.607630 0.796506 0.796445
0.793423 0.793454 0.793454
0.983612 0.786770 0.786648
0.111421 0.978485 0.785397
0.203952 0.976257 0.781521
0.388830 0.977966 0.781796
0.579370 0.980285 0.780697
0.780331 0.982635 0.780331
0.987823 0.987915 0.787594
0.044526 0.042756 0.996216
0.210391 0.047364 0.995544
0.403143 0.056672 0.993805
0.598657 0.073091 0.991760
0.794125 0.095277 0.990051
0.988495 0.120943 0.988495
0.058228 0.212894 0.995911
0.213260 0.213169 0.994995
0.403082 0.213504 0.992615
0.596826 0.214633 0.989380
0.789517 0.214694 0.985260
0.981720 0.215091 0.981689
0.055940 0.402289 0.992645
0.213260 0.402838 0.992615
0.402380 0.402258 0.991302
0.595880 0.400977 0.989044
0.789120 0.397711 0.985595
0.983459 0.397436 0.983429
0.058259 0.596704 0.990326
0.208225 0.596033 0.990326
0.394629 0.593347 0.990265
0.591333 0.591363 0.988739
0.787900 0.588617 0.986542
0.985168 0.588006 0.985168
0.095888 0.792630 0.988159
0.220371 0.792355 0.988251
0.399878 0.791867 0.988861
0.590295 0.790372 0.989654
0.787533 0.787594 0.989868
0.989197 0.786893 0.989197
0.088838 0.987518 0.987518
0.201694 0.986847 0.986847
0.384833 0.987243 0.987213
0.576471 0.988067 0.988037
0.776852 0.990143 0.990112
0.995270 0.995270 0.995270
