luts/Kodak_Echrome_100.cube
# Generated for krafta web app
# https://www.facebook.com/krafta.visio
# Preset: KDK - Echrome 100
# Color profile : sRGB Color Space Profile
LUT_3D_SIZE 6
DOMAIN_MIN 0.0 0.0 0.0
DOMAIN_MAX 1.0 1.0 1.0
0.000000 0.000000 0.000000
0.311711 0.000000 0.000122
0.513268 0.000305 0.000336
0.708766 0.000031 0.000214
0.880949 0.000061 0.000610
1.000000 0.000366 0.000702
0.000000 0.278416 0.000000
0.263127 0.263096 0.000000
0.487129 0.243565 0.000000
0.691951 0.227268 0.000000
0.866117 0.206973 0.000000
1.000000 0.185122 0.000000
0.000000 0.469459 0.000000
0.229038 0.468299 0.000000
0.457710 0.457801 0.000000
0.666407 0.441627 0.000000
0.852323 0.420203 0.000000
1.000000 0.398108 0.000000
0.000000 0.639246 0.000000
0.189242 0.637476 0.000000
0.416419 0.634607 0.000000
0.628412 0.628626 0.000000
0.825406 0.614099 0.000000
1.000000 0.594476 0.000000
0.000000 0.798611 0.000000
0.121553 0.800137 0.000000
0.376165 0.802243 0.000000
0.592401 0.802914 0.000000
0.802182 0.802396 0.000000
0.992676 0.784878 0.000000
0.000000 0.982238 0.000000
0.000000 0.977539 0.000000
0.291630 0.978210 0.000000
0.542077 0.979858 0.000000
0.765286 0.982086 0.000000
0.984283 0.984497 0.000000
0.000031 0.000214 0.330724
0.290288 0.000031 0.292119
0.497719 0.000092 0.251865
0.694179 0.000244 0.229587
0.869383 0.000336 0.210727
1.000000 0.000305 0.186862
0.000000 0.273472 0.273228
0.259709 0.259709 0.259709
0.481910 0.241947 0.241917
0.686397 0.223789 0.223575
0.862852 0.205875 0.205875
1.000000 0.179538 0.179568
0.000000 0.464942 0.227451
0.224369 0.461952 0.224826
0.450263 0.450263 0.215518
0.657343 0.434730 0.203433
0.843839 0.415106 0.189029
1.000000 0.394079 0.160586
0.000000 0.637873 0.190066
0.187991 0.636286 0.188479
0.414343 0.632227 0.183780
0.625086 0.625147 0.174380
0.821836 0.610925 0.156588
1.000000 0.593103 0.111025
0.000000 0.800870 0.116609
0.112734 0.801114 0.114107
0.374456 0.802792 0.109560
0.591577 0.803037 0.095003
0.802213 0.802457 0.064546
0.993988 0.784848 0.000000
0.000000 0.983673 0.000000
0.000000 0.979400 0.000000
0.277928 0.979980 0.000000
0.537224 0.981140 0.000000
0.763363 0.982635 0.000000
0.984558 0.984771 0.000000
0.000214 0.000000 0.532158
0.257725 0.000031 0.509514
0.477058 0.000214 0.477668
0.680598 0.000244 0.454200
0.860044 0.000305 0.429023
1.000000 0.000183 0.409155
0.000000 0.255711 0.500908
0.245792 0.246159 0.486061
0.468147 0.233066 0.468269
0.672084 0.216831 0.446937
0.852873 0.207889 0.425177
1.000000 0.183536 0.403174
0.000000 0.454139 0.454170
0.217288 0.451789 0.451637
0.441688 0.441688 0.441688
0.647150 0.428473 0.428351
0.835752 0.413581 0.413458
1.000000 0.392645 0.392645
0.000000 0.633112 0.416968
0.190799 0.631800 0.416266
0.413092 0.628016 0.413336
0.621332 0.621302 0.406165
0.818418 0.608087 0.392920
1.000000 0.590143 0.369024
0.000000 0.801450 0.370611
0.088441 0.802060 0.370886
0.370184 0.803464 0.370428
0.589990 0.803220 0.366735
0.802548 0.802670 0.360357
0.995850 0.783017 0.316716
0.000000 0.986389 0.251591
0.000000 0.982544 0.238529
0.226841 0.982605 0.228489
0.521324 0.983856 0.209995
0.757687 0.984649 0.166384
0.986023 0.986236 0.002075
0.000671 0.000000 0.696254
0.234073 0.000000 0.688228
0.450477 0.000000 0.673335
0.654749 0.000000 0.655268
0.847349 0.000000 0.635248
1.000000 0.000000 0.613092
0.026917 0.238834 0.687922
0.233494 0.233433 0.678676
0.445899 0.225315 0.666133
0.650050 0.212833 0.649958
0.841978 0.201389 0.630610
1.000000 0.173495 0.607599
0.000000 0.436652 0.653437
0.220066 0.435798 0.651484
0.430457 0.430518 0.643488
0.633387 0.421088 0.633265
0.826444 0.408942 0.618402
1.000000 0.390570 0.602350
0.000000 0.624994 0.624872
0.188907 0.624079 0.624018
0.411170 0.621546 0.621485
0.614649 0.614771 0.614740
0.813504 0.605371 0.605280
1.000000 0.589044 0.588922
0.000000 0.802243 0.590234
0.077455 0.802670 0.590753
0.369238 0.803311 0.591211
0.589868 0.802914 0.590112
0.800259 0.800381 0.585168
0.997009 0.781155 0.555444
0.000000 0.988891 0.526757
0.000000 0.985931 0.518395
0.176486 0.986175 0.515251
0.508904 0.986969 0.509361
0.752926 0.986816 0.494148
0.987915 0.988098 0.466438
0.009094 0.006561 0.852018
0.216556 0.005615 0.849210
0.422644 0.000000 0.842100
0.625483 0.000000 0.834379
0.823972 0.000000 0.824704
1.000000 0.000000 0.812375
0.038788 0.222599 0.849363
0.220035 0.219577 0.845243
0.422583 0.215152 0.839872
0.624170 0.206607 0.831846
0.821622 0.190188 0.821530
1.000000 0.156497 0.807401
0.052277 0.421424 0.832090
0.220310 0.420630 0.830777
0.416358 0.416052 0.826688
0.614679 0.408148 0.820279
0.813779 0.397925 0.813657
1.000000 0.379400 0.803433
0.000000 0.609674 0.816068
0.185519 0.609766 0.815885
0.400763 0.608331 0.814023
0.605188 0.605158 0.811063
0.806546 0.598322 0.806455
1.000000 0.584558 0.796780
0.000000 0.800595 0.800504
0.062593 0.800839 0.800839
0.366857 0.801602 0.801572
0.589227 0.801450 0.801450
0.795224 0.795315 0.795224
0.997436 0.782162 0.782101
0.000000 0.990784 0.767086
0.000000 0.988495 0.763058
0.176059 0.989197 0.762295
0.507744 0.989654 0.759609
0.752712 0.989410 0.752895
0.990387 0.990570 0.741726
0.001862 0.000000 1.000000
0.195590 0.000000 1.000000
0.399145 0.000000 1.000000
0.599756 0.000000 1.000000
0.799832 0.000000 1.000000
1.000000 0.000000 1.000000
0.000000 0.199557 1.000000
0.198154 0.197086 1.000000
0.399359 0.189578 1.000000
0.599084 0.174868 1.000000
0.797696 0.143954 1.000000
0.997528 0.070588 0.997284
0.000000 0.400244 1.000000
0.192355 0.399603 1.000000
0.395483 0.395178 1.000000
0.595666 0.386358 1.000000
0.795254 0.369787 1.000000
0.998169 0.346624 0.998016
0.000000 0.594018 1.000000
0.150484 0.594354 1.000000
0.386206 0.595209 1.000000
0.589166 0.589044 1.000000
0.791501 0.578668 0.999634
0.997620 0.566155 0.997467
0.000000 0.787778 0.999298
0.000000 0.787808 0.999329
0.333532 0.788388 0.999573
0.572900 0.789364 0.999817
0.788052 0.788083 0.999237
0.997498 0.780301 0.997406
0.000000 0.993317 0.993225
0.000000 0.992645 0.992554
0.067323 0.992676 0.992584
0.492256 0.992798 0.992737
0.750484 0.993622 0.993530
0.996002 0.996002 0.996002
