luts/Kodak_Echrome.cube
# Generated for krafta web app
# https://www.facebook.com/krafta.visio
# Preset: KDK - Echrome
# Color profile : sRGB Color Space Profile
LUT_3D_SIZE 16
DOMAIN_MIN 0.0 0.0 0.0
DOMAIN_MAX 1.0 1.0 1.0
0.000000 0.000000 0.000000
0.101137 0.000061 0.000153
0.203464 0.000000 0.000061
0.286442 0.000000 0.000061
0.355108 0.000061 0.000336
0.421241 0.000031 0.000031
0.483589 0.000000 0.000427
0.548913 0.000000 0.000061
0.611780 0.000061 0.000122
0.675013 0.000336 0.000244
0.736049 0.000275 0.000458
0.793942 0.002319 0.001465
0.850492 0.005585 0.004669
0.908751 0.008942 0.007996
0.967163 0.011353 0.009766
1.000000 0.010956 0.009277
0.000000 0.107301 0.000000
0.103456 0.103334 0.000000
0.193271 0.104219 0.000000
0.275822 0.100710 0.000000
0.346960 0.094575 0.000000
0.413611 0.088808 0.000000
0.480629 0.084199 0.000000
0.546410 0.082307 0.000000
0.608820 0.079652 0.000000
0.672724 0.078035 0.000000
0.733730 0.077485 0.000000
0.791470 0.077333 0.002167
0.847684 0.076905 0.005249
0.906157 0.077577 0.007965
0.964904 0.077974 0.009918
1.000000 0.076173 0.010224
0.000000 0.192630 0.000000
0.098116 0.187198 0.000000
0.181674 0.181552 0.000000
0.261418 0.177432 0.000000
0.335424 0.171511 0.000000
0.406928 0.166995 0.000000
0.475105 0.162600 0.000000
0.540703 0.158480 0.000000
0.603906 0.154849 0.000000
0.669215 0.152407 0.000000
0.729976 0.150179 0.000214
0.787747 0.147738 0.002747
0.843778 0.145357 0.006012
0.903044 0.143801 0.008789
0.962219 0.142885 0.010163
1.000000 0.141024 0.010468
0.000000 0.262364 0.000000
0.089204 0.258610 0.000000
0.171725 0.254765 0.000000
0.250492 0.250431 0.000000
0.324437 0.244999 0.000000
0.395575 0.239994 0.000000
0.463325 0.234806 0.000000
0.530114 0.230442 0.000000
0.596063 0.226871 0.000000
0.661280 0.223941 0.000000
0.721889 0.220035 0.001740
0.779629 0.216220 0.004578
0.837217 0.212650 0.006806
0.895872 0.210208 0.008270
0.953796 0.207553 0.007660
1.000000 0.204929 0.007202
0.000000 0.324132 0.000000
0.084779 0.323461 0.000000
0.164706 0.323308 0.000000
0.242466 0.320989 0.000000
0.317388 0.317357 0.000000
0.389563 0.312993 0.000000
0.458778 0.308110 0.000000
0.527123 0.303929 0.000000
0.594018 0.299870 0.000336
0.660151 0.296422 0.001404
0.721065 0.291661 0.004913
0.780484 0.287083 0.007721
0.839841 0.283330 0.010163
0.899657 0.280308 0.011933
0.958068 0.276860 0.013062
1.000000 0.272313 0.008911
0.000000 0.387457 0.000000
0.083345 0.388342 0.000000
0.160037 0.388495 0.000000
0.235172 0.386633 0.000092
0.307836 0.383185 0.000641
0.379278 0.379248 0.001099
0.449500 0.375677 0.001801
0.518944 0.372473 0.002655
0.586267 0.368627 0.003265
0.652155 0.364691 0.003845
0.713191 0.359106 0.007385
0.773892 0.354406 0.009949
0.833585 0.350011 0.012207
0.893584 0.346288 0.013275
0.952483 0.342443 0.012390
1.000000 0.337743 0.007294
0.003784 0.450721 0.003967
0.083192 0.451728 0.004791
0.156130 0.451637 0.004730
0.229007 0.450202 0.004913
0.300999 0.447974 0.005341
0.372045 0.445380 0.005158
0.442390 0.442573 0.005554
0.511284 0.439185 0.004700
0.577630 0.434546 0.005676
0.642603 0.430121 0.005829
0.704707 0.424750 0.009644
0.766354 0.420142 0.011780
0.826719 0.415412 0.012818
0.887053 0.411292 0.012696
0.946502 0.407172 0.010315
1.000000 0.402564 0.004242
0.007080 0.511925 0.007446
0.082124 0.514031 0.008118
0.153017 0.515038 0.007721
0.224582 0.514336 0.008148
0.295720 0.512352 0.008057
0.365179 0.508965 0.008118
0.433234 0.504570 0.006561
0.500389 0.500389 0.006348
0.566613 0.496345 0.005707
0.631647 0.492226 0.007355
0.694850 0.487648 0.009979
0.757321 0.483223 0.011658
0.818265 0.478553 0.011597
0.878569 0.474159 0.009155
0.938109 0.469642 0.004578
0.999268 0.466316 0.000000
0.007874 0.563134 0.007324
0.076692 0.563287 0.007263
0.145510 0.564172 0.007660
0.214847 0.564263 0.008515
0.284337 0.563989 0.008911
0.353429 0.562951 0.008911
0.422217 0.561608 0.008362
0.490181 0.559655 0.008881
0.557641 0.557733 0.008545
0.624353 0.555505 0.009400
0.689540 0.552392 0.011444
0.753231 0.548791 0.013031
0.815213 0.544427 0.012482
0.876036 0.539940 0.009461
0.936217 0.535332 0.003723
0.994903 0.530114 0.000000
0.010437 0.621332 0.011627
0.077119 0.620569 0.010864
0.142336 0.620417 0.011109
0.209934 0.620050 0.010925
0.277592 0.619532 0.010864
0.345434 0.618860 0.011200
0.413336 0.618341 0.010590
0.480568 0.617212 0.010315
0.547845 0.616052 0.010193
0.614221 0.614374 0.010040
0.680079 0.612329 0.009400
0.743313 0.608606 0.008637
0.805478 0.604456 0.005890
0.867674 0.600855 0.001160
0.929229 0.597162 0.000000
0.989563 0.592706 0.000000
0.009155 0.678370 0.010529
0.073640 0.677913 0.009705
0.139254 0.677455 0.009888
0.205356 0.677028 0.009735
0.272282 0.676539 0.009033
0.338964 0.675868 0.008942
0.405859 0.675166 0.008392
0.472297 0.674128 0.007721
0.538598 0.673091 0.006378
0.604334 0.671534 0.005585
0.669581 0.669703 0.003845
0.733974 0.667323 0.000824
0.797177 0.664271 0.000000
0.860014 0.661280 0.000000
0.922240 0.658045 0.000000
0.983276 0.653925 0.000000
0.000885 0.735134 0.002594
0.066499 0.734707 0.001953
0.133150 0.734279 0.001343
0.199771 0.733730 0.000793
0.266117 0.732998 0.000000
0.332433 0.732113 0.000000
0.398322 0.731228 0.000000
0.464149 0.730220 0.000000
0.529900 0.729274 0.000000
0.595087 0.727871 0.000000
0.660060 0.726436 0.000000
0.724636 0.724849 0.000000
0.789212 0.723354 0.000000
0.852750 0.721096 0.000000
0.915862 0.718563 0.000000
0.979095 0.716182 0.000000
0.000000 0.784237 0.000000
0.035218 0.784390 0.000000
0.117494 0.785122 0.000000
0.188296 0.785763 0.000000
0.256657 0.786709 0.000000
0.323949 0.787289 0.000000
0.391119 0.788113 0.000000
0.457771 0.788540 0.000000
0.524590 0.789273 0.000000
0.591058 0.789517 0.000000
0.657679 0.790036 0.000000
0.723812 0.790097 0.000000
0.790188 0.790372 0.000000
0.855161 0.789242 0.000000
0.917174 0.785428 0.000000
0.976043 0.778988 0.000000
0.000000 0.849607 0.000000
0.002472 0.846128 0.000000
0.097932 0.844663 0.000000
0.175296 0.844388 0.000000
0.246403 0.844968 0.000000
0.315343 0.845426 0.000000
0.383093 0.846006 0.000000
0.450294 0.846555 0.000000
0.517266 0.847410 0.000000
0.583490 0.847562 0.000000
0.649928 0.847898 0.000000
0.715755 0.847715 0.000000
0.781582 0.847623 0.000000
0.846403 0.846555 0.000000
0.910185 0.844541 0.000000
0.971740 0.840482 0.000000
0.000000 0.909148 0.000000
0.000000 0.906188 0.000000
0.055116 0.904540 0.000000
0.152651 0.903990 0.000000
0.230472 0.904173 0.000000
0.302739 0.904479 0.000000
0.372686 0.905119 0.000000
0.440864 0.905486 0.000000
0.508476 0.906035 0.000000
0.575280 0.906188 0.000000
0.641932 0.906432 0.000000
0.708278 0.906584 0.000000
0.774838 0.907103 0.000000
0.840848 0.907042 0.000000
0.906340 0.906493 0.000000
0.969909 0.904112 0.000000
0.000000 0.971038 0.000000
0.000000 0.968658 0.000000
0.000000 0.967376 0.000000
0.106844 0.966949 0.000000
0.204044 0.967102 0.000000
0.284062 0.967407 0.000000
0.358068 0.968017 0.000000
0.429511 0.968627 0.000000
0.499306 0.969543 0.000000
0.568353 0.970459 0.000000
0.636835 0.971557 0.000000
0.704921 0.972625 0.000000
0.773404 0.974212 0.000000
0.841642 0.975647 0.000000
0.910307 0.977508 0.000000
0.979431 0.979614 0.000000
0.000275 0.000092 0.103243
0.111452 0.000000 0.111727
0.204746 0.000305 0.109926
0.285527 0.000092 0.099092
0.352209 0.000336 0.091371
0.416968 0.000336 0.087861
0.481361 0.000000 0.085084
0.545892 0.000000 0.082918
0.608057 0.000305 0.081270
0.671778 0.000580 0.079652
0.733150 0.003235 0.079286
0.790463 0.007385 0.079377
0.846464 0.010040 0.079164
0.904540 0.012207 0.078920
0.962615 0.013611 0.078309
1.000000 0.012665 0.076081
0.000000 0.109285 0.109194
0.103944 0.103944 0.103944
0.196078 0.098482 0.098268
0.276036 0.094240 0.093996
0.346197 0.090242 0.090364
0.413001 0.087190 0.087160
0.479500 0.085145 0.085237
0.544396 0.083467 0.083284
0.606897 0.081392 0.081361
0.671748 0.080659 0.079957
0.732601 0.080262 0.079988
0.789639 0.080232 0.079713
0.845121 0.079469 0.078828
0.902983 0.079408 0.078584
0.960845 0.079011 0.078004
1.000000 0.076417 0.075746
0.000000 0.195346 0.098116
0.095705 0.190036 0.095521
0.184268 0.184268 0.092378
0.264500 0.178622 0.090242
0.338140 0.173037 0.088624
0.408545 0.168521 0.086946
0.475868 0.163882 0.085420
0.540978 0.159854 0.083497
0.605829 0.156832 0.082002
0.670344 0.154543 0.080934
0.729885 0.151492 0.080049
0.786343 0.148684 0.079835
0.842039 0.146151 0.078950
0.900420 0.144778 0.078370
0.958556 0.142855 0.077607
1.000000 0.140291 0.075196
0.000000 0.265721 0.092500
0.091096 0.261875 0.091035
0.174228 0.257511 0.089448
0.252781 0.253025 0.087556
0.327153 0.247501 0.086732
0.398169 0.242191 0.085603
0.466316 0.237156 0.084138
0.533440 0.233097 0.082918
0.599268 0.229099 0.081636
0.663630 0.225650 0.080385
0.723507 0.221439 0.079591
0.780728 0.217319 0.079591
0.838956 0.214176 0.079194
0.897063 0.211337 0.078401
0.953826 0.208072 0.076326
1.000000 0.204837 0.073030
0.000000 0.324346 0.087678
0.087190 0.323156 0.087404
0.164828 0.320867 0.086763
0.240299 0.317449 0.085664
0.312932 0.313085 0.084291
0.384131 0.308904 0.083223
0.453346 0.304692 0.082399
0.521691 0.301091 0.081331
0.588128 0.297185 0.080110
0.653925 0.293675 0.079042
0.715267 0.289555 0.079255
0.775326 0.285435 0.079561
0.835386 0.282139 0.079622
0.895354 0.279118 0.079347
0.954070 0.275731 0.078035
1.000000 0.271458 0.073548
0.005585 0.386847 0.085969
0.085756 0.386511 0.085878
0.159396 0.385077 0.085389
0.233066 0.382696 0.084779
0.305150 0.379492 0.083650
0.375708 0.375860 0.082765
0.445014 0.371984 0.081666
0.513481 0.368658 0.080568
0.580499 0.364935 0.079591
0.646143 0.361303 0.078828
0.708034 0.356573 0.079255
0.769314 0.352422 0.079530
0.829374 0.348272 0.079347
0.889220 0.344640 0.078096
0.948272 0.340734 0.075654
1.000000 0.336522 0.071168
0.007416 0.450782 0.084962
0.084932 0.451087 0.085206
0.156405 0.449989 0.084718
0.228092 0.448005 0.084291
0.299321 0.445228 0.083436
0.369451 0.442054 0.082338
0.438392 0.438361 0.081056
0.506096 0.434730 0.080110
0.572900 0.431006 0.078553
0.638025 0.426886 0.078431
0.699947 0.421759 0.078676
0.761440 0.417243 0.078340
0.821958 0.412818 0.077394
0.882261 0.408759 0.075959
0.941833 0.404730 0.072755
1.000000 0.400793 0.067811
0.007965 0.510643 0.082429
0.082948 0.511620 0.082856
0.152102 0.511131 0.082826
0.222721 0.509697 0.082277
0.292607 0.507500 0.081209
0.361883 0.504448 0.080629
0.430030 0.500938 0.079377
0.497108 0.497169 0.078035
0.563104 0.493294 0.076417
0.627893 0.489265 0.076600
0.690852 0.484749 0.077089
0.753140 0.480537 0.076905
0.814420 0.476204 0.075410
0.874662 0.471778 0.072297
0.934264 0.467353 0.067048
0.994995 0.463783 0.060731
0.007874 0.565179 0.078706
0.077913 0.564935 0.078828
0.146029 0.564538 0.078614
0.214755 0.563806 0.078462
0.283787 0.562737 0.078523
0.352422 0.561456 0.078004
0.420935 0.560052 0.077790
0.488777 0.558038 0.077363
0.555749 0.555749 0.076844
0.622065 0.553399 0.076478
0.687007 0.550256 0.076997
0.750515 0.546715 0.077150
0.812467 0.542473 0.075624
0.873808 0.538415 0.072908
0.934844 0.534447 0.068055
0.994720 0.529931 0.059388
0.011353 0.621546 0.078370
0.077424 0.621027 0.078126
0.143191 0.620478 0.077943
0.210025 0.619928 0.077790
0.277684 0.619348 0.077577
0.345098 0.618372 0.077668
0.412512 0.617212 0.076814
0.479438 0.615656 0.076387
0.546075 0.614099 0.075807
0.612116 0.612146 0.074769
0.677302 0.609949 0.073671
0.740719 0.606348 0.072389
0.803311 0.602716 0.069825
0.865995 0.599573 0.065736
0.928222 0.596368 0.059632
0.989441 0.592523 0.047700
0.010040 0.678462 0.076112
0.075288 0.678401 0.075868
0.139986 0.677882 0.075837
0.205692 0.677241 0.075471
0.272343 0.676356 0.074769
0.338659 0.675227 0.073762
0.405066 0.673945 0.072938
0.471107 0.672572 0.071901
0.537163 0.671351 0.071046
0.602625 0.669642 0.069306
0.667536 0.667597 0.067567
0.731777 0.665278 0.064790
0.795132 0.662501 0.060975
0.858244 0.659815 0.054536
0.920897 0.656886 0.044038
0.982574 0.653254 0.024903
0.000000 0.734676 0.068482
0.066712 0.734371 0.068360
0.133303 0.733791 0.067628
0.199496 0.733120 0.066804
0.265690 0.732387 0.065431
0.331884 0.731533 0.064424
0.397925 0.730678 0.063142
0.463661 0.729549 0.061341
0.529015 0.728267 0.060121
0.593957 0.726589 0.056916
0.658534 0.724819 0.053712
0.722805 0.722957 0.049928
0.786954 0.721187 0.044770
0.850278 0.718807 0.034241
0.913268 0.716274 0.016754
0.976806 0.714137 0.000000
0.000000 0.785550 0.038331
0.036194 0.785611 0.038636
0.117342 0.786130 0.039124
0.188174 0.786496 0.040223
0.256352 0.787106 0.040620
0.323888 0.787533 0.041199
0.391211 0.788296 0.042237
0.457771 0.788693 0.042603
0.524529 0.789212 0.043122
0.590784 0.789303 0.041993
0.657252 0.789670 0.041840
0.723323 0.789639 0.040101
0.789822 0.789914 0.039368
0.854826 0.788876 0.034150
0.917144 0.785306 0.013733
0.976440 0.779232 0.000000
0.000000 0.850401 0.014588
0.001465 0.847135 0.003723
0.097475 0.845701 0.000000
0.175082 0.845365 0.000000
0.246372 0.845823 0.000000
0.315404 0.846067 0.000000
0.383093 0.846433 0.000000
0.450050 0.846799 0.000000
0.516991 0.847440 0.000000
0.583246 0.847379 0.000000
0.649531 0.847623 0.000000
0.715389 0.847440 0.000000
0.781399 0.847440 0.000000
0.846342 0.846494 0.000000
0.910369 0.844663 0.000000
0.972198 0.840818 0.000000
0.000000 0.909667 0.000000
0.000000 0.906920 0.000000
0.051698 0.905425 0.000000
0.151644 0.904906 0.000000
0.230228 0.905028 0.000000
0.302434 0.905241 0.000000
0.372381 0.905730 0.000000
0.440650 0.905913 0.000000
0.508232 0.906188 0.000000
0.574975 0.906188 0.000000
0.641596 0.906371 0.000000
0.708003 0.906462 0.000000
0.774594 0.906981 0.000000
0.840757 0.906981 0.000000
0.906401 0.906554 0.000000
0.970245 0.904326 0.000000
0.000000 0.971527 0.000000
0.000000 0.969238 0.000000
0.000000 0.967987 0.000000
0.103700 0.967590 0.000000
0.202304 0.967773 0.000000
0.283146 0.968078 0.000000
0.357580 0.968627 0.000000
0.428992 0.969146 0.000000
0.498970 0.969909 0.000000
0.567895 0.970733 0.000000
0.636500 0.971710 0.000000
0.704616 0.972595 0.000000
0.772976 0.973999 0.000000
0.841184 0.975372 0.000000
0.910002 0.977264 0.000000
0.979248 0.979400 0.000000
0.000244 0.000000 0.218753
0.115633 0.000000 0.213230
0.200351 0.000000 0.201663
0.278386 0.000183 0.189303
0.346868 0.000244 0.177798
0.410590 0.000336 0.169741
0.474891 0.003601 0.165194
0.538842 0.007965 0.161593
0.601770 0.007507 0.157412
0.666621 0.008148 0.154726
0.728389 0.010559 0.152468
0.786191 0.015717 0.150668
0.842863 0.017273 0.148226
0.902068 0.018891 0.146731
0.960815 0.019440 0.145113
1.000000 0.016144 0.141726
0.000000 0.106416 0.208499
0.101137 0.100404 0.199588
0.191135 0.095888 0.190951
0.269780 0.092744 0.182406
0.338994 0.090913 0.174289
0.406409 0.091035 0.169375
0.472663 0.089479 0.165255
0.537591 0.087587 0.161227
0.601892 0.085359 0.157687
0.667079 0.084077 0.154940
0.728176 0.083833 0.152712
0.785611 0.083955 0.150729
0.841917 0.082856 0.148074
0.900755 0.082795 0.146578
0.959167 0.081788 0.144472
1.000000 0.078920 0.141512
0.000000 0.191226 0.191043
0.094728 0.186282 0.186313
0.181216 0.181216 0.181216
0.259648 0.176852 0.176730
0.332952 0.172763 0.172702
0.403113 0.168887 0.169039
0.470375 0.164981 0.164858
0.535637 0.160739 0.160678
0.601648 0.157839 0.157809
0.666133 0.155245 0.154971
0.725826 0.152621 0.152377
0.782620 0.150271 0.149783
0.839322 0.147799 0.147463
0.898100 0.146334 0.145907
0.956817 0.144076 0.143832
1.000000 0.141238 0.140780
0.000000 0.262425 0.178683
0.094362 0.258732 0.176577
0.173800 0.254856 0.173983
0.250706 0.250706 0.171115
0.323980 0.245975 0.168307
0.394476 0.241398 0.165377
0.462379 0.236606 0.161807
0.530266 0.232822 0.159060
0.595819 0.228916 0.156252
0.660273 0.225162 0.153414
0.720119 0.221469 0.150973
0.777493 0.217716 0.148775
0.836484 0.214755 0.147066
0.894743 0.211856 0.145052
0.951812 0.208469 0.141787
1.000000 0.204654 0.138125
0.009949 0.321660 0.167819
0.092226 0.320562 0.167086
0.165652 0.318578 0.165713
0.239445 0.315404 0.164004
0.311437 0.311345 0.161501
0.381811 0.307317 0.159335
0.450752 0.303441 0.157107
0.518791 0.299870 0.154940
0.585199 0.296025 0.152651
0.650721 0.292790 0.150698
0.712245 0.288731 0.149142
0.772946 0.285252 0.147860
0.833402 0.282109 0.146700
0.893645 0.279240 0.145266
0.952758 0.275944 0.142977
1.000000 0.271672 0.138796
0.013306 0.385321 0.162112
0.090150 0.384985 0.161776
0.160769 0.383612 0.160922
0.233158 0.381201 0.159854
0.304295 0.378027 0.158145
0.374487 0.374517 0.156191
0.443275 0.370733 0.154208
0.511620 0.367376 0.152590
0.578454 0.363867 0.150546
0.643824 0.360113 0.148836
0.705989 0.355779 0.147829
0.767330 0.351812 0.146853
0.827695 0.347906 0.145205
0.887785 0.344305 0.143496
0.947143 0.340520 0.140749
1.000000 0.336431 0.136843
0.013611 0.449226 0.157626
0.087587 0.449653 0.157748
0.156863 0.448615 0.157168
0.228122 0.446784 0.156435
0.298894 0.444068 0.155184
0.368780 0.441108 0.153597
0.437446 0.437446 0.151797
0.504967 0.433814 0.150118
0.571405 0.429969 0.148287
0.636316 0.425910 0.146822
0.698299 0.420966 0.145968
0.759884 0.416510 0.144808
0.820432 0.412238 0.142733
0.880919 0.408240 0.140597
0.940734 0.404364 0.137789
1.000000 0.400549 0.133730
0.011292 0.509514 0.152255
0.083101 0.510674 0.152743
0.152407 0.510094 0.152590
0.222690 0.508751 0.151797
0.292393 0.506432 0.150942
0.361273 0.503471 0.149722
0.429206 0.499947 0.148104
0.496254 0.496345 0.146365
0.562188 0.492500 0.144808
0.626856 0.488563 0.144106
0.689876 0.484047 0.143404
0.752071 0.479927 0.142153
0.813291 0.475654 0.140291
0.873625 0.471229 0.137301
0.933379 0.466773 0.133211
0.994263 0.463203 0.128389
0.008667 0.564569 0.146426
0.078920 0.564233 0.146578
0.146029 0.563836 0.146456
0.214878 0.563043 0.146090
0.283452 0.562066 0.145754
0.352056 0.560693 0.145388
0.420447 0.559289 0.144961
0.488075 0.557305 0.144228
0.554986 0.555108 0.143557
0.621302 0.552728 0.142916
0.686152 0.549645 0.143038
0.749660 0.546105 0.142153
0.811551 0.541894 0.140291
0.873167 0.537957 0.137728
0.934386 0.534173 0.134249
0.994598 0.529778 0.128054
0.013153 0.621057 0.144137
0.077790 0.620661 0.143923
0.143221 0.620172 0.143771
0.210147 0.619654 0.143648
0.277806 0.619104 0.143496
0.345190 0.618128 0.143069
0.412360 0.616876 0.142336
0.479225 0.615320 0.141787
0.545861 0.613764 0.141146
0.611627 0.611841 0.140230
0.676722 0.609369 0.138949
0.740108 0.605859 0.137514
0.802731 0.602319 0.135134
0.865568 0.599268 0.132326
0.927977 0.596124 0.128267
0.989410 0.592340 0.121187
0.012024 0.678157 0.140993
0.076204 0.678187 0.140932
0.140291 0.677790 0.140780
0.206027 0.677119 0.140261
0.272374 0.676234 0.139712
0.338628 0.675074 0.138949
0.404974 0.673823 0.138277
0.471168 0.672480 0.137484
0.537072 0.671168 0.136446
0.602319 0.669306 0.135470
0.667109 0.667201 0.133761
0.731380 0.664912 0.131930
0.794705 0.662165 0.128939
0.857969 0.659541 0.125032
0.920775 0.656672 0.119020
0.982605 0.653101 0.109194
0.000000 0.734432 0.134279
0.066285 0.734188 0.133974
0.133089 0.733608 0.133577
0.199466 0.732967 0.133120
0.265721 0.732326 0.132448
0.331853 0.731533 0.131685
0.397986 0.730678 0.130983
0.463600 0.729488 0.129763
0.528893 0.728145 0.128420
0.593835 0.726436 0.126497
0.658381 0.724666 0.124514
0.722683 0.722744 0.121920
0.786740 0.720974 0.119203
0.850095 0.718624 0.113375
0.913115 0.715999 0.103975
0.976745 0.713832 0.091768
0.000000 0.785977 0.116548
0.033722 0.786007 0.116701
0.116060 0.786374 0.116884
0.187472 0.786740 0.117189
0.256016 0.787320 0.117556
0.323705 0.787716 0.118105
0.390936 0.788449 0.118593
0.457588 0.788785 0.118624
0.524407 0.789364 0.118990
0.590692 0.789456 0.118685
0.657343 0.789792 0.118624
0.723507 0.789822 0.117586
0.790005 0.790127 0.117403
0.854948 0.788968 0.114900
0.917235 0.785336 0.103883
0.976715 0.779263 0.078737
0.000000 0.850614 0.104494
0.000000 0.847501 0.098573
0.095125 0.846128 0.096101
0.173465 0.845792 0.095003
0.245304 0.846189 0.095033
0.314458 0.846403 0.095033
0.382605 0.846769 0.094881
0.449836 0.847135 0.094636
0.516838 0.847715 0.094606
0.583215 0.847684 0.093416
0.649561 0.847868 0.092073
0.715480 0.847654 0.089906
0.781491 0.847654 0.087434
0.846525 0.846677 0.082094
0.910521 0.844785 0.072297
0.972564 0.840940 0.038361
0.000000 0.909911 0.061830
0.000000 0.907225 0.050385
0.041413 0.905821 0.043702
0.148196 0.905303 0.040681
0.227817 0.905425 0.039521
0.301030 0.905638 0.037781
0.371313 0.906126 0.037781
0.439979 0.906310 0.035309
0.507683 0.906493 0.031678
0.574640 0.906462 0.026856
0.641382 0.906645 0.021790
0.707942 0.906737 0.015106
0.774655 0.907225 0.009949
0.840848 0.907225 0.000031
0.906615 0.906798 0.000000
0.970581 0.904601 0.000000
0.000000 0.971862 0.000000
0.000000 0.969604 0.000000
0.000000 0.968383 0.000000
0.094240 0.968017 0.000000
0.197940 0.968231 0.000000
0.280095 0.968536 0.000000
0.355505 0.969055 0.000000
0.427436 0.969512 0.000000
0.497841 0.970245 0.000000
0.567132 0.971069 0.000000
0.635981 0.972015 0.000000
0.704219 0.972900 0.000000
0.772732 0.974273 0.000000
0.841123 0.975586 0.000000
0.910033 0.977447 0.000000
0.979461 0.979614 0.000000
0.000336 0.000061 0.300481
0.106905 0.000000 0.294499
0.191257 0.000000 0.283085
0.269291 0.000061 0.270420
0.339513 0.000092 0.257206
0.405676 0.000000 0.247135
0.470771 0.003845 0.240269
0.534569 0.008911 0.234745
0.597559 0.012360 0.230076
0.662135 0.013458 0.226688
0.723842 0.016754 0.223423
0.782132 0.022065 0.220401
0.839719 0.025025 0.217136
0.899657 0.026825 0.215030
0.958740 0.027527 0.212558
1.000000 0.021881 0.208621
0.000000 0.100679 0.288548
0.096986 0.097353 0.280247
0.183810 0.094179 0.271275
0.262211 0.091188 0.262150
0.333349 0.089937 0.252628
0.402197 0.090455 0.245792
0.468421 0.089967 0.239658
0.532616 0.089204 0.234287
0.597559 0.088167 0.230442
0.662562 0.086549 0.227054
0.723659 0.086061 0.223545
0.781460 0.087495 0.220249
0.838987 0.087343 0.216892
0.898222 0.087343 0.214511
0.957092 0.085512 0.211765
1.000000 0.082094 0.208164
0.000000 0.185245 0.272343
0.096223 0.181430 0.266270
0.177981 0.177920 0.260227
0.255528 0.174624 0.255344
0.328099 0.171481 0.249607
0.398047 0.168338 0.244327
0.465217 0.164920 0.239109
0.531151 0.161410 0.234409
0.597009 0.158419 0.230442
0.661646 0.155337 0.226688
0.721431 0.153231 0.222751
0.778531 0.151492 0.219272
0.836484 0.149752 0.216129
0.895750 0.148104 0.213504
0.954833 0.145907 0.210849
1.000000 0.142336 0.207340
0.000000 0.258488 0.258366
0.094453 0.255131 0.255131
0.173190 0.251377 0.251408
0.247868 0.247868 0.247868
0.319921 0.243961 0.243931
0.390021 0.239750 0.239780
0.458564 0.235599 0.235660
0.526268 0.232120 0.231846
0.591760 0.228000 0.228092
0.656214 0.224369 0.224338
0.716213 0.221164 0.220890
0.774258 0.217899 0.217685
0.833951 0.215488 0.215274
0.892576 0.212650 0.212436
0.950042 0.208835 0.208713
1.000000 0.204562 0.204227
0.012482 0.318486 0.242252
0.093294 0.317388 0.241520
0.165682 0.315282 0.240085
0.237797 0.312566 0.237949
0.308904 0.308995 0.235111
0.379065 0.305486 0.232273
0.447791 0.301732 0.229221
0.515862 0.298436 0.226383
0.582116 0.294743 0.223392
0.647608 0.291447 0.220737
0.709041 0.287816 0.218296
0.770474 0.285008 0.216434
0.831266 0.282170 0.214572
0.891783 0.279484 0.212497
0.951202 0.276249 0.209689
1.000000 0.271580 0.205081
0.017609 0.383124 0.235019
0.091524 0.382727 0.234836
0.160525 0.381353 0.233677
0.232059 0.379034 0.232151
0.302708 0.376043 0.229984
0.372747 0.372656 0.227695
0.441291 0.369146 0.225162
0.509422 0.365881 0.222904
0.576013 0.362432 0.220554
0.641413 0.358923 0.218235
0.703609 0.354955 0.216464
0.765164 0.351263 0.214664
0.825742 0.347631 0.212467
0.886137 0.344152 0.210117
0.945739 0.340429 0.207187
1.000000 0.336309 0.203220
0.014557 0.446845 0.228763
0.088075 0.447272 0.228946
0.156619 0.446387 0.228428
0.227115 0.444678 0.227420
0.297520 0.442145 0.225864
0.367193 0.439338 0.224155
0.435859 0.435981 0.222110
0.503227 0.432288 0.219791
0.569390 0.428443 0.217563
0.634302 0.424537 0.215518
0.696345 0.419928 0.213931
0.758053 0.415747 0.212009
0.818814 0.411627 0.209751
0.879515 0.407874 0.207156
0.939696 0.403937 0.203983
0.999969 0.400092 0.199985
0.011505 0.507683 0.222171
