luts/Kodak_Portra.cube
# Generated for krafta web app
# https://www.facebook.com/krafta.visio
# Preset: KDK - Portra
# Color profile : sRGB Color Space Profile
LUT_3D_SIZE 6
DOMAIN_MIN 0.0 0.0 0.0
DOMAIN_MAX 1.0 1.0 1.0
0.000000 0.000000 0.000000
0.285008 0.003937 0.003754
0.482490 0.008820 0.007660
0.674464 0.025818 0.026551
0.850340 0.064576 0.063569
1.000000 0.101991 0.100771
0.001526 0.265629 0.001282
0.255253 0.255222 0.006989
0.465675 0.240482 0.023590
0.662837 0.233677 0.046418
0.838163 0.229679 0.075502
1.000000 0.235325 0.108614
0.062928 0.456672 0.064149
0.243259 0.457008 0.068086
0.451240 0.451270 0.075837
0.649042 0.440223 0.087678
0.830472 0.428382 0.109071
1.000000 0.422095 0.133272
0.110689 0.629603 0.110384
0.241581 0.628656 0.112398
0.429572 0.628077 0.118502
0.626032 0.626062 0.128298
0.813474 0.617517 0.143099
0.995148 0.610864 0.166537
0.158938 0.800046 0.158633
0.258122 0.800595 0.161471
0.426184 0.801480 0.167483
0.612024 0.801968 0.177676
0.802304 0.802487 0.192416
0.987671 0.799130 0.214878
0.245884 0.986328 0.245975
0.311131 0.984894 0.244266
0.453010 0.985412 0.251621
0.624781 0.986633 0.267033
0.807004 0.988678 0.292210
0.991943 0.992096 0.332677
0.000031 0.000061 0.296269
0.268864 0.000031 0.269535
0.470222 0.031006 0.243931
0.661860 0.065980 0.237522
0.839414 0.094972 0.236240
1.000000 0.122652 0.241611
0.027558 0.262181 0.262119
0.253178 0.253178 0.253178
0.460792 0.244511 0.244480
0.657710 0.239017 0.238865
0.834684 0.238010 0.238041
1.000000 0.241337 0.241001
0.080171 0.453254 0.244297
0.243992 0.451759 0.243839
0.445014 0.444923 0.241825
0.640497 0.435706 0.240177
0.822416 0.426184 0.242771
1.000000 0.422187 0.248936
0.120333 0.628595 0.244846
0.244999 0.627832 0.245182
0.429603 0.626093 0.246616
0.623072 0.623133 0.249912
0.809781 0.615473 0.254673
0.994263 0.611505 0.266392
0.166445 0.800473 0.261112
0.262394 0.800595 0.262211
0.428107 0.801328 0.266117
0.612573 0.801785 0.272313
0.802304 0.802426 0.281712
0.987549 0.799496 0.295506
0.250034 0.986572 0.316136
0.313909 0.985290 0.314092
0.455024 0.985779 0.320012
0.626001 0.986877 0.332006
0.807553 0.988739 0.351873
0.992004 0.992187 0.385504
0.000641 0.000000 0.491310
0.243015 0.007355 0.474617
0.453010 0.036713 0.453040
0.651514 0.066987 0.439796
0.831876 0.105684 0.428321
1.000000 0.142397 0.425147
0.055268 0.249210 0.472358
0.243320 0.243473 0.461250
0.449897 0.239139 0.449897
0.646448 0.236484 0.437903
0.826566 0.244053 0.428321
1.000000 0.250797 0.422980
0.081483 0.444800 0.444648
0.240848 0.443854 0.443854
0.438422 0.438422 0.438422
0.632074 0.432380 0.432349
0.815213 0.428168 0.427985
0.997955 0.426093 0.425879
0.135988 0.625025 0.430274
0.253574 0.624445 0.430884
0.431281 0.622919 0.431403
0.620233 0.620264 0.430945
0.806119 0.614740 0.429755
0.992401 0.612970 0.432654
0.182193 0.799771 0.429541
0.272038 0.800076 0.430426
0.432837 0.800778 0.432807
0.614405 0.801266 0.436194
0.802701 0.802792 0.443030
0.986908 0.800076 0.446632
0.251682 0.986999 0.453864
0.314061 0.985870 0.451728
0.455024 0.986267 0.455085
0.626490 0.987457 0.462776
0.807980 0.989288 0.475196
0.992676 0.992767 0.497353
0.019471 0.018677 0.660853
0.226932 0.028351 0.654658
0.433783 0.052644 0.643977
0.632105 0.075044 0.632074
0.822293 0.106111 0.621332
1.000000 0.139040 0.612055
0.074586 0.238102 0.657282
0.235477 0.235203 0.649531
0.433661 0.234257 0.640497
0.629908 0.234806 0.629816
0.818235 0.241642 0.619257
0.998016 0.248753 0.609094
0.106233 0.431678 0.633417
0.243107 0.432044 0.632502
0.430365 0.430243 0.627222
0.621485 0.427619 0.621424
0.807919 0.425940 0.614130
0.994873 0.426612 0.610742
0.143496 0.618982 0.618952
0.255497 0.618799 0.618769
0.431891 0.618311 0.618311
0.615320 0.615473 0.615412
0.802487 0.612818 0.612726
0.991791 0.611688 0.611536
0.186618 0.799222 0.611017
0.273777 0.799496 0.611383
0.432685 0.800107 0.612360
0.613733 0.800687 0.613794
0.801266 0.801389 0.616205
0.987945 0.799649 0.615290
0.227115 0.988159 0.617060
0.292241 0.987335 0.614527
0.443366 0.987793 0.616541
0.620935 0.988861 0.621027
0.806058 0.990417 0.627924
0.993805 0.993927 0.642115
0.043122 0.041749 0.825254
0.218143 0.049439 0.823026
0.415229 0.065339 0.817594
0.612665 0.086030 0.812497
0.806638 0.108370 0.806546
0.996429 0.134798 0.800931
0.082795 0.228000 0.824399
0.227146 0.227237 0.820859
0.418341 0.229007 0.816953
0.612940 0.232670 0.811368
0.804562 0.237675 0.804593
0.993469 0.246067 0.798734
0.122438 0.421118 0.811795
0.241733 0.421057 0.810910
0.420111 0.420081 0.808103
0.609125 0.418860 0.803769
0.800351 0.419928 0.800412
0.991577 0.422644 0.798306
0.150332 0.609827 0.802579
0.255344 0.610254 0.802579
0.423102 0.609522 0.801572
0.608515 0.608637 0.800198
0.799039 0.608606 0.798978
0.990661 0.608148 0.798032
0.184573 0.798337 0.798337
0.272007 0.798550 0.798520
0.431128 0.799100 0.799130
0.612757 0.800320 0.800320
0.798795 0.798886 0.798825
0.990387 0.797574 0.797452
0.226719 0.989014 0.800992
0.292638 0.988434 0.799771
0.438605 0.989288 0.799985
0.612207 0.990631 0.799741
0.801175 0.992309 0.801205
0.995605 0.995727 0.809445
0.049561 0.048157 0.998383
0.212192 0.052949 0.997772
0.404852 0.063569 0.996155
0.601068 0.082551 0.994598
0.797330 0.108248 0.993378
0.992279 0.138552 0.992248
0.066377 0.216068 0.998169
0.216617 0.216342 0.997284
0.405707 0.217502 0.995148
0.600855 0.222568 0.993622
0.795865 0.229984 0.991669
0.990021 0.241245 0.989990
0.077882 0.406348 0.995026
0.220981 0.407050 0.994995
0.407752 0.407691 0.994263
0.601648 0.409277 0.993133
0.796139 0.411719 0.991577
0.990478 0.416663 0.990478
0.107729 0.602533 0.993530
0.228611 0.602075 0.993561
0.406287 0.600305 0.993652
0.600397 0.600427 0.992920
0.795865 0.601007 0.991913
0.991363 0.603357 0.991363
0.164614 0.799466 0.992645
0.257237 0.799283 0.992706
0.419623 0.798703 0.992950
0.602533 0.797360 0.993378
0.795682 0.795712 0.993622
0.993713 0.797299 0.993713
0.242069 0.994537 0.994507
0.305943 0.994385 0.994354
0.444739 0.994659 0.994629
0.615229 0.995239 0.995209
0.800961 0.996399 0.996338
0.999084 0.999084 0.999084
