luts/Kodak_Kodachrome_64.cube
# Generated for krafta web app
# https://www.facebook.com/krafta.visio
# Preset: KDK - Kodachrome 64
# Color profile : sRGB Color Space Profile
LUT_3D_SIZE 6
DOMAIN_MIN 0.0 0.0 0.0
DOMAIN_MAX 1.0 1.0 1.0
0.000000 0.000000 0.000000
0.265751 0.006928 0.006897
0.423407 0.010010 0.009674
0.584619 0.028382 0.027863
0.729427 0.054597 0.053468
0.892088 0.084688 0.083589
0.002991 0.197787 0.006287
0.197482 0.184115 0.009461
0.380133 0.172549 0.018250
0.556634 0.167391 0.034058
0.704921 0.163210 0.057465
0.875700 0.170932 0.083375
0.042451 0.332372 0.030976
0.180636 0.335546 0.033204
0.353918 0.332464 0.037385
0.528283 0.325292 0.051545
0.694850 0.317357 0.071931
0.872435 0.315892 0.092134
0.045136 0.465797 0.050050
0.163149 0.464851 0.050233
0.318303 0.465339 0.052979
0.489845 0.468696 0.059388
0.667720 0.470069 0.073396
0.855070 0.472908 0.090883
0.000000 0.609064 0.040406
0.126558 0.613336 0.044007
0.297368 0.620691 0.051667
0.469856 0.626825 0.061555
0.659510 0.641657 0.076661
0.841855 0.639307 0.071168
0.000000 0.817685 0.000000
0.000000 0.806546 0.000000
0.258366 0.809476 0.000000
0.455207 0.815854 0.000000
0.649073 0.824002 0.000000
0.848356 0.839628 0.006348
0.002869 0.002594 0.256687
0.226017 0.002808 0.208316
0.382940 0.040406 0.174075
0.545708 0.071656 0.171328
0.700343 0.089662 0.171633
0.876310 0.109529 0.179873
0.042542 0.193118 0.183871
0.198398 0.185031 0.177035
0.363287 0.177279 0.169711
0.536553 0.175479 0.169162
0.692439 0.175784 0.169711
0.862730 0.179782 0.173922
0.072511 0.324468 0.158389
0.182101 0.323796 0.157870
0.336980 0.317845 0.155734
0.505638 0.314397 0.158816
0.673610 0.311620 0.164706
0.858854 0.315618 0.174136
0.067689 0.462959 0.150576
0.168643 0.461921 0.150301
0.315648 0.459449 0.150057
0.481270 0.461036 0.152590
0.658564 0.465034 0.160067
0.853361 0.474983 0.172580
0.000000 0.613703 0.139437
0.132906 0.615351 0.140810
0.301213 0.621790 0.146242
0.471717 0.628046 0.152224
0.660243 0.643915 0.163607
0.844511 0.642298 0.158785
0.000000 0.822965 0.115328
0.000000 0.812284 0.096437
0.256870 0.815213 0.099916
0.456641 0.819974 0.107057
0.650538 0.827665 0.115846
0.851072 0.842435 0.126802
0.022431 0.021607 0.406073
0.188815 0.029786 0.368261
0.354742 0.046143 0.333257
0.525292 0.070527 0.320195
0.684901 0.103334 0.313542
0.869322 0.140078 0.323186
0.084535 0.193362 0.365576
0.195468 0.182895 0.344060
0.352850 0.175723 0.328588
0.518853 0.176822 0.318822
0.683375 0.190066 0.316838
0.861936 0.204349 0.321477
0.082246 0.322789 0.312383
0.187564 0.323156 0.313390
0.342962 0.324895 0.315587
0.499947 0.319554 0.309697
0.671534 0.324132 0.314305
0.867521 0.335058 0.324620
0.101320 0.467628 0.298070
0.188540 0.466896 0.298985
0.326085 0.464820 0.298711
0.486305 0.467750 0.300908
0.666255 0.476661 0.309514
0.867918 0.491432 0.322515
0.012634 0.629023 0.289067
0.153292 0.631647 0.291417
0.316777 0.638270 0.297887
0.487160 0.644282 0.304112
0.678065 0.661372 0.318669
0.862303 0.659174 0.308385
0.000000 0.843717 0.280003
0.000000 0.832700 0.264347
0.253086 0.833860 0.266148
0.466102 0.840970 0.273472
0.666468 0.847929 0.279576
0.871336 0.863157 0.288975
0.056916 0.052766 0.533288
0.178042 0.058808 0.518029
0.334112 0.070100 0.495155
0.495369 0.079347 0.476509
0.666102 0.101320 0.469734
0.859190 0.137911 0.478950
0.114809 0.194400 0.531609
0.199008 0.185855 0.513329
0.339208 0.179171 0.492378
0.494972 0.175265 0.475624
0.668727 0.186221 0.472847
0.855772 0.202762 0.477974
0.124147 0.327550 0.487831
0.207431 0.328496 0.486244
0.340063 0.322881 0.475044
0.494881 0.321965 0.471412
0.672297 0.329229 0.476692
0.877317 0.348089 0.495491
0.113771 0.474220 0.465187
0.197513 0.476387 0.466957
0.340246 0.478401 0.469398
0.505638 0.488533 0.479011
0.683497 0.495521 0.485328
0.891020 0.512505 0.501976
0.058289 0.653468 0.467628
0.175418 0.655512 0.469856
0.335454 0.660243 0.475135
0.507744 0.666499 0.482002
0.694636 0.678553 0.492226
0.889342 0.681575 0.488960
0.000000 0.872435 0.468605
0.000000 0.863249 0.454505
0.248783 0.866148 0.456947
0.478248 0.872496 0.463966
0.686152 0.877043 0.466438
0.900694 0.893431 0.476875
0.095674 0.088533 0.685267
0.185000 0.091310 0.679561
0.326085 0.096315 0.665339
0.483619 0.104494 0.652247
0.651423 0.113680 0.642206
0.848417 0.135714 0.653010
0.137057 0.198367 0.694118
0.207492 0.194491 0.683925
0.340215 0.192721 0.673762
0.493385 0.191928 0.659602
0.658656 0.191867 0.647333
0.848386 0.200443 0.652583
0.170474 0.342596 0.677424
0.233188 0.342626 0.675502
0.353796 0.338598 0.668025
0.500755 0.332128 0.656245
0.670863 0.331945 0.655238
0.871489 0.344366 0.670558
0.156222 0.494179 0.663142
0.228122 0.497536 0.666072
0.360510 0.500572 0.669032
0.516106 0.500877 0.667750
0.693751 0.505058 0.674006
0.902312 0.520836 0.693294
0.094545 0.668818 0.662013
0.194797 0.672602 0.665797
0.353491 0.682918 0.675807
0.531731 0.696101 0.688319
0.719051 0.704677 0.697566
0.927581 0.712428 0.704372
0.000000 0.899504 0.686915
0.000000 0.894926 0.680110
0.270176 0.903441 0.686397
0.493904 0.911101 0.689052
0.709590 0.915984 0.689021
0.936828 0.931151 0.700465
0.146731 0.136416 0.879698
0.214206 0.137881 0.878325
0.344060 0.141634 0.874388
0.503502 0.150027 0.871153
0.678523 0.162020 0.869444
0.865141 0.174472 0.868620
0.174014 0.222049 0.892149
0.234775 0.221561 0.889647
0.357366 0.220066 0.883299
0.511467 0.220066 0.876249
0.678767 0.216953 0.866880
0.856870 0.211826 0.858793
0.212161 0.371160 0.902739
0.268620 0.372808 0.903349
0.386358 0.371710 0.900603
0.536736 0.368505 0.895201
0.701778 0.360784 0.886534
0.884886 0.354864 0.882078
0.222416 0.538842 0.910002
0.280491 0.541405 0.913085
0.405982 0.546624 0.919646
0.557488 0.543328 0.917479
0.727535 0.535637 0.911406
0.916564 0.530541 0.909911
0.178408 0.720821 0.917296
0.250645 0.723262 0.920195
0.394720 0.730800 0.928252
0.570825 0.742672 0.941344
0.758083 0.745144 0.946441
0.957610 0.743557 0.947204
0.000000 0.923919 0.922820
0.000000 0.923766 0.922576
0.292088 0.931060 0.930327
0.513695 0.943236 0.942138
0.741085 0.962707 0.962158
0.988952 0.987243 0.986816
