luts/Kodak_Portra_400.cube
# Generated for krafta web app
# https://www.facebook.com/krafta.visio
# Preset: KDK - Portra 400
# Color profile : sRGB Color Space Profile
LUT_3D_SIZE 6
DOMAIN_MIN 0.0 0.0 0.0
DOMAIN_MAX 1.0 1.0 1.0
0.000000 0.000000 0.000000
0.259617 0.005341 0.005463
0.455787 0.011231 0.011810
0.646754 0.030671 0.030060
0.827787 0.068391 0.066773
1.000000 0.106294 0.105592
0.007080 0.247349 0.007111
0.240238 0.240116 0.012299
0.444312 0.229160 0.026734
0.638422 0.225650 0.050721
0.818418 0.225834 0.078798
0.998779 0.235142 0.114046
0.067048 0.438605 0.065736
0.234409 0.439063 0.070161
0.435340 0.435309 0.079774
0.629816 0.427741 0.092378
0.813626 0.420386 0.112734
0.994263 0.418952 0.140261
0.116274 0.615961 0.115450
0.239231 0.615412 0.117372
0.421851 0.615351 0.123629
0.614466 0.614496 0.134279
0.801755 0.609400 0.149996
0.984863 0.606043 0.175387
0.162844 0.786709 0.161776
0.258213 0.788235 0.165347
0.422919 0.790921 0.173220
0.606775 0.793484 0.185916
0.796201 0.796292 0.204074
0.977142 0.791409 0.223545
0.247990 0.975311 0.247379
0.308019 0.972290 0.241733
0.448554 0.973510 0.250584
0.619226 0.976074 0.268681
0.800778 0.979980 0.297398
0.985351 0.985473 0.341131
0.000000 0.000061 0.268009
0.248753 0.000031 0.248966
0.446540 0.030884 0.231144
0.636927 0.066560 0.228397
0.819089 0.094087 0.230381
1.000000 0.123598 0.239139
0.025360 0.245182 0.244938
0.238712 0.238712 0.238712
0.440345 0.233433 0.233494
0.634485 0.231235 0.231113
0.815732 0.233219 0.232975
0.994385 0.240330 0.239536
0.081666 0.435920 0.235569
0.235904 0.435096 0.235630
0.430365 0.430426 0.235355
0.623102 0.424201 0.235508
0.807034 0.418952 0.239994
0.990112 0.419013 0.249790
0.124269 0.615198 0.241642
0.242161 0.614740 0.242405
0.421851 0.613764 0.244450
0.612177 0.612177 0.248478
0.798825 0.607752 0.255253
0.984253 0.606653 0.268742
0.168490 0.788357 0.259190
0.261173 0.788907 0.260960
0.424506 0.791287 0.266361
0.607385 0.793576 0.274693
0.796353 0.796384 0.287327
0.977508 0.792142 0.299107
0.249668 0.976043 0.313787
0.308812 0.973327 0.308476
0.449592 0.974487 0.315679
0.620111 0.976715 0.329961
0.801205 0.980194 0.352880
0.985565 0.985657 0.389807
0.000732 0.000366 0.461219
0.228946 0.009613 0.448859
0.433326 0.036622 0.433509
0.628992 0.067872 0.424720
0.813260 0.102724 0.418311
0.996307 0.136934 0.418372
0.051759 0.235508 0.448432
0.231479 0.231662 0.440101
0.431952 0.229709 0.432074
0.625818 0.229801 0.424018
0.809598 0.237644 0.418616
0.990570 0.245670 0.416693
0.084260 0.429358 0.429419
0.234165 0.428992 0.428901
0.425391 0.425391 0.425391
0.616480 0.421698 0.421698
0.801755 0.419928 0.419715
0.987640 0.421027 0.420844
0.135378 0.612390 0.421668
0.248112 0.612116 0.422217
0.423072 0.611322 0.423041
0.609857 0.609888 0.423651
0.796201 0.607202 0.424781
0.983185 0.607477 0.428870
0.175418 0.788663 0.421942
0.266209 0.789517 0.423590
0.427832 0.791714 0.427771
0.609033 0.793729 0.433204
0.796719 0.796780 0.441932
0.977722 0.792874 0.443488
0.242741 0.977325 0.446235
0.301976 0.974945 0.441535
0.445869 0.975738 0.445686
0.619287 0.978180 0.455756
0.801389 0.981353 0.470710
0.986664 0.986786 0.495888
0.016907 0.016938 0.636988
0.217624 0.026154 0.632105
0.419654 0.049134 0.624018
0.615259 0.074311 0.615442
0.805936 0.103578 0.608820
0.991669 0.134920 0.604364
0.064729 0.227512 0.634943
0.225711 0.225559 0.628901
0.420325 0.225895 0.621942
0.614099 0.228489 0.614130
0.803159 0.236027 0.607538
0.987060 0.243717 0.601831
0.099245 0.419867 0.617182
0.234653 0.420172 0.616632
0.419013 0.419074 0.612848
0.608881 0.417823 0.608789
0.796353 0.417700 0.604486
0.985626 0.419318 0.603326
0.139620 0.607874 0.607904
0.249393 0.607843 0.607843
0.422950 0.607813 0.607843
0.606043 0.606165 0.606104
0.793942 0.605158 0.605127
0.983825 0.604730 0.604578
0.178836 0.789731 0.603052
0.267124 0.790463 0.603845
0.426612 0.792111 0.605493
0.608362 0.794064 0.608270
0.795682 0.795773 0.612024
0.979980 0.792508 0.608637
0.203555 0.979553 0.607294
0.267338 0.977722 0.602319
0.428046 0.978698 0.604944
0.611353 0.980835 0.611200
0.798764 0.983368 0.619562
0.988617 0.988708 0.636194
0.035950 0.035554 0.809567
0.211978 0.042908 0.807797
0.407050 0.058778 0.803677
0.602747 0.080720 0.799893
0.795590 0.104616 0.795682
0.986389 0.132815 0.792844
0.070314 0.219913 0.809293
0.219303 0.219577 0.806455
0.409674 0.221714 0.803464
0.603174 0.226474 0.799283
0.794186 0.232853 0.794308
0.982971 0.240604 0.790036
0.104067 0.411505 0.799893
0.230228 0.411536 0.799161
0.411017 0.411139 0.796994
0.600549 0.410925 0.793851
0.791379 0.412726 0.791470
0.982605 0.415259 0.790372
0.137240 0.601862 0.793576
0.244724 0.602106 0.793698
0.414588 0.601343 0.792966
0.600671 0.600732 0.792142
0.791379 0.601434 0.791440
0.983459 0.600885 0.791104
0.178286 0.790860 0.790890
0.266911 0.791348 0.791348
0.426337 0.792782 0.792782
0.607355 0.794400 0.794400
0.793027 0.793118 0.793057
0.984314 0.790494 0.790341
0.207248 0.981781 0.793668
0.271489 0.980438 0.791073
0.423682 0.981903 0.791470
0.600092 0.984070 0.791043
0.792477 0.986603 0.792477
0.991608 0.991699 0.802182
0.041993 0.041810 0.991333
0.208835 0.046693 0.990845
0.401434 0.057954 0.989624
0.596796 0.078462 0.988312
0.792294 0.105379 0.987488
0.986725 0.137423 0.986816
0.053681 0.210666 0.991363
0.211337 0.211276 0.990661
0.401434 0.212924 0.988891
0.595727 0.216831 0.986847
0.789303 0.222446 0.984344
0.982208 0.231601 0.982300
0.045502 0.399756 0.989258
0.209659 0.400397 0.989258
0.400916 0.400916 0.988434
0.595392 0.401831 0.987060
0.789487 0.402655 0.985016
0.983795 0.407416 0.983917
0.070039 0.596216 0.988434
0.211063 0.595422 0.988464
0.394385 0.592554 0.988525
0.592218 0.592309 0.987640
0.789273 0.592432 0.986419
0.985870 0.595117 0.985962
0.147311 0.794919 0.988251
0.245457 0.794614 0.988342
0.410925 0.793973 0.988830
0.595148 0.792203 0.989563
0.789853 0.789914 0.989960
0.990082 0.791592 0.990143
0.220401 0.990326 0.990356
0.284825 0.989960 0.989990
0.428901 0.990356 0.990356
0.602167 0.991180 0.991180
0.791073 0.993011 0.992981
0.997223 0.997223 0.997223
