luts/Kodak_Portra_160.cube
# Generated for krafta web app
# https://www.facebook.com/krafta.visio
# Preset: KDK - Portra 160
# Color profile : sRGB Color Space Profile
LUT_3D_SIZE 16
DOMAIN_MIN 0.0 0.0 0.0
DOMAIN_MAX 1.0 1.0 1.0
0.000000 0.000000 0.000000
0.118807 0.000214 0.000305
0.238376 0.000275 0.000153
0.324163 0.000183 0.000244
0.390448 0.000000 0.000092
0.454353 0.000183 0.000305
0.513085 0.000092 0.000397
0.576898 0.000336 0.000183
0.637415 0.000214 0.000366
0.698360 0.000092 0.000305
0.756344 0.000122 0.000305
0.811429 0.004028 0.002838
0.864958 0.008453 0.007111
0.921141 0.011688 0.010956
0.977569 0.015473 0.014008
1.000000 0.014466 0.013001
0.000000 0.129000 0.000000
0.121981 0.122042 0.000000
0.221042 0.121401 0.000000
0.307347 0.114900 0.000000
0.377966 0.105318 0.000000
0.442969 0.096925 0.000000
0.508904 0.090974 0.000000
0.573602 0.087343 0.000000
0.633387 0.084047 0.000000
0.695277 0.082033 0.000000
0.753292 0.081086 0.000000
0.808225 0.081056 0.003754
0.861204 0.080110 0.007385
0.917601 0.080781 0.011078
0.974548 0.081270 0.013977
1.000000 0.079408 0.013764
0.000000 0.218875 0.000000
0.111482 0.210178 0.000000
0.201541 0.201358 0.000000
0.285130 0.194247 0.000000
0.360693 0.185733 0.000000
0.433448 0.179263 0.000000
0.501244 0.172793 0.000000
0.565484 0.167178 0.000000
0.626642 0.161715 0.000000
0.690547 0.158541 0.000000
0.748470 0.155215 0.000580
0.803281 0.152071 0.004883
0.855924 0.148928 0.008606
0.913451 0.147219 0.011872
0.970977 0.145815 0.013855
1.000000 0.143771 0.014252
0.000000 0.286625 0.000000
0.097658 0.280949 0.000000
0.186404 0.275212 0.000000
0.268833 0.268956 0.000000
0.344976 0.261021 0.000000
0.417029 0.253971 0.000000
0.484474 0.246372 0.000000
0.550561 0.240330 0.000000
0.615839 0.235416 0.000000
0.679713 0.231113 0.000000
0.737514 0.225803 0.003174
0.792325 0.220798 0.006989
0.847135 0.216159 0.009369
0.903624 0.212894 0.011109
0.959258 0.209476 0.010498
1.000000 0.206271 0.009461
0.000000 0.344884 0.000000
0.091737 0.344030 0.000000
0.176516 0.344030 0.000000
0.258030 0.340642 0.000000
0.335454 0.335546 0.000000
0.409247 0.329320 0.000000
0.478950 0.322301 0.000000
0.547417 0.316533 0.000000
0.613977 0.310887 0.001495
0.679072 0.305913 0.003113
0.737636 0.299290 0.007141
0.794705 0.293431 0.011109
0.851957 0.288518 0.014496
0.910033 0.284672 0.017273
0.966247 0.280369 0.017609
1.000000 0.274266 0.012146
0.000000 0.406348 0.000244
0.089723 0.407813 0.000336
0.169986 0.408118 0.000458
0.247684 0.405493 0.001007
0.322240 0.400610 0.001526
0.394934 0.395026 0.002106
0.466346 0.390082 0.003357
0.536614 0.385687 0.003937
0.603906 0.380377 0.004822
0.668666 0.374640 0.006348
0.727443 0.367254 0.011048
0.786313 0.360998 0.014588
0.843992 0.355261 0.016510
0.902281 0.350530 0.018189
0.959045 0.345525 0.017060
1.000000 0.339422 0.010529
0.006409 0.467994 0.006928
0.088960 0.469612 0.007538
0.164279 0.469612 0.007507
0.239231 0.467659 0.007660
0.312840 0.464637 0.007935
0.385534 0.461067 0.007752
0.457038 0.457160 0.008240
0.526604 0.452613 0.007599
0.592493 0.446113 0.007721
0.656123 0.439612 0.009491
0.716701 0.432563 0.013977
0.776852 0.426490 0.016846
0.835294 0.420325 0.017548
0.893919 0.415106 0.017609
0.951354 0.409796 0.014435
1.000000 0.403815 0.006836
0.009705 0.527184 0.011078
0.087251 0.530358 0.011383
0.159792 0.531914 0.012024
0.233463 0.531121 0.012299
0.305943 0.528466 0.012177
0.376349 0.523674 0.011566
0.444526 0.517479 0.009735
0.511650 0.511742 0.008667
0.577417 0.506096 0.008240
0.641779 0.500389 0.011109
0.703883 0.494331 0.014374
0.765133 0.488594 0.016022
0.824338 0.482551 0.015503
0.882780 0.476753 0.012818
0.940215 0.470893 0.007080
1.000000 0.466743 0.000000
0.009186 0.571557 0.010407
0.080934 0.571771 0.010132
0.149294 0.573236 0.011109
0.219699 0.573541 0.011353
0.289952 0.573327 0.012299
0.359716 0.572137 0.012329
0.429267 0.570520 0.011994
0.497810 0.568170 0.012512
0.565728 0.565789 0.012634
0.632715 0.563073 0.013214
0.697688 0.559167 0.016480
0.760678 0.554528 0.018555
0.821286 0.548882 0.018097
0.880400 0.542901 0.013947
0.938537 0.536950 0.006958
0.994598 0.529961 0.000000
0.013642 0.627527 0.015503
0.080018 0.626459 0.014466
0.145571 0.626337 0.014618
0.213016 0.625940 0.014862
0.280980 0.625391 0.014710
0.349187 0.624659 0.014618
0.417639 0.624170 0.014649
0.485267 0.622919 0.014405
0.552972 0.621607 0.014801
0.619532 0.619593 0.014221
0.685389 0.617212 0.013275
0.747646 0.612268 0.012970
0.808469 0.606867 0.008789
0.869413 0.602197 0.003479
0.929503 0.597345 0.000000
0.987823 0.591485 0.000000
0.012665 0.681941 0.013703
0.076051 0.681331 0.013306
0.141207 0.680720 0.013367
0.207248 0.680140 0.013031
0.273960 0.679713 0.012207
0.340948 0.678859 0.012024
0.407874 0.678157 0.011444
0.474525 0.676967 0.010132
0.540887 0.675776 0.009949
0.606531 0.673854 0.008148
0.671504 0.671595 0.005951
0.735348 0.668605 0.002747
0.797543 0.664637 0.000000
0.859373 0.660822 0.000000
0.920378 0.656550 0.000000
0.979553 0.651087 0.000000
0.002930 0.735988 0.003967
0.067475 0.735348 0.002899
0.133547 0.734859 0.002075
0.200168 0.734127 0.001495
0.266209 0.733211 0.000000
0.332341 0.732082 0.000000
0.398322 0.731014 0.000000
0.463783 0.729793 0.000000
0.529503 0.728664 0.000000
0.594385 0.727016 0.000000
0.658991 0.725246 0.000000
0.723140 0.723262 0.000000
0.787289 0.721523 0.000000
0.850004 0.718624 0.000000
0.912078 0.715358 0.000000
0.974212 0.712154 0.000000
0.000000 0.779080 0.000000
0.026307 0.779294 0.000000
0.112673 0.780392 0.000000
0.184878 0.781399 0.000000
0.253941 0.782864 0.000000
0.321477 0.783810 0.000000
0.388983 0.785122 0.000000
0.455848 0.785916 0.000000
0.522911 0.787167 0.000000
0.589471 0.787778 0.000000
0.656458 0.788785 0.000000
0.722805 0.789059 0.000000
0.789548 0.789700 0.000000
0.854215 0.788327 0.000000
0.914580 0.783078 0.000000
0.970245 0.773922 0.000000
0.000000 0.845243 0.000000
0.000000 0.840208 0.000000
0.086976 0.838132 0.000000
0.168276 0.837766 0.000000
0.240909 0.838712 0.000000
0.310491 0.839445 0.000000
0.378698 0.840421 0.000000
0.446113 0.841306 0.000000
0.513451 0.842679 0.000000
0.579706 0.843015 0.000000
0.646174 0.843687 0.000000
0.711940 0.843595 0.000000
0.777737 0.843656 0.000000
0.842130 0.842252 0.000000
0.904906 0.839475 0.000000
0.964202 0.833524 0.000000
0.000000 0.902464 0.000000
0.000000 0.898131 0.000000
0.020966 0.895781 0.000000
0.138582 0.895018 0.000000
0.220615 0.895323 0.000000
0.294591 0.895781 0.000000
0.365301 0.896788 0.000000
0.433967 0.897368 0.000000
0.501884 0.898222 0.000000
0.568688 0.898497 0.000000
0.635309 0.898924 0.000000
0.701564 0.899199 0.000000
0.768154 0.899992 0.000000
0.833951 0.899901 0.000000
0.898863 0.899046 0.000000
0.960998 0.895445 0.000000
0.000000 0.961944 0.000000
0.000000 0.958373 0.000000
0.000000 0.956451 0.000000
0.070497 0.955810 0.000000
0.185489 0.956023 0.000000
0.270176 0.956451 0.000000
0.346410 0.957305 0.000000
0.418921 0.958129 0.000000
0.489570 0.959411 0.000000
0.559014 0.960693 0.000000
0.627924 0.962188 0.000000
0.696254 0.963500 0.000000
0.765103 0.965637 0.000000
0.833494 0.967376 0.000000
0.902495 0.969604 0.000000
0.971893 0.972076 0.000000
0.000000 0.000183 0.121218
0.135775 0.000214 0.136416
0.240543 0.000244 0.131289
0.322637 0.000366 0.113649
0.386084 0.000366 0.102327
0.448249 0.000275 0.096590
0.510307 0.000244 0.092256
0.573022 0.000000 0.089174
0.632380 0.000244 0.086183
0.694057 0.001617 0.084443
0.752499 0.005707 0.083864
0.806821 0.010773 0.083680
0.859403 0.013519 0.082948
0.915221 0.016388 0.082734
0.971160 0.018341 0.082277
1.000000 0.016114 0.078889
0.000000 0.132204 0.132326
0.123018 0.123018 0.123018
0.224613 0.113924 0.113588
0.307347 0.106752 0.106264
0.376898 0.100404 0.100465
0.442420 0.095644 0.095552
0.507805 0.092653 0.092500
0.570916 0.089723 0.089540
0.630945 0.086915 0.086671
0.694362 0.085145 0.084962
0.752071 0.084749 0.084657
0.805875 0.085054 0.083894
0.857664 0.083803 0.082704
0.913237 0.083040 0.082429
0.968811 0.082216 0.081331
1.000000 0.079347 0.078553
0.000000 0.223423 0.113497
0.109499 0.214939 0.109194
0.205753 0.205875 0.104128
0.289860 0.196841 0.100710
0.365179 0.188510 0.098146
0.436286 0.181796 0.095521
0.502983 0.175021 0.092805
0.566430 0.169375 0.089693
0.629877 0.164950 0.087556
0.692683 0.161379 0.086152
0.748653 0.157382 0.084871
0.801572 0.153506 0.084047
0.853666 0.149996 0.082490
0.909880 0.148013 0.082216
0.965820 0.145571 0.080995
1.000000 0.142458 0.077790
0.000000 0.292241 0.104768
0.101869 0.286351 0.102235
0.190555 0.279667 0.099519
0.272709 0.272892 0.096773
0.349279 0.265080 0.095216
0.421393 0.257572 0.093172
0.489235 0.250217 0.090883
0.556085 0.244297 0.089082
0.620905 0.238895 0.087098
0.683467 0.233677 0.085451
0.740261 0.227817 0.084291
0.794217 0.222507 0.083864
0.849882 0.218357 0.083192
0.905577 0.214694 0.082094
0.959503 0.210269 0.079011
1.000000 0.205905 0.074464
0.000000 0.345403 0.096284
0.095491 0.343664 0.095979
0.176699 0.340398 0.095033
0.254673 0.335424 0.093202
0.329046 0.329076 0.090974
0.401282 0.323186 0.089326
0.470985 0.317235 0.088106
0.539452 0.312230 0.086702
0.605463 0.306828 0.084810
0.670130 0.302098 0.083467
0.729397 0.296208 0.083619
0.787411 0.290867 0.083680
0.845701 0.286656 0.083589
0.903960 0.282841 0.083467
0.960571 0.278630 0.081483
1.000000 0.273045 0.075837
0.008576 0.405585 0.093233
0.092988 0.405188 0.093080
0.169223 0.403021 0.092744
0.244450 0.399695 0.091646
0.318334 0.395239 0.089937
0.389899 0.390051 0.088380
0.459724 0.384619 0.086824
0.528618 0.380011 0.085542
0.595422 0.374975 0.084230
0.659968 0.369726 0.083131
0.720241 0.363470 0.083558
0.779873 0.358068 0.083680
0.838071 0.352728 0.082918
0.896086 0.347997 0.081727
0.953033 0.343023 0.078859
1.000000 0.337591 0.072938
0.012146 0.468269 0.091493
0.091646 0.468788 0.091981
0.164492 0.467262 0.091249
0.238010 0.464424 0.090394
0.310430 0.460548 0.089052
0.381537 0.456184 0.088014
0.450965 0.451026 0.086183
0.519005 0.446052 0.084627
0.585534 0.440925 0.082521
0.649500 0.435126 0.082429
0.709895 0.428321 0.082551
0.769802 0.422370 0.082460
0.828489 0.416602 0.081056
0.887022 0.411475 0.078889
0.944610 0.406256 0.074647
1.000000 0.401251 0.068360
0.012268 0.525353 0.087953
0.088167 0.526879 0.088472
0.158267 0.526207 0.088289
0.230442 0.524224 0.087648
0.301488 0.521141 0.086519
0.371435 0.516991 0.085115
0.439826 0.512078 0.083589
0.506828 0.506950 0.081605
0.572442 0.501610 0.079774
0.636439 0.496071 0.080049
0.698116 0.490150 0.080385
0.759213 0.484688 0.079896
0.818845 0.479103 0.077943
0.877165 0.473335 0.074067
0.934630 0.467567 0.067292
0.993896 0.463172 0.059480
0.011261 0.574670 0.082795
0.082002 0.574304 0.082765
0.150088 0.573907 0.082795
0.219455 0.572961 0.082521
0.289067 0.571649 0.082460
0.358251 0.570001 0.082002
0.427649 0.568353 0.081636
0.495674 0.565881 0.081056
0.562982 0.563043 0.080446
0.629450 0.560082 0.080079
0.693965 0.556176 0.081147
0.756832 0.551598 0.081361
0.817350 0.546044 0.079347
0.877226 0.540764 0.075776
0.936645 0.535607 0.070039
0.994385 0.529686 0.058778
0.016419 0.627955 0.081849
0.080873 0.627222 0.081605
0.146242 0.626520 0.081605
0.213321 0.625818 0.081361
0.281132 0.625208 0.081086
0.348913 0.623987 0.081117
0.416541 0.622553 0.080232
0.483589 0.620722 0.079561
0.550439 0.618891 0.078981
0.616388 0.616480 0.077638
0.681453 0.613672 0.076081
0.743893 0.609064 0.074678
0.805325 0.604364 0.071565
0.867002 0.600366 0.066804
0.928038 0.596185 0.059266
0.987671 0.591272 0.044282
0.014527 0.682216 0.078981
0.077913 0.682094 0.078798
0.142092 0.681422 0.078370
0.207889 0.680537 0.077760
0.274113 0.679469 0.077089
0.340398 0.678035 0.075929
0.406714 0.676387 0.075074
0.472786 0.674708 0.073945
0.538750 0.673274 0.072572
0.604028 0.671138 0.070619
0.668513 0.668605 0.068574
0.732113 0.665644 0.065370
0.794675 0.662104 0.060426
0.856901 0.658717 0.052216
0.918456 0.654963 0.038972
0.978515 0.650172 0.015564
0.000702 0.735317 0.069459
0.068025 0.734920 0.068879
0.133852 0.734127 0.067903
0.199557 0.733272 0.066835
0.265721 0.732357 0.065492
0.331762 0.731319 0.064179
0.397650 0.730282 0.062623
0.463050 0.728878 0.060700
0.528191 0.727291 0.058686
0.592767 0.725246 0.054963
0.656886 0.722957 0.050629
0.720546 0.720668 0.045838
0.784024 0.718471 0.040101
0.846433 0.715419 0.026123
0.908293 0.712062 0.004913
0.970825 0.709255 0.000000
0.000000 0.781003 0.028321
0.026856 0.781125 0.028962
0.112581 0.781857 0.030213
0.184878 0.782437 0.031189
0.253788 0.783413 0.032868
0.321447 0.784146 0.034119
0.389075 0.785428 0.035584
0.455909 0.786130 0.036011
0.522789 0.787137 0.037537
0.589166 0.787442 0.037110
0.655909 0.788205 0.038025
0.722194 0.788418 0.036408
0.788998 0.789090 0.036683
0.853758 0.787839 0.030793
0.914549 0.782925 0.004974
0.970794 0.774289 0.000000
0.000000 0.846342 0.001343
0.000000 0.841703 0.000000
0.086702 0.839658 0.000000
0.168460 0.839200 0.000000
0.241093 0.839902 0.000000
0.310613 0.840391 0.000000
0.378820 0.841001 0.000000
0.445991 0.841672 0.000000
0.513176 0.842679 0.000000
0.579339 0.842802 0.000000
0.645716 0.843290 0.000000
0.711482 0.843198 0.000000
0.777493 0.843412 0.000000
0.842039 0.842191 0.000000
0.905119 0.839658 0.000000
0.964813 0.834012 0.000000
0.000000 0.903258 0.000000
0.000000 0.899229 0.000000
0.017731 0.897093 0.000000
0.137636 0.896361 0.000000
0.220096 0.896574 0.000000
0.294347 0.896910 0.000000
0.365118 0.897673 0.000000
0.433783 0.898009 0.000000
0.501518 0.898466 0.000000
0.568292 0.898528 0.000000
0.634913 0.898863 0.000000
0.701228 0.899046 0.000000
0.767880 0.899809 0.000000
0.833768 0.899809 0.000000
0.898985 0.899138 0.000000
0.961425 0.895811 0.000000
0.000000 0.962615 0.000000
0.000000 0.959228 0.000000
0.000000 0.957397 0.000000
0.064485 0.956786 0.000000
0.183047 0.957031 0.000000
0.268864 0.957458 0.000000
0.345739 0.958251 0.000000
0.418341 0.958923 0.000000
0.489143 0.959960 0.000000
0.558587 0.961059 0.000000
0.627558 0.962341 0.000000
0.695796 0.963470 0.000000
0.764523 0.965301 0.000000
0.832914 0.966949 0.000000
0.902037 0.969207 0.000000
0.971557 0.971710 0.000000
0.000610 0.000000 0.260502
0.138979 0.000000 0.252079
0.231632 0.000000 0.233433
0.311559 0.000244 0.213138
0.378180 0.000031 0.195529
0.438849 0.000244 0.183474
0.501030 0.006989 0.176852
0.562982 0.011749 0.171237
0.623468 0.011383 0.165194
0.687160 0.011963 0.161654
0.746212 0.015167 0.158480
0.801205 0.021393 0.156008
0.854643 0.022827 0.152560
0.912078 0.025910 0.150881
0.968872 0.026062 0.148745
1.000000 0.021729 0.144564
0.000000 0.126162 0.244266
0.117861 0.117372 0.230076
0.216159 0.109926 0.216251
0.297612 0.104921 0.202640
0.366094 0.101656 0.190524
0.432898 0.101045 0.183017
0.497932 0.098421 0.176852
0.561364 0.095125 0.170932
0.623987 0.092073 0.165591
0.688014 0.089967 0.162081
0.746181 0.089509 0.158907
0.800565 0.089357 0.156069
0.853513 0.087709 0.152468
0.910277 0.087678 0.150576
0.966644 0.085969 0.148074
1.000000 0.082246 0.144076
0.000000 0.216678 0.216678
0.108339 0.208927 0.209079
0.201266 0.201266 0.201266
0.282811 0.194308 0.194186
0.357702 0.188235 0.188205
0.428382 0.182498 0.182467
0.495216 0.176455 0.176303
0.559045 0.170413 0.170138
0.624201 0.166232 0.166018
0.687037 0.162356 0.162173
0.743221 0.158999 0.158541
0.796628 0.155276 0.155154
0.850187 0.151949 0.151675
0.906859 0.149905 0.149508
0.963561 0.147433 0.147005
1.000000 0.143587 0.143130
0.000000 0.287388 0.197543
0.107546 0.281682 0.194308
0.190219 0.275700 0.190402
0.269688 0.269780 0.185824
0.344884 0.262974 0.181582
0.416327 0.256229 0.177127
0.483894 0.249302 0.171817
0.551781 0.244053 0.167971
0.616358 0.238529 0.163699
0.678920 0.233310 0.159976
0.735775 0.228000 0.156680
0.790005 0.222690 0.153628
0.846647 0.219150 0.151217
0.902556 0.215274 0.148348
0.956817 0.210605 0.144259
1.000000 0.205661 0.139284
0.017731 0.341650 0.180758
0.102144 0.340093 0.179812
0.177890 0.337072 0.177737
0.253330 0.332586 0.175235
0.326665 0.326665 0.171572
0.398169 0.321111 0.168338
0.467353 0.315465 0.165042
0.535546 0.310521 0.161959
0.601404 0.305364 0.158694
0.665858 0.300694 0.156130
0.725307 0.295201 0.154025
0.784268 0.290684 0.152407
0.843107 0.286564 0.150759
0.901762 0.283024 0.149081
0.958892 0.278874 0.146273
1.000000 0.273259 0.140841
0.019593 0.403540 0.172030
0.097932 0.403174 0.171817
0.170535 0.401099 0.170657
0.244633 0.397620 0.169192
0.317174 0.393194 0.166629
0.388190 0.388281 0.163790
0.457404 0.382910 0.160952
0.525963 0.378302 0.158724
0.592645 0.373480 0.156069
0.656886 0.368200 0.153719
0.717433 0.362463 0.152255
0.777279 0.357305 0.151034
0.835813 0.352270 0.148959
0.894224 0.347631 0.146609
0.951537 0.342840 0.143130
1.000000 0.337560 0.138186
0.018830 0.466194 0.166079
0.095033 0.466896 0.166262
0.165377 0.465492 0.165408
0.237827 0.462806 0.164340
0.309697 0.459113 0.162417
0.380652 0.454871 0.160464
0.449836 0.449897 0.157961
0.517479 0.444800 0.155550
0.583612 0.439460 0.153017
0.647395 0.433692 0.151186
0.707698 0.427222 0.149935
0.767758 0.421424 0.148257
0.826505 0.415869 0.145785
0.885222 0.410742 0.143099
0.943206 0.405737 0.139193
1.000000 0.400855 0.134157
0.015137 0.523888 0.158541
0.089448 0.525628 0.159304
0.158816 0.524987 0.158907
0.230320 0.523095 0.158206
0.300938 0.519890 0.156954
0.370733 0.515770 0.155093
0.438849 0.510857 0.152743
0.505791 0.505882 0.150668
0.571313 0.500572 0.148409
0.635096 0.495155 0.147616
0.696834 0.489265 0.146517
0.757778 0.483864 0.144991
0.817411 0.478309 0.142428
0.875731 0.472602 0.138705
0.933471 0.466896 0.133333
0.992920 0.462409 0.127535
0.013336 0.573907 0.150698
0.082918 0.573541 0.150698
0.150240 0.572992 0.150484
0.219394 0.572045 0.150179
0.288792 0.570764 0.149996
0.358007 0.569116 0.149264
0.426947 0.567376 0.148836
0.494911 0.564965 0.147860
0.562097 0.562188 0.147036
0.628534 0.559258 0.146181
0.692927 0.555352 0.146487
0.755642 0.550835 0.145510
0.816159 0.545342 0.143191
0.876371 0.540215 0.140017
0.936095 0.535302 0.135531
0.994293 0.529534 0.127749
0.018067 0.627375 0.147433
0.082033 0.626856 0.147311
0.146670 0.626246 0.146914
0.213443 0.625605 0.146731
0.281468 0.624994 0.146578
0.348882 0.623804 0.146273
0.416388 0.622248 0.145418
0.483345 0.620356 0.144747
0.550103 0.618494 0.143984
0.615961 0.616052 0.142916
0.680690 0.613001 0.141329
0.743069 0.608423 0.139315
0.804623 0.603845 0.136385
0.866484 0.599969 0.133364
0.927733 0.595972 0.128084
0.987671 0.591028 0.119295
0.017334 0.681819 0.143313
0.079500 0.681910 0.143526
0.142794 0.681361 0.143160
0.208133 0.680537 0.142611
0.274174 0.679408 0.141970
0.340642 0.677913 0.141024
0.406775 0.676356 0.140139
0.472847 0.674678 0.138979
0.538659 0.673060 0.138003
0.603754 0.670802 0.136385
0.668025 0.668116 0.134554
0.731624 0.665156 0.132174
0.794156 0.661707 0.128573
0.856596 0.658412 0.123598
0.918364 0.654688 0.116213
0.978668 0.649989 0.103426
0.000855 0.735073 0.134798
0.066865 0.734768 0.134585
0.133272 0.733974 0.133883
0.199557 0.733181 0.133242
0.265690 0.732357 0.132418
0.331701 0.731380 0.131655
0.397742 0.730312 0.130678
0.463081 0.728847 0.129183
0.528161 0.727199 0.127321
0.592645 0.725093 0.125124
0.656672 0.722805 0.122621
0.720333 0.720455 0.119326
0.783780 0.718227 0.116182
0.846189 0.715145 0.108919
0.908110 0.711696 0.096742
0.970794 0.708858 0.080354
0.000000 0.781613 0.111513
0.023468 0.781674 0.111452
0.110994 0.782315 0.111971
0.183841 0.782864 0.112459
0.253178 0.783780 0.113252
0.321233 0.784512 0.114015
0.388830 0.785702 0.115145
0.455695 0.786343 0.115389
0.522850 0.787320 0.116426
0.589227 0.787686 0.116182
0.656062 0.788449 0.116762
0.722438 0.788724 0.115999
0.789303 0.789425 0.116274
0.853971 0.787991 0.113161
0.914702 0.782986 0.099153
0.971191 0.774350 0.063478
0.000000 0.846708 0.097108
0.000000 0.842252 0.088350
0.083040 0.840330 0.084535
0.166476 0.839872 0.083009
0.240024 0.840482 0.083742
0.309789 0.840909 0.083436
0.378241 0.841520 0.083894
0.445686 0.842161 0.083711
0.513054 0.843137 0.084627
0.579431 0.843229 0.083131
0.645838 0.843656 0.082063
0.711635 0.843503 0.079103
0.777646 0.843687 0.076387
0.842283 0.842405 0.069184
0.905425 0.839841 0.054810
0.965301 0.834195 0.002930
0.000000 0.903593 0.034699
0.000000 0.899687 0.015473
0.003265 0.897642 0.006043
0.132418 0.896941 0.001434
0.217197 0.897154 0.000000
0.292332 0.897490 0.000000
0.363897 0.898253 0.000000
0.432929 0.898589 0.000000
0.500938 0.898894 0.000000
0.567895 0.898924 0.000000
0.634699 0.899229 0.000000
0.701167 0.899443 0.000000
0.767971 0.900175 0.000000
0.833982 0.900145 0.000000
0.899321 0.899504 0.000000
0.961944 0.896178 0.000000
0.000000 0.963073 0.000000
0.000000 0.959747 0.000000
0.000000 0.957946 0.000000
0.046235 0.957336 0.000000
0.177523 0.957671 0.000000
0.265263 0.958099 0.000000
0.343114 0.958831 0.000000
0.416480 0.959472 0.000000
0.487739 0.960449 0.000000
0.557671 0.961517 0.000000
0.626947 0.962799 0.000000
0.695430 0.963897 0.000000
0.764279 0.965637 0.000000
0.832853 0.967254 0.000000
0.902098 0.969482 0.000000
0.971832 0.971984 0.000000
0.000153 0.000122 0.346258
0.124575 0.000183 0.336767
0.216159 0.000000 0.318730
0.297612 0.000244 0.298924
0.367163 0.000336 0.279026
0.431708 0.000061 0.264317
0.495186 0.006592 0.254398
0.556970 0.013153 0.246311
0.617853 0.016876 0.239658
0.681147 0.018158 0.234928
0.740261 0.023377 0.230625
0.795895 0.030579 0.226474
0.850706 0.033539 0.222171
0.909026 0.037049 0.219547
0.966308 0.036683 0.216342
1.000000 0.029023 0.211276
0.000000 0.117494 0.327428
0.112001 0.112215 0.314397
0.204929 0.107118 0.300328
0.286442 0.102541 0.286442
0.358129 0.099733 0.272221
0.427070 0.099855 0.262455
0.491981 0.098756 0.253605
0.554467 0.096773 0.245853
0.618280 0.095094 0.240208
0.682063 0.092805 0.235538
0.740291 0.092988 0.230747
0.795224 0.094179 0.226322
0.849851 0.093172 0.221988
0.907164 0.093355 0.218875
0.964080 0.090883 0.215427
1.000000 0.086458 0.210849
0.000000 0.207645 0.302495
0.110445 0.201694 0.293126
0.196017 0.196170 0.283848
0.276707 0.190982 0.276524
0.350927 0.186007 0.268162
0.421271 0.181247 0.260502
0.487922 0.175998 0.252842
0.552880 0.170840 0.245945
0.617975 0.166476 0.240482
0.680995 0.162509 0.235172
0.737545 0.159762 0.229831
0.791379 0.156954 0.225040
0.846586 0.154452 0.220829
0.903929 0.152468 0.217594
0.961120 0.149722 0.214023
1.000000 0.145113 0.209537
0.003754 0.281590 0.281468
0.107057 0.276524 0.276524
0.188479 0.270939 0.270909
0.265660 0.265660 0.265660
0.339361 0.259922 0.259922
0.410193 0.253696 0.253849
0.478767 0.247776 0.247776
0.546319 0.242741 0.242618
0.610956 0.237064 0.237156
0.673548 0.232212 0.232029
0.730678 0.227543 0.227390
0.785794 0.223056 0.222934
0.843534 0.219974 0.219791
0.899870 0.216251 0.216068
0.954589 0.211398 0.211002
1.000000 0.205722 0.205356
0.019654 0.337316 0.257572
0.103304 0.335607 0.256443
0.176883 0.332616 0.254368
0.251072 0.328527 0.251133
0.323278 0.323461 0.246983
0.394415 0.318425 0.242924
0.463355 0.313207 0.238743
0.531487 0.308568 0.234775
0.597253 0.303441 0.230655
0.661646 0.298985 0.227085
0.721096 0.294041 0.223819
0.781186 0.290532 0.221500
0.840421 0.286839 0.218967
0.899443 0.283391 0.216464
0.956939 0.279301 0.212985
1.000000 0.273381 0.206973
0.023590 0.400610 0.247196
0.099428 0.400061 0.246921
0.170413 0.397986 0.245335
0.243137 0.394690 0.243137
0.314977 0.390448 0.240055
0.385809 0.385718 0.236820
0.454810 0.380774 0.233310
0.523064 0.376287 0.230289
0.589380 0.371466 0.226993
0.653712 0.366552 0.223880
0.714412 0.361303 0.221592
0.774563 0.356634 0.219242
0.833402 0.351904 0.216434
0.892088 0.347417 0.213443
0.949828 0.342687 0.209567
1.000000 0.337438 0.204349
0.020752 0.462898 0.238529
0.095003 0.463630 0.238956
0.164614 0.462409 0.238163
0.236484 0.460029 0.236698
0.308080 0.456458 0.234623
0.378729 0.452613 0.232181
0.447791 0.447883 0.229343
0.515190 0.442786 0.226200
0.580957 0.437507 0.223056
0.644648 0.432044 0.220462
0.705165 0.425849 0.218173
0.765377 0.420478 0.215702
0.824430 0.415137 0.212680
0.883421 0.410315 0.209415
0.941863 0.405310 0.205264
1.000000 0.400427 0.200290
0.015808 0.521447 0.229557
