luts/Kodak_Portra.cube
# Generated for krafta web app
# https://www.facebook.com/krafta.visio
# Preset: KDK - Portra
# Color profile : sRGB Color Space Profile
LUT_3D_SIZE 16
DOMAIN_MIN 0.0 0.0 0.0
DOMAIN_MAX 1.0 1.0 1.0
0.000000 0.000000 0.000000
0.099855 0.001190 0.001404
0.201907 0.002747 0.002960
0.285008 0.003937 0.003754
0.353674 0.006073 0.005615
0.420081 0.006928 0.006561
0.482490 0.008820 0.007660
0.547967 0.011933 0.011048
0.611078 0.018372 0.017487
0.674464 0.025818 0.026551
0.735622 0.038453 0.036957
0.793637 0.051362 0.050385
0.850340 0.064576 0.063569
0.908721 0.077272 0.076234
0.967132 0.090700 0.089082
1.000000 0.101991 0.100771
0.003632 0.108248 0.003662
0.104952 0.105440 0.004517
0.194308 0.107149 0.003906
0.275822 0.104494 0.004273
0.346777 0.099092 0.004273
0.413184 0.094942 0.005737
0.480140 0.092164 0.008423
0.545892 0.092622 0.013977
0.608453 0.093904 0.020233
0.672511 0.096498 0.029541
0.733577 0.100618 0.041016
0.791379 0.105715 0.053986
0.847776 0.111360 0.065705
0.906279 0.119051 0.077699
0.965057 0.127108 0.091310
1.000000 0.135378 0.103243
0.000000 0.195010 0.000000
0.102419 0.190066 0.000000
0.185275 0.185153 0.000732
0.264256 0.180880 0.001251
0.336980 0.175326 0.003937
0.408026 0.171481 0.007446
0.475776 0.168307 0.013275
0.541161 0.165896 0.019226
0.604456 0.164248 0.026520
0.669703 0.164523 0.035798
0.730434 0.165103 0.047364
0.788113 0.166140 0.059266
0.844114 0.167880 0.070161
0.903410 0.171603 0.081880
0.962554 0.176394 0.094179
1.000000 0.182101 0.106172
0.001526 0.265629 0.001282
0.097719 0.262089 0.002869
0.177310 0.258824 0.004211
0.255253 0.255222 0.006989
0.328466 0.249973 0.011994
0.398535 0.245090 0.017121
0.465675 0.240482 0.023590
0.532006 0.237186 0.029450
0.597742 0.234989 0.037751
0.662837 0.233677 0.046418
0.723079 0.231907 0.055940
0.780667 0.230442 0.065644
0.838163 0.229679 0.075502
0.896666 0.230838 0.086305
0.954437 0.232578 0.096620
1.000000 0.235325 0.108614
0.019379 0.328222 0.019593
0.099428 0.327764 0.020630
0.173922 0.327855 0.022065
0.249271 0.326146 0.025147
0.323125 0.323400 0.029938
0.394781 0.319432 0.034516
0.463203 0.314641 0.040772
0.530816 0.311254 0.046509
0.597284 0.308049 0.053834
0.663020 0.305882 0.060395
0.723445 0.302373 0.069429
0.782498 0.299657 0.077943
0.841581 0.298039 0.087770
0.901091 0.297826 0.097993
0.959228 0.297887 0.108461
1.000000 0.297276 0.116976
0.042206 0.392462 0.042756
0.106783 0.393469 0.044495
0.174350 0.393866 0.045686
0.245212 0.392462 0.048066
0.315984 0.389624 0.050690
0.386481 0.386542 0.054719
0.456214 0.383551 0.058289
0.524743 0.380804 0.063355
0.591577 0.377600 0.068788
0.656672 0.374304 0.074220
0.716915 0.369757 0.081270
0.777066 0.366125 0.089448
0.836240 0.363561 0.097932
0.895811 0.362005 0.106752
0.954284 0.360693 0.116609
1.000000 0.359442 0.124605
0.062928 0.456672 0.064149
0.115908 0.457801 0.064912
0.176333 0.458045 0.065492
0.243259 0.457008 0.068086
0.312230 0.455268 0.069734
0.381689 0.453407 0.072877
0.451240 0.451270 0.075837
0.519615 0.448768 0.078981
0.585107 0.444495 0.082612
0.649042 0.440223 0.087678
0.710048 0.435523 0.094850
0.770871 0.431769 0.101228
0.830472 0.428382 0.109071
0.890135 0.425940 0.116548
0.949004 0.423957 0.125002
1.000000 0.422095 0.133272
0.080964 0.519097 0.080537
0.124849 0.521416 0.082551
0.180362 0.522545 0.083497
0.244358 0.522271 0.085176
0.310979 0.520714 0.086519
0.377783 0.517876 0.087831
0.444373 0.514183 0.089601
0.510796 0.510796 0.092683
0.576471 0.507500 0.095949
0.640009 0.503288 0.099977
0.701930 0.498817 0.106569
0.763241 0.495033 0.112490
0.823301 0.491371 0.119265
0.882811 0.488136 0.125734
0.941466 0.485420 0.133425
1.000000 0.484474 0.142184
0.093019 0.571008 0.093996
0.130678 0.571221 0.093629
0.180270 0.572229 0.094881
0.239628 0.572656 0.097108
0.303502 0.572686 0.098573
0.369085 0.572076 0.100832
0.435554 0.571252 0.103365
0.502129 0.570062 0.106538
0.568750 0.568872 0.109926
0.634913 0.567346 0.114534
0.698512 0.564263 0.119966
0.760861 0.561028 0.126802
0.821744 0.557305 0.132692
0.881407 0.553826 0.139742
0.940398 0.550744 0.146670
0.998260 0.547662 0.153933
0.110689 0.629603 0.110384
0.141848 0.628901 0.110414
0.186343 0.628870 0.111635
0.241581 0.628656 0.112398
0.301823 0.628504 0.114046
0.364782 0.628168 0.115419
0.429572 0.628077 0.118502
0.494911 0.627466 0.121248
0.560601 0.627008 0.124300
0.626032 0.626062 0.128298
0.691066 0.624872 0.132265
0.752712 0.621210 0.138033
0.813474 0.617517 0.143099
0.874205 0.614649 0.150240
0.934295 0.612116 0.157229
0.995148 0.610864 0.166537
0.126802 0.686946 0.127138
0.153811 0.686580 0.127077
0.194308 0.686213 0.127443
0.245396 0.685878 0.128725
0.302708 0.685725 0.129397
0.363195 0.685267 0.131807
0.425940 0.685023 0.133639
0.489540 0.684443 0.135805
0.553643 0.683894 0.139071
0.617762 0.682918 0.142367
0.681727 0.681819 0.145602
0.745083 0.680232 0.149233
0.806546 0.677424 0.154604
0.868406 0.675532 0.161807
0.930327 0.674372 0.170291
0.991791 0.673396 0.180423
0.143771 0.743893 0.143587
0.166781 0.743496 0.143160
0.202762 0.743191 0.143832
0.250736 0.742855 0.144411
0.305180 0.742519 0.145083
0.363531 0.742123 0.146975
0.423987 0.741726 0.148623
0.485969 0.741268 0.151003
0.548882 0.740871 0.153658
0.612024 0.740291 0.157290
0.675410 0.739681 0.160861
0.738949 0.739040 0.164584
0.802457 0.738521 0.169039
0.864988 0.737362 0.176303
0.927153 0.736477 0.185489
0.989441 0.736233 0.196475
0.158938 0.800046 0.158633
0.179446 0.800076 0.159335
0.213199 0.800381 0.159945
0.258122 0.800595 0.161471
0.310369 0.800961 0.163180
0.366796 0.801144 0.165255
0.426184 0.801480 0.167483
0.487129 0.801602 0.169955
0.549310 0.801877 0.173800
0.612024 0.801968 0.177676
0.675319 0.802213 0.182193
0.738735 0.802274 0.186679
0.802304 0.802487 0.192416
0.865446 0.802182 0.198032
0.927184 0.800870 0.205936
0.987671 0.799130 0.214878
0.184024 0.863096 0.183749
0.199832 0.861753 0.182650
0.228885 0.861173 0.182132
0.270207 0.861051 0.182467
0.319036 0.861265 0.184512
0.373266 0.861479 0.186130
0.430671 0.861662 0.189059
0.490059 0.861875 0.192020
0.550805 0.862272 0.195621
0.612482 0.862333 0.199527
0.674708 0.862516 0.203983
0.737209 0.862577 0.208804
0.799863 0.862669 0.214817
0.862303 0.862455 0.220279
0.924407 0.861936 0.225834
0.985748 0.861051 0.235203
0.210086 0.924102 0.210513
0.223728 0.922942 0.208316
0.248936 0.922332 0.207645
0.286046 0.922118 0.208560
0.331670 0.922210 0.209567
0.383154 0.922332 0.212222
0.438392 0.922606 0.214939
0.495949 0.922789 0.218204
0.555138 0.923064 0.221714
0.615442 0.923186 0.226352
0.676570 0.923400 0.231388
0.738155 0.923613 0.236759
0.800259 0.924010 0.243687
0.862303 0.924254 0.250553
0.924254 0.924376 0.258305
0.985473 0.923949 0.265263
0.245884 0.986328 0.245975
0.256809 0.985443 0.244083
0.278019 0.985016 0.243351
0.311131 0.984894 0.244266
0.352850 0.984985 0.246098
0.400824 0.985138 0.248569
0.453010 0.985412 0.251621
0.508385 0.985687 0.255802
0.565850 0.986145 0.260899
0.624781 0.986633 0.267033
0.684871 0.987213 0.274327
0.745602 0.987823 0.282231
0.807004 0.988678 0.292210
0.868498 0.989593 0.303349
0.930266 0.990723 0.316747
0.991943 0.992096 0.332677
0.000122 0.000275 0.100587
0.110689 0.000122 0.110475
0.203769 0.000275 0.110597
0.284825 0.000000 0.101625
0.351812 0.000305 0.097597
0.416327 0.005890 0.095857
0.480629 0.014862 0.095766
0.545098 0.022919 0.096834
0.607294 0.031189 0.098787
0.671138 0.041138 0.101350
0.732662 0.051270 0.105745
0.790036 0.063478 0.110018
0.846189 0.073426 0.115999
0.904326 0.084840 0.121981
0.962463 0.096010 0.129549
1.000000 0.107088 0.137026
0.000000 0.110658 0.110842
0.106203 0.106203 0.106203
0.197147 0.101930 0.101808
0.276463 0.099275 0.099123
0.346227 0.097414 0.097078
0.412787 0.096468 0.096712
0.479164 0.096986 0.097475
0.543908 0.098787 0.098360
0.606500 0.100710 0.100313
0.671534 0.103578 0.103120
0.732418 0.108095 0.107301
0.789456 0.112673 0.111910
0.844999 0.117433 0.116762
0.902922 0.123690 0.123171
0.960815 0.131075 0.130495
1.000000 0.138674 0.138033
0.000000 0.198154 0.103761
0.102235 0.193088 0.102113
0.188083 0.188083 0.099702
0.267185 0.182986 0.098543
0.339727 0.178317 0.098970
0.409522 0.174868 0.099794
0.476509 0.171847 0.100160
0.541436 0.169955 0.101503
0.606195 0.169100 0.103334
0.670802 0.169131 0.106142
0.730220 0.169162 0.110048
0.786587 0.169833 0.114137
0.842283 0.171237 0.119081
0.900633 0.174655 0.125154
0.958740 0.178866 0.132204
1.000000 0.183230 0.139803
0.011322 0.269169 0.103609
0.102937 0.265537 0.102449
0.180606 0.261723 0.101747
0.257755 0.257816 0.101228
0.330846 0.252964 0.101686
0.401038 0.248295 0.102541
0.468391 0.244205 0.103456
0.535210 0.241184 0.105470
0.600732 0.238865 0.107668
0.665064 0.237064 0.110231
0.724727 0.234745 0.113680
0.781735 0.233249 0.117800
0.839750 0.233097 0.122896
0.897765 0.233738 0.128695
0.954376 0.234775 0.135042
1.000000 0.236790 0.141665
0.032685 0.328435 0.105013
0.104585 0.327520 0.104891
0.174990 0.325536 0.104829
0.247654 0.322606 0.105226
0.319066 0.318975 0.105501
0.389227 0.315496 0.106294
0.457527 0.311742 0.107637
0.525170 0.309056 0.109651
0.591241 0.306126 0.111299
0.656703 0.304051 0.114473
0.717617 0.301152 0.117983
0.777279 0.298741 0.123171
0.836973 0.297887 0.128328
0.896727 0.297459 0.135103
0.955077 0.297673 0.141665
1.000000 0.297398 0.147341
0.053834 0.391852 0.110628
0.110445 0.391852 0.111025
0.175143 0.390478 0.111604
0.243900 0.388586 0.111696
0.313695 0.386023 0.112123
0.383001 0.383124 0.113527
0.451545 0.379919 0.114351
0.519188 0.377111 0.116274
0.585595 0.374182 0.118379
0.650660 0.371313 0.120760
0.711696 0.367559 0.124666
0.772396 0.364752 0.129091
0.831907 0.362371 0.134463
0.891325 0.360845 0.140078
0.949950 0.359625 0.146181
1.000000 0.358709 0.152773
0.070954 0.456764 0.118502
0.119539 0.457282 0.119326
0.178042 0.456367 0.119234
0.243381 0.454810 0.119631
0.311131 0.452522 0.120241
0.379278 0.450050 0.121492
0.447028 0.447120 0.122774
0.514183 0.444312 0.124269
0.580255 0.441077 0.125765
0.644343 0.437293 0.128664
0.705196 0.432746 0.131685
0.765927 0.429114 0.136263
0.825650 0.425940 0.140932
0.885283 0.423713 0.146304
0.944244 0.421820 0.151919
1.000000 0.420752 0.158450
0.083864 0.517876 0.125612
0.126864 0.518975 0.126741
0.180453 0.518669 0.126955
0.242496 0.517571 0.127626
0.308385 0.515709 0.127901
0.374640 0.513359 0.128725
0.441199 0.510430 0.129488
0.507408 0.507561 0.131411
0.572992 0.504479 0.132479
0.636225 0.500298 0.135531
0.697902 0.496101 0.139284
0.759152 0.492470 0.143526
0.819455 0.489113 0.147677
0.878813 0.486000 0.152499
0.937774 0.483558 0.157717
0.999176 0.483314 0.165652
0.096376 0.573144 0.132570
0.132692 0.572900 0.132479
0.181582 0.572717 0.133394
0.240238 0.572137 0.133700
0.303410 0.571466 0.135103
0.368170 0.570642 0.136324
0.434607 0.569726 0.137850
0.500816 0.568475 0.140230
0.566949 0.566949 0.142458
0.632532 0.565332 0.145724
0.695888 0.562280 0.149783
0.758206 0.559014 0.154757
0.818875 0.555535 0.159060
0.879149 0.552483 0.164675
0.938964 0.550103 0.170596
0.998016 0.547814 0.176791
0.112917 0.629877 0.143465
0.143893 0.629389 0.143465
0.187472 0.628992 0.144259
0.242130 0.628595 0.144686
0.302281 0.628290 0.145785
0.364874 0.627710 0.147066
0.429053 0.626947 0.148775
0.493721 0.626032 0.150546
0.558953 0.625116 0.152743
0.623896 0.623896 0.155703
0.688319 0.622431 0.158236
0.750118 0.619043 0.162783
0.811246 0.615839 0.167422
0.872435 0.613489 0.173007
0.933440 0.611597 0.179202
0.994965 0.610986 0.187930
0.129488 0.687098 0.155978
0.155764 0.687068 0.156130
0.195743 0.686671 0.156130
0.246342 0.686122 0.157168
0.303197 0.685542 0.157198
0.363378 0.684657 0.158358
0.425452 0.683772 0.159518
0.488441 0.682887 0.161257
0.552270 0.682185 0.164004
0.616083 0.681117 0.166323
0.679652 0.679744 0.168643
0.742855 0.678157 0.171817
0.805264 0.676356 0.177005
0.867582 0.674952 0.183139
0.929717 0.673915 0.190768
0.991394 0.673243 0.199252
0.144594 0.743404 0.167910
0.167849 0.743191 0.168093
0.204166 0.742824 0.168002
0.251347 0.742519 0.168887
0.305425 0.742214 0.169467
0.363806 0.741817 0.170413
0.424170 0.741451 0.172457
0.486030 0.740932 0.174166
0.548638 0.740383 0.176730
0.611658 0.739712 0.179171
0.674830 0.738979 0.181918
0.738155 0.738247 0.185397
0.801511 0.737606 0.188968
0.863920 0.736446 0.195254
0.926024 0.735622 0.202792
0.988403 0.735531 0.213077
0.160220 0.800504 0.181399
0.181216 0.800534 0.181247
0.214328 0.800717 0.182376
0.258976 0.800809 0.183139
0.310918 0.801022 0.184787
0.367376 0.801205 0.186404
0.426612 0.801480 0.188266
0.487434 0.801602 0.190829
0.549493 0.801785 0.193973
0.612055 0.801877 0.197086
0.675166 0.801999 0.200961
0.738552 0.802060 0.205356
0.802152 0.802304 0.210300
0.865293 0.801999 0.215305
0.927123 0.800839 0.222538
0.987762 0.799222 0.231052
0.185031 0.863371 0.203006
0.201541 0.862089 0.201724
0.230045 0.861540 0.201328
0.271000 0.861387 0.202121
0.319860 0.861570 0.203525
0.374029 0.861631 0.204837
0.431189 0.861784 0.207340
0.490272 0.861936 0.209659
0.551049 0.862242 0.213107
0.612451 0.862242 0.216739
0.674708 0.862394 0.220829
0.737118 0.862425 0.225345
0.799832 0.862608 0.230533
0.862303 0.862425 0.235966
0.924437 0.861967 0.240757
0.985809 0.861234 0.249668
0.211612 0.924254 0.226780
0.224887 0.923217 0.225162
0.249973 0.922637 0.224796
0.287022 0.922454 0.225223
0.332647 0.922484 0.226413
0.383886 0.922576 0.228458
0.438880 0.922820 0.230686
0.496254 0.922911 0.233371
0.555413 0.923095 0.237034
0.615564 0.923156 0.241093
0.676631 0.923339 0.245457
0.738247 0.923522 0.250919
0.800259 0.923949 0.257267
0.862333 0.924193 0.263828
0.924254 0.924407 0.271244
0.985534 0.924010 0.277928
0.246983 0.986450 0.260044
0.257847 0.985626 0.258213
0.279088 0.985199 0.257328
0.312016 0.985077 0.257939
0.353582 0.985168 0.259861
0.401434 0.985351 0.262058
0.453651 0.985595 0.265171
0.508782 0.985870 0.268864
0.566247 0.986267 0.273930
0.625116 0.986694 0.279454
0.685054 0.987213 0.285954
0.745693 0.987793 0.293462
0.806973 0.988586 0.302983
0.868437 0.989471 0.313695
0.930236 0.990631 0.326574
0.991882 0.992004 0.342077
0.000305 0.000000 0.214786
0.114778 0.000092 0.210269
0.199405 0.000092 0.200320
0.278080 0.000000 0.189792
0.346807 0.000031 0.179965
0.409918 0.014221 0.173892
0.474128 0.030426 0.171878
0.538109 0.041810 0.171145
0.600977 0.049683 0.169619
0.666041 0.056855 0.169528
0.727901 0.066041 0.170321
0.785794 0.076295 0.172152
0.842496 0.084657 0.173556
0.901732 0.095216 0.177096
0.960449 0.105531 0.181369
1.000000 0.114565 0.185061
0.000000 0.107851 0.207828
0.103243 0.103212 0.199832
0.192233 0.099916 0.192203
0.270268 0.098939 0.184939
0.339147 0.099733 0.178561
0.406134 0.103273 0.175479
0.472358 0.105074 0.173495
0.537163 0.106722 0.171695
0.601526 0.108400 0.170260
0.666835 0.111086 0.170779
0.727962 0.115175 0.171756
0.785458 0.119722 0.173068
0.841733 0.124239 0.174502
0.900511 0.130861 0.178073
0.958923 0.137881 0.181460
1.000000 0.144411 0.185824
0.000000 0.194003 0.193912
0.101869 0.189548 0.189639
0.185336 0.185336 0.185336
0.262303 0.181888 0.181796
0.334508 0.179385 0.179416
0.404150 0.177096 0.176852
0.471107 0.174807 0.174960
0.536156 0.172793 0.172763
0.602075 0.172549 0.172427
0.666529 0.172763 0.172335
0.726070 0.173312 0.172580
0.782803 0.174044 0.173892
0.839536 0.175601 0.175509
0.898192 0.179049 0.178378
0.956847 0.182712 0.182559
1.000000 0.187259 0.186557
0.020630 0.266117 0.184817
0.107729 0.262699 0.183352
0.181735 0.259068 0.181308
0.255650 0.255894 0.179446
0.327672 0.251896 0.177798
0.397223 0.248234 0.176333
0.464546 0.244450 0.174533
0.532128 0.242496 0.173800
0.597436 0.240177 0.173465
0.661677 0.238315 0.173678
0.721279 0.236728 0.173983
0.778470 0.235386 0.174868
0.837217 0.235569 0.177584
0.895323 0.236210 0.179965
0.952209 0.237003 0.183017
1.000000 0.238834 0.186343
0.049226 0.325872 0.178836
0.111696 0.324987 0.178378
0.177096 0.323400 0.177646
0.247318 0.320806 0.176425
0.317388 0.317479 0.175235
0.386755 0.314153 0.174289
0.454780 0.311101 0.173373
0.522179 0.308476 0.173465
0.588190 0.305974 0.173251
0.653498 0.303929 0.174166
0.714534 0.301549 0.175204
0.774777 0.299901 0.177646
0.834897 0.299046 0.180423
0.894865 0.298924 0.184176
0.953643 0.299260 0.187961
1.000000 0.299199 0.191165
0.063081 0.390478 0.177523
0.116548 0.390417 0.177768
0.177493 0.389166 0.177737
0.244816 0.387213 0.177188
0.313085 0.384588 0.176730
0.381811 0.381933 0.176150
0.449683 0.378882 0.175662
0.517205 0.376196 0.175875
0.583459 0.373571 0.176028
0.648219 0.370733 0.176791
0.709621 0.367407 0.178408
0.770321 0.364874 0.181033
0.830167 0.362768 0.183810
0.889860 0.361334 0.186648
0.948669 0.360418 0.190249
1.000000 0.359808 0.194827
0.076814 0.455451 0.179690
0.123140 0.455970 0.179843
0.179873 0.455146 0.179782
0.243839 0.453681 0.179873
0.310948 0.451453 0.179538
0.378729 0.449165 0.179080
0.446418 0.446387 0.179232
0.513207 0.443427 0.179080
0.578759 0.440192 0.179263
0.642573 0.436622 0.180575
0.703548 0.432471 0.182071
0.764279 0.428992 0.184268
0.824125 0.425940 0.186923
0.883879 0.423865 0.190036
0.943084 0.422217 0.194034
1.000000 0.421363 0.198154
0.087892 0.516869 0.181003
0.129244 0.518120 0.181582
0.181460 0.517845 0.181735
0.243473 0.516686 0.181949
0.308385 0.514916 0.181888
0.374426 0.512444 0.182010
0.440620 0.509545 0.181552
0.506767 0.506798 0.181857
0.571893 0.503716 0.182559
0.635187 0.499733 0.184329
0.696803 0.495613 0.186191
0.758053 0.492134 0.188571
0.818265 0.488899 0.191196
0.877623 0.485939 0.194186
0.937102 0.483742 0.197848
0.998566 0.483650 0.203738
0.098939 0.572625 0.182315
0.134310 0.572412 0.182742
0.182925 0.572076 0.183200
0.240848 0.571527 0.183658
0.303380 0.570855 0.184237
0.368414 0.570001 0.184909
0.434180 0.569085 0.186191
0.500328 0.567803 0.187167
0.566278 0.566369 0.188815
0.631800 0.564691 0.190677
0.695064 0.561761 0.194095
0.757198 0.558648 0.197269
0.817929 0.555200 0.200137
0.878355 0.552483 0.203616
0.938354 0.550256 0.208072
0.997711 0.548119 0.213016
0.116060 0.629480 0.189181
0.145968 0.629145 0.188998
0.189303 0.628748 0.189303
0.243229 0.628443 0.189822
0.303258 0.628138 0.190494
0.365332 0.627527 0.191409
0.429267 0.626734 0.192752
0.493843 0.625727 0.193912
0.558892 0.624811 0.195407
0.623499 0.623590 0.197452
0.687678 0.621942 0.199191
0.749386 0.618708 0.202243
0.810575 0.615656 0.205447
0.871885 0.613458 0.209445
0.933104 0.611780 0.214389
0.994720 0.611170 0.221622
0.132448 0.686824 0.197147
0.158358 0.686915 0.197635
0.197604 0.686580 0.197848
0.247776 0.686091 0.198154
0.304143 0.685389 0.198367
0.364172 0.684596 0.198764
0.425910 0.683742 0.199771
0.488808 0.682856 0.201236
0.552422 0.682033 0.202823
0.615991 0.680842 0.204685
0.679255 0.679438 0.206607
0.742489 0.677821 0.208408
0.804868 0.676204 0.212558
0.867247 0.674952 0.217624
0.929412 0.674037 0.223514
0.991180 0.673396 0.230961
0.146853 0.743252 0.205539
0.170077 0.743008 0.205570
0.205844 0.742611 0.205539
0.252628 0.742336 0.206241
0.306310 0.742092 0.206882
0.364263 0.741726 0.207736
0.424811 0.741329 0.208957
0.486397 0.740841 0.210239
0.548852 0.740230 0.211734
0.611749 0.739590 0.213748
0.674891 0.738857 0.216129
0.738033 0.738125 0.218906
0.801297 0.737514 0.221988
0.863645 0.736385 0.227085
0.925811 0.735561 0.233188
0.988190 0.735531 0.241733
0.162875 0.800565 0.215427
0.183413 0.800595 0.215732
0.216098 0.800717 0.216403
0.260288 0.800839 0.217227
0.311986 0.801053 0.217990
0.368017 0.801175 0.219669
0.427100 0.801450 0.221653
0.487800 0.801572 0.223484
0.549767 0.801785 0.226200
0.612329 0.801816 0.228946
0.675380 0.802029 0.232151
0.738674 0.802060 0.236088
0.802182 0.802335 0.240208
0.865202 0.802029 0.244541
0.926970 0.800900 0.250553
0.987671 0.799344 0.258000
0.187350 0.863401 0.233555
0.203006 0.862181 0.232425
0.231907 0.861631 0.231815
0.272282 0.861479 0.232578
0.320989 0.861631 0.233616
0.374640 0.861723 0.235203
0.431678 0.861845 0.237064
0.490913 0.861997 0.239078
0.551476 0.862272 0.242130
0.612848 0.862303 0.245182
0.675013 0.862425 0.248875
0.737362 0.862455 0.252476
0.799893 0.862638 0.257481
0.862333 0.862455 0.262028
0.924376 0.861997 0.266484
0.985809 0.861326 0.274052
0.212894 0.924285 0.253544
0.226291 0.923247 0.251865
0.251286 0.922698 0.251438
0.288212 0.922515 0.251926
0.333440 0.922576 0.252934
0.384619 0.922667 0.254734
0.439521 0.922881 0.257145
0.496773 0.923003 0.259373
0.555840 0.923156 0.262364
0.615930 0.923217 0.265751
0.676905 0.923430 0.270146
0.738430 0.923613 0.274723
0.800412 0.924010 0.280766
0.862455 0.924254 0.286748
0.924346 0.924468 0.293462
0.985565 0.924102 0.299413
0.248142 0.986511 0.282506
0.258793 0.985718 0.280827
0.280095 0.985290 0.280247
0.312871 0.985168 0.280980
0.354406 0.985260 0.282536
0.402106 0.985443 0.284581
0.454170 0.985687 0.287510
0.509300 0.985931 0.290959
0.566644 0.986328 0.295445
0.625452 0.986755 0.300511
0.685359 0.987304 0.306645
0.745968 0.987854 0.313817
0.807187 0.988647 0.322454
0.868620 0.989532 0.332433
0.930297 0.990661 0.344793
0.991943 0.992065 0.359442
0.000031 0.000061 0.296269
0.106844 0.000305 0.290837
0.190463 0.000244 0.280613
0.268864 0.000031 0.269535
0.339483 0.001343 0.257847
0.405188 0.015961 0.249119
0.470222 0.031006 0.243931
0.533867 0.045258 0.240665
0.597009 0.056580 0.238285
0.661860 0.065980 0.237522
0.723507 0.075532 0.237034
0.781827 0.086091 0.236606
0.839414 0.094972 0.236240
0.899260 0.104738 0.237797
0.958282 0.114229 0.240146
1.000000 0.122652 0.241611
0.000000 0.102998 0.286687
0.100313 0.100526 0.278782
0.185183 0.098573 0.270878
0.262730 0.097810 0.262913
0.333867 0.099031 0.254520
0.402380 0.102571 0.249088
0.468330 0.105867 0.244572
0.532433 0.109621 0.241093
0.597467 0.113069 0.239780
0.662684 0.116457 0.238499
0.723659 0.120607 0.237552
0.781369 0.126223 0.236790
0.838865 0.131258 0.236942
0.898039 0.137942 0.238041
0.956817 0.144167 0.239597
1.000000 0.150759 0.241825
0.004730 0.188113 0.273075
0.103975 0.185092 0.267674
0.182376 0.182193 0.262119
0.258183 0.179904 0.258152
0.329992 0.178500 0.253574
0.399207 0.177432 0.249454
0.466072 0.176150 0.245792
0.531914 0.175235 0.242832
0.597620 0.174960 0.240909
0.662226 0.174899 0.239597
0.721859 0.176028 0.237980
0.778897 0.177523 0.237095
0.836698 0.179934 0.237064
0.895842 0.183658 0.238010
0.954772 0.187594 0.240116
1.000000 0.191684 0.241978
0.027558 0.262181 0.262119
0.108461 0.259129 0.259281
0.181247 0.255924 0.255955
0.253178 0.253178 0.253178
0.323949 0.250217 0.250370
0.393011 0.247318 0.247105
0.460792 0.244511 0.244480
0.528161 0.242679 0.242283
0.593530 0.240604 0.240482
0.657710 0.239017 0.238865
0.717494 0.237919 0.237919
0.775296 0.237369 0.237125
0.834684 0.238010 0.238041
0.893126 0.238987 0.238590
0.950317 0.239933 0.239445
1.000000 0.241337 0.241001
0.051453 0.323003 0.249363
0.113222 0.322179 0.248844
0.177890 0.320348 0.247959
0.246250 0.318120 0.246250
0.315282 0.315343 0.244175
0.383978 0.312627 0.242710
0.451850 0.309911 0.241032
0.519280 0.307805 0.239841
0.585290 0.305425 0.238468
0.650416 0.303593 0.237919
0.711421 0.301671 0.237675
0.772335 0.300908 0.238590
0.832792 0.300603 0.239750
0.892943 0.300786 0.241550
0.951934 0.301305 0.243473
1.000000 0.301213 0.244785
0.069062 0.388586 0.245914
0.119478 0.388251 0.245975
0.178775 0.387030 0.245304
0.244388 0.385168 0.244572
0.312047 0.382727 0.243046
0.380224 0.380285 0.241794
0.447822 0.377508 0.240482
0.515038 0.375128 0.239750
0.581109 0.372625 0.238865
0.645899 0.370184 0.238499
0.707240 0.367437 0.238987
0.768185 0.365332 0.239994
0.828214 0.363531 0.241032
0.888029 0.362524 0.242863
0.947173 0.361578 0.244755
1.000000 0.361273 0.247135
0.080171 0.453254 0.244297
0.125154 0.453712 0.244694
0.180484 0.453101 0.244511
0.243992 0.451759 0.243839
0.310216 0.449775 0.243351
0.377691 0.447578 0.242435
0.445014 0.444923 0.241825
0.511406 0.442054 0.240879
0.576837 0.439002 0.240330
0.640497 0.435706 0.240177
0.701503 0.431861 0.240452
0.762387 0.428870 0.241459
0.822416 0.426184 0.242771
0.882322 0.424353 0.244236
0.941802 0.422980 0.246311
1.000000 0.422187 0.248936
0.091127 0.515190 0.242832
