luts/Polaroid_Color_600.cube
# Generated for krafta web app
# https://www.facebook.com/krafta.visio
# Preset: POL - Color 600
# Color profile : sRGB Color Space Profile
LUT_3D_SIZE 6
DOMAIN_MIN 0.0 0.0 0.0
DOMAIN_MAX 1.0 1.0 1.0
0.000000 0.000000 0.000000
0.225711 0.004150 0.004395
0.422889 0.009674 0.010285
0.616571 0.023407 0.022827
0.805966 0.052277 0.051148
0.994079 0.087831 0.086915
0.006958 0.221805 0.006928
0.219028 0.218875 0.010437
0.418280 0.213748 0.019867
0.612787 0.213413 0.038453
0.801358 0.215732 0.063966
0.990539 0.225345 0.095552
0.050324 0.416266 0.050355
0.218814 0.416663 0.054292
0.415106 0.415259 0.062806
0.609400 0.411872 0.074586
0.799191 0.409705 0.093477
0.988342 0.411627 0.120241
0.097078 0.603235 0.096773
0.227298 0.602960 0.098878
0.410834 0.603235 0.104524
0.603204 0.603265 0.114290
0.793912 0.601678 0.129061
0.983856 0.602350 0.154818
0.143984 0.787320 0.145052
0.247623 0.788083 0.147646
0.416785 0.789639 0.153658
0.602625 0.791257 0.164370
0.793088 0.793240 0.180423
0.980804 0.792813 0.203952
0.234501 0.982177 0.234867
0.302129 0.980774 0.232822
0.447089 0.981628 0.240787
0.620630 0.983398 0.257420
0.804105 0.986267 0.283574
0.990539 0.990661 0.325994
0.000885 0.000549 0.228916
0.221103 0.000855 0.221164
0.418494 0.021180 0.214267
0.611353 0.050416 0.214939
0.801175 0.074281 0.218967
0.991119 0.101747 0.227329
0.016968 0.220829 0.220706
0.218296 0.218296 0.218296
0.416144 0.216953 0.216709
0.610468 0.217624 0.217533
0.799710 0.221225 0.221103
0.988037 0.229435 0.229068
0.064149 0.414832 0.220157
0.220432 0.414588 0.220645
0.412879 0.412818 0.221195
0.605768 0.410346 0.222965
0.795743 0.409216 0.227756
0.986084 0.411994 0.237919
0.102815 0.602686 0.229313
0.229831 0.602564 0.229648
0.411048 0.602380 0.231601
0.601862 0.602014 0.235691
0.792325 0.600916 0.242069
0.983459 0.602777 0.255528
0.148684 0.788052 0.248508
0.249729 0.788388 0.249699
0.417823 0.789792 0.253574
0.603082 0.791287 0.260410
0.793179 0.793240 0.270451
0.980987 0.793271 0.285710
0.236728 0.982544 0.305669
0.303807 0.981262 0.304082
0.448341 0.982086 0.310399
0.621454 0.983703 0.322911
0.804623 0.986358 0.343969
0.990631 0.990784 0.379553
0.002106 0.002136 0.423957
0.211917 0.007202 0.418463
0.411963 0.025177 0.411719
0.607111 0.052369 0.408392
0.798123 0.080629 0.406958
0.989014 0.109407 0.409186
0.032319 0.216556 0.418982
0.214694 0.215030 0.415167
0.411780 0.215244 0.411902
0.605859 0.217655 0.408698
0.796353 0.223850 0.407782
0.986175 0.231510 0.408759
0.066621 0.411597 0.411505
0.220096 0.411505 0.411566
0.410224 0.410224 0.410224
0.602289 0.409186 0.409094
0.792966 0.409735 0.409430
0.984924 0.412757 0.412482
0.111116 0.601160 0.410590
0.232914 0.601099 0.411048
0.411688 0.600977 0.411688
0.600671 0.600732 0.412970
0.790982 0.600519 0.415106
0.983001 0.603235 0.420844
0.152163 0.788174 0.415839
0.252079 0.788663 0.416785
0.419501 0.789944 0.419440
0.603845 0.791318 0.423682
0.793362 0.793454 0.430182
0.981170 0.793851 0.436683
0.233158 0.983185 0.444739
0.300267 0.982086 0.442817
0.446357 0.982788 0.446509
0.621180 0.984497 0.454902
0.804807 0.987030 0.468482
0.991363 0.991485 0.492287
0.010956 0.011566 0.610895
0.207126 0.017121 0.608484
0.405249 0.033753 0.604547
0.600641 0.056764 0.600641
0.794186 0.082063 0.598535
0.986542 0.109255 0.598322
0.042267 0.212863 0.610224
0.212345 0.212375 0.607233
0.406317 0.213687 0.603845
0.600366 0.216922 0.600336
0.792996 0.223178 0.598169
0.984344 0.230411 0.597253
0.075654 0.406897 0.602014
0.220279 0.407202 0.601862
0.407111 0.406989 0.600183
0.598474 0.407111 0.598596
0.790249 0.408026 0.597345
0.984222 0.410529 0.598474
0.113375 0.598871 0.598779
0.233402 0.598901 0.598779
0.411048 0.599115 0.599054
0.598596 0.598718 0.598688
0.790158 0.598993 0.598871
0.984131 0.600427 0.600275
0.151980 0.788663 0.599481
0.250767 0.789090 0.599908
0.417212 0.790127 0.600824
0.602686 0.791531 0.602777
0.792844 0.792966 0.605737
0.983124 0.793576 0.607019
0.199130 0.984680 0.609705
0.271794 0.983886 0.607019
0.431800 0.984619 0.609430
0.614466 0.986175 0.614527
0.802609 0.988373 0.622400
0.992706 0.992798 0.638148
0.023957 0.021607 0.796811
0.205173 0.026642 0.795956
0.400244 0.039521 0.793820
0.595941 0.060151 0.791958
0.790097 0.082490 0.790036
0.983917 0.107973 0.789639
0.045319 0.209293 0.796750
0.209323 0.209537 0.795285
0.401709 0.211490 0.793851
0.596185 0.215518 0.791836
0.789425 0.221408 0.789487
0.982361 0.229068 0.788388
0.069764 0.402564 0.792294
0.215335 0.402625 0.791928
0.402716 0.402747 0.790890
0.595178 0.403143 0.789456
0.788418 0.405280 0.788449
0.982788 0.408362 0.789090
0.104311 0.596521 0.789700
0.227237 0.596521 0.789731
0.405280 0.595972 0.789487
0.595636 0.595666 0.789242
0.789273 0.596704 0.789181
0.984405 0.597620 0.790280
0.148867 0.789517 0.789548
0.249180 0.789761 0.789792
0.416510 0.790616 0.790646
0.601373 0.791714 0.791714
0.791501 0.791623 0.791501
0.986603 0.791501 0.791409
0.199863 0.986114 0.796567
0.273136 0.985565 0.795285
0.426673 0.986633 0.795560
0.604639 0.988342 0.795346
0.797238 0.990570 0.797299
0.994751 0.994842 0.806821
0.028168 0.026398 0.989258
0.204776 0.029938 0.989044
0.398962 0.040742 0.988403
0.595331 0.059663 0.987793
0.791684 0.084474 0.987457
0.987304 0.115236 0.987274
0.029480 0.204379 0.989380
0.205417 0.205142 0.989044
0.398840 0.206790 0.988128
0.594690 0.210391 0.987152
0.790188 0.216342 0.985992
0.985199 0.226047 0.985138
0.007172 0.395850 0.988586
0.200229 0.396246 0.988617
0.396979 0.396918 0.988220
0.593957 0.398230 0.987579
0.790372 0.400183 0.986664
0.986389 0.405188 0.986328
0.020478 0.593866 0.988708
0.197818 0.593103 0.988739
0.389746 0.590478 0.988891
0.590875 0.590906 0.988525
0.790127 0.592126 0.988067
0.988159 0.595270 0.988159
0.121584 0.794797 0.989593
0.232456 0.794522 0.989685
0.405463 0.793790 0.990021
0.593225 0.792020 0.990570
0.790127 0.790158 0.991058
0.991669 0.792599 0.991699
0.219852 0.993164 0.993164
0.289097 0.993042 0.993042
0.434455 0.993408 0.993378
0.608820 0.994110 0.994079
0.797269 0.995514 0.995483
0.998657 0.998657 0.998657
