luts/Polaroid_Color_600.cube
# Generated for krafta web app
# https://www.facebook.com/krafta.visio
# Preset: POL - Color 600
# Color profile : sRGB Color Space Profile
LUT_3D_SIZE 16
DOMAIN_MIN 0.0 0.0 0.0
DOMAIN_MAX 1.0 1.0 1.0
0.000000 0.000000 0.000000
0.076814 0.000916 0.000885
0.153475 0.002228 0.002747
0.225711 0.004150 0.004395
0.292851 0.006134 0.006134
0.358587 0.008911 0.008179
0.422889 0.009674 0.010285
0.488167 0.011749 0.012482
0.552453 0.017548 0.016846
0.616571 0.023407 0.022827
0.680690 0.031769 0.031312
0.743679 0.041077 0.041138
0.805966 0.052277 0.051148
0.869108 0.063325 0.063294
0.932372 0.075502 0.074891
0.994079 0.087831 0.086915
0.003204 0.079713 0.003265
0.079103 0.079133 0.003967
0.151766 0.080873 0.004852
0.223423 0.080781 0.006012
0.290898 0.080171 0.007324
0.356542 0.079377 0.008576
0.422400 0.078737 0.010742
0.487678 0.080903 0.013642
0.551598 0.082277 0.019501
0.615930 0.085389 0.025055
0.680049 0.089204 0.033875
0.742855 0.094514 0.043122
0.804959 0.099611 0.054017
0.868101 0.106600 0.065126
0.931456 0.114809 0.076173
0.993896 0.123384 0.088411
0.005707 0.153292 0.005066
0.080385 0.152102 0.005188
0.150881 0.150820 0.006195
0.220798 0.149783 0.007050
0.288548 0.148013 0.007599
0.355566 0.147158 0.009857
0.421393 0.146395 0.013550
0.486427 0.146212 0.017487
0.550286 0.146700 0.022644
0.615015 0.148196 0.030060
0.679011 0.149905 0.038819
0.741604 0.152193 0.047669
0.803586 0.155123 0.057130
0.867094 0.158999 0.068025
0.930480 0.164340 0.079377
0.993561 0.170321 0.091859
0.006958 0.221805 0.006928
0.080568 0.220737 0.008209
0.149020 0.219821 0.009400
0.219028 0.218875 0.010437
0.286442 0.217075 0.012848
0.352911 0.215366 0.016754
0.418280 0.213748 0.019867
0.483345 0.213138 0.025086
0.548241 0.212833 0.031342
0.612787 0.213413 0.038453
0.676356 0.213840 0.045563
0.738827 0.214511 0.055055
0.801358 0.215732 0.063966
0.864317 0.218448 0.073457
0.927214 0.221164 0.084016
0.990539 0.225345 0.095552
0.017212 0.286442 0.017395
0.083803 0.286351 0.018158
0.149874 0.286595 0.019501
0.217563 0.286290 0.020813
0.285618 0.285557 0.024048
0.352544 0.284184 0.027558
0.418158 0.282719 0.031342
0.483558 0.281559 0.036744
0.548547 0.280705 0.043336
0.613336 0.280430 0.049714
0.677028 0.280064 0.056611
0.739986 0.279942 0.064485
0.803037 0.280827 0.072358
0.866423 0.282353 0.081605
0.929412 0.284062 0.092226
0.991028 0.286412 0.102510
0.030793 0.351537 0.032685
0.091127 0.351904 0.032959
0.152743 0.352117 0.033967
0.217563 0.351873 0.036896
0.283818 0.351019 0.038819
0.350164 0.350164 0.043458
0.416449 0.349310 0.047425
0.481971 0.348302 0.051759
0.546777 0.347417 0.056092
0.611505 0.346624 0.061341
0.674830 0.345647 0.067750
0.738216 0.345098 0.074891
0.801144 0.345220 0.082368
0.864469 0.345983 0.091585
0.927489 0.347143 0.100465
0.989746 0.348547 0.110842
0.050324 0.416266 0.050355
0.100191 0.416663 0.050935
0.156527 0.416876 0.051423
0.218814 0.416663 0.054292
0.283604 0.416205 0.056062
0.349279 0.415778 0.058595
0.415106 0.415259 0.062806
0.480873 0.414557 0.065980
0.545159 0.412970 0.070253
0.609400 0.411872 0.074586
0.672724 0.410712 0.079896
0.736080 0.410071 0.086458
0.799191 0.409705 0.093477
0.862455 0.409888 0.101411
0.925566 0.410590 0.109987
0.988342 0.411627 0.120241
0.067048 0.480201 0.066560
0.109102 0.481117 0.068391
0.161837 0.481666 0.068757
0.221988 0.481697 0.069642
0.284886 0.481239 0.071901
0.349126 0.480262 0.073854
0.413458 0.479072 0.076539
0.478096 0.478187 0.079469
0.542565 0.477150 0.083192
0.606683 0.476112 0.087221
0.670192 0.474861 0.092714
0.733669 0.474037 0.097810
0.796780 0.473518 0.104036
0.859831 0.473365 0.111452
0.922789 0.473579 0.119844
0.986603 0.474922 0.129824
0.081331 0.540246 0.081025
0.117159 0.540429 0.081361
0.166201 0.540856 0.082551
0.223575 0.541192 0.083375
0.284367 0.541314 0.085939
0.347478 0.541283 0.087465
0.411566 0.541192 0.090486
0.475959 0.541009 0.093538
0.540856 0.540856 0.096773
0.605493 0.540703 0.101167
0.669612 0.540032 0.105318
0.733364 0.539330 0.111391
0.796658 0.538750 0.117647
0.859770 0.538415 0.124575
0.922789 0.538476 0.132448
0.985382 0.538750 0.142336
0.097078 0.603235 0.096773
0.128481 0.602991 0.097230
0.172915 0.602991 0.097322
0.227298 0.602960 0.098878
0.286381 0.602991 0.100313
0.347784 0.603021 0.102083
0.410834 0.603235 0.104524
0.474708 0.603204 0.107149
0.538842 0.603326 0.110567
0.603204 0.603265 0.114290
0.667506 0.603143 0.118227
0.730770 0.602289 0.123323
0.793912 0.601678 0.129061
0.857359 0.601556 0.136446
0.920745 0.601831 0.145113
0.983856 0.602350 0.154818
0.112734 0.665644 0.113069
0.140932 0.665553 0.112337
0.181796 0.665431 0.113130
0.233005 0.665370 0.114168
0.289830 0.665339 0.116121
0.349767 0.665309 0.117403
0.411688 0.665339 0.119783
0.474403 0.665370 0.122072
0.537713 0.665339 0.125490
0.601282 0.665248 0.128237
0.665003 0.665064 0.132815
0.728603 0.664820 0.136995
0.791928 0.664454 0.142702
0.855406 0.664515 0.149752
0.918853 0.664851 0.158724
0.981994 0.665492 0.168917
0.129641 0.728023 0.130007
0.153902 0.727901 0.129976
0.191440 0.727779 0.130526
0.239933 0.727687 0.131350
0.294774 0.727504 0.132204
0.353002 0.727413 0.133272
0.413336 0.727260 0.135744
0.474891 0.727230 0.137789
0.537591 0.727169 0.140780
0.600336 0.727047 0.144625
0.663569 0.727016 0.147860
0.726772 0.726925 0.152621
0.790311 0.726986 0.157259
0.853727 0.727199 0.164431
0.917327 0.727840 0.173281
0.981170 0.729030 0.184909
0.143984 0.787320 0.145052
0.166934 0.787381 0.144991
0.201816 0.787716 0.145968
0.247623 0.788083 0.147646
0.300664 0.788602 0.149294
0.357305 0.789029 0.151400
0.416785 0.789639 0.153658
0.477638 0.790127 0.156924
0.539879 0.790768 0.160586
0.602625 0.791257 0.164370
0.665919 0.791958 0.169162
0.729274 0.792538 0.174411
0.793088 0.793240 0.180423
0.856352 0.793484 0.186007
0.919005 0.793271 0.194247
0.980804 0.792813 0.203952
0.169863 0.853391 0.169619
0.186679 0.852018 0.168460
0.217227 0.851438 0.167849
0.259739 0.851408 0.168734
0.309606 0.851774 0.170413
0.364446 0.852140 0.172305
0.422370 0.852567 0.175357
0.482094 0.853056 0.178134
0.543297 0.853696 0.182315
0.604883 0.854124 0.186618
0.667384 0.854673 0.191470
0.730037 0.855100 0.196262
0.792996 0.855589 0.202518
0.855619 0.855772 0.208499
0.918029 0.855650 0.214878
0.980194 0.855741 0.224826
0.196719 0.917174 0.197208
0.211093 0.916014 0.195041
0.237644 0.915404 0.194553
0.276219 0.915251 0.195163
0.322911 0.915465 0.196750
0.375402 0.915679 0.199130
0.431128 0.916136 0.201694
0.489265 0.916503 0.205417
0.549004 0.917021 0.209751
0.609674 0.917388 0.214267
0.671077 0.917906 0.219760
0.732998 0.918395 0.225467
0.795377 0.919158 0.232609
0.857786 0.919707 0.240330
0.920073 0.920195 0.248325
0.981659 0.920104 0.255680
0.234501 0.982177 0.234867
0.245823 0.981292 0.232486
0.267948 0.980865 0.231785
0.302129 0.980774 0.232822
0.345098 0.980957 0.234623
0.393988 0.981201 0.237125
0.447089 0.981628 0.240787
0.502983 0.982086 0.245151
0.561181 0.982696 0.250889
0.620630 0.983398 0.257420
0.681178 0.984222 0.264683
0.742245 0.985077 0.273198
0.804105 0.986267 0.283574
0.866087 0.987457 0.295201
0.928313 0.988922 0.309361
0.990539 0.990661 0.325994
0.000549 0.000305 0.076265
0.079530 0.001526 0.079561
0.154147 0.001740 0.080842
0.226139 0.000305 0.078218
0.292851 0.002533 0.078187
0.357794 0.007355 0.079011
0.422431 0.013397 0.080415
0.487221 0.018830 0.082033
0.550927 0.024720 0.085237
0.615198 0.032532 0.088258
0.679469 0.040589 0.092714
0.742061 0.050599 0.096864
0.804135 0.059998 0.102083
0.867155 0.070100 0.108217
0.930297 0.080354 0.115877
0.992432 0.091707 0.123873
0.000946 0.080293 0.080537
0.079561 0.079561 0.079561
0.153140 0.079133 0.078950
0.224002 0.078920 0.078279
0.291081 0.078981 0.079011
0.356786 0.079805 0.079835
0.422065 0.082216 0.081849
0.487007 0.084016 0.084169
0.550805 0.086641 0.086610
0.615473 0.090394 0.089631
0.679561 0.094118 0.094118
0.741909 0.099306 0.098116
0.803677 0.104036 0.103426
0.866667 0.110018 0.109438
0.929625 0.117433 0.116426
0.992126 0.125612 0.125246
0.000000 0.154665 0.080018
0.079957 0.153140 0.080140
0.151858 0.151736 0.079622
0.222019 0.150454 0.080446
0.289738 0.149416 0.080873
0.356115 0.148806 0.082399
0.421607 0.148440 0.084504
0.486244 0.148745 0.086427
0.550896 0.149447 0.089174
0.615442 0.151003 0.092775
0.678767 0.152926 0.095918
0.740963 0.154635 0.100435
0.802731 0.157595 0.105287
0.865812 0.161440 0.111269
0.928832 0.165896 0.119020
0.991577 0.171756 0.126772
0.011231 0.223148 0.082765
0.082521 0.222019 0.082460
0.150637 0.220890 0.082948
0.219608 0.219974 0.083009
0.287358 0.218235 0.084627
0.353887 0.216800 0.085725
0.419348 0.215732 0.087800
0.484504 0.215152 0.090181
0.549310 0.215030 0.093019
0.613550 0.215183 0.096376
0.676905 0.215549 0.099947
0.739132 0.216220 0.104494
0.801938 0.217899 0.109194
0.864744 0.220035 0.115328
0.927092 0.222965 0.121370
0.989563 0.226474 0.129641
0.022248 0.286625 0.087037
0.086244 0.286381 0.087037
0.150759 0.285710 0.087739
0.217197 0.284977 0.088472
0.283879 0.283970 0.089235
0.350408 0.282872 0.090608
0.415717 0.281682 0.093080
0.481331 0.280919 0.094789
0.546075 0.280186 0.097597
0.610773 0.279911 0.101167
0.674464 0.279973 0.104250
0.737697 0.280095 0.109102
0.801053 0.281163 0.114168
0.864530 0.282658 0.119997
0.927581 0.284520 0.126925
0.989807 0.286656 0.134859
0.038453 0.351202 0.093721
0.093538 0.351263 0.093812
0.153109 0.350958 0.094423
0.217166 0.350469 0.095125
0.283024 0.349615 0.095918
0.348943 0.348913 0.097414
0.414466 0.347967 0.099763
0.479713 0.347021 0.102022
0.544488 0.346197 0.104128
0.608972 0.345617 0.106935
0.672694 0.344915 0.110933
0.736141 0.344823 0.115145
0.799344 0.344884 0.120333
0.862547 0.345708 0.125734
0.925628 0.346838 0.132570
0.988464 0.348486 0.139956
0.054383 0.416327 0.101564
0.101991 0.416541 0.102022
0.157626 0.416266 0.102358
0.219303 0.415839 0.103304
0.283238 0.415106 0.104372
0.348363 0.414405 0.105684
0.413550 0.413672 0.108125
0.478798 0.412757 0.109743
0.543175 0.411749 0.112428
0.607385 0.410773 0.114748
0.670680 0.409735 0.118013
0.734035 0.409033 0.122133
0.797147 0.408789 0.126802
0.860441 0.409094 0.132662
0.923583 0.409766 0.139101
0.986786 0.411170 0.147219
0.069215 0.479744 0.110414
0.110872 0.480171 0.111086
0.162051 0.480201 0.111482
0.222110 0.479774 0.111818
0.283970 0.479255 0.113008
0.347936 0.478523 0.114778
0.412177 0.477668 0.116670
0.476722 0.476844 0.118471
0.541070 0.475959 0.120241
0.604974 0.474922 0.123384
0.668452 0.473854 0.126040
0.731868 0.473152 0.130434
0.795102 0.472663 0.135103
0.858091 0.472511 0.140291
0.921080 0.472816 0.146426
0.984771 0.474037 0.154818
0.083192 0.541131 0.118837
0.118868 0.541100 0.119387
0.167361 0.541039 0.119448
0.223911 0.540917 0.120394
0.284550 0.540795 0.121492
0.347265 0.540673 0.123415
0.411200 0.540612 0.124727
0.475502 0.540337 0.126894
0.540032 0.540002 0.129885
0.604456 0.539818 0.132815
0.668513 0.539208 0.135683
0.732235 0.538598 0.140414
0.795468 0.538079 0.145022
0.858732 0.537896 0.150729
0.922148 0.538231 0.157656
0.985229 0.538872 0.165743
0.097749 0.603357 0.129793
0.129458 0.603113 0.129610
0.173922 0.602991 0.130129
0.228092 0.602899 0.130678
0.286687 0.602930 0.131991
0.348028 0.602838 0.133455
0.410864 0.602747 0.135073
0.474189 0.602625 0.137240
0.538170 0.602411 0.140200
0.602380 0.602289 0.142428
0.666285 0.602136 0.145571
0.729671 0.601373 0.149722
0.792935 0.600946 0.154910
0.856626 0.601099 0.160342
0.920287 0.601587 0.167941
0.983764 0.602380 0.176425
0.113375 0.665736 0.141695
0.142153 0.665705 0.141543
0.182406 0.665553 0.142550
0.233799 0.665431 0.142763
0.290288 0.665278 0.143679
0.349889 0.665034 0.145052
0.411505 0.664851 0.146548
0.473823 0.664698 0.148653
0.537163 0.664637 0.151156
0.600610 0.664424 0.153536
0.664149 0.664240 0.157290
0.727626 0.663966 0.160128
0.791073 0.663783 0.165286
0.854643 0.663966 0.171450
0.918273 0.664485 0.179049
0.981659 0.665248 0.188296
0.130587 0.727840 0.154940
0.154513 0.727749 0.155459
0.192386 0.727565 0.155245
0.240360 0.727413 0.155673
0.294926 0.727291 0.156527
0.353185 0.727138 0.158175
0.413397 0.727047 0.159518
0.475105 0.726894 0.161654
0.537133 0.726772 0.164523
0.599939 0.726528 0.166506
0.662928 0.726314 0.170047
0.726040 0.726192 0.173465
0.789303 0.726131 0.177523
0.852689 0.726314 0.183139
0.916197 0.726925 0.191379
0.980194 0.728267 0.201663
0.145449 0.787839 0.167758
0.167788 0.787869 0.168002
0.202335 0.788174 0.168490
0.248234 0.788357 0.169680
0.300603 0.788815 0.171054
0.357519 0.789181 0.173220
0.417090 0.789700 0.174990
0.477974 0.790158 0.177584
0.540032 0.790738 0.181094
0.602564 0.791196 0.184634
0.665827 0.791806 0.188693
0.729213 0.792325 0.193332
0.792966 0.793057 0.198459
0.856229 0.793301 0.203708
0.918975 0.793240 0.211307
0.980957 0.792935 0.220493
0.170291 0.853727 0.189792
0.187747 0.852415 0.187961
0.217838 0.851835 0.187930
0.260319 0.851774 0.188571
0.310307 0.852110 0.189853
0.364843 0.852415 0.191989
0.422644 0.852720 0.194186
0.482307 0.853117 0.196994
0.543328 0.853666 0.200473
0.604944 0.854032 0.203861
0.667384 0.854551 0.208438
0.729976 0.854948 0.213352
0.792935 0.855528 0.218601
0.855680 0.855772 0.224582
0.918059 0.855741 0.230014
0.980346 0.855894 0.239536
0.197635 0.917357 0.214023
0.211887 0.916289 0.212436
0.238376 0.915740 0.211582
0.276677 0.915618 0.212039
0.323552 0.915770 0.213596
0.375708 0.915984 0.215610
0.431525 0.916381 0.218540
0.489540 0.916686 0.221561
0.549126 0.917082 0.224949
0.609644 0.917388 0.229404
0.671046 0.917876 0.234226
0.732967 0.918364 0.239933
0.795346 0.919097 0.246616
0.857786 0.919677 0.253666
0.920104 0.920256 0.261295
0.981750 0.920195 0.268437
0.235294 0.982330 0.248631
0.246555 0.981506 0.246830
0.268956 0.981079 0.245975
0.302892 0.980987 0.247135
0.345678 0.981170 0.248539
0.394476 0.981445 0.251377
0.447456 0.981842 0.254673
0.503441 0.982269 0.258457
0.561364 0.982818 0.263676
0.620813 0.983490 0.269780
0.681239 0.984253 0.276707
0.742367 0.985077 0.284916
0.804074 0.986175 0.294347
0.866026 0.987335 0.305791
0.928252 0.988830 0.319249
0.990448 0.990570 0.335790
0.000366 0.000092 0.157473
0.082033 0.000671 0.156283
0.153506 0.001038 0.153384
0.224002 0.000092 0.151095
0.290990 0.003693 0.148440
0.355413 0.011353 0.147402
0.420081 0.020447 0.147921
0.484443 0.028717 0.148592
0.548577 0.034272 0.149722
0.613153 0.042512 0.151461
0.677424 0.050690 0.152926
0.740169 0.059998 0.155856
0.802518 0.067353 0.158511
0.865995 0.076692 0.162234
0.929351 0.086671 0.166964
0.991852 0.096925 0.172061
0.000000 0.079835 0.156252
0.078798 0.078676 0.154055
0.152041 0.078248 0.151797
0.222019 0.078798 0.150088
0.288731 0.080446 0.148867
0.354528 0.083101 0.148867
0.419593 0.086397 0.149050
0.484382 0.089082 0.149416
0.548730 0.091951 0.150332
0.613519 0.095399 0.152285
0.677546 0.099489 0.154116
0.740169 0.103731 0.156710
0.802274 0.108644 0.158938
0.865537 0.114748 0.163027
0.928740 0.122103 0.167453
0.991547 0.129610 0.172793
0.001404 0.153262 0.153231
0.080720 0.151919 0.152224
0.151003 0.151003 0.151003
0.220157 0.150546 0.150149
0.287816 0.150240 0.149996
0.354162 0.150271 0.150057
0.419440 0.150454 0.150729
0.484230 0.150851 0.150637
0.549310 0.151919 0.152041
0.613703 0.153384 0.153689
0.676997 0.155642 0.155337
0.739254 0.157565 0.157198
0.801511 0.160494 0.160159
0.864652 0.164065 0.164187
0.927916 0.169039 0.168215
0.990906 0.174105 0.173709
0.013703 0.222141 0.151888
0.084840 0.220981 0.151888
0.151308 0.219883 0.151553
0.218997 0.219211 0.151125
0.286137 0.218021 0.151186
0.352392 0.217197 0.151278
0.417731 0.216373 0.152010
0.483162 0.216312 0.152560
0.547906 0.216312 0.153567
0.612116 0.216434 0.155245
0.675441 0.217105 0.156771
0.737728 0.217807 0.159457
0.800778 0.219638 0.162387
0.863615 0.221836 0.165743
0.926116 0.224491 0.169802
0.988739 0.227878 0.174990
0.031830 0.285649 0.152102
0.090761 0.285344 0.152438
0.152041 0.284977 0.152010
0.217227 0.284306 0.152010
0.283543 0.283330 0.152163
0.349279 0.282444 0.152834
0.414710 0.281682 0.153475
0.479957 0.281010 0.154574
0.544823 0.280644 0.155825
0.609339 0.280522 0.157809
0.673091 0.280552 0.159121
0.736599 0.281010 0.162142
0.800137 0.282078 0.165286
0.863676 0.283574 0.168978
0.926879 0.285679 0.173434
0.989349 0.287816 0.178775
0.045258 0.350683 0.154696
0.096925 0.350774 0.154604
0.155093 0.350286 0.154757
0.218326 0.349645 0.155398
0.282933 0.349126 0.155520
0.348363 0.348455 0.156344
0.413642 0.347570 0.156954
0.478706 0.346838 0.158114
0.543542 0.346075 0.159762
0.607965 0.345586 0.160861
0.671717 0.345098 0.163088
0.735256 0.345220 0.165621
0.798489 0.345464 0.168582
0.861845 0.346227 0.172732
0.925078 0.347387 0.177035
0.988098 0.349065 0.182528
0.059998 0.415686 0.158724
0.105562 0.415991 0.158846
0.159274 0.415747 0.158816
0.220066 0.415381 0.159396
0.283513 0.414740 0.159915
0.348333 0.414099 0.160494
0.413336 0.413306 0.161593
0.478065 0.412573 0.162509
0.542382 0.411505 0.164096
0.606622 0.410590 0.165377
0.669917 0.409644 0.167636
0.733242 0.409186 0.170260
0.796475 0.408972 0.172885
0.859709 0.409339 0.176669
0.923033 0.410101 0.181460
0.986481 0.411597 0.187289
0.073945 0.479194 0.162905
0.113313 0.479774 0.163455
0.163851 0.479744 0.163607
0.222446 0.479438 0.164340
0.284367 0.478950 0.164858
0.348028 0.478065 0.165469
0.412268 0.477302 0.166049
0.476448 0.476600 0.167422
0.540734 0.475624 0.168490
0.604578 0.474708 0.170138
0.667964 0.473701 0.172305
0.731289 0.473091 0.174990
0.794553 0.472694 0.178164
0.857572 0.472602 0.182162
0.920653 0.472969 0.186404
0.984375 0.474128 0.192508
0.085084 0.540917 0.167514
0.120699 0.540826 0.167819
0.168063 0.540734 0.168307
0.224277 0.540673 0.168948
0.284581 0.540551 0.169619
0.347478 0.540307 0.170352
0.411078 0.540276 0.171695
0.475349 0.540032 0.172976
0.539757 0.539818 0.174624
0.604242 0.539574 0.176913
0.668147 0.538994 0.179477
0.731777 0.538476 0.182467
0.795071 0.537987 0.185763
0.858427 0.537896 0.190127
0.921904 0.538384 0.195285
0.985138 0.539086 0.201511
0.099825 0.603113 0.174807
0.131167 0.602991 0.174868
0.174929 0.602869 0.175235
0.228763 0.602838 0.175753
0.287175 0.602838 0.176455
0.348394 0.602716 0.177584
0.410834 0.602686 0.178805
0.474220 0.602441 0.179965
0.538109 0.602411 0.181827
0.602106 0.602228 0.183871
0.665949 0.601923 0.186587
0.729366 0.601221 0.189425
0.792752 0.600855 0.192752
0.856382 0.601129 0.197513
0.920165 0.601678 0.203494
0.983642 0.602564 0.210269
0.115755 0.665553 0.183413
0.143374 0.665614 0.183505
0.183841 0.665522 0.183505
0.234501 0.665431 0.184024
0.290837 0.665217 0.184512
0.350164 0.665003 0.185702
0.411658 0.664820 0.186862
0.474189 0.664637 0.188113
0.537163 0.664576 0.190341
0.600580 0.664302 0.192386
0.663996 0.664088 0.194797
0.727443 0.663844 0.197543
0.790738 0.663752 0.201053
0.854490 0.663966 0.206088
0.918151 0.664546 0.212192
0.981567 0.665431 0.219883
0.132143 0.727749 0.192874
0.155764 0.727657 0.193057
0.193210 0.727474 0.193118
0.240848 0.727382 0.193668
0.295506 0.727230 0.194217
0.353491 0.727108 0.195651
0.413703 0.727047 0.196811
0.475196 0.726864 0.198276
0.537346 0.726711 0.200046
0.600031 0.726497 0.202243
0.662959 0.726284 0.204593
0.726040 0.726101 0.207431
0.789181 0.726070 0.210880
0.852537 0.726314 0.215854
0.916075 0.726894 0.221958
0.980072 0.728267 0.231022
0.147280 0.787991 0.202548
0.168917 0.788022 0.202731
0.203128 0.788266 0.203311
0.248875 0.788510 0.204379
0.301274 0.788876 0.205417
0.358129 0.789212 0.207126
0.417212 0.789792 0.209201
0.478218 0.790188 0.211276
0.540154 0.790799 0.213870
0.602716 0.791257 0.216922
0.665888 0.791897 0.220310
0.729305 0.792386 0.224338
0.793057 0.793149 0.229068
0.856229 0.793362 0.233127
0.918975 0.793332 0.239872
0.980987 0.793057 0.247288
0.171542 0.853788 0.220829
0.188449 0.852537 0.219120
0.218814 0.852049 0.219059
0.260960 0.851987 0.219608
0.310796 0.852262 0.220951
0.365393 0.852506 0.222171
0.423102 0.852873 0.224216
0.482673 0.853269 0.226902
0.543542 0.853819 0.229923
0.605280 0.854124 0.232883
0.667536 0.854643 0.237095
0.730159 0.855039 0.241154
0.792996 0.855619 0.246098
0.855711 0.855833 0.251102
0.918090 0.855772 0.256077
0.980407 0.856046 0.264103
0.198550 0.917449 0.241459
0.212741 0.916381 0.239780
0.238895 0.915862 0.238926
0.277287 0.915740 0.239689
0.324102 0.915892 0.240879
0.376013 0.916136 0.242802
0.431891 0.916533 0.245151
0.489845 0.916808 0.248051
0.549432 0.917174 0.250797
0.609888 0.917510 0.254551
0.671229 0.917967 0.259281
0.733120 0.918456 0.264378
0.795468 0.919188 0.270420
0.857877 0.919768 0.276890
0.920226 0.920348 0.284092
0.981842 0.920317 0.290288
0.235904 0.982422 0.271763
0.247196 0.981598 0.270146
0.269352 0.981170 0.269627
0.303258 0.981109 0.270085
0.346044 0.981292 0.271855
0.394873 0.981567 0.274083
0.447913 0.981933 0.277440
0.503746 0.982361 0.281041
0.561669 0.982940 0.285618
0.621027 0.983581 0.291051
0.681483 0.984344 0.297551
0.742550 0.985168 0.305180
0.804257 0.986236 0.314458
0.866178 0.987427 0.324804
0.928374 0.988891 0.337560
0.990509 0.990661 0.353307
0.000885 0.000549 0.228916
0.079652 0.000427 0.227268
0.151369 0.000000 0.224186
0.221103 0.000855 0.221164
0.288426 0.004974 0.217533
0.353674 0.012207 0.215061
0.418494 0.021180 0.214267
0.482979 0.030182 0.213687
0.546868 0.040101 0.214206
0.611353 0.050416 0.214939
0.675532 0.058198 0.216281
0.738460 0.066499 0.217472
0.801175 0.074281 0.218967
0.864958 0.082795 0.221103
0.928405 0.092470 0.224063
0.991119 0.101747 0.227329
0.000000 0.078798 0.226871
0.078157 0.078187 0.224308
0.149844 0.077974 0.221744
0.219455 0.078950 0.219242
0.286778 0.080751 0.217288
0.352819 0.083589 0.215946
0.418097 0.087312 0.214572
0.482429 0.091005 0.214298
0.547143 0.095399 0.214939
0.611719 0.100008 0.216129
0.675746 0.102876 0.216861
0.738399 0.108309 0.217655
0.801022 0.113069 0.219394
0.864408 0.119173 0.221653
0.927794 0.125277 0.224613
0.990845 0.133150 0.227695
0.005371 0.151492 0.223178
0.081086 0.150637 0.221469
0.150393 0.149966 0.219730
0.218814 0.149996 0.218723
0.286107 0.149935 0.217472
0.352270 0.150729 0.216831
0.417517 0.151736 0.216220
0.482551 0.152743 0.216190
0.547417 0.154513 0.216312
0.611780 0.155886 0.216831
0.675196 0.158022 0.217166
0.737514 0.160159 0.218235
0.800290 0.163119 0.219913
0.863676 0.167056 0.221988
0.927062 0.171237 0.225071
0.990143 0.176669 0.228458
0.016968 0.220829 0.220706
0.085512 0.219913 0.219944
0.151369 0.218967 0.218875
0.218296 0.218296 0.218296
0.284550 0.217594 0.217685
0.350591 0.217197 0.217197
0.416144 0.216953 0.216709
0.481544 0.217105 0.216861
0.546197 0.217105 0.217166
0.610468 0.217624 0.217533
0.673793 0.218418 0.218204
0.736263 0.219638 0.219089
0.799710 0.221225 0.221103
0.862669 0.223484 0.222995
0.925261 0.226047 0.225925
0.988037 0.229435 0.229068
0.032654 0.284550 0.217594
0.092348 0.284367 0.217563
0.152987 0.283787 0.217350
0.217258 0.283238 0.217441
0.282506 0.282567 0.216983
0.348180 0.281895 0.217105
0.413428 0.281376 0.216800
0.478737 0.281071 0.217380
0.543633 0.280827 0.217624
0.608057 0.280949 0.218265
0.671778 0.281132 0.219211
0.735531 0.281956 0.220951
0.799222 0.282994 0.223117
0.862852 0.284764 0.225406
0.926177 0.286625 0.228641
0.988800 0.288884 0.232090
0.050141 0.349920 0.218296
0.100160 0.349920 0.218357
0.156130 0.349615 0.218631
0.218387 0.349065 0.218570
0.282658 0.348394 0.218265
0.347875 0.347845 0.218418
0.412696 0.347143 0.218723
0.477943 0.346441 0.218997
0.542412 0.345922 0.219638
0.606897 0.345708 0.220279
0.670710 0.345373 0.221500
0.734279 0.345556 0.223331
0.797696 0.345922 0.225040
0.861082 0.346868 0.227756
0.924407 0.348119 0.230838
0.987640 0.349920 0.234653
0.064149 0.414832 0.220157
0.107912 0.415106 0.220462
0.160037 0.415045 0.220493
0.220432 0.414588 0.220645
0.283574 0.414038 0.220890
0.347997 0.413428 0.221073
0.412879 0.412818 0.221195
0.477363 0.411994 0.221561
0.541497 0.411139 0.222141
0.605768 0.410346 0.222965
0.669093 0.409522 0.224277
0.732418 0.409400 0.225803
0.795743 0.409216 0.227756
0.859037 0.409766 0.230503
0.922454 0.410590 0.233494
0.986084 0.411994 0.237919
0.075746 0.478584 0.222263
