luts/Polaroid_Color_Instant.cube
# Generated for krafta web app
# https://www.facebook.com/krafta.visio
# Preset: POL - Color Instant
# Color profile : sRGB Color Space Profile
LUT_3D_SIZE 6
DOMAIN_MIN 0.0 0.0 0.0
DOMAIN_MAX 1.0 1.0 1.0
0.000000 0.000000 0.000000
0.220798 0.004456 0.003876
0.415869 0.010529 0.009644
0.608301 0.022522 0.022705
0.798825 0.050202 0.049836
0.989227 0.085939 0.084047
0.007355 0.217563 0.008179
0.214725 0.214817 0.010956
0.412238 0.210422 0.019745
0.605280 0.210239 0.037537
0.794675 0.213626 0.061311
0.986084 0.223423 0.092958
0.048615 0.411017 0.048737
0.216068 0.411505 0.052033
0.410407 0.410468 0.061280
0.603357 0.407660 0.072450
0.794064 0.406561 0.090913
0.984833 0.409644 0.117525
0.094759 0.598444 0.094331
0.224857 0.598322 0.096864
0.407721 0.598871 0.102327
0.599268 0.599390 0.112490
0.790402 0.598779 0.126589
0.981598 0.600610 0.152193
0.141634 0.784634 0.141878
0.245579 0.785489 0.144350
0.414801 0.787259 0.151278
0.600702 0.789181 0.161959
0.791379 0.791470 0.177859
0.979706 0.791714 0.202213
0.232853 0.981598 0.232883
0.300969 0.980194 0.231235
0.446296 0.981109 0.239261
0.620081 0.983001 0.256046
0.803799 0.985992 0.282719
0.990387 0.990539 0.325719
0.000336 0.000855 0.224369
0.216617 0.001923 0.216587
0.412207 0.019837 0.210544
0.603815 0.047944 0.212070
0.794553 0.070802 0.215732
0.986572 0.098329 0.224735
0.016114 0.216922 0.216739
0.214420 0.214420 0.214420
0.410529 0.213260 0.213260
0.603479 0.214511 0.214267
0.793515 0.218448 0.218173
0.983886 0.226993 0.226566
0.060761 0.409888 0.217105
0.217441 0.409705 0.217685
0.408179 0.408270 0.218387
0.599969 0.406256 0.220554
0.790738 0.406134 0.225376
0.982757 0.409918 0.235508
0.099916 0.598169 0.226444
0.227054 0.598108 0.227085
0.407965 0.598138 0.229191
0.598169 0.598199 0.233158
0.788998 0.598047 0.239658
0.981323 0.601038 0.253422
0.145357 0.785458 0.246006
0.247196 0.785885 0.247166
0.415778 0.787442 0.251225
0.601099 0.789212 0.258183
0.791470 0.791562 0.268467
0.979919 0.792203 0.283909
0.234897 0.981964 0.304265
0.302312 0.980682 0.302617
0.447395 0.981598 0.309056
0.620874 0.983337 0.321630
0.804257 0.986114 0.343084
0.990539 0.990692 0.379065
0.002380 0.002258 0.417731
0.208103 0.007752 0.412329
0.406378 0.023651 0.406287
0.600397 0.050385 0.403571
0.792233 0.076265 0.403388
0.985199 0.102876 0.406348
0.030762 0.212924 0.413458
0.211521 0.211734 0.409674
0.406775 0.212009 0.406897
0.599634 0.214603 0.404120
0.791043 0.220584 0.404273
0.982666 0.227329 0.405676
0.063813 0.407080 0.407141
0.217105 0.407111 0.407050
0.406043 0.406043 0.406043
0.597162 0.405493 0.405432
0.788754 0.406195 0.406256
0.982116 0.410010 0.409918
0.106722 0.597009 0.407263
0.229709 0.597070 0.407568
0.408240 0.597162 0.408484
0.597284 0.597284 0.409766
0.788022 0.597864 0.412238
0.981170 0.601373 0.418616
0.145754 0.785824 0.413031
0.248020 0.786374 0.414191
0.416938 0.787808 0.417060
0.601801 0.789425 0.421332
0.791775 0.791867 0.428107
0.980255 0.792844 0.435096
0.230442 0.982666 0.443549
0.298375 0.981567 0.441657
0.445289 0.982300 0.445441
0.620539 0.984131 0.454108
0.804532 0.986816 0.467781
0.991272 0.991394 0.492012
0.011902 0.010681 0.604211
0.204379 0.016175 0.602045
0.401068 0.030915 0.598779
0.595361 0.053956 0.595483
0.789303 0.078065 0.594629
0.983337 0.103182 0.595789
0.038972 0.209812 0.604456
0.209232 0.209384 0.601434
0.402319 0.210758 0.598444
0.595453 0.214084 0.595483
0.788449 0.220310 0.594415
0.981445 0.226719 0.594690
0.071229 0.403204 0.597314
0.216831 0.403510 0.597223
0.403388 0.403357 0.595666
0.594507 0.403662 0.594568
0.786709 0.404669 0.594202
0.982055 0.407141 0.595941
0.108034 0.595270 0.595178
0.229679 0.595422 0.595331
0.407477 0.595789 0.595697
0.595483 0.595636 0.595575
0.787686 0.596307 0.596216
0.982696 0.598322 0.598169
0.144533 0.786618 0.597253
0.246281 0.787076 0.597711
0.414282 0.788266 0.598627
0.600702 0.789822 0.600732
0.791440 0.791562 0.603998
0.982422 0.792630 0.605798
0.195438 0.984222 0.608789
0.268864 0.983429 0.606073
0.430365 0.984222 0.608423
0.613703 0.985870 0.613794
0.802335 0.988190 0.621912
0.992645 0.992737 0.637995
0.019989 0.019226 0.792447
0.203403 0.023285 0.791653
0.397650 0.035889 0.789853
0.592828 0.055512 0.788449
0.787045 0.077546 0.786984
0.981537 0.102663 0.787503
0.039094 0.206912 0.792782
0.207004 0.206912 0.791470
0.399145 0.208774 0.790188
0.593469 0.212650 0.788510
0.786618 0.218418 0.786618
0.980163 0.225864 0.786374
0.059236 0.399512 0.788998
0.211429 0.399542 0.788693
0.399664 0.399695 0.787839
0.592462 0.400244 0.786648
0.786007 0.402350 0.786038
0.981140 0.405707 0.787320
0.095155 0.593988 0.787259
0.222507 0.593988 0.787350
0.402014 0.593408 0.787167
0.593103 0.593164 0.787137
0.787350 0.594537 0.787350
0.983307 0.595880 0.788968
0.141634 0.787961 0.787930
0.244816 0.788266 0.788235
0.413855 0.789181 0.789151
0.599573 0.790433 0.790402
0.790372 0.790463 0.790402
0.986114 0.790677 0.790585
0.196994 0.985779 0.796078
0.271061 0.985229 0.794858
0.425422 0.986328 0.795102
0.603937 0.988098 0.794980
0.796963 0.990448 0.797024
0.994720 0.994842 0.806760
0.023957 0.023377 0.987732
0.203616 0.026032 0.987549
0.397955 0.036347 0.987030
0.594324 0.054749 0.986572
0.790768 0.080201 0.986481
0.986572 0.110964 0.986542
0.023651 0.202762 0.987976
0.203372 0.203250 0.987640
0.397650 0.204990 0.986847
0.593622 0.208408 0.985992
0.789303 0.214054 0.985016
0.984436 0.223880 0.984436
0.000000 0.393957 0.987457
0.196902 0.394446 0.987488
0.395117 0.395056 0.987182
0.592798 0.396399 0.986664
0.789456 0.398413 0.985870
0.985748 0.403754 0.985779
0.000275 0.592523 0.987915
0.192782 0.591699 0.987976
0.387030 0.588891 0.988128
0.589380 0.589471 0.987884
0.789303 0.590906 0.987549
0.987762 0.594354 0.987762
0.115511 0.794247 0.989258
0.229496 0.793973 0.989319
0.403723 0.793240 0.989654
0.592157 0.791440 0.990234
0.789548 0.789609 0.990784
0.991485 0.792203 0.991516
0.218814 0.993133 0.993103
0.288334 0.993011 0.992981
0.433997 0.993347 0.993317
0.608637 0.994049 0.994049
0.797208 0.995483 0.995453
0.998657 0.998657 0.998657
