luts/Polaroid_Cinematic.cube
# Generated for krafta web app
# https://www.facebook.com/krafta.visio
# Preset: POL - Cinematic
# Color profile : sRGB Color Space Profile
LUT_3D_SIZE 16
DOMAIN_MIN 0.0 0.0 0.0
DOMAIN_MAX 1.0 1.0 1.0
0.000000 0.000000 0.000000
0.074739 0.002136 0.002136
0.149416 0.005310 0.005249
0.219638 0.009430 0.008820
0.285588 0.013275 0.013947
0.350469 0.017639 0.016938
0.413855 0.020874 0.020935
0.478157 0.026795 0.027100
0.541253 0.037873 0.037537
0.604364 0.049348 0.049439
0.667414 0.063325 0.062104
0.730098 0.076234 0.075471
0.792325 0.090150 0.089815
0.855314 0.104891 0.104677
0.918486 0.121767 0.120363
0.980316 0.138399 0.137819
0.006928 0.078828 0.006561
0.078859 0.079072 0.008576
0.149294 0.081514 0.010864
0.218692 0.082338 0.013031
0.284794 0.082246 0.015412
0.349310 0.082979 0.018036
0.414038 0.084443 0.022797
0.478157 0.088441 0.031159
0.540856 0.092744 0.041962
0.604089 0.099031 0.053254
0.666957 0.106935 0.065614
0.729458 0.115633 0.079103
0.791440 0.125124 0.092409
0.854459 0.136233 0.107210
0.917754 0.149508 0.122957
0.980194 0.163729 0.139773
0.012573 0.151919 0.011994
0.082490 0.151156 0.012940
0.150576 0.150637 0.014191
0.218235 0.149813 0.015991
0.284306 0.148287 0.018555
0.349493 0.148348 0.023926
0.414099 0.148592 0.030762
0.477577 0.149874 0.039826
0.540276 0.152224 0.050324
0.603723 0.156161 0.061219
0.666499 0.160678 0.072450
0.728725 0.165560 0.085115
0.790372 0.171969 0.097810
0.853635 0.180179 0.111360
0.916991 0.189792 0.127260
0.979980 0.201022 0.144411
0.020050 0.220005 0.019257
0.086183 0.219303 0.020783
0.151339 0.218723 0.022644
0.218418 0.218601 0.026062
0.284215 0.216983 0.031250
0.348669 0.215640 0.036805
0.412238 0.214847 0.044251
0.475776 0.215030 0.052522
0.539117 0.216129 0.062715
0.602136 0.218326 0.072511
0.664546 0.220676 0.082307
0.726497 0.223789 0.093141
0.788632 0.227848 0.105074
0.851316 0.233555 0.118288
0.914000 0.240024 0.133120
0.977173 0.248844 0.149599
0.039063 0.284306 0.038788
0.094972 0.284337 0.040284
0.154513 0.285039 0.042267
0.219211 0.285130 0.045838
0.285130 0.285161 0.051148
0.350256 0.284276 0.056519
0.413916 0.282963 0.063142
0.477333 0.282536 0.070405
0.540642 0.282689 0.078126
0.603906 0.283482 0.087068
0.666285 0.284703 0.095827
0.728542 0.286351 0.106203
0.791012 0.289494 0.116823
0.853941 0.293645 0.129549
0.916564 0.298772 0.143801
0.977996 0.304692 0.158694
0.062593 0.348974 0.062776
0.107759 0.349523 0.064240
0.161746 0.349981 0.065797
0.222171 0.350134 0.068605
0.285313 0.349889 0.072663
0.349798 0.349676 0.077699
0.413916 0.349340 0.083284
0.477455 0.348760 0.089326
0.540520 0.348363 0.095857
0.603449 0.348394 0.102419
0.665400 0.348699 0.110903
0.727779 0.349706 0.119600
0.789975 0.351690 0.129610
0.852689 0.354711 0.141573
0.915251 0.358495 0.154665
0.977142 0.363195 0.169070
0.086458 0.413428 0.086488
0.122560 0.413916 0.087892
0.170504 0.414252 0.089174
0.227268 0.414343 0.090913
0.287968 0.414313 0.094606
0.350805 0.414466 0.097902
0.414588 0.414649 0.103304
0.478340 0.414588 0.108461
0.540490 0.413458 0.113985
0.602869 0.413001 0.119570
0.664729 0.412787 0.126101
0.727016 0.413245 0.134585
0.789059 0.414466 0.143923
0.851530 0.416571 0.155123
0.914000 0.419654 0.167300
0.976226 0.423682 0.181949
0.108827 0.476905 0.108614
0.138186 0.477943 0.109773
0.181399 0.478584 0.110811
0.234745 0.478859 0.112337
0.292790 0.478706 0.115328
0.353307 0.478309 0.117739
0.414954 0.477729 0.121584
0.477455 0.477455 0.126467
0.540154 0.477180 0.131533
0.602014 0.476600 0.136385
0.663722 0.476112 0.143008
0.725887 0.476295 0.150088
0.787747 0.477089 0.158907
0.849851 0.478645 0.169406
0.911955 0.480903 0.181155
0.975097 0.484962 0.195987
0.127871 0.536584 0.127749
0.152560 0.536858 0.127932
0.191348 0.537346 0.129427
0.240696 0.537926 0.130587
0.295872 0.538354 0.133242
0.354650 0.538750 0.135897
0.415595 0.539117 0.139254
0.477333 0.539544 0.143832
0.540032 0.540093 0.148409
0.602991 0.540703 0.154391
0.665003 0.540612 0.160159
0.727077 0.540795 0.167849
0.788968 0.541314 0.176333
0.850797 0.542473 0.186618
0.912779 0.544457 0.198642
0.974456 0.547265 0.212802
0.148348 0.599359 0.148013
0.170077 0.599176 0.148318
0.204227 0.599298 0.149111
0.249851 0.599481 0.150637
0.302007 0.599756 0.152743
0.358709 0.600122 0.155276
0.417975 0.600702 0.158114
0.478584 0.601160 0.162112
0.540307 0.601862 0.166629
0.602380 0.602472 0.172427
0.664820 0.603113 0.177890
0.726162 0.602960 0.185183
0.787594 0.603357 0.193545
0.849546 0.604639 0.203738
0.911681 0.606683 0.216251
0.973602 0.609522 0.231113
0.170047 0.661677 0.169772
0.188907 0.661646 0.169802
0.219608 0.661616 0.170962
0.261509 0.661677 0.172122
0.311223 0.661860 0.174014
0.365179 0.662074 0.176486
0.422522 0.662440 0.179232
0.481483 0.662898 0.182895
0.541894 0.663325 0.187198
0.602747 0.663844 0.192294
0.664271 0.664240 0.197787
0.725704 0.664698 0.204074
0.787076 0.665278 0.212589
0.848814 0.666560 0.223270
0.910704 0.668635 0.236332
0.972412 0.671412 0.251713
0.194186 0.723934 0.194217
0.210575 0.723812 0.194186
0.237705 0.723781 0.194980
0.276310 0.723781 0.196048
0.322454 0.723781 0.197574
0.373846 0.723873 0.199924
0.428962 0.724056 0.202457
0.486030 0.724300 0.206302
0.545098 0.724697 0.210208
0.604791 0.725063 0.215213
0.665187 0.725551 0.220706
0.725978 0.726040 0.226688
0.787106 0.726833 0.233768
0.848447 0.728115 0.244450
0.910216 0.730312 0.258183
0.972259 0.733700 0.275853
0.218448 0.783017 0.218021
0.232883 0.783108 0.218479
0.257603 0.783536 0.219638
0.292607 0.783993 0.221592
0.336309 0.784665 0.223606
0.385138 0.785275 0.226535
0.438453 0.786099 0.229892
0.494240 0.786893 0.233707
0.551965 0.787839 0.238926
0.611078 0.788754 0.243992
0.670954 0.789914 0.250645
0.731319 0.790982 0.257511
0.792203 0.792294 0.265721
0.852659 0.793179 0.273838
0.912993 0.794308 0.286595
0.972686 0.795926 0.303227
0.254368 0.848905 0.254032
0.264775 0.847532 0.252750
0.285252 0.847013 0.252781
0.316381 0.847074 0.253849
0.356146 0.847532 0.256168
0.401892 0.848051 0.258701
0.452308 0.848692 0.262364
0.505821 0.849424 0.266636
0.561578 0.850340 0.272160
0.618769 0.851102 0.277806
0.677058 0.852049 0.284459
0.735958 0.852934 0.291783
0.795377 0.853971 0.300328
0.854643 0.854734 0.309056
0.913634 0.855314 0.318151
0.972930 0.856931 0.334295
0.295964 0.912291 0.295811
0.304234 0.911162 0.294316
0.321263 0.910613 0.293980
0.348272 0.910521 0.295140
0.383856 0.910796 0.297276
0.425849 0.911192 0.300328
0.472816 0.911803 0.304173
0.523278 0.912383 0.308812
0.576410 0.913146 0.314397
0.631403 0.913817 0.320806
0.687648 0.914641 0.328161
0.744869 0.915557 0.336645
0.802853 0.916777 0.346532
0.860929 0.917906 0.357031
0.918914 0.919005 0.368750
0.976104 0.919615 0.380224
0.353643 0.976654 0.353613
0.359960 0.975799 0.351965
0.373663 0.975402 0.351812
0.396307 0.975402 0.353155
0.427070 0.975616 0.355596
0.464393 0.976013 0.359350
0.507073 0.976532 0.364202
0.553613 0.977173 0.370092
0.603479 0.978027 0.377142
0.655634 0.978973 0.385687
0.709499 0.980102 0.395605
0.764431 0.981323 0.406653
0.820310 0.982910 0.420020
0.876524 0.984619 0.434546
0.932921 0.986664 0.451881
0.989014 0.989105 0.472084
0.000946 0.000397 0.073396
0.077028 0.002533 0.076997
0.150027 0.005035 0.079011
0.220340 0.005005 0.078981
0.285985 0.012207 0.080690
0.349981 0.019928 0.083101
0.413581 0.029664 0.086976
0.477211 0.039704 0.091524
0.539849 0.050538 0.097414
0.602899 0.062745 0.103517
0.666011 0.074067 0.111086
0.728420 0.086213 0.119265
0.790402 0.098329 0.128206
0.853269 0.111727 0.138857
0.916320 0.126833 0.150790
0.978607 0.142733 0.164309
0.004364 0.079530 0.079469
0.079561 0.079561 0.079561
0.150759 0.079866 0.080079
0.219577 0.081331 0.081025
0.285191 0.083192 0.082979
0.349584 0.085725 0.085847
0.413855 0.090120 0.089723
0.477485 0.094209 0.094514
0.539940 0.100343 0.099580
0.603449 0.106538 0.106355
0.666407 0.113954 0.113954
0.728481 0.122225 0.121248
0.790127 0.130709 0.130220
0.852873 0.141299 0.140749
0.915770 0.153109 0.152712
0.978363 0.166781 0.165835
0.008484 0.153414 0.082948
0.083375 0.152132 0.083314
0.151797 0.151675 0.083711
0.219547 0.150759 0.085573
0.285313 0.150607 0.087495
0.350195 0.151003 0.090700
0.414130 0.152316 0.094697
0.477485 0.154177 0.099153
0.540764 0.156985 0.104341
0.603967 0.160708 0.110994
0.666224 0.165042 0.117342
0.727871 0.169955 0.124880
0.789425 0.175906 0.133669
0.852293 0.183658 0.143771
0.915190 0.192508 0.155764
0.977874 0.203342 0.169039
0.026642 0.221592 0.089387
0.090303 0.220493 0.089631
0.153140 0.219791 0.090730
0.219272 0.219699 0.092592
0.284916 0.218601 0.094697
0.349462 0.217624 0.097841
0.413184 0.217472 0.101686
0.476722 0.218143 0.105837
0.540032 0.219364 0.111238
0.602869 0.221164 0.116945
0.665095 0.223606 0.123354
0.726772 0.226535 0.130953
0.789181 0.230838 0.139254
0.851591 0.236179 0.149477
0.913787 0.242557 0.160342
0.976135 0.250492 0.173159
0.048127 0.284459 0.098177
0.098909 0.284489 0.098787
0.156619 0.284154 0.099763
0.219242 0.283909 0.101869
0.283482 0.283543 0.103914
0.347967 0.282963 0.107027
0.411322 0.282444 0.110628
0.475074 0.282353 0.114900
0.538109 0.282628 0.120119
0.601312 0.283635 0.125185
0.663722 0.285161 0.131868
0.726162 0.287144 0.138979
0.788907 0.290410 0.147250
0.851957 0.294530 0.157412
0.914763 0.299443 0.168521
0.976715 0.305364 0.180850
0.070588 0.348760 0.110628
0.111025 0.348943 0.111513
0.162966 0.348821 0.112612
0.222263 0.348669 0.113924
0.284855 0.348394 0.115633
0.348363 0.348363 0.118868
0.411994 0.348150 0.122713
0.475135 0.347753 0.126253
0.538109 0.347509 0.130709
0.600671 0.347845 0.136294
0.663172 0.348333 0.141939
0.725673 0.349737 0.149081
0.788083 0.351720 0.156924
0.850767 0.354650 0.165957
0.913298 0.358526 0.176822
0.975799 0.363500 0.189334
0.091524 0.413428 0.124788
0.126070 0.413703 0.125917
0.172122 0.413703 0.126680
0.228000 0.413489 0.128115
0.288090 0.413275 0.130068
0.350011 0.413123 0.133089
0.413031 0.413062 0.136324
0.476081 0.412940 0.140108
0.538537 0.412268 0.143587
0.600824 0.411963 0.148501
0.662654 0.411872 0.153475
0.724849 0.412573 0.160006
0.786984 0.413794 0.167391
0.849424 0.416052 0.176516
0.911925 0.419135 0.187045
0.974640 0.423438 0.200320
0.111269 0.476417 0.139803
0.140780 0.476997 0.140627
0.182528 0.477150 0.141421
0.234653 0.476967 0.142885
0.292119 0.476814 0.144350
0.352178 0.476570 0.146883
0.413886 0.476295 0.150027
0.476081 0.476112 0.153201
0.538476 0.476020 0.157351
0.600366 0.475441 0.161624
0.662074 0.475105 0.166445
0.724086 0.475441 0.172488
0.786099 0.476387 0.179995
0.848081 0.477882 0.188815
0.910185 0.480323 0.199313
0.973175 0.484199 0.212558
0.130282 0.537438 0.154147
0.154910 0.537530 0.155001
0.192508 0.537591 0.155795
0.241062 0.537743 0.156985
0.296239 0.537835 0.158907
0.354620 0.538140 0.160830
0.415351 0.538537 0.163668
0.477089 0.538933 0.167269
0.539269 0.539300 0.171725
0.601892 0.539849 0.175814
0.663966 0.539757 0.181369
0.725948 0.540093 0.188113
0.787747 0.540734 0.195163
0.849821 0.542046 0.204654
0.912108 0.544396 0.215305
0.974273 0.547539 0.228641
0.150301 0.599512 0.170687
0.171664 0.599359 0.171054
0.205661 0.599298 0.171939
0.250706 0.599451 0.172946
0.302678 0.599725 0.174899
0.359106 0.599939 0.177066
0.418036 0.600214 0.179965
0.478218 0.600580 0.182895
0.539666 0.601007 0.187228
0.601617 0.601556 0.191409
0.663661 0.602075 0.196567
0.725063 0.602075 0.203159
0.786587 0.602716 0.210513
0.848783 0.604242 0.220249
0.911192 0.606531 0.231540
0.973419 0.609674 0.245945
0.171023 0.661799 0.189975
0.190402 0.661799 0.189975
0.220890 0.661769 0.190646
0.262638 0.661769 0.191745
0.311681 0.661799 0.193393
0.365484 0.661799 0.195499
0.422400 0.661982 0.197971
0.481209 0.662196 0.201053
0.541253 0.662623 0.205234
0.602136 0.663020 0.209354
0.663416 0.663386 0.214420
0.724758 0.663874 0.219699
0.786130 0.664607 0.227756
0.847990 0.666041 0.237705
0.910063 0.668330 0.249790
0.972045 0.671260 0.264469
0.195102 0.723720 0.211063
0.211643 0.723690 0.211307
0.238407 0.723568 0.212100
0.276768 0.723507 0.212985
0.322667 0.723537 0.214481
0.374273 0.723629 0.216129
0.429114 0.723812 0.218967
0.486397 0.723995 0.222293
0.544884 0.724300 0.226078
0.604456 0.724544 0.230198
0.664637 0.724880 0.234958
0.725154 0.725338 0.240818
0.786099 0.725948 0.247105
0.847410 0.727230 0.256687
0.909087 0.729458 0.269963
0.971283 0.732967 0.286320
0.219883 0.783536 0.233402
0.234226 0.783627 0.234134
0.258427 0.783993 0.234836
0.293553 0.784298 0.236576
0.336706 0.784848 0.238407
0.385992 0.785367 0.240909
0.438941 0.786160 0.244327
0.494606 0.786893 0.247745
0.552331 0.787808 0.252415
0.611078 0.788663 0.257755
0.670863 0.789731 0.263554
0.731228 0.790799 0.270390
0.792020 0.792111 0.277897
0.852506 0.793027 0.285740
0.912902 0.794339 0.298039
0.972778 0.796139 0.314214
0.255467 0.849180 0.267094
0.266148 0.847898 0.265812
0.286290 0.847410 0.265782
0.317388 0.847440 0.267033
0.356909 0.847868 0.269108
0.402747 0.848295 0.271855
0.452888 0.848844 0.274907
0.506188 0.849454 0.278874
0.561852 0.850309 0.283940
0.618860 0.851011 0.289250
0.677119 0.851926 0.295720
0.735988 0.852781 0.302861
0.795377 0.853880 0.310765
0.854612 0.854734 0.319432
0.913664 0.855375 0.328161
0.973022 0.857176 0.343969
0.297093 0.912474 0.306523
0.305516 0.911406 0.305425
0.322545 0.910918 0.305119
0.349371 0.910887 0.306157
0.384771 0.911131 0.308293
0.426673 0.911467 0.311101
0.473487 0.912016 0.314794
0.523857 0.912535 0.319280
0.576898 0.913176 0.324681
0.631678 0.913787 0.330755
0.687770 0.914641 0.337682
0.745022 0.915496 0.345800
0.802884 0.916716 0.355444
0.860960 0.917876 0.365820
0.918944 0.919036 0.377295
0.976165 0.919707 0.388525
0.354986 0.976776 0.362463
0.361212 0.975982 0.360937
0.374975 0.975586 0.360906
0.397589 0.975586 0.362341
0.428229 0.975830 0.364782
0.465309 0.976226 0.368231
0.507836 0.976745 0.372839
0.554406 0.977356 0.378393
0.604089 0.978119 0.385595
0.656062 0.979034 0.393591
0.709773 0.980102 0.402991
0.764614 0.981292 0.413672
0.820401 0.982818 0.426368
0.876493 0.984527 0.440711
0.932860 0.986603 0.457710
0.988983 0.989075 0.477516
0.001160 0.001068 0.151156
0.079530 0.002564 0.150637
0.149264 0.004211 0.149081
0.218265 0.005982 0.147921
0.284154 0.013581 0.147158
0.347814 0.025116 0.147616
0.411353 0.040345 0.150301
0.474586 0.054047 0.153719
0.537499 0.063355 0.156680
0.600824 0.074800 0.160525
0.664027 0.085023 0.165377
0.726528 0.096407 0.170443
0.788632 0.107362 0.176272
0.851987 0.119600 0.184176
0.915282 0.133761 0.192721
0.977874 0.148562 0.202640
0.001801 0.079133 0.152346
0.079347 0.079103 0.150576
0.149660 0.079744 0.149630
0.217655 0.082124 0.148714
0.282902 0.085725 0.148684
0.347448 0.090822 0.150759
0.411383 0.096559 0.152804
0.474861 0.101869 0.155489
0.537957 0.107698 0.158206
0.601495 0.114321 0.162570
0.664454 0.121828 0.166598
0.726680 0.129183 0.171908
0.788632 0.136934 0.177768
0.851743 0.147066 0.185153
0.914855 0.158511 0.193698
0.977661 0.171237 0.203861
0.011505 0.152010 0.151980
0.084474 0.151247 0.151369
0.151003 0.151003 0.151003
0.217746 0.151369 0.151308
0.283421 0.152377 0.152132
0.348150 0.153689 0.153506
0.412146 0.155856 0.155550
0.475380 0.157900 0.157809
0.539147 0.161379 0.161196
0.602197 0.165194 0.165133
0.664363 0.169711 0.169497
0.726192 0.174380 0.174014
0.788144 0.180301 0.179904
0.851072 0.187839 0.187137
0.914214 0.196475 0.195865
0.977173 0.206638 0.206027
0.031983 0.220554 0.154055
0.093172 0.219730 0.154147
0.154177 0.219089 0.154513
0.218753 0.219059 0.154910
0.283665 0.218601 0.155856
0.347997 0.218540 0.157351
0.411536 0.218906 0.159426
0.475410 0.220279 0.161898
0.538537 0.221714 0.165286
0.601434 0.223667 0.168765
0.663600 0.226383 0.172702
0.725277 0.229221 0.177920
0.787930 0.233738 0.183597
0.850492 0.238712 0.190707
0.912718 0.245060 0.198886
0.975219 0.252720 0.209140
0.058717 0.283635 0.157809
0.104005 0.283574 0.157931
0.158724 0.283452 0.158541
0.219608 0.283238 0.159609
0.283055 0.283116 0.160494
0.346685 0.282811 0.162509
0.410224 0.282689 0.164096
0.473640 0.283055 0.167208
0.536614 0.283787 0.170352
0.599664 0.284977 0.174044
0.662287 0.286442 0.178103
0.725002 0.288975 0.182986
0.787961 0.292088 0.189059
0.851041 0.296208 0.196628
0.914031 0.301244 0.205112
0.976196 0.307225 0.215183
0.077333 0.348272 0.165011
0.116274 0.348455 0.165072
0.165774 0.348302 0.165530
0.223667 0.348089 0.166598
0.285161 0.347997 0.167758
0.347997 0.348028 0.169741
0.410986 0.347784 0.171695
0.474159 0.347723 0.174289
0.537102 0.347875 0.177279
0.599634 0.348180 0.180667
0.662104 0.349035 0.185061
0.724697 0.350591 0.189975
0.787259 0.352697 0.195743
0.850004 0.355627 0.203067
0.912688 0.359503 0.211673
0.975372 0.364569 0.221927
0.097261 0.412848 0.173983
0.129854 0.413245 0.173922
0.174868 0.413245 0.174502
0.229221 0.413123 0.175906
0.288701 0.412940 0.176791
0.350195 0.412879 0.178744
0.412818 0.412818 0.180911
0.475471 0.412726 0.183627
0.537621 0.412238 0.186130
0.600031 0.412024 0.189151
0.661830 0.412116 0.193454
0.724056 0.412909 0.198215
0.786252 0.414343 0.203616
0.848692 0.416632 0.211063
0.911315 0.419806 0.219883
0.974243 0.424262 0.230472
0.115480 0.475959 0.183169
0.143465 0.476600 0.183780
0.184726 0.476692 0.184268
0.235966 0.476661 0.185367
0.292729 0.476478 0.186862
0.352605 0.476173 0.188205
0.413825 0.475959 0.190402
0.475807 0.475959 0.192966
0.538048 0.475776 0.195682
0.599878 0.475349 0.198550
0.661555 0.475135 0.202762
0.723476 0.475654 0.207645
0.785458 0.476631 0.213596
0.847532 0.478248 0.220737
0.909728 0.480690 0.229709
0.972686 0.484718 0.240696
0.132631 0.537285 0.193423
0.157321 0.537285 0.193668
0.194461 0.537316 0.194156
0.242405 0.537469 0.195132
0.297032 0.537652 0.196536
0.355261 0.537804 0.198428
0.415351 0.538262 0.200473
0.476905 0.538659 0.203311
0.539025 0.539086 0.206516
0.601526 0.539605 0.210605
0.663478 0.539727 0.215030
0.725490 0.540093 0.220127
0.787289 0.540795 0.226474
0.849424 0.542290 0.233921
0.911772 0.544762 0.243931
0.974090 0.547997 0.255467
0.152438 0.599329 0.206149
0.173495 0.599298 0.206180
0.207065 0.599268 0.207004
0.252018 0.599420 0.207797
0.303960 0.599603 0.209293
0.359686 0.599878 0.211093
0.418128 0.600183 0.213382
0.478462 0.600427 0.216098
0.539666 0.601007 0.219333
0.601434 0.601434 0.223148
0.663294 0.601953 0.227420
0.724636 0.602045 0.232609
0.786343 0.602716 0.239445
0.848447 0.604395 0.247471
0.910887 0.606836 0.257694
0.973236 0.610101 0.270329
0.173739 0.661646 0.221500
0.191989 0.661738 0.222049
0.222324 0.661738 0.222416
0.263706 0.661769 0.223301
0.312566 0.661769 0.224552
0.366247 0.661799 0.225925
0.422950 0.661952 0.228061
0.481727 0.662165 0.230900
0.541466 0.662593 0.234287
0.602258 0.662867 0.237919
0.663233 0.663294 0.242405
0.724453 0.663783 0.246921
0.785885 0.664576 0.254002
0.847776 0.666133 0.262760
0.909880 0.668482 0.273564
0.971862 0.671626 0.287266
0.197391 0.723629 0.239231
0.213504 0.723568 0.239445
0.240177 0.723476 0.239841
0.278141 0.723476 0.240604
0.323857 0.723507 0.241917
0.375006 0.723629 0.243870
0.429938 0.723812 0.246067
0.486702 0.723995 0.248844
0.545129 0.724208 0.252232
0.604639 0.724483 0.255863
0.664698 0.724819 0.260075
0.725216 0.725246 0.265354
0.785946 0.725887 0.270695
0.847227 0.727291 0.279973
0.908904 0.729519 0.291417
0.971099 0.733120 0.306737
0.221683 0.783688 0.258915
0.235935 0.783749 0.259068
0.260105 0.784054 0.259892
0.294865 0.784390 0.261082
0.337835 0.784909 0.263096
0.386725 0.785428 0.265232
0.439612 0.786221 0.268406
0.495155 0.786923 0.271489
0.552636 0.787869 0.275761
0.611414 0.788693 0.280369
0.671077 0.789822 0.285924
0.731380 0.790860 0.291936
0.792142 0.792203 0.299168
0.852506 0.793088 0.306401
0.912840 0.794491 0.317937
0.972747 0.796353 0.332952
0.257664 0.849210 0.288914
0.267552 0.848020 0.287572
0.288121 0.847562 0.287877
0.319005 0.847562 0.288731
0.358282 0.847959 0.290806
0.403662 0.848386 0.293126
0.453742 0.848936 0.296178
0.506950 0.849577 0.299931
0.562524 0.850401 0.304326
0.619440 0.851102 0.309361
0.677546 0.852018 0.315251
0.736263 0.852873 0.321965
0.795499 0.853971 0.329625
0.854704 0.854826 0.337530
0.913634 0.855436 0.345983
0.973053 0.857328 0.360876
0.299016 0.912505 0.325475
0.307103 0.911467 0.323919
0.324102 0.911009 0.323949
0.350835 0.910948 0.324865
0.385992 0.911223 0.326635
0.427771 0.911559 0.329473
0.474495 0.912139 0.333104
0.524620 0.912627 0.337133
0.577539 0.913237 0.342077
0.632197 0.913878 0.347662
0.688289 0.914702 0.354498
0.745327 0.915587 0.362219
0.803159 0.916808 0.371374
0.861143 0.917937 0.381567
0.919036 0.919127 0.392432
0.976165 0.919829 0.402838
0.356909 0.976806 0.378058
0.362707 0.976013 0.376318
0.376501 0.975647 0.376226
0.399115 0.975647 0.377661
0.429603 0.975921 0.380133
0.466712 0.976287 0.383398
0.508934 0.976806 0.387701
0.555291 0.977417 0.393072
0.604852 0.978180 0.399756
0.656703 0.979095 0.407416
0.710231 0.980194 0.416327
0.764920 0.981384 0.426551
0.820706 0.982879 0.438727
0.876677 0.984588 0.452399
0.933013 0.986664 0.468666
0.989044 0.989166 0.487770
0.002380 0.002014 0.220829
0.077943 0.002747 0.219699
0.146944 0.004150 0.217350
0.215427 0.007141 0.215610
0.281743 0.015564 0.213718
0.346136 0.027100 0.212558
0.409979 0.041627 0.213046
0.473121 0.056275 0.214328
0.535882 0.069764 0.216953
0.599176 0.082795 0.220310
0.662226 0.093874 0.223484
0.724910 0.104189 0.226810
0.787320 0.114717 0.231052
0.850950 0.126162 0.236240
0.914366 0.139620 0.242954
0.977081 0.153506 0.250370
0.004517 0.078920 0.220432
0.078767 0.078920 0.218509
0.147402 0.080049 0.216556
0.215427 0.082185 0.215122
0.281346 0.086061 0.214237
0.346014 0.091615 0.214054
0.410071 0.097688 0.214420
0.473091 0.104891 0.216098
0.536492 0.112764 0.218784
0.599847 0.120668 0.221469
0.662684 0.127047 0.224491
0.724971 0.135103 0.227787
0.787411 0.143099 0.231968
0.850584 0.152651 0.237339
0.913878 0.163302 0.243442
0.976867 0.175906 0.251469
0.017212 0.150484 0.219272
0.085359 0.150240 0.217807
0.150271 0.150423 0.216800
0.216556 0.151247 0.216464
0.281834 0.152590 0.216098
0.346349 0.155001 0.216434
0.410163 0.157900 0.217594
0.473762 0.161166 0.219242
0.537285 0.165072 0.221103
0.600275 0.169284 0.223484
0.662623 0.173587 0.226047
0.724575 0.178470 0.229160
0.786923 0.184360 0.233310
0.850034 0.191775 0.238468
0.913329 0.199985 0.245151
0.976318 0.210086 0.252598
0.035248 0.219425 0.219272
0.094270 0.218631 0.218936
0.154788 0.218235 0.218235
0.218296 0.218296 0.218296
0.282322 0.218418 0.218357
0.346136 0.219242 0.219242
0.409979 0.220035 0.220249
0.473732 0.221805 0.221927
0.536797 0.223636 0.223606
0.599756 0.225925 0.225895
0.661982 0.228702 0.228305
0.723964 0.231968 0.231724
0.786862 0.236240 0.236027
0.849485 0.241367 0.241032
0.911833 0.247654 0.247105
0.974456 0.255192 0.254795
0.059205 0.282780 0.219120
0.106538 0.282689 0.219089
0.159884 0.282506 0.219760
0.219974 0.282353 0.220218
0.282322 0.282322 0.220523
0.345495 0.282567 0.221683
0.408942 0.282811 0.222843
0.472328 0.283696 0.224491
0.535515 0.284611 0.226169
0.598352 0.286107 0.228672
0.660975 0.287755 0.231785
0.723964 0.290532 0.235233
0.787015 0.293706 0.239719
0.850187 0.298039 0.245365
0.913207 0.303044 0.252140
0.975555 0.309056 0.259892
0.081941 0.347723 0.223453
0.119509 0.347723 0.223545
0.167453 0.347662 0.223972
0.224338 0.347539 0.224521
0.285069 0.347417 0.224979
0.347417 0.347509 0.226261
0.410346 0.347539 0.227543
0.473213 0.347570 0.229221
0.535851 0.348058 0.231418
0.598688 0.348699 0.233494
0.661189 0.349737 0.236515
0.723720 0.351537 0.240330
0.786343 0.353674 0.244755
0.849180 0.356909 0.250370
0.911986 0.360937 0.256840
0.974792 0.366125 0.265324
0.101228 0.412116 0.229191
0.133364 0.412421 0.229374
0.176547 0.412604 0.229740
0.230533 0.412390 0.230350
0.289097 0.412268 0.231205
0.350103 0.412268 0.232547
0.412360 0.412329 0.233982
0.474617 0.412268 0.235477
0.536797 0.412024 0.237217
0.599207 0.412055 0.239384
0.660945 0.412360 0.242466
0.723079 0.413489 0.246036
0.785428 0.415015 0.250645
0.847959 0.417517 0.256168
0.910643 0.420783 0.263279
0.973724 0.425238 0.272099
0.119112 0.475410 0.235416
