luts/Polaroid_Color_Instant.cube
# Generated for krafta web app
# https://www.facebook.com/krafta.visio
# Preset: POL - Color Instant
# Color profile : sRGB Color Space Profile
LUT_3D_SIZE 16
DOMAIN_MIN 0.0 0.0 0.0
DOMAIN_MAX 1.0 1.0 1.0
0.000000 0.000000 0.000000
0.075319 0.001160 0.000916
0.150271 0.002441 0.002441
0.220798 0.004456 0.003876
0.287022 0.006104 0.005951
0.352148 0.008728 0.008270
0.415869 0.010529 0.009644
0.480812 0.012238 0.012238
0.544457 0.017426 0.017121
0.608301 0.022522 0.022705
0.672358 0.031189 0.029694
0.735744 0.040253 0.039796
0.798825 0.050202 0.049836
0.862638 0.061555 0.061128
0.926665 0.073610 0.072999
0.989227 0.085939 0.084047
0.003052 0.077760 0.002808
0.076936 0.077394 0.003937
0.148440 0.078737 0.005524
0.218723 0.078889 0.005921
0.285222 0.078096 0.007538
0.350286 0.077455 0.008606
0.415595 0.077150 0.010529
0.480354 0.079194 0.013825
0.543877 0.080903 0.019104
0.607843 0.083894 0.024659
0.671870 0.088197 0.032319
0.735134 0.092378 0.042542
0.797879 0.097993 0.051209
0.861723 0.104646 0.062776
0.925841 0.112917 0.074098
0.989166 0.120882 0.086275
0.005463 0.149874 0.005097
0.078431 0.148928 0.006104
0.147646 0.147524 0.006348
0.216220 0.146548 0.007355
0.283360 0.145205 0.007965
0.349462 0.144289 0.010529
0.414771 0.143832 0.013519
0.479194 0.143801 0.017762
0.542901 0.144137 0.022370
0.607294 0.145571 0.029816
0.670954 0.147829 0.036957
0.734096 0.149966 0.046571
0.796689 0.153017 0.055451
0.860807 0.156985 0.066224
0.925017 0.162325 0.077150
0.988922 0.168154 0.089601
0.007355 0.217563 0.008179
0.079042 0.216526 0.008057
0.146304 0.215610 0.009796
0.214725 0.214817 0.010956
0.281559 0.213291 0.013855
0.347356 0.211673 0.016571
0.412238 0.210422 0.019745
0.476692 0.209842 0.024842
0.541009 0.209873 0.029938
0.605280 0.210239 0.037537
0.668727 0.210910 0.045319
0.731655 0.211917 0.052918
0.794675 0.213626 0.061311
0.858305 0.216220 0.071077
0.921965 0.219150 0.081270
0.986084 0.223423 0.092958
0.016052 0.281834 0.017121
0.082856 0.281651 0.017487
0.146853 0.282048 0.019318
0.214267 0.281621 0.020844
0.281071 0.281102 0.023651
0.347387 0.280034 0.027131
0.412329 0.278477 0.030793
0.477272 0.277592 0.036316
0.541802 0.276921 0.041810
0.606317 0.276921 0.047578
0.669917 0.276768 0.054841
0.733333 0.277012 0.062379
0.796811 0.278111 0.071046
0.860807 0.279850 0.079438
0.924498 0.281956 0.089815
0.986847 0.284428 0.100649
0.030823 0.346471 0.031098
0.089601 0.346899 0.032776
0.150027 0.347204 0.032868
0.214298 0.347051 0.034882
0.279637 0.346319 0.037385
0.345647 0.345464 0.041321
0.411017 0.344854 0.045502
0.476326 0.343938 0.050477
0.540673 0.343084 0.054749
0.604974 0.342565 0.060151
0.668391 0.342016 0.065797
0.732052 0.341772 0.072480
0.795468 0.342168 0.080781
0.859312 0.343328 0.088655
0.922942 0.344701 0.098116
0.985840 0.346563 0.108370
0.048615 0.411017 0.048737
0.097505 0.411597 0.049622
0.153964 0.411719 0.049866
0.216068 0.411505 0.052033
0.279911 0.411261 0.054932
0.344854 0.410925 0.057557
0.410407 0.410468 0.061280
0.475624 0.410010 0.064790
0.539422 0.408576 0.068574
0.603357 0.407660 0.072450
0.666865 0.406867 0.077638
0.730556 0.406592 0.083894
0.794064 0.406561 0.090913
0.857755 0.407141 0.098787
0.921416 0.408301 0.107240
0.984833 0.409644 0.117525
0.065766 0.474830 0.065003
0.107118 0.475868 0.065461
0.159243 0.476356 0.066896
0.219242 0.476326 0.068635
0.281743 0.476020 0.069917
0.345281 0.475257 0.071809
0.408911 0.474189 0.075196
0.473304 0.473426 0.077546
0.537499 0.472541 0.081636
0.601312 0.471748 0.085176
0.664942 0.470985 0.090150
0.728695 0.470619 0.095369
0.792081 0.470436 0.101534
0.855589 0.470680 0.109010
0.919066 0.471260 0.117311
0.983520 0.472969 0.127565
0.079591 0.534844 0.079713
0.115328 0.535088 0.079988
0.163943 0.535637 0.080018
0.220798 0.535851 0.081361
0.281224 0.536156 0.084138
0.343755 0.536339 0.086061
0.407660 0.536339 0.087892
0.471901 0.536309 0.091432
0.536309 0.536431 0.095125
0.600916 0.536431 0.099062
0.665003 0.536156 0.103029
0.729000 0.535943 0.108827
0.792630 0.535729 0.115023
0.856077 0.535790 0.121370
0.919554 0.536278 0.130343
0.982696 0.536950 0.139101
0.094759 0.598444 0.094331
0.126467 0.598138 0.094667
0.170840 0.598260 0.094881
0.224857 0.598322 0.096864
0.283574 0.598474 0.097353
0.344915 0.598566 0.100069
0.407721 0.598871 0.102327
0.471077 0.599023 0.104433
0.535210 0.599268 0.108309
0.599268 0.599390 0.112490
0.663478 0.599481 0.116152
0.726925 0.599115 0.121004
0.790402 0.598779 0.126589
0.854185 0.599023 0.134218
0.918059 0.599725 0.142611
0.981598 0.600610 0.152193
0.109682 0.661555 0.109987
0.138247 0.661402 0.109957
0.179385 0.661372 0.110719
0.230442 0.661341 0.111757
0.287541 0.661372 0.113344
0.347326 0.661463 0.114565
0.409033 0.661555 0.116762
0.471504 0.661707 0.119661
0.534722 0.661860 0.122805
0.598138 0.661921 0.126253
0.661799 0.661921 0.129915
0.725368 0.661830 0.134798
0.788937 0.661830 0.140108
0.852659 0.662318 0.146975
0.916533 0.663050 0.156405
0.980133 0.663966 0.166445
0.126528 0.724666 0.126925
0.151553 0.724514 0.126894
0.189120 0.724453 0.127260
0.238071 0.724361 0.128237
0.292638 0.724239 0.128908
0.350805 0.724178 0.130861
0.411109 0.724147 0.132998
0.472694 0.724208 0.135164
0.535210 0.724300 0.137911
0.597894 0.724300 0.141787
0.661067 0.724392 0.145663
0.724361 0.724453 0.149935
0.787808 0.724697 0.155123
0.851530 0.725216 0.161715
0.915496 0.726192 0.170962
0.979644 0.727779 0.183078
0.141634 0.784634 0.141878
0.164034 0.784726 0.142458
0.199191 0.785092 0.143465
0.245579 0.785489 0.144350
0.298589 0.786069 0.145998
0.355352 0.786557 0.148409
0.414801 0.787259 0.151278
0.475898 0.787778 0.153628
0.538018 0.788540 0.157595
0.600702 0.789181 0.161959
0.664057 0.789975 0.166690
0.727504 0.790646 0.172122
0.791379 0.791470 0.177859
0.854673 0.791836 0.183536
0.917601 0.791897 0.192172
0.979706 0.791714 0.202213
0.167086 0.851499 0.167269
0.184176 0.850126 0.165133
0.214786 0.849577 0.165072
0.257359 0.849546 0.166079
0.307836 0.849943 0.167788
0.362860 0.850340 0.169558
0.420783 0.850858 0.172274
0.480659 0.851377 0.175753
0.541894 0.852110 0.179934
0.603601 0.852628 0.184298
0.666072 0.853269 0.189425
0.728756 0.853788 0.194553
0.791775 0.854398 0.200778
0.854551 0.854673 0.206912
0.916991 0.854673 0.213016
0.979400 0.854887 0.223117
0.194583 0.915984 0.194614
0.208682 0.914824 0.192935
0.235630 0.914183 0.192294
0.274449 0.914092 0.192660
0.321477 0.914275 0.194614
0.373968 0.914580 0.196658
0.430030 0.915038 0.199893
0.488197 0.915465 0.203250
0.547997 0.916014 0.207401
0.608667 0.916503 0.212253
0.670253 0.917021 0.217960
0.732174 0.917632 0.223667
0.794644 0.918456 0.231174
0.857176 0.919097 0.238804
0.919554 0.919646 0.246983
0.981231 0.919615 0.254429
0.232853 0.981598 0.232883
0.244175 0.980713 0.230900
0.266667 0.980255 0.230167
0.300969 0.980194 0.231235
0.344030 0.980377 0.233097
0.393072 0.980652 0.235904
0.446296 0.981109 0.239261
0.502434 0.981598 0.244022
0.560571 0.982269 0.249668
0.620081 0.983001 0.256046
0.680690 0.983886 0.263462
0.741909 0.984771 0.272007
0.803799 0.985992 0.282719
0.865904 0.987243 0.294621
0.928161 0.988769 0.308995
0.990387 0.990539 0.325719
0.000641 0.000000 0.074861
0.077913 0.001007 0.077668
0.150698 0.002136 0.078676
0.221317 0.000580 0.077028
0.287144 0.003876 0.076234
0.351354 0.008179 0.077302
0.415625 0.013184 0.078676
0.479927 0.018860 0.080568
0.543236 0.024262 0.083528
0.607111 0.032258 0.086824
0.671229 0.039002 0.090669
0.734371 0.049073 0.095003
0.797055 0.057160 0.100221
0.860777 0.066957 0.106508
0.924681 0.077668 0.113619
0.987671 0.089418 0.121248
0.000702 0.078401 0.078553
0.077577 0.077577 0.077577
0.149630 0.077119 0.077089
0.219242 0.077089 0.077089
0.285588 0.077455 0.077089
0.350530 0.078492 0.078065
0.415503 0.079744 0.080201
0.479835 0.082094 0.082429
0.543297 0.084932 0.084321
0.607630 0.087984 0.088228
0.671443 0.092897 0.091920
0.734279 0.097414 0.096132
0.796719 0.101717 0.101442
0.860319 0.107851 0.107729
0.924041 0.115358 0.114199
0.987457 0.123476 0.122316
0.001373 0.151064 0.078676
0.078645 0.149966 0.078157
0.148501 0.148684 0.078248
0.217472 0.147433 0.078340
0.284337 0.146365 0.079774
0.350439 0.146059 0.080598
0.415290 0.145876 0.082033
0.479438 0.146212 0.084474
0.543542 0.147250 0.087160
0.607752 0.148562 0.091127
0.670985 0.150118 0.094606
0.733577 0.152468 0.098665
0.795956 0.155276 0.103212
0.859648 0.159182 0.109468
0.923430 0.163760 0.116548
0.986938 0.169650 0.124331
0.010376 0.218997 0.080781
0.081056 0.217746 0.081361
0.148043 0.216739 0.080751
0.215579 0.215854 0.081727
0.282567 0.214481 0.082551
0.348455 0.213138 0.083772
0.413275 0.212192 0.085756
0.477974 0.211917 0.088014
0.542260 0.211795 0.090639
0.606226 0.212100 0.094667
0.669490 0.212619 0.097749
0.732174 0.213565 0.102144
0.795407 0.215213 0.107179
0.858762 0.217929 0.112917
0.921965 0.220523 0.119326
0.985168 0.224430 0.127169
0.023133 0.281926 0.084810
0.084779 0.281743 0.085328
0.148043 0.281132 0.085786
0.213626 0.280430 0.086091
0.279332 0.279545 0.087953
0.345220 0.278660 0.088624
0.410254 0.277562 0.090761
0.475135 0.277134 0.093019
0.539513 0.276585 0.095735
0.603906 0.276493 0.098573
0.667506 0.276707 0.102266
0.731106 0.277043 0.106722
0.794888 0.278416 0.111452
0.858976 0.280034 0.117739
0.922728 0.282231 0.125002
0.985626 0.284764 0.132021
0.036072 0.346288 0.091615
0.092042 0.346319 0.091768
0.150607 0.346044 0.092134
0.213993 0.345586 0.093141
0.279026 0.344884 0.094209
0.344274 0.344335 0.095277
0.409339 0.343450 0.097536
0.474098 0.342687 0.099428
0.538293 0.342016 0.102602
0.602472 0.341527 0.105287
0.666255 0.341283 0.108614
0.730007 0.341497 0.112673
0.793637 0.342046 0.117617
0.857450 0.342962 0.123598
0.921050 0.344549 0.130343
0.984619 0.346349 0.137881
0.052033 0.411170 0.099672
0.099916 0.411414 0.099702
0.155123 0.411078 0.100374
0.216251 0.410742 0.101076
0.279820 0.410132 0.102358
0.344274 0.409613 0.103456
0.408942 0.408972 0.105318
0.473426 0.408301 0.108064
0.537560 0.407355 0.109621
0.601434 0.406561 0.112856
0.664851 0.405798 0.116091
0.728450 0.405615 0.120302
0.791958 0.405737 0.124239
0.855711 0.406378 0.129915
0.919463 0.407355 0.136782
0.983368 0.409094 0.144198
0.067170 0.474403 0.108522
0.109285 0.474952 0.108492
0.159670 0.474891 0.109224
0.218906 0.474525 0.110231
0.280766 0.474159 0.111147
0.343969 0.473426 0.112642
0.407996 0.472786 0.114076
0.471992 0.472114 0.116548
0.536004 0.471351 0.118379
0.599725 0.470558 0.121096
0.663325 0.469886 0.123995
0.726833 0.469673 0.128420
0.790433 0.469612 0.132265
0.853910 0.469825 0.137636
0.917388 0.470466 0.143740
0.981659 0.472084 0.152285
0.081788 0.535882 0.116426
0.116640 0.535851 0.117617
0.164370 0.535851 0.117678
0.220798 0.535790 0.118441
0.281193 0.535698 0.119936
0.343755 0.535698 0.120882
0.407446 0.535760 0.122774
0.471351 0.535668 0.125124
0.535515 0.535607 0.127871
0.599908 0.535546 0.131014
0.663966 0.535363 0.134066
0.727901 0.535119 0.138125
0.791470 0.535027 0.142824
0.855100 0.535271 0.148257
0.918944 0.536004 0.155184
0.982605 0.537011 0.162875
0.095521 0.598627 0.127382
0.127291 0.598413 0.127169
0.171237 0.598352 0.128054
0.225498 0.598291 0.128573
0.284154 0.598352 0.129549
0.344915 0.598383 0.131044
0.407416 0.598413 0.132479
0.470802 0.598413 0.134981
0.534508 0.598444 0.137667
0.598444 0.598505 0.140414
0.662348 0.598505 0.143832
0.725948 0.598138 0.147677
0.789487 0.598047 0.152224
0.853483 0.598596 0.157961
0.917571 0.599512 0.165377
0.981506 0.600641 0.174289
0.111299 0.661616 0.138949
0.138918 0.661677 0.139406
0.179904 0.661585 0.139895
0.231205 0.661463 0.140475
0.287816 0.661372 0.141207
0.347295 0.661219 0.142885
0.408698 0.661128 0.144015
0.471077 0.661067 0.146151
0.534112 0.661128 0.148959
0.597528 0.661158 0.151369
0.660975 0.661067 0.154391
0.724453 0.661006 0.158236
0.788052 0.661128 0.163119
0.851987 0.661707 0.168948
0.915984 0.662623 0.177005
0.979828 0.663752 0.186252
0.127626 0.724483 0.152468
0.151949 0.724392 0.152712
0.189731 0.724239 0.152621
0.238071 0.724117 0.153201
0.292668 0.723995 0.154482
0.350958 0.723934 0.155428
0.411109 0.723964 0.157443
0.472480 0.723934 0.159487
0.534844 0.723873 0.161563
0.597528 0.723781 0.164218
0.660456 0.723690 0.167453
0.723507 0.723720 0.171084
0.786923 0.723781 0.175021
0.850462 0.724300 0.181094
0.914366 0.725307 0.189395
0.978668 0.726986 0.199985
0.142794 0.785153 0.165042
0.164858 0.785245 0.165255
0.199619 0.785550 0.166201
0.245975 0.785794 0.166812
0.298497 0.786252 0.168765
0.355718 0.786648 0.170382
0.415198 0.787320 0.172885
0.476020 0.787839 0.175357
0.538079 0.788510 0.178256
0.600671 0.789090 0.182467
0.663905 0.789792 0.186679
0.727382 0.790463 0.190768
0.791196 0.791318 0.196475
0.854612 0.791684 0.201480
0.917571 0.791897 0.209293
0.979797 0.791928 0.218448
0.167178 0.851835 0.187259
0.185183 0.850523 0.185367
0.215518 0.849973 0.184939
0.258244 0.849943 0.185489
0.308476 0.850278 0.187411
0.363378 0.850584 0.189517
0.421118 0.851011 0.191928
0.480781 0.851469 0.194278
0.541955 0.852110 0.197757
0.603632 0.852537 0.201785
0.666041 0.853147 0.206607
0.728695 0.853666 0.211276
0.791775 0.854307 0.216831
0.854551 0.854673 0.222568
0.916991 0.854734 0.228397
0.979553 0.855100 0.237949
0.195224 0.916197 0.211643
0.209628 0.915099 0.209964
0.236301 0.914519 0.209659
0.275029 0.914427 0.209964
0.321935 0.914611 0.211337
0.374517 0.914855 0.213352
0.430304 0.915312 0.216342
0.488411 0.915648 0.219181
0.548119 0.916075 0.223178
0.608759 0.916472 0.227420
0.670253 0.917021 0.232609
0.732235 0.917571 0.238254
0.794675 0.918395 0.244816
0.857115 0.919066 0.252415
0.919524 0.919707 0.260014
0.981292 0.919738 0.267399
0.233524 0.981750 0.247166
0.245060 0.980896 0.245304
0.267369 0.980499 0.244541
0.301518 0.980438 0.245243
0.344549 0.980621 0.247288
0.393530 0.980926 0.249699
0.446754 0.981323 0.253269
0.502678 0.981781 0.257237
0.560784 0.982391 0.262425
0.620294 0.983093 0.268620
0.680812 0.983886 0.275639
0.741970 0.984771 0.283757
0.803799 0.985931 0.293523
0.865782 0.987152 0.304967
0.928099 0.988678 0.318761
0.990326 0.990478 0.335119
0.000336 0.000000 0.153933
0.079255 0.000641 0.152712
0.150149 0.001160 0.150118
0.219333 0.000977 0.147829
0.285405 0.004639 0.145510
0.349279 0.011627 0.144259
0.413489 0.019684 0.144747
0.477577 0.027405 0.145754
0.541192 0.033448 0.146517
0.605371 0.041840 0.148440
0.669459 0.048829 0.150759
0.732753 0.056397 0.153079
0.795682 0.064790 0.155520
0.859739 0.074556 0.159426
0.923857 0.084108 0.164279
0.987182 0.094453 0.169558
0.000000 0.077974 0.152621
0.077028 0.076844 0.150607
0.148745 0.076631 0.148501
0.217594 0.077302 0.146914
0.283421 0.078706 0.145449
0.348577 0.081514 0.145876
0.413428 0.083619 0.146059
0.477455 0.086854 0.146700
0.541466 0.089662 0.147921
0.605859 0.093507 0.149599
0.669825 0.097078 0.151461
0.732815 0.101472 0.153811
0.795529 0.105715 0.156497
0.859373 0.112306 0.160159
0.923339 0.118990 0.165164
0.986969 0.126894 0.170352
0.001892 0.150057 0.149905
0.078462 0.148836 0.149020
0.147799 0.147799 0.147799
0.215976 0.147372 0.146975
0.282841 0.147219 0.146883
0.348547 0.147127 0.147189
0.413367 0.147555 0.147799
0.477577 0.148196 0.148135
0.542138 0.149294 0.149233
0.606165 0.150942 0.150698
0.669398 0.153048 0.152499
0.732082 0.155032 0.154726
0.794919 0.157870 0.157382
0.858671 0.161776 0.161715
0.922698 0.166201 0.165713
0.986450 0.171603 0.171450
0.013794 0.218082 0.149233
0.083070 0.217044 0.148714
0.148531 0.215976 0.148257
0.215000 0.215305 0.148348
0.281376 0.214389 0.148135
0.347082 0.213565 0.148592
0.411872 0.212772 0.148836
0.476814 0.212955 0.149783
0.541009 0.213016 0.151186
0.604913 0.213443 0.152773
0.668116 0.214267 0.154116
0.730861 0.215274 0.156710
0.794400 0.217136 0.159701
0.857877 0.219333 0.163027
0.921019 0.222171 0.167178
0.984405 0.225681 0.172641
0.029847 0.281193 0.149233
0.088411 0.280949 0.149416
0.149111 0.280491 0.149355
0.213779 0.279942 0.149203
0.279210 0.278996 0.149416
0.344305 0.278172 0.149996
0.409247 0.277562 0.150851
0.473976 0.277226 0.152102
0.538262 0.276890 0.153323
0.602472 0.276982 0.155123
0.666346 0.277317 0.157076
0.730037 0.278172 0.159304
0.794095 0.279210 0.162753
0.858244 0.280980 0.166781
0.922148 0.283116 0.171450
0.985321 0.285618 0.176577
0.043183 0.345861 0.151858
0.094789 0.345800 0.152285
0.151492 0.345647 0.152346
0.214786 0.345037 0.152865
0.278843 0.344396 0.153079
0.343999 0.343816 0.153475
0.408515 0.343267 0.154269
0.473243 0.342565 0.155489
0.537530 0.342107 0.156924
0.601617 0.341680 0.158541
0.665339 0.341527 0.160769
0.729213 0.341863 0.163210
0.792966 0.342321 0.166110
0.856809 0.343511 0.170108
0.920623 0.344915 0.174655
0.984344 0.347051 0.180179
0.056794 0.410651 0.156313
0.103029 0.410925 0.156313
0.156497 0.410712 0.156710
0.216922 0.410376 0.157046
0.279789 0.409857 0.157443
0.344121 0.409308 0.158297
0.408698 0.408759 0.158938
0.472999 0.407965 0.159945
0.536889 0.407172 0.161410
0.600671 0.406409 0.162936
0.664149 0.405859 0.165255
0.727840 0.405737 0.167697
0.791379 0.405951 0.170504
0.855192 0.406531 0.174105
0.918944 0.407691 0.178836
0.983032 0.409522 0.185061
0.070985 0.474037 0.160830
0.111055 0.474647 0.160952
0.161074 0.474617 0.161440
0.219974 0.474372 0.161593
0.281071 0.473854 0.162478
0.344121 0.473182 0.162936
0.407782 0.472511 0.163668
0.471778 0.471901 0.165072
0.535546 0.471077 0.166567
0.599390 0.470405 0.167910
0.662898 0.469825 0.170260
0.726467 0.469642 0.172396
0.789975 0.469581 0.176059
0.853422 0.469978 0.179782
0.917021 0.470527 0.184298
0.981262 0.472236 0.190494
0.082887 0.535668 0.165530
0.118563 0.535668 0.165805
0.166018 0.535546 0.165774
0.221775 0.535546 0.166293
0.281651 0.535515 0.166934
0.343938 0.535454 0.167941
0.407355 0.535454 0.169619
0.471077 0.535485 0.171115
0.535302 0.535424 0.172580
0.599664 0.535363 0.174502
0.663661 0.535241 0.177157
0.727535 0.535058 0.180331
0.791104 0.534997 0.183658
0.854856 0.535271 0.187594
0.918730 0.536187 0.192966
0.982513 0.537194 0.199313
0.097841 0.598413 0.172213
0.128450 0.598383 0.172244
0.172366 0.598291 0.172610
0.226078 0.598260 0.173526
0.284550 0.598352 0.174228
0.345403 0.598322 0.175204
0.407691 0.598352 0.176028
0.470802 0.598322 0.177829
0.534447 0.598383 0.179355
0.598352 0.598413 0.181674
0.662104 0.598322 0.184268
0.725582 0.598047 0.187320
0.789273 0.598077 0.190829
0.853269 0.598596 0.195590
0.917449 0.599603 0.201266
0.981445 0.600824 0.208499
0.112795 0.661555 0.180880
0.140291 0.661646 0.180972
0.180850 0.661585 0.181308
0.231907 0.661494 0.181735
0.288365 0.661341 0.182193
0.347692 0.661189 0.182864
0.408942 0.661128 0.184390
0.471260 0.661097 0.186130
0.534295 0.661128 0.187655
0.597467 0.661036 0.190097
0.660853 0.660945 0.192355
0.724269 0.660853 0.194858
0.787839 0.661097 0.198703
0.851804 0.661769 0.204074
0.915923 0.662654 0.209964
0.979797 0.663905 0.217716
0.128573 0.724422 0.190219
0.153262 0.724361 0.190616
0.190646 0.724208 0.190555
0.238834 0.724056 0.191470
0.293187 0.724025 0.192081
0.351110 0.723964 0.192935
0.411414 0.723995 0.194095
0.472816 0.723903 0.195560
0.534966 0.723842 0.197757
0.597620 0.723751 0.199680
0.660487 0.723659 0.202090
0.723507 0.723629 0.205386
0.786801 0.723781 0.208438
0.850370 0.724300 0.213748
0.914275 0.725277 0.219974
0.978637 0.726955 0.229129
0.143496 0.785367 0.200320
0.165652 0.785397 0.200412
0.200778 0.785641 0.200961
0.246372 0.785946 0.201541
0.298985 0.786374 0.203067
0.356054 0.786770 0.204288
0.415290 0.787381 0.206424
0.476234 0.787900 0.208530
0.538354 0.788602 0.211673
0.600946 0.789120 0.214603
0.664118 0.789883 0.217990
0.727535 0.790524 0.222293
0.791318 0.791440 0.226596
0.854551 0.791745 0.231327
0.917601 0.791989 0.237858
0.979858 0.792050 0.245670
0.168765 0.851926 0.218235
0.185855 0.850675 0.216922
0.216281 0.850187 0.216434
0.258854 0.850126 0.217105
0.309026 0.850431 0.218326
0.363684 0.850736 0.219730
0.421424 0.851133 0.221805
0.481147 0.851621 0.224582
0.542138 0.852262 0.227695
0.603815 0.852659 0.230838
0.666194 0.853269 0.234714
0.728847 0.853758 0.239322
0.791836 0.854398 0.244083
0.854612 0.854765 0.249332
0.917052 0.854826 0.254368
0.979644 0.855222 0.262730
0.195865 0.916258 0.239322
0.210239 0.915190 0.237736
0.236698 0.914672 0.236881
0.275517 0.914580 0.237613
0.322545 0.914733 0.238712
0.374762 0.915007 0.240543
0.430579 0.915435 0.243351
0.488746 0.915770 0.245853
0.548363 0.916197 0.249393
0.609003 0.916564 0.252811
0.670436 0.917144 0.257420
0.732326 0.917693 0.262852
0.794827 0.918486 0.268833
0.857298 0.919158 0.275669
0.919677 0.919799 0.282628
0.981415 0.919829 0.289342
0.233951 0.981842 0.270512
0.245426 0.981018 0.268467
0.267796 0.980591 0.267918
0.302037 0.980529 0.268803
0.344945 0.980774 0.270451
0.393805 0.981048 0.272709
0.446998 0.981445 0.275914
0.502953 0.981903 0.279606
0.560998 0.982513 0.284245
0.620508 0.983185 0.289921
0.681056 0.984009 0.296483
0.742184 0.984863 0.304204
0.803983 0.985962 0.313359
0.865965 0.987213 0.323949
0.928191 0.988739 0.337163
0.990448 0.990570 0.352789
0.000336 0.000855 0.224369
0.077913 0.000488 0.222782
0.147860 0.000397 0.219608
0.216617 0.001923 0.216587
0.283055 0.005554 0.213687
0.347753 0.012482 0.211276
0.412207 0.019837 0.210544
0.476234 0.028504 0.210025
0.539757 0.038239 0.210788
0.603815 0.047944 0.212070
0.667933 0.055390 0.213199
0.731350 0.062531 0.214511
0.794553 0.070802 0.215732
0.858915 0.079042 0.218448
0.923064 0.088808 0.221592
0.986572 0.098329 0.224735
0.000000 0.076875 0.222263
0.076570 0.076234 0.220005
0.146914 0.076173 0.217258
0.215183 0.077272 0.215183
0.281773 0.078767 0.212924
0.347234 0.081971 0.211917
0.412055 0.084840 0.211063
0.475898 0.088899 0.210941
0.540124 0.093111 0.211704
0.604364 0.097566 0.212711
0.668269 0.100801 0.213596
0.731319 0.105440 0.215030
0.794491 0.110140 0.216526
0.858488 0.116182 0.218631
0.922576 0.122408 0.221714
0.986358 0.130037 0.225193
0.005341 0.148501 0.219089
0.079347 0.147585 0.217258
0.146944 0.147189 0.215579
0.214786 0.146883 0.214603
0.281193 0.147250 0.213779
0.346929 0.147616 0.212924
0.411536 0.148745 0.212558
0.476173 0.149935 0.212497
0.540612 0.151644 0.213107
0.604669 0.153079 0.213504
0.667872 0.155367 0.214115
0.730587 0.157412 0.215366
0.793851 0.160403 0.216983
0.857847 0.164309 0.219211
0.921904 0.168704 0.222232
0.985809 0.173800 0.226047
0.016114 0.216922 0.216739
0.083162 0.215946 0.216190
0.148226 0.215122 0.214878
0.214420 0.214420 0.214420
0.280064 0.213962 0.214054
0.345617 0.213657 0.213474
0.410529 0.213260 0.213260
0.475441 0.213809 0.213443
0.539605 0.213993 0.213596
0.603479 0.214511 0.214267
0.666804 0.215366 0.215213
0.729671 0.216617 0.216373
0.793515 0.218448 0.218173
0.857053 0.220737 0.220432
0.920348 0.223423 0.223148
0.983886 0.226993 0.226566
0.030823 0.280217 0.213840
0.089631 0.280003 0.214023
0.149722 0.279515 0.213901
0.213687 0.278904 0.213931
0.278386 0.278355 0.213260
0.343297 0.277958 0.213382
0.408148 0.277440 0.213474
0.472877 0.277287 0.214084
0.537194 0.277165 0.214725
0.601434 0.277440 0.215305
0.665126 0.277806 0.216709
0.729244 0.278691 0.218265
0.793423 0.279973 0.220371
0.857603 0.281926 0.222873
0.921538 0.284062 0.225986
0.984894 0.286503 0.229679
0.047272 0.345159 0.214878
0.097688 0.345129 0.215244
0.153231 0.344945 0.215213
0.215152 0.344396 0.215244
0.278691 0.343877 0.215183
0.343328 0.343359 0.215061
0.407904 0.342809 0.215366
0.472480 0.342290 0.216220
0.536645 0.341985 0.216587
0.600702 0.341772 0.217685
0.664546 0.341741 0.218936
0.728511 0.342138 0.220676
0.792264 0.342870 0.222629
0.856229 0.343969 0.225223
0.920073 0.345647 0.228153
0.984009 0.347631 0.232425
0.060761 0.409888 0.217105
0.104982 0.410193 0.217288
0.157687 0.410040 0.217563
0.217441 0.409705 0.217685
0.279973 0.409277 0.217716
0.343847 0.408698 0.218173
0.408179 0.408270 0.218387
0.472297 0.407538 0.218906
0.536126 0.406744 0.219638
0.599969 0.406256 0.220554
0.663539 0.405859 0.221592
0.727108 0.405921 0.223026
0.790738 0.406134 0.225376
0.854582 0.406928 0.228031
0.918517 0.407996 0.231357
0.982757 0.409918 0.235508
0.073884 0.473426 0.219455
