luts/Polaroid_Cinematic.cube
# Generated for krafta web app
# https://www.facebook.com/krafta.visio
# Preset: POL - Cinematic
# Color profile : sRGB Color Space Profile
LUT_3D_SIZE 6
DOMAIN_MIN 0.0 0.0 0.0
DOMAIN_MAX 1.0 1.0 1.0
0.000000 0.000000 0.000000
0.219638 0.009430 0.008820
0.413855 0.020874 0.020935
0.604364 0.049348 0.049439
0.792325 0.090150 0.089815
0.980316 0.138399 0.137819
0.020050 0.220005 0.019257
0.218418 0.218601 0.026062
0.412238 0.214847 0.044251
0.602136 0.218326 0.072511
0.788632 0.227848 0.105074
0.977173 0.248844 0.149599
0.086458 0.413428 0.086488
0.227268 0.414343 0.090913
0.414588 0.414649 0.103304
0.602869 0.413001 0.119570
0.789059 0.414466 0.143923
0.976226 0.423682 0.181949
0.148348 0.599359 0.148013
0.249851 0.599481 0.150637
0.417975 0.600702 0.158114
0.602380 0.602472 0.172427
0.787594 0.603357 0.193545
0.973602 0.609522 0.231113
0.218448 0.783017 0.218021
0.292607 0.783993 0.221592
0.438453 0.786099 0.229892
0.611078 0.788754 0.243992
0.792203 0.792294 0.265721
0.972686 0.795926 0.303227
0.353643 0.976654 0.353613
0.396307 0.975402 0.353155
0.507073 0.976532 0.364202
0.655634 0.978973 0.385687
0.820310 0.982910 0.420020
0.989014 0.989105 0.472084
0.002380 0.002014 0.220829
0.215427 0.007141 0.215610
0.409979 0.041627 0.213046
0.599176 0.082795 0.220310
0.787320 0.114717 0.231052
0.977081 0.153506 0.250370
0.035248 0.219425 0.219272
0.218296 0.218296 0.218296
0.409979 0.220035 0.220249
0.599756 0.225925 0.225895
0.786862 0.236240 0.236027
0.974456 0.255192 0.254795
0.101228 0.412116 0.229191
0.230533 0.412390 0.230350
0.412360 0.412329 0.233982
0.599207 0.412055 0.239384
0.785428 0.415015 0.250645
0.973724 0.425238 0.272099
0.155795 0.598962 0.252140
0.253666 0.599115 0.253513
0.418738 0.599939 0.257755
0.601190 0.601312 0.265599
0.785855 0.602899 0.278843
0.972930 0.610651 0.305241
0.224430 0.783749 0.294621
0.296574 0.784268 0.296361
0.440681 0.786221 0.302953
0.611933 0.788754 0.313664
0.792264 0.792355 0.330694
0.972625 0.796719 0.360876
0.359319 0.976867 0.401404
0.401099 0.975738 0.401038
0.510277 0.976898 0.410346
0.657496 0.979217 0.428595
0.821073 0.983032 0.457618
0.989197 0.989319 0.503807
0.007141 0.006775 0.411444
0.207218 0.016968 0.407324
0.403479 0.048066 0.403540
0.595300 0.086030 0.403449
0.784726 0.121981 0.407172
0.975067 0.162814 0.416846
0.056550 0.216068 0.410132
0.215915 0.215854 0.407385
0.405982 0.219577 0.406012
0.595483 0.227604 0.405921
0.783841 0.240909 0.409949
0.972564 0.259648 0.418036
0.105653 0.409247 0.409094
0.231449 0.409766 0.409857
0.410224 0.410224 0.410224
0.595850 0.411963 0.411963
0.782742 0.416907 0.416632
0.972351 0.427741 0.427527
0.165225 0.597681 0.417212
0.259251 0.597955 0.418250
0.420600 0.598779 0.420752
0.600244 0.600244 0.424689
0.784329 0.603296 0.431830
0.971984 0.612573 0.447395
0.234104 0.783780 0.439033
0.304082 0.784451 0.440589
0.445258 0.786313 0.445197
0.614191 0.788754 0.452796
0.792599 0.792630 0.464729
0.972412 0.798123 0.483070
0.357763 0.977569 0.503380
0.399451 0.976593 0.502525
0.508965 0.977630 0.508995
0.657191 0.980072 0.522179
0.821256 0.983856 0.543389
0.990082 0.990143 0.578973
0.022827 0.021790 0.595453
0.204654 0.031678 0.593713
0.398047 0.059022 0.591394
0.589868 0.091463 0.590051
0.781399 0.125460 0.591730
0.973083 0.165042 0.597101
0.066926 0.214298 0.597131
0.215122 0.214755 0.594446
0.401434 0.219181 0.592432
0.591089 0.227909 0.591180
0.781033 0.241550 0.592615
0.971252 0.260410 0.597009
0.114168 0.405432 0.593133
0.232609 0.406378 0.593225
0.407813 0.407782 0.592676
0.592950 0.410742 0.592889
0.780453 0.416144 0.594903
0.971923 0.426154 0.601282
0.169100 0.595941 0.595941
0.261021 0.596246 0.596216
0.421118 0.597345 0.597436
0.598596 0.598718 0.598688
0.783810 0.601953 0.601892
0.973724 0.609003 0.608881
0.236362 0.784482 0.606561
0.304082 0.785092 0.607263
0.442878 0.786740 0.608972
0.612665 0.789242 0.612726
0.792355 0.792447 0.619074
0.975219 0.798093 0.628229
0.331853 0.979339 0.638270
0.373632 0.978668 0.635920
0.492714 0.979797 0.640009
0.648890 0.982086 0.648798
0.818448 0.985504 0.662776
0.991699 0.991760 0.688228
0.040253 0.039338 0.782895
0.206241 0.047761 0.782284
0.396185 0.068299 0.780819
0.588739 0.096437 0.780148
0.779782 0.129641 0.779873
0.971221 0.168826 0.782528
0.069703 0.212894 0.783780
0.213779 0.214054 0.782528
0.399542 0.218784 0.781643
0.590051 0.228275 0.780728
0.779904 0.242069 0.779873
0.969940 0.261967 0.781918
0.106752 0.402533 0.781277
0.227512 0.403021 0.781125
0.404578 0.404700 0.780575
0.591638 0.408118 0.780026
0.780423 0.414832 0.780484
0.971221 0.425727 0.784298
0.165194 0.595697 0.781827
0.256870 0.595911 0.782010
0.415686 0.595727 0.782071
0.596399 0.596429 0.782620
0.784024 0.600397 0.784024
0.974914 0.606073 0.788479
0.237156 0.786343 0.786404
0.304387 0.786801 0.786801
0.442969 0.788083 0.788083
0.611444 0.790066 0.790097
0.791501 0.791623 0.791501
0.980377 0.794888 0.794797
0.333501 0.981109 0.806088
0.375677 0.980682 0.805020
0.486427 0.982208 0.805661
0.635492 0.984771 0.806210
0.810819 0.988220 0.810819
0.994202 0.994293 0.826780
0.056855 0.056855 0.979797
0.210941 0.063386 0.979644
0.400031 0.080507 0.979187
0.593530 0.108461 0.978943
0.787411 0.144869 0.979126
0.979492 0.190127 0.979583
0.065431 0.211856 0.980194
0.213687 0.213748 0.979889
0.400946 0.218906 0.979156
0.593622 0.229160 0.978485
0.786282 0.245518 0.977783
0.977478 0.270603 0.977539
0.060456 0.397650 0.980072
0.212894 0.398657 0.980163
0.401404 0.401312 0.979919
0.594568 0.406531 0.979553
0.787625 0.415045 0.979004
0.979217 0.429206 0.979309
0.116487 0.595911 0.981323
0.226841 0.594781 0.981415
0.396460 0.590661 0.981659
0.593225 0.593317 0.981567
0.788968 0.598444 0.981567
0.982238 0.607202 0.982330
0.233555 0.797696 0.984192
0.299565 0.797299 0.984314
0.435920 0.796139 0.984771
0.603601 0.793362 0.985534
0.791043 0.791073 0.986450
0.987884 0.797055 0.987945
0.361273 0.991028 0.991058
0.400122 0.990967 0.990967
0.501274 0.991485 0.991485
0.643397 0.992523 0.992493
0.810636 0.994446 0.994415
0.998657 0.998657 0.998657
